public/luts/log_conversion/Panasonic VLog to V709.cube
LUT_3D_SIZE 33
0.0156252 0.0156252 0.0156252
0.0241855 0.0128786 0.0138705
0.0326085 0.0103456 0.0121614
0.0420233 0.0074464 0.0104524
0.0540017 0.00500496 0.00833143
0.0701305 0.00640879 0.00706493
0.0903792 0.00822461 0.00822461
0.115221 0.0104829 0.0104829
0.144991 0.0131991 0.0131991
0.179309 0.0163119 0.0163119
0.218204 0.019852 0.019852
0.261295 0.0237736 0.0237736
0.308049 0.0280308 0.0280308
0.357717 0.0325475 0.0325475
0.409567 0.0372778 0.0372778
0.462699 0.0420996 0.0420996
0.516396 0.0469978 0.0469978
0.569528 0.0518196 0.0518196
0.621195 0.0565347 0.0565347
0.67068 0.0610361 0.0610361
0.716869 0.0652323 0.0652323
0.732403 0.0666514 0.0666514
0.747921 0.0680552 0.0680552
0.747921 0.0680552 0.0680552
0.747921 0.0680552 0.0680552
0.747921 0.0680552 0.0680552
0.747921 0.0680552 0.0680552
0.747921 0.0680552 0.0680552
0.747921 0.0680552 0.0680552
0.747921 0.0680552 0.0680552
0.747921 0.0680552 0.0680552
0.747921 0.0680552 0.0680552
0.747921 0.0680552 0.0680552
0.0131838 0.0295415 0.0178225
0.0261234 0.0258793 0.0156252
0.0352636 0.0229038 0.016083
0.0440833 0.0201267 0.0148623
0.0553597 0.0166171 0.0127718
0.0699474 0.0122683 0.0101015
0.0887465 0.00807202 0.00807202
0.113573 0.0103304 0.0103304
0.14316 0.0130312 0.0130312
0.177493 0.016144 0.016144
0.216556 0.0197147 0.0197147
0.25948 0.0236057 0.0236057
0.306218 0.027863 0.027863
0.355886 0.0323796 0.0323796
0.407736 0.0371099 0.0371099
0.461067 0.0419623 0.0419623
0.514748 0.0468452 0.0468452
0.56788 0.0516823 0.0516823
0.619562 0.0563821 0.0563821
0.668864 0.0608682 0.0608682
0.715236 0.0650797 0.0650797
0.73167 0.0665751 0.0665751
0.747921 0.0680552 0.0680552
0.747921 0.0680552 0.0680552
0.747921 0.0680552 0.0680552
0.747921 0.0680552 0.0680552
0.747921 0.0680552 0.0680552
0.747921 0.0680552 0.0680552
0.747921 0.0680552 0.0680552
0.747921 0.0680552 0.0680552
0.747921 0.0680552 0.0680552
0.747921 0.0680552 0.0680552
0.747921 0.0680552 0.0680552
0.0109865 0.0432136 0.020264
0.0239261 0.0393072 0.0178225
0.0363775 0.0356451 0.0156405
0.0477607 0.0319066 0.0162661
0.0581826 0.0284276 0.0163882
0.0721752 0.0241855 0.0141909
0.0902571 0.0187076 0.0108492
0.112459 0.0121767 0.0106813
0.141512 0.0128786 0.0128786
0.176028 0.016022 0.016022
0.214923 0.0195621 0.0195621
0.258015 0.0234836 0.0234836
0.30457 0.0277104 0.0277104
0.354238 0.0322423 0.0322423
0.406104 0.0369573 0.0369573
0.459419 0.0418097 0.0418097
0.5131 0.0466926 0.0466926
0.566247 0.0515297 0.0515297
0.617914 0.0562295 0.0562295
0.667216 0.0607156 0.0607156
0.713588 0.0649424 0.0649424
0.730755 0.0664988 0.0664988
0.747921 0.0680552 0.0680552
0.747921 0.0680552 0.0680552
0.747921 0.0680552 0.0680552
0.747921 0.0680552 0.0680552
0.747921 0.0680552 0.0680552
0.747921 0.0680552 0.0680552
0.747921 0.0680552 0.0680552
0.747921 0.0680552 0.0680552
0.747921 0.0680552 0.0680552
0.747921 0.0680552 0.0680552
0.747921 0.0680552 0.0680552
0.00854505 0.0583505 0.0229496
0.0214847 0.0546883 0.0205081
0.0339361 0.0510262 0.0180667
0.0478523 0.0468757 0.0156405
0.0625925 0.0420691 0.0161593
0.0760967 0.0376287 0.0173037
0.0933089 0.0322728 0.015259
0.114778 0.0255894 0.0136873
0.14107 0.017792 0.013962
0.174014 0.0158389 0.0158389
0.213092 0.0193942 0.0193942
0.256001 0.0233005 0.0233005
0.302754 0.0275425 0.0275425
0.352422 0.0320745 0.0320745
0.404273 0.0367895 0.0367895
0.457588 0.0416419 0.0416419
0.511284 0.0465248 0.0465248
0.564416 0.0513619 0.0513619
0.616083 0.0560616 0.0560616
0.665385 0.0605478 0.0605478
0.711757 0.0647746 0.0647746
0.729839 0.0664225 0.0664225
0.747921 0.0680552 0.0680552
0.747921 0.0680552 0.0680552
0.747921 0.0680552 0.0680552
0.747921 0.0680552 0.0680552
0.747921 0.0680552 0.0680552
0.747921 0.0680552 0.0680552
0.747921 0.0680552 0.0680552
0.747921 0.0680552 0.0680552
0.747921 0.0680552 0.0680552
0.747921 0.0680552 0.0680552
0.747921 0.0680552 0.0680552
0.00561532 0.0771496 0.0261234
0.018555 0.0734874 0.023682
0.0307622 0.0698253 0.0214847
0.0446784 0.0656748 0.0187991
0.0620127 0.0605478 0.0156405
0.081239 0.0545052 0.0158389
0.0983749 0.048661 0.0180819
0.119051 0.0419928 0.016434
0.144183 0.0344244 0.0176089
0.174578 0.0255589 0.0180667
0.210712 0.0191806 0.0191806
0.253819 0.0231022 0.0231022
0.300557 0.0273442 0.0273442
0.350225 0.0318761 0.0318761
0.40209 0.0365911 0.0365911
0.455222 0.0414282 0.0414282
0.508904 0.0463111 0.0463111
0.562036 0.0511482 0.0511482
0.613901 0.0558633 0.0558633
0.663203 0.0603494 0.0603494
0.709392 0.0645609 0.0645609
0.72874 0.0663157 0.0663157
0.747921 0.0680552 0.0680552
0.747921 0.0680552 0.0680552
0.747921 0.0680552 0.0680552
0.747921 0.0680552 0.0680552
0.747921 0.0680552 0.0680552
0.747921 0.0680552 0.0680552
0.747921 0.0680552 0.0680552
0.747921 0.0680552 0.0680552
0.747921 0.0680552 0.0680552
0.747921 0.0680552 0.0680552
0.747921 0.0680552 0.0680552
0.00170901 0.101076 0.0302739
0.0146487 0.0971695 0.0278325
0.0271 0.0935073 0.025391
0.0410163 0.0893568 0.0229496
0.0581064 0.0842298 0.0195315
0.0798352 0.0778821 0.0156405
0.104402 0.0701305 0.0156863
0.125933 0.0628672 0.0191501
0.149798 0.0552224 0.0204929
0.178607 0.0464332 0.0224613
0.212757 0.0363012 0.0231327
0.251408 0.0248264 0.023331
0.297642 0.0270848 0.0270848
0.347295 0.0316014 0.0316014
0.399161 0.0363165 0.0363165
0.452476 0.0411688 0.0411688
0.506157 0.046067 0.046067
0.559304 0.0508888 0.0508888
0.610971 0.0556039 0.0556039
0.660273 0.06009 0.06009
0.706645 0.0643015 0.0643015
0.727291 0.0661784 0.0661784
0.747921 0.0680552 0.0680552
0.747921 0.0680552 0.0680552
0.747921 0.0680552 0.0680552
0.747921 0.0680552 0.0680552
0.747921 0.0680552 0.0680552
0.747921 0.0680552 0.0680552
0.747921 0.0680552 0.0680552
0.747921 0.0680552 0.0680552
0.747921 0.0680552 0.0680552
0.747921 0.0680552 0.0680552
0.747921 0.0680552 0.0680552
0 0.130617 0.0354009
0.00976577 0.126955 0.0329595
0.0222171 0.123293 0.030518
0.0361334 0.119142 0.0280766
0.0534676 0.114015 0.0246586
0.0751965 0.107668 0.0207523
0.102296 0.0996109 0.0156558
0.132525 0.0898756 0.0154879
0.159152 0.0808728 0.019852
0.186191 0.072282 0.025452
0.218433 0.0624857 0.028336
0.255879 0.0512856 0.0293889
0.29749 0.0389105 0.0297704
0.343832 0.0312963 0.0312963
0.395697 0.0360113 0.0360113
0.448829 0.0408484 0.0408484
0.50251 0.0457313 0.0457313
0.555642 0.0505684 0.0505684
0.607324 0.0552682 0.0552682
0.656809 0.0597696 0.0597696
0.702998 0.0639658 0.0639658
0.72546 0.0660105 0.0660105
0.746471 0.0679332 0.0679332
0.747921 0.0680552 0.0680552
0.747921 0.0680552 0.0680552
0.747921 0.0680552 0.0680552
0.747921 0.0680552 0.0680552
0.747921 0.0680552 0.0680552
0.747921 0.0680552 0.0680552
0.747921 0.0680552 0.0680552
0.747921 0.0680552 0.0680552
0.747921 0.0680552 0.0680552
0.747921 0.0680552 0.0680552
0 0.166995 0.0415045
0.00390631 0.163333 0.0390631
0.0163577 0.15967 0.0368658
0.0302739 0.15552 0.0341802
0.0476081 0.150393 0.0310063
0.069337 0.144045 0.0268559
0.096437 0.135988 0.021973
0.129641 0.125978 0.015671
0.166125 0.114504 0.0149386
0.198169 0.103838 0.0207675
0.228214 0.0939651 0.0308843
0.263325 0.0831311 0.0351263
0.303197 0.0710613 0.0368048
0.347204 0.0581826 0.0375372
0.393683 0.0444495 0.0378119
0.44445 0.0404517 0.0404517
0.498131 0.0453346 0.0453346
0.551263 0.0501717 0.0501717
0.602945 0.0548714 0.0548714
0.65243 0.0593729 0.0593729
0.698436 0.0635538 0.0635538
0.723262 0.0658122 0.0658122
0.744274 0.0677348 0.0677348
0.747921 0.0680552 0.0680552
0.747921 0.0680552 0.0680552
0.747921 0.0680552 0.0680552
0.747921 0.0680552 0.0680552
0.747921 0.0680552 0.0680552
0.747921 0.0680552 0.0680552
0.747921 0.0680552 0.0680552
0.747921 0.0680552 0.0680552
0.747921 0.0680552 0.0680552
0.747921 0.0680552 0.0680552
0 0.210452 0.049073
0 0.206546 0.0466316
0.00927749 0.202884 0.0441901
0.0234379 0.198734 0.0417487
0.040528 0.193606 0.0383307
0.0622568 0.187259 0.0344244
0.0893568 0.179202 0.0292973
0.122805 0.169436 0.0231937
0.162356 0.157717 0.015671
0.205173 0.144228 0.0142367
0.242405 0.131624 0.0233005
0.275731 0.120424 0.0364233
0.313161 0.108934 0.0426032
0.354955 0.0962081 0.0452735
0.400092 0.0827802 0.046479
0.447425 0.0688487 0.0470436
0.49543 0.0545663 0.0472725
0.546151 0.0496986 0.0496986
0.597833 0.0543984 0.0543984
0.647135 0.0588846 0.0588846
0.693141 0.0630808 0.0630808
0.720714 0.0655833 0.0655833
0.741711 0.0674907 0.0674907
0.747921 0.0680552 0.0680552
0.747921 0.0680552 0.0680552
0.747921 0.0680552 0.0680552
0.747921 0.0680552 0.0680552
0.747921 0.0680552 0.0680552
0.747921 0.0680552 0.0680552
0.747921 0.0680552 0.0680552
0.747921 0.0680552 0.0680552
0.747921 0.0680552 0.0680552
0.747921 0.0680552 0.0680552
0 0.260746 0.0576181
0 0.25684 0.0551766
0.00122072 0.253178 0.0529793
0.0151369 0.249027 0.0502937
0.0324712 0.2439 0.0471199
0.0542 0.237552 0.0429694
0.0813001 0.229496 0.0378424
0.114504 0.21973 0.0317388
0.154299 0.208011 0.0244144
0.200183 0.194339 0.0156863
0.249195 0.17908 0.0136263
0.292012 0.164614 0.0252232
0.328603 0.152102 0.0416419
0.36762 0.139834 0.050309
0.410407 0.126802 0.0544442
0.455894 0.113207 0.0564584
0.502892 0.0992294 0.0574502
0.550088 0.0852674 0.057969
0.596582 0.071519 0.0582284
0.641108 0.0583352 0.0583352
0.687114 0.0625315 0.0625315
0.717601 0.0653086 0.0653086
0.738796 0.0672313 0.0672313
0.747921 0.0680552 0.0680552
0.747921 0.0680552 0.0680552
0.747921 0.0680552 0.0680552
0.747921 0.0680552 0.0680552
0.747921 0.0680552 0.0680552
0.747921 0.0680552 0.0680552
0.747921 0.0680552 0.0680552
0.747921 0.0680552 0.0680552
0.747921 0.0680552 0.0680552
0.747921 0.0680552 0.0680552
0 0.317632 0.0673838
0 0.313726 0.0649424
0 0.310063 0.0627451
0.00610361 0.305913 0.0600595
0.0231937 0.300786 0.0568856
0.0449226 0.294438 0.0527352
0.0722667 0.286381 0.0476081
0.10547 0.276616 0.0415045
0.145022 0.264897 0.0341802
0.190921 0.251225 0.025391
0.242908 0.235828 0.0159457
0.297688 0.218814 0.0128328
0.345968 0.202609 0.0263523
0.386069 0.188937 0.0457771
0.426108 0.175937 0.0576181
0.469108 0.162737 0.0637827
0.514107 0.149126 0.0669871
0.559838 0.135485 0.0687114
0.605066 0.121965 0.0696574
0.648753 0.108995 0.0701762
0.689982 0.0967575 0.0704967
0.719676 0.0848859 0.0699321
0.737057 0.0735485 0.068574
0.747921 0.0680552 0.0680552
0.747921 0.0680552 0.0680552
0.747921 0.0680552 0.0680552
0.747921 0.0680552 0.0680552
0.747921 0.0680552 0.0680552
0.747921 0.0680552 0.0680552
0.747921 0.0680552 0.0680552
0.747921 0.0680552 0.0680552
0.747921 0.0680552 0.0680552
0.747921 0.0680552 0.0680552
0 0.380621 0.0781262
0 0.376715 0.0756847
0 0.373053 0.0734874
0 0.368902 0.0708019
0.0131838 0.363775 0.067628
0.0349126 0.357427 0.0634775
0.0620127 0.349371 0.0585946
0.0952163 0.339605 0.0522469
0.135012 0.327886 0.0449226
0.180911 0.314214 0.0363775
0.232914 0.298833 0.0266117
0.290517 0.281727 0.0159609
0.350347 0.263203 0.0119173
0.403677 0.245655 0.0266117
0.447303 0.230579 0.0485084
0.488121 0.217014 0.063798
0.530358 0.203677 0.0725414
0.573816 0.190387 0.077409
0.617319 0.177203 0.0801862
0.659876 0.164523 0.0818341
0.699977 0.152483 0.0827955
0.732769 0.141131 0.0830243
0.749538 0.129717 0.0818952
0.762478 0.119829 0.0807202
0.75967 0.110399 0.0784619
0.757504 0.102922 0.0766613
0.755947 0.0974136 0.0753185
0.75494 0.0938888 0.0744488
0.75433 0.0916915 0.0739147
0.754086 0.0908064 0.0737011
0.753964 0.0903639 0.0735943
0.753826 0.0899214 0.0734874
0.753704 0.0894789 0.0733806
0 0.448737 0.0898451
0 0.445075 0.0874037
0 0.441413 0.0852064
0 0.437263 0.0825208
0.0021973 0.432135 0.0793469
0.0239261 0.425788 0.0751965
0.0510262 0.417731 0.0703136
0.0842298 0.407721 0.0639658
0.123781 0.396002 0.0566415
0.169924 0.382574 0.0480964
0.221927 0.367193 0.0383307
0.279545 0.350103 0.0275883
0.341787 0.331533 0.0159762
0.406012 0.311971 0.011017
0.463661 0.293065 0.0261082
0.510765 0.2766 0.0494087
0.552392 0.262425 0.068101
0.593454 0.249165 0.0798199
0.634684 0.236469 0.0868544
0.675319 0.224094 0.0911116
0.713924 0.212329 0.0937057
0.747784 0.201404 0.0951705
0.765591 0.190326 0.0948501
0.780331 0.180789 0.094316
0.778943 0.171603 0.0925002
0.776471 0.164202 0.090898
0.774685 0.158755 0.0896925
0.773465 0.155047 0.0888533
0.772839 0.153079 0.088426
0.772549 0.152209 0.0882277
0.772412 0.151781 0.0881208
0.772274 0.151339 0.0880293
0.772122 0.150896 0.0879225
0 0.521477 0.102296
0 0.517571 0.099855
0 0.513909 0.0976577
0 0.509773 0.0949721
0 0.504646 0.0917983
0.0122072 0.498299 0.0876478
0.0393072 0.490227 0.0827649
0.0725109 0.480476 0.0764172
0.112306 0.468757 0.0690929
0.158206 0.455085 0.0605478
0.210208 0.439704 0.050782
0.267826 0.422614 0.0400397
0.330327 0.404303 0.0283207
0.396719 0.384512 0.0162356
0.463874 0.363928 0.0102846
0.524742 0.344167 0.0250248
0.575265 0.326879 0.0484932
0.617945 0.312184 0.0696117
0.657404 0.29897 0.0846418
0.695979 0.286671 0.0941787
0.732647 0.275135 0.100267
0.764797 0.264424 0.103944
0.786099 0.25417 0.105455
0.8 0.244785 0.105852
0.802365 0.235904 0.104967
0.799512 0.228565 0.103716
0.797452 0.223178 0.102754
0.796139 0.21973 0.102129
0.795331 0.217563 0.101747
0.794995 0.216693 0.101579
0.794842 0.216266 0.101503
0.794675 0.215839 0.101427
0.794522 0.215396 0.101335
0 0.597162 0.11548
0 0.5935 0.113039
0 0.589837 0.110597
0 0.585687 0.108156
0 0.58056 0.104738
0 0.574212 0.100832
0.0271 0.566155 0.0957046
0.0603037 0.556146 0.089601
0.099855 0.544427 0.0820325
0.145998 0.530999 0.0734874
0.198001 0.515618 0.0637217
0.255619 0.498527 0.0529793
0.317876 0.479973 0.0415045
0.384527 0.460456 0.0290532
0.453849 0.439933 0.0162509
0.522957 0.41857 0.00965896
0.586145 0.398474 0.0233616
0.639078 0.380346 0.0459144
0.682887 0.365347 0.0681773
0.721172 0.352255 0.0857557
0.756542 0.340551 0.0980697
0.787076 0.3299 0.105928
0.811368 0.319997 0.110735
0.824292 0.310735 0.11281
0.830533 0.302586 0.113542
0.827253 0.295323 0.112902
0.824887 0.289982 0.112367
0.823285 0.286336 0.111986
0.822446 0.284413 0.111772
0.82208 0.283558 0.111681
0.821881 0.283131 0.111635
0.821698 0.282704 0.111589
0.821515 0.282277 0.111543
0 0.675044 0.128664
0 0.671138 0.126223
0 0.667475 0.124025
0 0.663569 0.12134
0 0.658442 0.118166
0 0.65185 0.114015
0.0146487 0.643793 0.109133
0.0478523 0.634028 0.102785
0.0874037 0.622309 0.0954604
0.133303 0.608637 0.0869154
0.185306 0.593256 0.0771496
0.242924 0.57641 0.0664073
0.305425 0.557855 0.0546883
0.371832 0.538079 0.0424811
0.441169 0.517571 0.0295415
0.512428 0.496574 0.0162814
0.582544 0.475181 0.00920119
0.646479 0.454795 0.0213626
0.700847 0.436591 0.0419623
0.745403 0.421195 0.0639353
0.782956 0.408423 0.082826
0.813275 0.397223 0.0967269
0.841093 0.387594 0.107057
0.853132 0.378256 0.111711
0.863233 0.370596 0.115053
0.859571 0.363348 0.115328
0.856916 0.358022 0.11545
0.855116 0.354406 0.115511
0.85417 0.352483 0.115526
0.853651 0.351415 0.115526
0.853437 0.350988 0.115541
0.853223 0.350576 0.115541
0.853132 0.350362 0.115541
0 0.753414 0.142092
0 0.749752 0.139895
0 0.74609 0.137453
0 0.741939 0.134768
0 0.736812 0.131594
0 0.730465 0.127687
0.00195315 0.722408 0.12256
0.0351568 0.712398 0.116213
0.0747082 0.700679 0.108888
0.120607 0.687251 0.100343
0.172854 0.67187 0.0905776
0.230228 0.65478 0.0798352
0.292729 0.636225 0.0681163
0.359136 0.616693 0.0559091
0.428473 0.596185 0.0429694
0.499763 0.575189 0.0295415
0.571511 0.553948 0.0162966
0.641138 0.53254 0.00889601
0.704555 0.512642 0.0190127
0.758907 0.494713 0.0372473
0.8038 0.479393 0.0572824
0.838071 0.466621 0.0751507
0.86807 0.456077 0.0904097
0.884215 0.446723 0.0996109
0.894667 0.438895 0.10573
0.894835 0.431968 0.108156
0.892042 0.426596 0.109102
0.890242 0.423163 0.109682
0.889113 0.421027 0.110033
0.88867 0.420172 0.11017
0.888441 0.41973 0.110246
0.888228 0.419303 0.110307
0.887999 0.418875 0.110369
0 0.831296 0.15552
0 0.82739 0.153079
0 0.823728 0.150881
0 0.819577 0.148196
0 0.81445 0.145022
0 0.808103 0.140871
0 0.800046 0.135744
0.0227054 0.79028 0.129641
0.0622568 0.778561 0.122316
0.108156 0.764889 0.113771
0.160159 0.749508 0.104005
0.217777 0.732418 0.0932631
0.280278 0.714107 0.0815442
0.346685 0.694331 0.0690929
0.416022 0.673823 0.0561532
0.487312 0.652827 0.0429694
0.558831 0.631586 0.0295415
0.630106 0.610574 0.016556
0.698009 0.589914 0.00877394
0.759487 0.570565 0.0165713
0.812284 0.553277 0.0320439
0.85359 0.538567 0.0484016
0.888777 0.526604 0.0649119
0.912428 0.516609 0.0777752
0.924132 0.507942 0.0859693
0.929335 0.501091 0.0908675
0.926696 0.495598 0.0925917
0.925048 0.492073 0.0936294
0.923995 0.489891 0.094255
0.923583 0.489006 0.0945144
0.923369 0.488563 0.0946365
0.923156 0.488136 0.0947585
0.922957 0.487694 0.0948806
0 0.906737 0.16846
0 0.903075 0.166018
0 0.899413 0.163821
0 0.895262 0.161135
0 0.890135 0.157961
0 0.883787 0.153811
0 0.875731 0.148928
0.0104982 0.865721 0.14258
0.0500496 0.854002 0.135256
0.0959487 0.840574 0.126711
0.147951 0.825193 0.116945
0.20557 0.808103 0.106203
0.26807 0.789548 0.0944839
0.334478 0.770016 0.0820325
0.403815 0.749508 0.0690929
0.475105 0.728511 0.0559091
0.546868 0.707271 0.0424811
0.617914 0.68603 0.0292973
0.686992 0.665751 0.0165713
0.751934 0.646067 0.00886549
0.810346 0.627802 0.0140841
0.857572 0.611765 0.0261234
0.898497 0.598047 0.0398871
0.931517 0.586984 0.0530861
0.946059 0.577768 0.0614939
0.957473 0.570672 0.0684062
0.955489 0.564981 0.0702983
0.954101 0.561105 0.0715953
0.953353 0.55906 0.0722667
0.953017 0.55816 0.0725719
0.95285 0.557702 0.0727245
0.952682 0.557244 0.0728771
0.952514 0.556786 0.0730297
0 0.979248 0.180911
0 0.975341 0.17847
0 0.971679 0.176272
0 0.967514 0.173587
0 0.962386 0.170413
0 0.956039 0.166262
0 0.947982 0.161135
0 0.938216 0.155032
0.0383307 0.926268 0.147707
0.0844739 0.912596 0.139162
0.136477 0.897215 0.129396
0.194095 0.880125 0.118654
0.256352 0.861814 0.106935
0.322759 0.842039 0.0944839
0.39234 0.82153 0.0815442
0.463386 0.800534 0.0683604
0.535149 0.779293 0.0549325
0.606195 0.758297 0.0417487
0.675288 0.737789 0.028809
0.741192 0.718242 0.0166018
0.802182 0.700023 0.00895705
0.853086 0.683146 0.0112612
0.898451 0.668772 0.0208896
0.935729 0.656703 0.0313573
0.958114 0.646677 0.0396429
0.97174 0.639246 0.0456855
0.975357 0.633509 0.0486915
0.974426 0.629526 0.0498817
0.973861 0.627176 0.0505684
0.973632 0.626245 0.0508583
0.973526 0.625772 0.0509957
0.973404 0.625299 0.051133
0.973297 0.624826 0.0512703
0 0.989746 0.192386
0 0.987793 0.189944
0 0.98584 0.187747
0 0.983886 0.185061
0 0.981201 0.181888
0 0.978027 0.177981
0 0.974121 0.172854
0 0.969238 0.166506
0.0275883 0.963363 0.159182
0.0734874 0.956527 0.150637
0.12549 0.948714 0.140871
0.183108 0.940169 0.130129
0.245609 0.926268 0.11841
0.312016 0.906493 0.106203
0.381353 0.885985 0.0932631
0.452644 0.864988 0.0798352
0.524163 0.843748 0.0664073
0.595453 0.822751 0.0532235
0.664546 0.802243 0.0402838
0.730465 0.782712 0.0280766
0.791959 0.76463 0.016907
0.844587 0.747646 0.00956741
0.892668 0.732906 0.009308
0.932784 0.720317 0.0166171
0.962386 0.709865 0.0237736
0.977646 0.702083 0.0286107
0.986893 0.696208 0.0320897
0.986313 0.692134 0.033051
0.985946 0.689754 0.0336309
0.985809 0.688792 0.0338598
0.985733 0.688304 0.0339818
0.985656 0.687831 0.0340887
0.98558 0.687358 0.0342107
0 1 0.203128
0 1 0.200687
0 1 0.198245
0 1 0.195804
0 1 0.192386
0 1 0.188479
0 1 0.183352
0 1 0.177249
0.0175784 0.99707 0.16968
0.0637217 0.990234 0.161135
0.115724 0.982422 0.151369
0.173098 0.973877 0.140627
0.235599 0.964828 0.129152
0.302007 0.954818 0.116701
0.371344 0.944564 0.103761
0.442634 0.926024 0.0903334
0.514397 0.904784 0.0771496
0.585443 0.883787 0.0637217
0.654536 0.863279 0.050782
0.720455 0.843748 0.0385748
0.782223 0.825681 0.0271
0.835416 0.80882 0.0168917
0.88452 0.794049 0.010193
0.926101 0.781247 0.00721752
0.96022 0.770748 0.0124056
0.978698 0.762524 0.0162661
0.991516 0.756512 0.0193484
0.993225 0.752392 0.0204166
0.993011 0.749966 0.0208591
0.99292 0.749004 0.0210422
0.992874 0.748516 0.0211337
0.992844 0.748028 0.0212253
0.992798 0.747555 0.0213169
0 1 0.212406
0 1 0.209964
0 1 0.207767
0 1 0.205081
0 1 0.201907
0 1 0.197757
0 1 0.19263
0 1 0.186526
0.0087892 1 0.179202
0.0546883 1 0.170657
0.106935 1 0.160891
0.164309 1 0.150149
0.22681 0.995605 0.13843
0.293217 0.985595 0.125978
0.362554 0.975341 0.113039
0.433845 0.964828 0.099855
0.505608 0.95433 0.0864271
0.576654 0.938216 0.0732433
0.645747 0.917723 0.0603037
0.711666 0.898192 0.0478523
0.773434 0.879881 0.0363775
0.826658 0.863279 0.0258793
0.876188 0.848371 0.0168917
0.918578 0.835569 0.0108644
0.953704 0.824979 0.00740063
0.977249 0.816632 0.00846876
0.990677 0.810529 0.0106966
0.996811 0.806378 0.0119936
0.996689 0.804181 0.0122835
0.996643 0.803204 0.0124056
0.996628 0.802731 0.0124819
0.996597 0.802243 0.0125429
0.996567 0.801755 0.0126192
0 1 0.220462
0 1 0.218021
0 1 0.215824
0 1 0.213138
0 1 0.209964
0 1 0.205814
0 1 0.200931
0 1 0.194583
0.00122072 1 0.187259
0.0471199 1 0.178714
0.0991226 1 0.168948
0.156741 1 0.158206
0.219242 1 0.146487
0.285649 1 0.134035
0.354986 1 0.121096
0.426276 0.992187 0.107912
0.498039 0.981689 0.0944839
0.569085 0.971191 0.0813001
0.638178 0.960922 0.0683604
0.704097 0.945052 0.0559091
0.765866 0.926757 0.0444343
0.819089 0.909911 0.0339361
0.86865 0.895262 0.0246586
0.911345 0.882551 0.016907
0.946975 0.871962 0.0118257
0.974624 0.863584 0.00880446
0.988403 0.85745 0.00639353
0.998322 0.853269 0.00663767
0.998505 0.850828 0.00689708
0.998474 0.849851 0.00700389
0.998459 0.849363 0.00704967
0.998444 0.848875 0.00709544
0.998428 0.848386 0.00714122
0 1 0.227054
0 1 0.224857
0 1 0.222416
0 1 0.21973
0 1 0.216556
0 1 0.21265
0 1 0.207523
0 1 0.201175
0 1 0.193851
0.0410163 1 0.185306
0.093019 1 0.17554
0.150637 1 0.164797
0.212894 1 0.153323
0.279301 1 0.140871
0.348882 1 0.127932
0.419928 1 0.114504
0.491691 1 0.101076
0.562737 0.994629 0.087892
0.63183 0.984375 0.0749523
0.697749 0.974609 0.0627451
0.759518 0.96556 0.0512703
0.812741 0.949203 0.0407721
0.862303 0.934081 0.0314946
0.905028 0.921386 0.0234379
0.940871 0.910872 0.0169223
0.968795 0.90251 0.0128481
0.985931 0.896345 0.010071
0.996002 0.892164 0.00846876
0.999344 0.889952 0.00735485
0.999329 0.888975 0.00669871
0.999313 0.888487 0.00648508
0.999313 0.887999 0.00627146
0.999298 0.88751 0.00581369
0 1 0.232425
0 1 0.229984
0 1 0.227787
0 1 0.225101
0 1 0.221927
0 1 0.217777
0 1 0.21265
0 1 0.206546
0 1 0.199222
0.0358892 1 0.190677
0.0881361 1 0.180911
0.14551 1 0.170169
0.208011 1 0.15845
0.274418 1 0.145998
0.343755 1 0.133059
0.415045 1 0.119875
0.486809 1 0.106447
0.557855 1 0.0932631
0.626947 1 0.0803235
0.692866 0.994141 0.0678721
0.754635 0.985107 0.0563973
0.807858 0.976562 0.0458991
0.85742 0.965072 0.0366217
0.900145 0.952377 0.0285649
0.93579 0.941878 0.021973
0.964065 0.933333 0.0171664
0.983749 0.927184 0.0139467
0.993927 0.923003 0.0117952
0.99971 0.920546 0.0107118
0.99971 0.91957 0.0102693
0.999695 0.919081 0.00981155
0.999695 0.918593 0.00958267
0.999695 0.918105 0.00936904
0 1 0.236332
0 1 0.23389
0 1 0.231449
0 1 0.229007
0 1 0.225834
0 1 0.221683
0 1 0.216556
0 1 0.210452
0 1 0.203128
0.0324712 1 0.194339
0.0844739 1 0.184817
0.142092 1 0.174075
0.204349 1 0.162356
0.270756 1 0.149905
0.340093 1 0.136965
0.411383 1 0.123781
0.483162 1 0.110353
0.554192 1 0.0971695
0.623285 1 0.0842298
0.689204 1 0.0717784
0.750973 1 0.0603037
0.804196 0.991943 0.0498054
0.853758 0.984619 0.040528
0.896483 0.975097 0.0324712
0.932128 0.964584 0.0258793
0.960433 0.956283 0.0205234
0.981399 0.950164 0.0171817
0.992355 0.945983 0.014847
0.999146 0.943771 0.0136416
0.999878 0.942794 0.0129702
0.999863 0.942306 0.0127413
0.999863 0.941817 0.0125124
0.999863 0.941329 0.0122835
0 1 0.238773
0 1 0.236576
0 1 0.234134
0 1 0.231449
0 1 0.228275
0 1 0.224369
0 1 0.219242
0 1 0.212894
0 1 0.20557
