public/luts/log_conversion/Panasonic VLog to V709.cube
LUT_3D_SIZE 9
0.0156252 0.0156252 0.0156252
0.0540017 0.00500496 0.00833143
0.144991 0.0131991 0.0131991
0.308049 0.0280308 0.0280308
0.516396 0.0469978 0.0469978
0.716869 0.0652323 0.0652323
0.747921 0.0680552 0.0680552
0.747921 0.0680552 0.0680552
0.747921 0.0680552 0.0680552
0.00561532 0.0771496 0.0261234
0.0620127 0.0605478 0.0156405
0.144183 0.0344244 0.0176089
0.300557 0.0273442 0.0273442
0.508904 0.0463111 0.0463111
0.709392 0.0645609 0.0645609
0.747921 0.0680552 0.0680552
0.747921 0.0680552 0.0680552
0.747921 0.0680552 0.0680552
0 0.210452 0.049073
0.040528 0.193606 0.0383307
0.162356 0.157717 0.015671
0.313161 0.108934 0.0426032
0.49543 0.0545663 0.0472725
0.693141 0.0630808 0.0630808
0.747921 0.0680552 0.0680552
0.747921 0.0680552 0.0680552
0.747921 0.0680552 0.0680552
0 0.448737 0.0898451
0.0021973 0.432135 0.0793469
0.123781 0.396002 0.0566415
0.341787 0.331533 0.0159762
0.552392 0.262425 0.068101
0.713924 0.212329 0.0937057
0.778943 0.171603 0.0925002
0.772839 0.153079 0.088426
0.772122 0.150896 0.0879225
0 0.753414 0.142092
0 0.736812 0.131594
0.0747082 0.700679 0.108888
0.292729 0.636225 0.0681163
0.571511 0.553948 0.0162966
0.8038 0.479393 0.0572824
0.894667 0.438895 0.10573
0.889113 0.421027 0.110033
0.887999 0.418875 0.110369
0 0.989746 0.192386
0 0.981201 0.181888
0.0275883 0.963363 0.159182
0.245609 0.926268 0.11841
0.524163 0.843748 0.0664073
0.791959 0.76463 0.016907
0.962386 0.709865 0.0237736
0.985946 0.689754 0.0336309
0.98558 0.687358 0.0342107
0 1 0.227054
0 1 0.216556
0 1 0.193851
0.212894 1 0.153323
0.491691 1 0.101076
0.759518 0.96556 0.0512703
0.940871 0.910872 0.0169223
0.999344 0.889952 0.00735485
0.999298 0.88751 0.00581369
0 1 0.240238
0 1 0.22974
0 1 0.207034
0.200687 1 0.166506
0.479255 1 0.11426
0.747066 1 0.0644541
0.928222 0.989746 0.0297856
0.997284 0.968963 0.0171206
0.999954 0.966278 0.0155032
0 1 0.241947
0 1 0.231449
0 1 0.208743
0.199222 1 0.167971
0.477791 1 0.115969
0.745602 1 0.065919
0.926757 0.999756 0.0314946
0.996567 0.979477 0.0184329
0.999985 0.977035 0.0170291
0.0151369 0.0166018 0.0615244
0.0693523 0.00077821 0.0496986
0.146105 0.0135805 0.03299
0.307683 0.0280003 0.0280003
0.51603 0.046952 0.046952
0.716518 0.0652018 0.0652018
0.747921 0.0680552 0.0680552
0.747921 0.0680552 0.0680552
0.747921 0.0680552 0.0680552
0.00512703 0.0783703 0.0720226
0.0615244 0.0615244 0.0615244
0.144015 0.0366369 0.0456245
0.300191 0.0273136 0.0273136
0.508721 0.0462959 0.0462959
0.709209 0.0645304 0.0645304
0.747921 0.0680552 0.0680552
0.747921 0.0680552 0.0680552
0.747921 0.0680552 0.0680552
0 0.211429 0.0949721
0.0400397 0.194827 0.0844739
0.161868 0.158694 0.061799
0.311009 0.110826 0.0594949
0.495491 0.055436 0.0474708
0.692958 0.0630655 0.0630655
0.747921 0.0680552 0.0680552
0.747921 0.0680552 0.0680552
0.747921 0.0680552 0.0680552
0 0.449714 0.135988
0.00170901 0.433112 0.125246
0.123537 0.397223 0.102541
0.341543 0.332509 0.0621042
0.550942 0.263981 0.0775921
0.713909 0.213153 0.0938125
0.779248 0.172473 0.0926986
0.773114 0.153964 0.0886091
0.772412 0.151781 0.0881208
0 0.754635 0.188235
0 0.737789 0.177737
0.0742199 0.7019 0.155032
0.292241 0.637446 0.11426
0.571023 0.554925 0.0624247
0.802533 0.480568 0.0698863
0.899077 0.440131 0.106569
0.88957 0.421881 0.109895
0.888441 0.41973 0.110246
0 0.990234 0.238529
0 0.981933 0.228031
0.0271 0.963851 0.205081
0.245121 0.927245 0.164553
0.523919 0.844724 0.112551
0.791714 0.765606 0.0628061
0.967285 0.711208 0.0534676
0.985656 0.69102 0.0488289
0.98529 0.68838 0.0479591
0 1 0.273198
0 1 0.262699
0 1 0.239994
0.21265 1 0.199222
0.491218 1 0.147219
0.75903 0.970947 0.0971695
0.944045 0.915999 0.063035
0.999374 0.895094 0.0530861
0.999329 0.892653 0.0517891
0 1 0.286381
0 1 0.275883
0 1 0.253178
0.200198 1 0.212406
0.478767 1 0.160403
0.746578 1 0.110353
0.93164 0.99292 0.0759289
0.999969 0.972137 0.0630198
0.999969 0.969696 0.0616007
0 1 0.287846
0 1 0.277348
0 1 0.254643
0.198734 1 0.21387
0.477302 1 0.161868
0.745113 1 0.112062
0.930175 1 0.0773938
0.999985 0.98143 0.0645914
0.999985 0.978988 0.0629129
0.0141604 0.0187991 0.160891
0.0705577 0.0021973 0.150149
0.183429 0.00315862 0.122576
0.313817 0.0285039 0.0889296
0.516258 0.047715 0.071458
0.715785 0.0651408 0.0651408
0.747921 0.0680552 0.0680552
0.747921 0.0680552 0.0680552
0.747921 0.0680552 0.0680552
0.00415045 0.0805676 0.171389
0.0605478 0.0637217 0.160891
0.177691 0.0295109 0.135317
0.308583 0.027451 0.0958419
0.509209 0.0472267 0.0781109
0.708476 0.0644694 0.0644694
0.747921 0.0680552 0.0680552
0.747921 0.0680552 0.0680552
0.747921 0.0680552 0.0680552
0 0.213626 0.194339
0.0390631 0.197024 0.183597
0.160891 0.160891 0.160891
0.308461 0.116152 0.132448
0.497169 0.058854 0.0959182
0.692485 0.0634623 0.0759136
0.747921 0.0680552 0.0680552
0.747921 0.0680552 0.0680552
0.747921 0.0680552 0.0680552
0 0.452155 0.235111
0.000732433 0.435309 0.224613
0.12256 0.39942 0.201907
0.340566 0.334951 0.161196
0.536263 0.271183 0.16759
0.709682 0.217716 0.139132
0.778897 0.175402 0.111223
0.773373 0.156344 0.0974136
0.772717 0.154116 0.0958572
0 0.756832 0.287358
0 0.74023 0.27686
0.0734874 0.704097 0.254154
0.291508 0.639643 0.213382
0.570047 0.557122 0.161517
0.791058 0.485588 0.174533
0.887556 0.44625 0.181125
0.880293 0.427161 0.170611
0.879469 0.424933 0.169192
0 0.991211 0.337652
0 0.98291 0.327153
0.0261234 0.964828 0.304448
0.244144 0.929442 0.263676
0.522942 0.846922 0.211673
0.790738 0.767803 0.162127
0.96408 0.713771 0.155444
0.982132 0.693874 0.152132
0.981735 0.691493 0.150988
0 1 0.37232
0 1 0.361822
0 1 0.339117
0.211673 1 0.298589
0.490227 1 0.246342
0.758053 0.973144 0.196536
0.943313 0.918196 0.162127
0.999283 0.897292 0.152712
0.999237 0.89485 0.151186
0 1 0.385504
0 1 0.375006
0 1 0.3523
0.199222 1 0.311772
0.478035 1 0.259525
0.745846 1 0.20972
0.930663 0.995361 0.175051
0.999969 0.974578 0.162356
0.999969 0.971893 0.160708
0 1 0.387213
0 1 0.376715
0 1 0.354009
0.197757 1 0.313237
0.47657 1 0.261234
0.744381 1 0.211185
0.929198 1 0.176761
0.999741 0.983627 0.163684
0.999985 0.981186 0.162264
0.0124514 0.0227054 0.338384
0.0688487 0.00610361 0.327886
0.190677 0 0.30518
0.387304 0.00749218 0.253208
0.541604 0.0448005 0.198276
0.724697 0.0669871 0.178897
0.753811 0.0701762 0.157641
0.752728 0.0701152 0.148608
0.75259 0.0700999 0.147417
0.00244144 0.0844739 0.349126
0.0588388 0.0678721 0.338628
0.180667 0.0317388 0.315679
0.383825 0.00527962 0.266529
0.538231 0.0431067 0.20618
0.718746 0.0661479 0.185626
0.754833 0.0702068 0.165148
0.753597 0.0701762 0.155932
0.753475 0.070161 0.15491
0 0.217777 0.371832
0.0375982 0.200931 0.361334
0.159182 0.165042 0.338628
0.36875 0.103624 0.292699
0.53135 0.057084 0.226429
0.706477 0.0641642 0.200473
0.757305 0.070161 0.181048
0.75584 0.0702068 0.171984
0.755657 0.0702068 0.170779
0 0.456062 0.412848
0 0.43946 0.40235
0.120851 0.403326 0.379644
0.338872 0.338872 0.338872
0.527565 0.281575 0.302342
0.708858 0.226688 0.267231
0.781521 0.183886 0.238254
0.776715 0.164645 0.224201
0.77615 0.162387 0.222614
0 0.760739 0.465095
0 0.744137 0.454597
0.0717784 0.708003 0.431891
0.289799 0.643549 0.391119
0.568353 0.561273 0.339178
0.763973 0.497078 0.351949
0.864454 0.45922 0.337087
0.858137 0.440314 0.324132
0.857389 0.438102 0.322667
0 0.993408 0.515389
0 0.984863 0.504891
0.0244144 0.967041 0.482185
0.242435 0.933593 0.441413
0.521233 0.851072 0.38941
0.789044 0.77171 0.339574
0.955245 0.719066 0.340459
0.971283 0.700069 0.338827
0.970657 0.697749 0.338018
0 1 0.550042
0 1 0.539544
0 1 0.516854
0.209964 1 0.476081
0.488777 1 0.424079
0.756344 0.97705 0.374273
0.941619 0.922103 0.339803
0.999039 0.901198 0.330907
0.998978 0.898756 0.329671
0 1 0.563226
0 1 0.552728
0 1 0.530022
0.197513 1 0.489265
0.476326 1 0.437263
0.744137 1 0.387457
0.928954 0.999268 0.352789
0.999496 0.9785 0.340063
0.999969 0.976043 0.338415
0 1 0.564935
0 1 0.554437
0 1 0.531487
0.196048 1 0.490974
0.474861 1 0.438972
0.742672 1 0.388922
0.927489 1 0.354498
0.998047 0.987549 0.341375
0.999985 0.985092 0.339956
0.0102541 0.0278325 0.565667
0.0666514 0.0112306 0.555169
0.188479 0 0.532219
0.4065 0 0.491691
0.648005 0.0130312 0.420432
0.788235 0.0527504 0.353353
0.803891 0.0613413 0.325109
0.798932 0.062562 0.314427
0.798398 0.0626841 0.313252
0.000488289 0.089601 0.576165
0.0568856 0.0729992 0.565667
0.178714 0.0368658 0.542962
0.396735 0 0.50219
0.644877 0.0107271 0.433494
0.787091 0.0502174 0.362783
0.808042 0.0602884 0.333761
0.802853 0.0616007 0.322911
0.802289 0.061738 0.321721
0 0.222904 0.599115
0.0354009 0.206058 0.588617
0.157229 0.170169 0.565667
0.37525 0.105714 0.525139
0.634607 0.0300908 0.461418
0.785702 0.0442969 0.384649
0.817761 0.0577554 0.353155
0.812085 0.0592508 0.341924
0.81146 0.0594034 0.340688
0 0.461189 0.639887
0 0.444587 0.629389
0.118654 0.408453 0.606683
0.336675 0.343999 0.565911
0.604654 0.265354 0.507317
0.759655 0.221775 0.437964
0.825849 0.181949 0.4047
0.821942 0.162432 0.391043
0.821424 0.160159 0.389288
0 0.765866 0.692378
0 0.749264 0.681636
0.0695811 0.71313 0.65893
0.287602 0.648676 0.618402
0.5664 0.5664 0.5664
0.747646 0.511299 0.531243
0.858549 0.472023 0.50576
0.853727 0.452781 0.491707
0.853147 0.450523 0.489952
0 0.99585 0.742428
0 0.987549 0.731929
0.0224613 0.969482 0.709224
0.240482 0.937011 0.668696
0.519036 0.856199 0.616449
0.786847 0.776852 0.566796
0.929808 0.730053 0.577935
0.94226 0.713115 0.573159
0.941436 0.710887 0.571786
0 1 0.77734
0 1 0.766598
0 1 0.743893
0.207767 1 0.703365
0.486564 1 0.651362
0.754391 0.982422 0.601312
0.939422 0.927474 0.567025
0.998184 0.906386 0.560067
0.998062 0.90396 0.558694
0 1 0.790524
0 1 0.779782
0 1 0.757076
0.195315 1 0.716548
0.474128 1 0.664546
0.741939 1 0.614496
0.926757 1 0.580072
0.997299 0.983627 0.567041
0.999969 0.981186 0.565438
0 1 0.791989
0 1 0.781491
0 1 0.758785
0.193851 1 0.718013
0.472663 1 0.66601
0.740475 1 0.615961
0.925292 1 0.581537
0.99585 0.992676 0.568368
1 0.990219 0.566979
0.00830091 0.0329595 0.783932
0.0646982 0.0161135 0.773434
0.186526 0 0.750484
0.404547 0 0.709957
0.683162 7.62951e-05 0.657786
0.898451 0.0184024 0.580865
0.914687 0.0290532 0.53695
0.907881 0.0312047 0.522408
0.907118 0.0314488 0.520806
0 0.0944839 0.79443
0.0546883 0.0778821 0.783932
0.176516 0.0417487 0.761227
0.394537 0 0.720455
0.673335 0 0.668452
0.895674 0.0160678 0.593881
0.919951 0.0273594 0.548623
0.913314 0.0294804 0.533974
0.912566 0.0297246 0.532357
0 0.227787 0.81738
0.0332036 0.211185 0.806882
0.155032 0.175051 0.783932
0.373053 0.110597 0.743404
0.65185 0.0280766 0.691402
0.887434 0.0115053 0.622354
0.930922 0.0238193 0.57438
0.924712 0.0258335 0.559548
0.924025 0.0260624 0.5579
0 0.466072 0.858152
0 0.44947 0.847654
0.116701 0.413336 0.824948
0.334722 0.348882 0.784176
0.613275 0.266606 0.732174
0.859983 0.194842 0.669474
0.934752 0.154955 0.618051
0.930999 0.135439 0.603861
0.930465 0.133181 0.601984
0 0.770993 0.910643
0 0.754147 0.899901
0.067628 0.718257 0.877195
0.285649 0.653803 0.836667
0.564202 0.571283 0.784665
0.821683 0.495659 0.728298
0.919478 0.463569 0.6766
0.915358 0.444129 0.662593
0.914794 0.441871 0.660792
0 0.998291 0.960922
0 0.98999 0.950423
0.020264 0.971923 0.927489
0.238285 0.939681 0.886961
0.517098 0.861082 0.834714
0.784909 0.781979 0.784909
0.90959 0.744259 0.759899
0.927199 0.727092 0.748074
0.926589 0.724605 0.746258
0 1 0.99585
0 1 0.985107
0 1 0.962386
0.205814 1 0.92163
0.484382 1 0.869627
0.752194 0.987305 0.819577
0.937255 0.932372 0.785214
0.993378 0.912337 0.784298
0.992889 0.909987 0.783169
0 1 0.979492
0 1 0.974121
0 1 0.962875
0.193362 1 0.932616
0.472175 1 0.880613
0.739986 1 0.830564
0.924804 1 0.796139
0.995346 0.988525 0.783032
0.999969 0.986068 0.781765
0 1 0.980224
0 1 0.974853
0 1 0.963607
0.191897 1 0.934081
0.47071 1 0.882078
0.738521 1 0.832273
0.923339 1 0.797604
0.993896 0.997803 0.784665
1 0.995361 0.783001
0.00683604 0.0363775 0.934569
0.0632334 0.0195315 0.924071
0.185061 0 0.901366
0.403082 0 0.860594
0.68188 0 0.808591
0.937911 0.00445563 0.749844
0.972351 0.00996414 0.706844
0.968841 0.0111696 0.692012
0.968429 0.0113069 0.690364
0 0.0979019 0.945296
0.0532235 0.0813001 0.934569
0.175051 0.0451667 0.911864
0.393072 0 0.871092
0.67187 0 0.819089
0.930663 0.00344854 0.762341
0.974945 0.00906386 0.718608
0.971649 0.0102083 0.703822
0.971267 0.0103304 0.702174
0 0.231205 0.968261
0.0319829 0.214603 0.957748
0.153567 0.17847 0.934813
0.371588 0.114015 0.894041
0.650385 0.0314946 0.842039
0.913512 0.00178531 0.788174
0.980041 0.00727855 0.744213
0.977203 0.00827039 0.729534
0.976867 0.00839246 0.727901
0 0.46949 1
0 0.452888 0.998535
0.115236 0.416754 0.97583
0.333257 0.3523 0.935058
0.612055 0.270024 0.882811
0.879179 0.190951 0.832364
0.984298 0.141726 0.787655
0.982315 0.121691 0.773571
0.98204 0.119341 0.771695
0 0.774411 1
0 0.757565 1
0.0661631 0.721675 1
0.284184 0.656977 0.987549
0.562737 0.574701 0.935302
0.830564 0.495354 0.885252
0.985809 0.445808 0.841794
0.983352 0.42591 0.827344
0.983078 0.42356 0.825727
0 1 1
0 0.991699 1
0.0187991 0.973632 1
0.23682 0.94139 1
0.515618 0.8645 0.98584
0.783444 0.785397 0.935546
0.961456 0.733242 0.896788
0.98085 0.716579 0.878752
0.980377 0.714061 0.87686
0 1 1
0 1 1
0 1 1
0.204349 1 1
0.483146 1 1
0.750729 0.990723 0.970459
0.93579 0.93579 0.93579
0.978836 0.920974 0.926131
0.978225 0.918486 0.924483
0 1 1
0 1 1
0 1 1
0.191897 1 1
0.47071 1 1
0.738521 1 0.983642
0.923339 1 0.949203
0.993896 0.991943 0.935805
0.999878 0.989487 0.934859
0 1 1
0 1 1
0 1 1
0.190433 1 1
0.469245 1 1
0.737057 1 0.985107
0.921874 1 0.950668
0.992432 1 0.937255
1 0.998779 0.935805
0.00634775 0.0375982 0.991943
0.0627451 0.0209964 0.981445
0.184573 0 0.958724
0.402594 0 0.917723
0.681147 0 0.865721
0.944106 0.0019379 0.811795
0.984527 0.00569161 0.770397
0.982162 0.00653086 0.756115
0.981842 0.00665293 0.754223
0 0.0993668 1
0.0527352 0.0825208 0.992187
0.174563 0.0466316 0.969482
0.392584 0 0.928466
0.671382 0 0.876463
0.935897 0.00134279 0.823468
0.986313 0.00505074 0.782208
0.984085 0.00584421 0.767712
0.983825 0.00593576 0.766094
0 0.232425 1
0.0312505 0.215824 1
0.153079 0.17969 0.992187
0.371099 0.115236 0.9514
0.649897 0.0327153 0.899168
0.916579 0.000442512 0.848325
0.989654 0.00386053 0.806973
0.987823 0.00451667 0.792889
0.987564 0.00460822 0.791028
0 0.470954 1
0 0.454108 1
0.114748 0.418219 1
0.332769 0.353765 0.992432
0.611322 0.271244 0.940414
0.879149 0.191897 0.890135
0.993011 0.139834 0.850324
0.991669 0.11957 0.83624
0.991516 0.117189 0.834669
0 0.775631 1
0 0.75903 1
0.0656748 0.722896 1
0.283696 0.658442 1
0.562249 0.575921 0.992676
0.830076 0.496818 0.942855
0.995621 0.443778 0.90457
0.994308 0.42327 0.890745
0.994125 0.42089 0.888914
0 1 1
0 0.992432 1
0.0183108 0.974365 1
0.236332 0.942123 1
0.515145 0.865721 1
0.782956 0.786618 0.99292
0.967941 0.73196 0.958419
0.996857 0.712352 0.942962
0.996689 0.709972 0.94139
0 1 1
0 1 1
0 1 1
0.203861 1 1
0.482429 1 1
0.75024 0.991943 1
0.935302 0.937011 0.993164
0.998428 0.916838 0.979156
0.998154 0.914488 0.977295
0 1 1
0 1 1
0 1 1
0.191409 1 1
0.470222 1 1
0.738033 1 1
0.92285 1 1
0.993408 0.993408 0.993408
0.997696 0.991363 0.992035
0 1 1
0 1 1
0 1 1
0.189944 1 1
0.468757 1 1
0.736568 1 1
0.921386 1 1
0.991943 1 0.994873
1 1 0.993408
0.00634775 0.0378424 0.998779
0.0627451 0.0209964 0.988281
0.184573 0 0.965576
0.402594 0 0.924559
0.681147 0 0.872557
0.944686 0.00170901 0.819059
0.985687 0.00527962 0.77792
0.983444 0.00607309 0.763684
0.983124 0.00619516 0.761791
0 0.0993668 1
0.0527352 0.0827649 0.999023
0.174563 0.0466316 0.976074
0.392584 0 0.935302
0.671138 0 0.883299
0.936141 0.00117494 0.830671
0.987381 0.00466926 0.789685
0.985275 0.00543221 0.775235
0.985031 0.00552377 0.773632
0 0.23267 1
0.0312505 0.216068 1
0.153079 0.179934 0.999023
0.371099 0.11548 0.958236
0.649897 0.0329595 0.906004
0.916579 0.000350958 0.855375
0.990539 0.00354009 0.814389
0.988815 0.00416571 0.800351
0.988571 0.00424201 0.798489
0 0.470954 1
0 0.454353 1
0.114748 0.418219 1
0.332769 0.353765 0.999268
0.611322 0.271489 0.94725
0.879149 0.192142 0.896971
0.993759 0.139803 0.857679
0.992508 0.119509 0.843626
0.992355 0.117113 0.842054
0 0.775876 1
0 0.75903 1
0.0654307 0.72314 1
0.283452 0.658442 1
0.562249 0.576165 0.999512
0.830076 0.496818 0.949447
0.996353 0.443519 0.91191
0.995117 0.423209 0.897871
0.99498 0.420829 0.896315
0 1 1
0 0.992432 1
0.0183108 0.974365 1
0.236332 0.942123 1
0.515145 0.865965 1
0.782712 0.786862 0.999756
0.968002 0.732174 0.965316
0.997711 0.712047 0.950362
0.997574 0.709651 0.948806
0 1 1
0 1 1
0 1 1
0.203861 1 1
0.482429 1 1
0.75024 0.992187 1
0.935058 0.937255 1
0.999405 0.916732 0.986343
0.999268 0.914092 0.984787
0 1 1
0 1 1
0 1 1
0.191409 1 1
0.469978 1 1
0.737789 1 1
0.92285 1 1
0.993164 0.993408 1
0.999939 0.990997 0.998489
0 1 1
0 1 1
0 1 1
0.189944 1 1
0.468513 1 1
0.736324 1 1
0.921141 1 1
0.991699 1 1
1 1 1
