public/luts/log_conversion/Panasonic VLog to V709.cube
LUT_3D_SIZE 5
0.0156252 0.0156252 0.0156252
0.144991 0.0131991 0.0131991
0.516396 0.0469978 0.0469978
0.747921 0.0680552 0.0680552
0.747921 0.0680552 0.0680552
0 0.210452 0.049073
0.162356 0.157717 0.015671
0.49543 0.0545663 0.0472725
0.747921 0.0680552 0.0680552
0.747921 0.0680552 0.0680552
0 0.753414 0.142092
0.0747082 0.700679 0.108888
0.571511 0.553948 0.0162966
0.894667 0.438895 0.10573
0.887999 0.418875 0.110369
0 1 0.227054
0 1 0.193851
0.491691 1 0.101076
0.940871 0.910872 0.0169223
0.999298 0.88751 0.00581369
0 1 0.241947
0 1 0.208743
0.477791 1 0.115969
0.926757 0.999756 0.0314946
0.999985 0.977035 0.0170291
0.0141604 0.0187991 0.160891
0.183429 0.00315862 0.122576
0.516258 0.047715 0.071458
0.747921 0.0680552 0.0680552
0.747921 0.0680552 0.0680552
0 0.213626 0.194339
0.160891 0.160891 0.160891
0.497169 0.058854 0.0959182
0.747921 0.0680552 0.0680552
0.747921 0.0680552 0.0680552
0 0.756832 0.287358
0.0734874 0.704097 0.254154
0.570047 0.557122 0.161517
0.887556 0.44625 0.181125
0.879469 0.424933 0.169192
0 1 0.37232
0 1 0.339117
0.490227 1 0.246342
0.943313 0.918196 0.162127
0.999237 0.89485 0.151186
0 1 0.387213
0 1 0.354009
0.47657 1 0.261234
0.929198 1 0.176761
0.999985 0.981186 0.162264
0.0102541 0.0278325 0.565667
0.188479 0 0.532219
0.648005 0.0130312 0.420432
0.803891 0.0613413 0.325109
0.798398 0.0626841 0.313252
0 0.222904 0.599115
0.157229 0.170169 0.565667
0.634607 0.0300908 0.461418
0.817761 0.0577554 0.353155
0.81146 0.0594034 0.340688
0 0.765866 0.692378
0.0695811 0.71313 0.65893
0.5664 0.5664 0.5664
0.858549 0.472023 0.50576
0.853147 0.450523 0.489952
0 1 0.77734
0 1 0.743893
0.486564 1 0.651362
0.939422 0.927474 0.567025
0.998062 0.90396 0.558694
0 1 0.791989
0 1 0.758785
0.472663 1 0.66601
0.925292 1 0.581537
1 0.990219 0.566979
0.00683604 0.0363775 0.934569
0.185061 0 0.901366
0.68188 0 0.808591
0.972351 0.00996414 0.706844
0.968429 0.0113069 0.690364
0 0.231205 0.968261
0.153567 0.17847 0.934813
0.650385 0.0314946 0.842039
0.980041 0.00727855 0.744213
0.976867 0.00839246 0.727901
0 0.774411 1
0.0661631 0.721675 1
0.562737 0.574701 0.935302
0.985809 0.445808 0.841794
0.983078 0.42356 0.825727
0 1 1
0 1 1
0.483146 1 1
0.93579 0.93579 0.93579
0.978225 0.918486 0.924483
0 1 1
0 1 1
0.469245 1 1
0.921874 1 0.950668
1 0.998779 0.935805
0.00634775 0.0378424 0.998779
0.184573 0 0.965576
0.681147 0 0.872557
0.985687 0.00527962 0.77792
0.983124 0.00619516 0.761791
0 0.23267 1
0.153079 0.179934 0.999023
0.649897 0.0329595 0.906004
0.990539 0.00354009 0.814389
0.988571 0.00424201 0.798489
0 0.775876 1
0.0654307 0.72314 1
0.562249 0.576165 0.999512
0.996353 0.443519 0.91191
0.99498 0.420829 0.896315
0 1 1
0 1 1
0.482429 1 1
0.935058 0.937255 1
0.999268 0.914092 0.984787
0 1 1
0 1 1
0.468513 1 1
0.921141 1 1
1 1 1
