public/luts/log_conversion/Sony SLog3.cube
LUT_3D_SIZE 5
DOMAIN_MIN 0.000000 0.000000 0.000000
DOMAIN_MAX 0.903226 0.903226 0.903226
0.0000 0.0000 0.0000
0.2039 0.0000 0.0039
0.6157 0.0078 0.0078
0.9569 0.0118 0.0118
0.9608 0.0157 0.0118
0.0039 0.1451 0.0039
0.1176 0.1255 0.0000
0.5922 0.0314 0.0000
0.9882 0.0000 0.0000
0.9961 0.0000 0.0000
0.0039 0.4980 0.0078
0.0039 0.5059 0.0039
0.4353 0.4745 0.0039
0.9765 0.1451 0.0078
0.9922 0.0000 0.0000
0.0078 0.9647 0.0118
0.0000 0.9804 0.0039
0.0000 0.9765 0.0000
0.9059 0.9608 0.0039
0.9765 0.4196 0.0078
0.0078 0.9922 0.0118
0.0000 1.0000 0.0039
0.0000 1.0000 0.0039
0.0000 0.9961 0.0039
0.9843 0.9882 0.0078
0.0431 0.0039 0.1216
0.1961 0.0000 0.1294
0.6039 0.0078 0.1137
0.9569 0.0118 0.0235
0.9608 0.0157 0.0118
0.0314 0.1098 0.0941
0.1059 0.1059 0.1059
0.5843 0.0157 0.0902
0.9882 0.0000 0.0078
0.9961 0.0000 0.0000
0.0235 0.4824 0.0314
0.0000 0.4941 0.0275
0.4392 0.4627 0.0196
0.9765 0.1216 0.0039
0.9961 0.0000 0.0000
0.0235 0.9569 0.0039
0.0000 0.9765 0.0000
0.0000 0.9765 0.0000
0.9098 0.9569 0.0039
0.9765 0.4196 0.0078
0.0039 0.9961 0.0039
0.0000 1.0000 0.0039
0.0000 1.0000 0.0039
0.0000 0.9961 0.0039
0.9843 0.9882 0.0039
0.0392 0.0039 0.4471
0.1529 0.0000 0.4745
0.5961 0.0000 0.4667
0.9922 0.0000 0.4235
0.9922 0.0000 0.1059
0.0314 0.0314 0.4353
0.0627 0.0157 0.4667
0.5686 0.0000 0.4588
0.9882 0.0000 0.4196
0.9922 0.0000 0.1020
0.0235 0.4431 0.4118
0.0000 0.4627 0.4353
0.4157 0.4235 0.4275
0.9804 0.0941 0.3882
0.9922 0.0000 0.0471
0.0235 0.9569 0.1137
0.0000 0.9725 0.1216
0.0000 0.9686 0.1137
0.9137 0.9529 0.0902
0.9765 0.3804 0.0118
0.0039 0.9961 0.0039
0.0000 1.0000 0.0039
0.0000 1.0000 0.0039
0.0000 1.0000 0.0039
0.9843 0.9882 0.0000
0.0157 0.0235 0.8902
0.0196 0.0235 0.9098
0.5098 0.0275 0.9137
0.9373 0.0353 0.9216
0.9529 0.0275 0.8941
0.0039 0.0000 0.9451
0.0000 0.0000 0.9647
0.4784 0.0000 0.9608
0.9882 0.0000 0.9529
0.9961 0.0000 0.9255
0.0078 0.1255 0.9373
0.0039 0.1137 0.9529
0.2667 0.0941 0.9569
0.9804 0.0000 0.9490
0.9922 0.0000 0.9176
0.0039 0.9412 0.9176
0.0000 0.9569 0.9373
0.0000 0.9529 0.9373
0.8902 0.9255 0.9333
0.9765 0.3294 0.8824
0.0000 0.9922 0.4000
0.0000 0.9961 0.3882
0.0000 0.9961 0.3882
0.0000 0.9922 0.3804
0.9843 0.9882 0.2980
0.0196 0.0157 0.9451
0.0078 0.0118 0.9490
0.0118 0.0118 0.9490
0.9255 0.0196 0.9569
0.9725 0.0157 0.9569
0.0196 0.0039 0.9804
0.0000 0.0000 0.9961
0.0000 0.0000 0.9922
0.9529 0.0000 0.9922
1.0000 0.0000 0.9961
0.0196 0.0078 0.9765
0.0000 0.0000 0.9961
0.0000 0.0000 0.9961
0.9373 0.0000 0.9922
0.9961 0.0000 0.9961
0.0235 0.4314 0.9765
0.0000 0.3922 0.9922
0.0000 0.3922 0.9922
0.6706 0.3451 0.9843
0.9843 0.0000 0.9804
0.0078 0.9922 0.9922
0.0039 1.0000 1.0000
0.0039 1.0000 1.0000
0.0039 0.9961 0.9961
0.9804 0.9882 0.9882
