70 CGC LUTs/False Color LUT.cube
TITLE "Generated by Resolve"
LUT_3D_SIZE 33
0.208164 0 0.473365
0.060029 0.00843824 0.520058
0 0.0757458 0.565972
0 0.129534 0.605951
0 0.154864 0.638483
0 0.161547 0.645304
0 0.168109 0.651865
0 0.17467 0.658427
0 0.181231 0.664988
0 0.187778 0.671504
0 0.183185 0.624994
0 0.16286 0.503609
0 0.134585 0.344427
0.0217441 0.11017 0.203601
0.0753948 0.0983139 0.122545
0.0826429 0.113878 0.146715
0.0128634 0.195315 0.387137
0 0.316213 0.750912
0 0.392935 0.976669
0 0.37203 0.897276
0 0.30988 0.593027
0 0.319081 0.379278
0 0.43064 0.418891
0 0.572778 0.553506
0 0.685374 0.66125
0 0.737408 0.711208
0 0.739635 0.713634
0 0.681956 0.6589
0 0.571679 0.553964
0.00537118 0.439185 0.427817
0.109194 0.31487 0.309483
0.18436 0.229114 0.227939
0.209995 0.209995 0.209995
0 0.141482 0.619486
0 0.157153 0.640925
0 0.163714 0.647486
0 0.170291 0.654047
0 0.176852 0.660609
0 0.183413 0.66717
0 0.188479 0.666667
0 0.177813 0.591196
0 0.153979 0.453162
0 0.125231 0.291722
0.043183 0.104814 0.16994
0.0861067 0.0972305 0.10898
0.0669566 0.133608 0.203693
0 0.235737 0.508812
0 0.349722 0.85098
0 0.397833 0.987366
0 0.349462 0.808972
0 0.29984 0.492638
0 0.347539 0.369848
0 0.478843 0.463661
0 0.614954 0.593851
0 0.710842 0.685649
0 0.739727 0.713527
0 0.728206 0.702831
0 0.649714 0.628229
0 0.52871 0.513039
0.0415961 0.39556 0.386267
0.138415 0.280659 0.276921
0.199084 0.214405 0.214008
0.212177 0.212177 0.212177
0.218738 0.218738 0.218738
0.225299 0.225299 0.225299
0.231861 0.231861 0.231861
0 0.172473 0.656229
0 0.179034 0.662791
0 0.185595 0.669352
0 0.186862 0.650752
0 0.170947 0.550317
0 0.144457 0.399664
0 0.117037 0.244495
0.0610513 0.100877 0.142962
0.0892958 0.101671 0.114717
0.0436866 0.160739 0.283803
0 0.277272 0.633951
0 0.376089 0.928725
0 0.390249 0.959014
0 0.327611 0.703288
0 0.302525 0.41944
0 0.385657 0.385153
0 0.526818 0.509544
0 0.652888 0.630152
0 0.728603 0.702708
0 0.741909 0.715709
0 0.708644 0.68426
0 0.612604 0.592905
0 0.484169 0.470634
0.0764935 0.353719 0.346456
0.16376 0.251667 0.249363
0.20737 0.208392 0.208362
0.214359 0.214359 0.214359
0.22092 0.22092 0.22092
0.227497 0.227497 0.227497
0.234058 0.234058 0.234058
0.24062 0.24062 0.24062
0.247181 0.247181 0.247181
0.253742 0.253742 0.253742
0 0.1832 0.625101
0 0.162905 0.503838
0 0.13463 0.344701
0.0216373 0.110201 0.203784
0.0753338 0.0983291 0.122637
0.0827039 0.113802 0.146487
0.0130159 0.195117 0.386587
0 0.31603 0.750362
0 0.392874 0.976532
0 0.372137 0.897658
0 0.309957 0.593561
0 0.318959 0.379385
0 0.430411 0.418692
0 0.572564 0.553292
0 0.685222 0.661112
0 0.737392 0.711192
0 0.739666 0.713664
0 0.682109 0.659037
0 0.571893 0.554162
0.00520333 0.439414 0.428031
0.109041 0.315053 0.309651
0.184268 0.229206 0.228031
0.209995 0.209995 0.209995
0.216556 0.216556 0.216556
0.223117 0.223117 0.223117
0.229679 0.229679 0.229679
0.23624 0.23624 0.23624
0.242802 0.242802 0.242802
0.249363 0.249363 0.249363
0.255924 0.255924 0.255924
0.262486 0.262486 0.262486
0.269047 0.269047 0.269047
0.275608 0.275608 0.275608
0.0432136 0.104814 0.169894
0.0861067 0.0972305 0.10898
0.0669566 0.133608 0.203693
0 0.235737 0.508812
0 0.349722 0.85098
0 0.397833 0.987366
0 0.349462 0.808972
0 0.29984 0.492638
0 0.347539 0.369848
0 0.478843 0.463661
0 0.614954 0.593851
0 0.710842 0.685649
0 0.739727 0.713527
0 0.728206 0.702831
0 0.649714 0.628229
0 0.52871 0.513039
0.0415961 0.39556 0.386267
0.138415 0.280659 0.276936
0.199084 0.214405 0.214008
0.212177 0.212177 0.212177
0.218738 0.218738 0.218738
0.225299 0.225299 0.225299
0.231861 0.231861 0.231861
0.238422 0.238422 0.238422
0.244984 0.244984 0.244984
0.251545 0.251545 0.251545
0.258122 0.258122 0.258122
0.264683 0.264683 0.264683
0.271244 0.271244 0.271244
0.277806 0.277806 0.277806
0.284367 0.284367 0.284367
0.290929 0.290929 0.290929
0.29749 0.29749 0.29749
0 0.277333 0.634134
0 0.376089 0.928725
0 0.390249 0.959014
0 0.327611 0.703288
0 0.302525 0.41944
0 0.385657 0.385153
0 0.526818 0.509544
0 0.652888 0.630152
0 0.728603 0.702708
0 0.741909 0.715709
0 0.708644 0.68426
0 0.612604 0.592905
0 0.484169 0.470634
0.0764935 0.353719 0.346456
0.16376 0.251667 0.249363
0.20737 0.208392 0.208362
0.214359 0.214359 0.214359
0.22092 0.22092 0.22092
0.227497 0.227497 0.227497
0.234058 0.234058 0.234058
0.24062 0.24062 0.24062
0.247181 0.247181 0.247181
0.253742 0.253742 0.253742
0.260304 0.260304 0.260304
0.266865 0.266865 0.266865
0.273426 0.273426 0.273426
0.279988 0.279988 0.279988
0.286549 0.286549 0.286549
0.293111 0.293111 0.293111
0.299672 0.299672 0.299672
0.306233 0.306233 0.306233
0.31281 0.31281 0.31281
0.319371 0.319371 0.319371
0 0.309926 0.593393
0 0.318959 0.379385
0 0.430411 0.418692
0 0.572564 0.553292
0 0.685222 0.661112
0 0.737392 0.711192
0 0.739666 0.713664
0 0.682109 0.659037
0 0.571893 0.554162
0.00520333 0.439414 0.428031
0.109041 0.315053 0.309651
0.184268 0.229206 0.228031
0.209995 0.209995 0.209995
0.216556 0.216556 0.216556
0.223117 0.223117 0.223117
0.229679 0.229679 0.229679
0.23624 0.23624 0.23624
0.242802 0.242802 0.242802
0.249363 0.249363 0.249363
0.255924 0.255924 0.255924
0.262486 0.262486 0.262486
0.269047 0.269047 0.269047
0.275608 0.275608 0.275608
0.282185 0.282185 0.282185
0.288746 0.288746 0.288746
0.295308 0.295308 0.295308
0.301869 0.301869 0.301869
0.308431 0.308431 0.308431
0.314992 0.314992 0.314992
0.321553 0.321553 0.321553
0.328115 0.328115 0.328115
0.334676 0.334676 0.334676
0.341238 0.341238 0.341238
0 0.615015 0.593912
0 0.710842 0.685649
0 0.739727 0.713527
0 0.728206 0.702831
0 0.649714 0.628229
0 0.52871 0.513039
0.0415961 0.39556 0.386267
0.138415 0.280659 0.276921
0.199084 0.214405 0.214008
0.212177 0.212177 0.212177
0.218738 0.218738 0.218738
0.225299 0.225299 0.225299
0.231861 0.231861 0.231861
0.238422 0.238422 0.238422
0.244984 0.244984 0.244984
0.251545 0.251545 0.251545
0.258122 0.258122 0.258122
0.264683 0.264683 0.264683
0.271244 0.271244 0.271244
0.277806 0.277806 0.277806
0.284367 0.284367 0.284367
0.290929 0.290929 0.290929
0.29749 0.29749 0.29749
0.304051 0.304051 0.304051
0.310613 0.310613 0.310613
0.317174 0.317174 0.317174
0.323735 0.323735 0.323735
0.330297 0.330297 0.330297
0.336873 0.336873 0.336873
0.343435 0.343435 0.343435
0.349508 0.352087 0.347448
0.349615 0.386603 0.320027
0.341497 0.456703 0.249363
0 0.708614 0.68423
0 0.612604 0.592905
0 0.484169 0.470634
0.0764935 0.353719 0.346456
0.16376 0.251667 0.249363
0.20737 0.208392 0.208362
0.214359 0.214359 0.214359
0.22092 0.22092 0.22092
0.227497 0.227497 0.227497
0.234058 0.234058 0.234058
0.24062 0.24062 0.24062
0.247181 0.247181 0.247181
0.253742 0.253742 0.253742
0.260304 0.260304 0.260304
0.266865 0.266865 0.266865
0.273426 0.273426 0.273426
0.279988 0.279988 0.279988
0.286549 0.286549 0.286549
0.293111 0.293111 0.293111
0.299672 0.299672 0.299672
0.306233 0.306233 0.306233
0.31281 0.31281 0.31281
0.319371 0.319371 0.319371
0.325933 0.325933 0.325933
0.332494 0.332494 0.332494
0.339055 0.339055 0.339055
0.345617 0.345617 0.345617
0.350393 0.35993 0.342763
0.34786 0.405829 0.301503
0.336904 0.488167 0.215946
0.320104 0.595865 0.0995956
0.306233 0.690822 0
0.300862 0.74905 0
0.109087 0.314992 0.309606
0.184268 0.229206 0.228031
0.209995 0.209995 0.209995
0.216556 0.216556 0.216556
0.223117 0.223117 0.223117
0.229679 0.229679 0.229679
0.23624 0.23624 0.23624
0.242802 0.242802 0.242802
0.249363 0.249363 0.249363
0.255924 0.255924 0.255924
0.262486 0.262486 0.262486
0.269047 0.269047 0.269047
0.275608 0.275608 0.275608
0.282185 0.282185 0.282185
0.288746 0.288746 0.288746
0.295308 0.295308 0.295308
0.301869 0.301869 0.301869
0.308431 0.308431 0.308431
0.314992 0.314992 0.314992
0.321553 0.321553 0.321553
0.328115 0.328115 0.328115
0.334676 0.334676 0.334676
0.341238 0.341238 0.341238
0.347799 0.347814 0.347799
0.350439 0.371374 0.333684
0.345159 0.429191 0.277958
0.331502 0.523201 0.17821
0.314855 0.630213 0.0626841
0.303243 0.715419 0
0.301839 0.756436 0
0.30837 0.76318 0
0.314931 0.769741 0
0.321492 0.776303 0
0.218738 0.218738 0.218738
0.225299 0.225299 0.225299
0.231861 0.231861 0.231861
0.238422 0.238422 0.238422
0.244984 0.244984 0.244984
0.251545 0.251545 0.251545
0.258122 0.258122 0.258122
0.264683 0.264683 0.264683
0.271244 0.271244 0.271244
0.277806 0.277806 0.277806
0.284367 0.284367 0.284367
0.290929 0.290929 0.290929
0.29749 0.29749 0.29749
0.304051 0.304051 0.304051
0.310613 0.310613 0.310613
0.317174 0.317174 0.317174
0.323735 0.323735 0.323735
0.330297 0.330297 0.330297
0.336873 0.336873 0.336873
0.343435 0.343435 0.343435
0.349508 0.352087 0.347448
0.349615 0.386603 0.320027
0.341497 0.456703 0.249363
0.325719 0.559915 0.138445
0.31017 0.662135 0.0287175
0.301381 0.735103 0
0.30399 0.758801 0
0.310552 0.765362 0
0.317113 0.771939 0
0.323674 0.7785 0
0.330236 0.785061 0
0.336797 0.791623 0
0.343359 0.798184 0
0.24062 0.24062 0.24062
0.247181 0.247181 0.247181
0.253742 0.253742 0.253742
0.260304 0.260304 0.260304
0.266865 0.266865 0.266865
0.273426 0.273426 0.273426
0.279988 0.279988 0.279988
0.286549 0.286549 0.286549
0.293111 0.293111 0.293111
0.299672 0.299672 0.299672
0.306233 0.306233 0.306233
0.31281 0.31281 0.31281
0.319371 0.319371 0.319371
0.325933 0.325933 0.325933
0.332494 0.332494 0.332494
0.339055 0.339055 0.339055
0.345617 0.345617 0.345617
0.350393 0.35993 0.342763
0.34786 0.405829 0.301503
0.336904 0.488167 0.215946
0.320104 0.595865 0.0995956
0.306233 0.690822 0
0.300862 0.74905 0
0.306172 0.760998 0
0.312734 0.767559 0
0.319295 0.774121 0
0.325872 0.780682 0
0.332433 0.787243 0
0.338994 0.793805 0
0.345556 0.800366 0
0.359289 0.783948 0.0200351
0.39823 0.721675 0.142977
0.455619 0.660563 0.301579
0.262501 0.262501 0.262501
0.269047 0.269047 0.269047
0.275608 0.275608 0.275608
0.282185 0.282185 0.282185
0.288746 0.288746 0.288746
0.295308 0.295308 0.295308
0.301869 0.301869 0.301869
0.308431 0.308431 0.308431
0.314992 0.314992 0.314992
0.321553 0.321553 0.321553
0.328115 0.328115 0.328115
0.334676 0.334676 0.334676
0.341238 0.341238 0.341238
0.347799 0.347814 0.347799
0.350439 0.371374 0.333684
0.345159 0.429191 0.277958
0.331502 0.523201 0.17821
0.314855 0.630213 0.0626841
0.303243 0.715419 0
0.301839 0.756436 0
0.30837 0.76318 0
0.314931 0.769741 0
0.321492 0.776303 0
0.328054 0.782864 0
0.334615 0.789425 0
0.341176 0.795987 0
0.347997 0.801404 0
0.369589 0.7664 0.0532692
0.415885 0.69839 0.195102
0.476616 0.65008 0.350668
0.533715 0.666514 0.449989
0.573877 0.720104 0.487602
0.596506 0.761318 0.499794
0.284367 0.284367 0.284367
0.290929 0.290929 0.290929
0.29749 0.29749 0.29749
0.304051 0.304051 0.304051
0.310613 0.310613 0.310613
0.317174 0.317174 0.317174
0.323735 0.323735 0.323735
0.330297 0.330297 0.330297
0.336873 0.336873 0.336873
0.343435 0.343435 0.343435
0.349508 0.352087 0.347448
0.349615 0.386603 0.320012
0.341497 0.456703 0.249363
0.325719 0.559915 0.138445
0.31017 0.662135 0.0287175
0.301381 0.735103 0
0.30399 0.758801 0
0.310552 0.765362 0
0.317113 0.771939 0
0.323674 0.7785 0
0.330236 0.785061 0
0.336797 0.791623 0
0.343359 0.798184 0
0.352087 0.796033 0
0.382681 0.745022 0.0949416
0.435172 0.677333 0.248829
0.497307 0.648341 0.392523
0.54902 0.682811 0.467506
0.583444 0.737362 0.493019
0.59968 0.765789 0.50219
0.606241 0.772351 0.508751
0.612802 0.778912 0.515312
0.619364 0.785473 0.521889
0.306249 0.306249 0.306249
0.31281 0.31281 0.31281
0.319371 0.319371 0.319371
0.325933 0.325933 0.325933
0.332494 0.332494 0.332494
0.339055 0.339055 0.339055
0.345617 0.345617 0.345617
0.350393 0.35993 0.342763
0.34786 0.405829 0.301503
0.336904 0.488167 0.215946
0.320104 0.595865 0.0995956
0.306233 0.690822 0
0.300862 0.74905 0
0.306172 0.760998 0
0.312734 0.767559 0
0.319295 0.774121 0
0.325872 0.780682 0
0.332433 0.787243 0
0.338994 0.793805 0
0.345556 0.800366 0
0.359289 0.783948 0.0200351
0.39823 0.721675 0.142977
0.455619 0.660563 0.301579
0.516472 0.654414 0.425452
0.562402 0.70132 0.479545
0.591043 0.751537 0.496849
0.601862 0.767971 0.504387
0.608423 0.774533 0.510948
0.614984 0.781094 0.51751
0.621546 0.787655 0.524071
0.624353 0.782879 0.5299
0.63035 0.737972 0.538064
0.662211 0.683833 0.55433
0.328115 0.328115 0.328115
0.334676 0.334676 0.334676
0.341238 0.341238 0.341238
0.347799 0.347814 0.347799
0.350439 0.371374 0.333684
0.345159 0.429191 0.277958
0.331502 0.523201 0.17821
0.314855 0.630213 0.0626841
0.303243 0.715419 0
0.301839 0.756436 0
0.30837 0.76318 0
0.314931 0.769741 0
0.321492 0.776303 0
0.328054 0.782864 0
0.334615 0.789425 0
0.341176 0.795987 0
0.347997 0.801404 0
0.369589 0.7664 0.0532692
0.415885 0.69839 0.195102
0.476616 0.65008 0.350668
0.533715 0.666514 0.449989
0.573877 0.720104 0.487602
0.596506 0.761318 0.499794
0.604044 0.770153 0.506569
0.610605 0.776715 0.51313
0.617166 0.783291 0.519692
0.623743 0.789853 0.526253
0.624796 0.771435 0.532021
0.637003 0.718822 0.542336
0.682078 0.67126 0.562341
0.770077 0.66952 0.593683
0.865324 0.705013 0.625895
0.930602 0.739696 0.649149
0.349508 0.352087 0.347448
0.349615 0.386603 0.320027
0.341497 0.456703 0.249363
0.325719 0.559915 0.138445
0.31017 0.662135 0.0287175
0.301381 0.735103 0
0.30399 0.758801 0
0.310552 0.765362 0
0.317113 0.771939 0
0.323674 0.7785 0
0.330236 0.785061 0
0.336797 0.791623 0
0.343359 0.798184 0
0.352087 0.796033 0
0.382681 0.745022 0.0949416
0.435172 0.677333 0.248829
0.497307 0.648341 0.392523
0.54902 0.682811 0.467506
0.583444 0.737362 0.493019
0.59968 0.765789 0.50219
0.606241 0.772351 0.508751
0.612802 0.778912 0.515312
0.619364 0.785473 0.521889
0.624689 0.789151 0.528176
0.626551 0.756008 0.534691
0.647379 0.700221 0.547707
0.707485 0.664332 0.571832
0.802976 0.679088 0.604837
0.892088 0.71841 0.635096
0.940093 0.745632 0.653391
0.947448 0.752605 0.660182
0.941787 0.750851 0.660533
0.889235 0.71133 0.629038
0.320089 0.595911 0.0995346
0.306233 0.690822 0
0.300862 0.74905 0
0.306172 0.760998 0
0.312734 0.767559 0
0.319295 0.774121 0
0.325872 0.780682 0
0.332433 0.787243 0
0.338994 0.793805 0
0.345556 0.800366 0
0.359289 0.783948 0.0200351
0.39823 0.721675 0.142977
0.455619 0.660563 0.301579
0.516472 0.654414 0.425452
0.562402 0.70132 0.479545
0.591043 0.751537 0.496849
0.601862 0.767971 0.504387
0.608423 0.774533 0.510948
0.614984 0.781094 0.51751
0.621546 0.787655 0.524071
0.624353 0.782879 0.5299
0.63035 0.737972 0.538064
0.662211 0.683833 0.55433
0.737789 0.664164 0.582544
0.835172 0.691432 0.615702
0.914244 0.730327 0.642939
0.943069 0.748226 0.655802
0.94963 0.754788 0.662364
0.927855 0.741314 0.653468
0.869398 0.693202 0.612787
0.838758 0.64268 0.55729
0.874357 0.622919 0.516136
0.935241 0.629053 0.499626
0.30837 0.76318 0
0.314931 0.769741 0
0.321492 0.776303 0
0.328054 0.782864 0
0.334615 0.789425 0
0.341176 0.795987 0
0.347997 0.801404 0
0.369589 0.7664 0.0532692
0.415885 0.69839 0.195102
0.476616 0.65008 0.350668
0.533715 0.666514 0.449989
0.573877 0.720104 0.487602
0.596506 0.761318 0.499794
0.604044 0.770153 0.506569
0.610605 0.776715 0.51313
0.617166 0.783291 0.519692
0.623743 0.789853 0.526253
0.624796 0.771435 0.532021
0.637003 0.718822 0.542336
0.682078 0.67126 0.562341
0.770077 0.66952 0.593683
0.865324 0.705013 0.625895
0.930602 0.739696 0.649149
0.945251 0.750408 0.658
0.949447 0.755505 0.663539
0.90959 0.727779 0.642802
0.852735 0.674769 0.594797
0.843626 0.631785 0.540627
0.895491 0.623392 0.508141
0.948501 0.632364 0.498741
0.958663 0.639353 0.504402
0.965225 0.645914 0.510964
0.971786 0.652476 0.517525
0.330236 0.785061 0
0.336797 0.791623 0
0.343359 0.798184 0
0.352087 0.796033 0
0.382681 0.745022 0.0949416
0.435172 0.677333 0.248829
0.497307 0.648341 0.392523
0.54902 0.682811 0.467506
0.583444 0.737362 0.493019
0.59968 0.765789 0.50219
0.606241 0.772351 0.508751
0.612802 0.778912 0.515312
0.619364 0.785473 0.521889
0.624689 0.789151 0.528176
0.626551 0.756008 0.534691
0.647379 0.700221 0.547707
0.707485 0.664332 0.571832
0.802976 0.679088 0.604837
0.892088 0.71841 0.635096
0.940093 0.745632 0.653391
0.947448 0.752605 0.660182
0.941787 0.750851 0.660533
0.889235 0.71133 0.629038
0.84184 0.657465 0.575952
0.856184 0.625406 0.526909
0.916716 0.625772 0.502708
0.954284 0.634974 0.500023
0.960861 0.641535 0.506584
0.967422 0.648096 0.513146
0.971237 0.654307 0.520348
0.91368 0.652369 0.541939
0.803555 0.643488 0.575845
0.69604 0.634943 0.609125
0.359289 0.783932 0.0200809
0.39823 0.721675 0.142977
0.455619 0.660563 0.301579
0.516472 0.654414 0.425452
0.562402 0.70132 0.479545
0.591043 0.751537 0.496849
0.601862 0.767971 0.504387
0.608423 0.774533 0.510948
0.614984 0.781094 0.51751
0.621546 0.787655 0.524071
0.624353 0.782879 0.5299
0.63035 0.737972 0.538064
0.662211 0.683833 0.55433
0.737789 0.664164 0.582544
0.835172 0.691432 0.615702
0.914244 0.730327 0.642939
0.943069 0.748226 0.655802
0.94963 0.754788 0.662364
0.927855 0.741314 0.653468
0.869398 0.693202 0.612787
0.838758 0.64268 0.55729
0.874357 0.622919 0.516136
0.935241 0.629053 0.499626
0.956481 0.637156 0.50222
0.963043 0.643732 0.508782
0.969604 0.650294 0.515343
0.960586 0.65478 0.525551
0.880659 0.649897 0.552377
0.762997 0.640009 0.588037
0.671977 0.633661 0.617456
0.636866 0.634699 0.633783
0.64094 0.64094 0.64094
0.647501 0.647501 0.647501
0.533745 0.666529 0.450019
0.573877 0.720104 0.487602
0.596506 0.761318 0.499794
0.604044 0.770153 0.506569
0.610605 0.776715 0.51313
0.617166 0.783291 0.519692
0.623743 0.789853 0.526253
0.624796 0.771435 0.532021
0.637003 0.718822 0.542336
0.682078 0.67126 0.562341
0.770077 0.66952 0.593683
0.865324 0.705013 0.625895
0.930602 0.739696 0.649149
0.945251 0.750408 0.658
0.949447 0.755505 0.663539
0.90959 0.727779 0.642802
0.852735 0.674769 0.594797
0.843626 0.631785 0.540627
0.895491 0.623392 0.508141
0.948501 0.632364 0.498741
0.958663 0.639353 0.504402
0.965225 0.645914 0.510964
0.971786 0.652476 0.517525
0.940856 0.654078 0.532876
0.843412 0.64686 0.563806
0.726528 0.637079 0.599283
0.654322 0.633219 0.624292
0.636561 0.636561 0.636561
0.643122 0.643122 0.643122
0.649683 0.649683 0.649683
0.656245 0.656245 0.656245
0.662806 0.662806 0.662806
0.669367 0.669367 0.669367
0.606241 0.772351 0.508766
0.612802 0.778912 0.515312
0.619364 0.785473 0.521889
0.624689 0.789151 0.528176
0.626551 0.756008 0.534691
0.647379 0.700221 0.547707
0.707485 0.664332 0.571832
0.802976 0.679088 0.604837
0.892088 0.71841 0.635096
0.940093 0.745632 0.653391
0.947448 0.752605 0.660182
0.941787 0.750851 0.660533
0.88925 0.71133 0.629038
0.84184 0.657465 0.575952
0.856184 0.625406 0.526909
0.916716 0.625772 0.502708
0.954284 0.634974 0.500023
0.960861 0.641535 0.506584
0.967422 0.648096 0.513146
0.971237 0.654307 0.520348
0.91368 0.652369 0.541939
0.803555 0.643488 0.575845
0.69604 0.634943 0.609125
0.642741 0.633585 0.629709
0.638743 0.638743 0.638743
0.645304 0.645304 0.645304
0.651865 0.651865 0.651865
0.658427 0.658427 0.658427
0.665003 0.665003 0.665003
0.671565 0.671565 0.671565
0.678126 0.678126 0.678126
0.684688 0.684688 0.684688
0.691249 0.691249 0.691249
0.624353 0.782864 0.5299
0.63035 0.737972 0.538064
0.662211 0.683833 0.55433
0.737789 0.664164 0.582544
0.835172 0.691432 0.615702
0.914244 0.730327 0.642939
0.943069 0.748226 0.655802
0.94963 0.754788 0.662364
0.927855 0.741314 0.653468
0.869398 0.693202 0.612787
0.838758 0.64268 0.55729
0.874357 0.622919 0.516136
0.935241 0.629053 0.499626
0.956481 0.637156 0.50222
0.963043 0.643732 0.508782
0.969604 0.650294 0.515343
0.960586 0.65478 0.525551
0.880659 0.649897 0.552377
0.762997 0.640009 0.588037
0.671977 0.633661 0.617456
0.636866 0.634699 0.633783
0.64094 0.64094 0.64094
0.647501 0.647501 0.647501
0.654063 0.654063 0.654063
0.660624 0.660624 0.660624
0.667185 0.667185 0.667185
0.673747 0.673747 0.673747
0.680308 0.680308 0.680308
0.68687 0.68687 0.68687
0.693431 0.693431 0.693431
0.699992 0.699992 0.699992
0.706554 0.706554 0.706554
0.713115 0.713115 0.713115
0.770123 0.669535 0.593698
0.865324 0.705013 0.625895
0.930602 0.739696 0.649149
0.945251 0.750408 0.658
0.949447 0.755505 0.663539
0.90959 0.727779 0.642802
0.852735 0.674769 0.594797
0.843626 0.631785 0.540627
0.895476 0.623392 0.508141
0.948501 0.632364 0.498741
0.958663 0.639353 0.504402
0.965225 0.645914 0.510964
0.971786 0.652476 0.517525
0.940856 0.654078 0.532876
0.843412 0.64686 0.563806
0.726528 0.637079 0.599283
0.654322 0.633219 0.624292
0.636561 0.636561 0.636561
0.643122 0.643122 0.643122
0.649683 0.649683 0.649683
0.656245 0.656245 0.656245
0.662806 0.662806 0.662806
0.669367 0.669367 0.669367
0.675929 0.675929 0.675929
0.68249 0.68249 0.68249
0.689052 0.689052 0.689052
0.695628 0.695628 0.695628
0.70219 0.70219 0.70219
0.708751 0.708751 0.708751
0.715312 0.715312 0.715312
0.721874 0.721874 0.721874
0.728435 0.728435 0.728435
0.734997 0.734997 0.734997
0.947448 0.752605 0.660182
0.941787 0.750851 0.660533
0.889235 0.71133 0.629038
0.84184 0.657465 0.575952
0.856184 0.625406 0.526909
0.916716 0.625772 0.502708
0.954284 0.634974 0.500023
0.960861 0.641535 0.506584
0.967422 0.648096 0.513146
0.971237 0.654307 0.520348
0.91368 0.652369 0.541939
0.803555 0.643488 0.575845
0.69604 0.634943 0.609125
0.642741 0.633585 0.629709
0.638743 0.638743 0.638743
0.645304 0.645304 0.645304
0.651865 0.651865 0.651865
0.658427 0.658427 0.658427
0.665003 0.665003 0.665003
0.671565 0.671565 0.671565
0.678126 0.678126 0.678126
0.684688 0.684688 0.684688
0.691249 0.691249 0.691249
0.69781 0.69781 0.69781
0.704372 0.704372 0.704372
0.710933 0.710933 0.710933
0.717494 0.717494 0.717494
0.724056 0.724056 0.724056
0.730617 0.730617 0.730617
0.737179 0.737179 0.737179
0.74374 0.74374 0.74374
0.750317 0.750317 0.750317
0.756878 0.756878 0.756878
0.838758 0.642649 0.55726
0.874357 0.622919 0.516136
0.935241 0.629053 0.499626
0.956481 0.637156 0.50222
0.963043 0.643732 0.508782
0.969604 0.650294 0.515343
0.960586 0.65478 0.525551
0.880659 0.649897 0.552377
0.762997 0.640009 0.588037
0.671977 0.633661 0.617456
0.636866 0.634699 0.633783
0.64094 0.64094 0.64094
0.647501 0.647501 0.647501
0.654063 0.654063 0.654063
0.660624 0.660624 0.660624
0.667185 0.667185 0.667185
0.673747 0.673747 0.673747
0.680308 0.680308 0.680308
0.68687 0.68687 0.68687
0.693431 0.693431 0.693431
0.699992 0.699992 0.699992
0.706554 0.706554 0.706554
0.713115 0.713115 0.713115
0.719692 0.719692 0.719692
0.726253 0.726253 0.726253
0.732815 0.732815 0.732815
0.739376 0.739376 0.739376
0.745937 0.745937 0.745937
0.752499 0.752499 0.752499
0.75906 0.75906 0.75906
0.765621 0.765621 0.765621
0.772183 0.772183 0.772183
0.778744 0.778744 0.778744
0.958663 0.639353 0.504402
0.965225 0.645914 0.510964
0.971786 0.652476 0.517525
0.940856 0.654078 0.532876
0.843412 0.64686 0.563806
0.726528 0.637079 0.599283
0.654322 0.633219 0.624292
0.636561 0.636561 0.636561
0.643122 0.643122 0.643122
