70 CGC LUTs/False Color LUT.cube
TITLE "Generated by Resolve"
LUT_3D_SIZE 5
0.208164 0 0.473365
0 0.181231 0.664988
0.0128634 0.195315 0.387137
0 0.685374 0.66125
0.209995 0.209995 0.209995
0 0.708614 0.68423
0.227497 0.227497 0.227497
0.279988 0.279988 0.279988
0.332494 0.332494 0.332494
0.300862 0.74905 0
0.349508 0.352087 0.347448
0.317113 0.771939 0
0.497307 0.648341 0.392523
0.626551 0.756008 0.534691
0.889235 0.71133 0.629038
0.770123 0.669535 0.593698
0.895476 0.623392 0.508141
0.654322 0.633219 0.624292
0.68249 0.68249 0.68249
0.734997 0.734997 0.734997
0.700008 0.700008 0.700008
0.752499 0.752499 0.752499
0.805005 0.805005 0.805005
1 0.960555 0.265721
1 0.654932 0.444022
0 0.144305 0.623148
0 0.151263 0.437888
0 0.342885 0.779507
0 0.639399 0.618402
0.232502 0.232502 0.232502
0.117815 0.304707 0.299809
0.249989 0.249989 0.249989
0.302495 0.302495 0.302495
0.350286 0.375326 0.330266
0.322118 0.776928 0
0.318547 0.605905 0.088777
0.33962 0.79443 0
0.602487 0.768597 0.505013
0.844038 0.695232 0.618692
0.939666 0.63003 0.499153
0.948074 0.753231 0.660807
0.968032 0.648722 0.513771
0.652491 0.652491 0.652491
0.704997 0.704997 0.704997
0.757504 0.757504 0.757504
0.722499 0.722499 0.722499
0.77499 0.77499 0.77499
0.842329 0.834592 0.786755
1 0.970016 0.363073
1 0.550393 0.234424
0 0.173739 0.657496
0.086717 0.107698 0.129763
0 0.553491 0.535058
0.176211 0.237873 0.236255
0.254994 0.254994 0.254994
0.219989 0.219989 0.219989
0.272496 0.272496 0.272496
0.324987 0.324987 0.324987
0.30782 0.678965 0.0110323
0.34461 0.799435 0
0.309621 0.764431 0
0.426719 0.685969 0.225727
0.624567 0.790143 0.527413
0.945937 0.753491 0.662333
0.972641 0.653666 0.518868
0.840543 0.635874 0.547402
0.741497 0.638254 0.594614
0.674998 0.674998 0.674998
0.727489 0.727489 0.727489
0.779995 0.779995 0.779995
0.745007 0.745007 0.745007
0.797498 0.797498 0.797498
1 0.943984 0.310307
1 0.782284 0.658457
1 0.676982 0.516472
0 0.178637 0.596292
0 0.397925 0.988296
0 0.730312 0.704814
0.224994 0.224994 0.224994
0.277501 0.277501 0.277501
0.242496 0.242496 0.242496
0.294987 0.294987 0.294987
0.347494 0.347494 0.347494
0.314611 0.769436 0
0.47361 0.651087 0.344015
0.332113 0.786938 0
0.590082 0.749752 0.496361
0.733272 0.663828 0.580972
0.871504 0.623072 0.51751
0.675029 0.633783 0.616358
0.96054 0.64123 0.506279
0.644999 0.644999 0.644999
0.69749 0.69749 0.69749
0.749996 0.749996 0.749996
0.802502 0.802502 0.802502
0.767498 0.767498 0.767498
0.820005 0.820005 0.820005
1 0.975555 0.28072
1 0.542885 0.226932
1 0.133455 0.0862135
0.063386 0.100404 0.139528
0 0.391897 0.389105
0.0814527 0.347814 0.340825
0.247501 0.247501 0.247501
0.299992 0.299992 0.299992
0.264988 0.264988 0.264988
0.317494 0.317494 0.317494
0.32491 0.565087 0.132845
0.337118 0.791928 0
0.599985 0.766094 0.50251
0.371313 0.763516 0.058793
0.617487 0.783597 0.520012
0.945571 0.750729 0.658305
0.965545 0.64622 0.511269
0.649989 0.649989 0.649989
0.875532 0.649485 0.553964
0.667491 0.667491 0.667491
0.719997 0.719997 0.719997
0.772503 0.772503 0.772503
0.831464 0.828092 0.807233
0.790005 0.790005 0.790005
0.97879 0.907713 0.468055
1 0.885344 0.70602
1 0.618891 0.348928
1 0.110658 0.0608682
