70 CGC LUTs/False Color LUT.cube
TITLE "Generated by Resolve"
LUT_3D_SIZE 9
0.208164 0 0.473365
0 0.154864 0.638483
0 0.181231 0.664988
0 0.134585 0.344427
0.0128634 0.195315 0.387137
0 0.30988 0.593027
0 0.685374 0.66125
0 0.571679 0.553964
0.209995 0.209995 0.209995
0.0432136 0.104814 0.169894
0 0.349722 0.85098
0 0.347539 0.369848
0 0.739727 0.713527
0.0415961 0.39556 0.386267
0.218738 0.218738 0.218738
0.244984 0.244984 0.244984
0.271244 0.271244 0.271244
0.29749 0.29749 0.29749
0 0.708614 0.68423
0.16376 0.251667 0.249363
0.227497 0.227497 0.227497
0.253742 0.253742 0.253742
0.279988 0.279988 0.279988
0.306233 0.306233 0.306233
0.332494 0.332494 0.332494
0.34786 0.405829 0.301503
0.300862 0.74905 0
0.262501 0.262501 0.262501
0.288746 0.288746 0.288746
0.314992 0.314992 0.314992
0.341238 0.341238 0.341238
0.331502 0.523201 0.17821
0.30837 0.76318 0
0.334615 0.789425 0
0.415885 0.69839 0.195102
0.596506 0.761318 0.499794
0.349508 0.352087 0.347448
0.31017 0.662135 0.0287175
0.317113 0.771939 0
0.343359 0.798184 0
0.497307 0.648341 0.392523
0.606241 0.772351 0.508751
0.626551 0.756008 0.534691
0.892088 0.71841 0.635096
0.889235 0.71133 0.629038
0.359289 0.783932 0.0200809
0.562402 0.70132 0.479545
0.614984 0.781094 0.51751
0.662211 0.683833 0.55433
0.943069 0.748226 0.655802
0.838758 0.64268 0.55729
0.963043 0.643732 0.508782
0.762997 0.640009 0.588037
0.647501 0.647501 0.647501
0.770123 0.669535 0.593698
0.949447 0.755505 0.663539
0.895476 0.623392 0.508141
0.971786 0.652476 0.517525
0.654322 0.633219 0.624292
0.656245 0.656245 0.656245
0.68249 0.68249 0.68249
0.708751 0.708751 0.708751
0.734997 0.734997 0.734997
0.913634 0.652369 0.541955
0.638743 0.638743 0.638743
0.665003 0.665003 0.665003
0.691249 0.691249 0.691249
0.717494 0.717494 0.717494
0.74374 0.74374 0.74374
0.770001 0.770001 0.770001
0.796246 0.796246 0.796246
0.824048 0.82324 0.818219
0.700008 0.700008 0.700008
0.726253 0.726253 0.726253
0.752499 0.752499 0.752499
0.778744 0.778744 0.778744
0.805005 0.805005 0.805005
0.865614 0.847684 0.736828
1 0.960555 0.265721
1 0.959701 0.447578
1 0.654932 0.444022
0 0.0569467 0.554879
0 0.166232 0.649989
0 0.18645 0.647562
0.0633707 0.10042 0.139559
0 0.379217 0.937804
0 0.391897 0.389105
0 0.742199 0.715984
0.0814527 0.347814 0.340825
0.221256 0.221256 0.221256
0.0809339 0.116182 0.153262
0 0.368994 0.886564
0 0.57882 0.559289
0 0.677836 0.654963
0.18674 0.226612 0.225574
0.229984 0.229984 0.229984
0.256245 0.256245 0.256245
0.28249 0.28249 0.28249
0.308736 0.308736 0.308736
0 0.522362 0.506996
0.212482 0.212482 0.212482
0.238743 0.238743 0.238743
0.264988 0.264988 0.264988
0.291234 0.291234 0.291234
0.317494 0.317494 0.317494
0.34374 0.34374 0.34374
0.32491 0.565087 0.132845
0.310857 0.765682 0
0.273747 0.273747 0.273747
0.299992 0.299992 0.299992
0.326238 0.326238 0.326238
0.350454 0.361334 0.341741
0.305745 0.694591 0
0.319615 0.774426 0
0.345861 0.800687 0
0.519051 0.655818 0.429435
0.608728 0.774853 0.511254
0.344686 0.432883 0.274159
0.302113 0.756909 0
0.328359 0.783185 0
0.371283 0.763546 0.058732
0.575357 0.722683 0.488502
0.617487 0.783597 0.520012
0.685344 0.669856 0.563607
0.945571 0.750729 0.658305
0.844984 0.63061 0.538491
0.438056 0.674617 0.256535
0.599985 0.766094 0.50251
0.624628 0.788602 0.528405
0.80763 0.68072 0.606409
0.940139 0.749767 0.659754
0.919585 0.6262 0.502129
0.970336 0.654444 0.520943
0.641566 0.633692 0.630365
0.658747 0.658747 0.658747
0.916976 0.731853 0.643946
0.866773 0.690562 0.610315
0.956786 0.637476 0.502525
0.875578 0.6495 0.553948
0.641245 0.641245 0.641245
0.667491 0.667491 0.667491
0.693751 0.693751 0.693751
0.719997 0.719997 0.719997
0.746242 0.746242 0.746242
0.721767 0.636728 0.600778
0.649989 0.649989 0.649989
0.676249 0.676249 0.676249
0.702495 0.702495 0.702495
0.72874 0.72874 0.72874
0.755001 0.755001 0.755001
0.781247 0.781247 0.781247
0.807492 0.807492 0.807492
0.885985 0.858747 0.690211
0.711254 0.711254 0.711254
0.737499 0.737499 0.737499
0.763745 0.763745 0.763745
0.78999 0.78999 0.78999
0.816251 0.816251 0.816251
0.97879 0.907713 0.468055
1 0.971801 0.276967
1 0.885344 0.70602
1 0.541619 0.227726
0 0.144305 0.623148
0 0.177478 0.661234
0 0.151263 0.437888
0.0609903 0.140703 0.224537
0 0.342885 0.779507
0 0.626474 0.604868
0 0.639399 0.618402
0.202182 0.211704 0.21146
0.232502 0.232502 0.232502
0 0.288762 0.668513
0 0.305852 0.404685
0 0.732067 0.70605
0 0.471382 0.458457
0.214984 0.214984 0.214984
0.241245 0.241245 0.241245
0.267491 0.267491 0.267491
0.293736 0.293736 0.293736
0.319997 0.319997 0.319997
0.117815 0.304707 0.299809
0.223743 0.223743 0.223743
0.249989 0.249989 0.249989
0.276234 0.276234 0.276234
0.302495 0.302495 0.302495
0.32874 0.32874 0.32874
0.350286 0.375326 0.330266
0.302586 0.721569 0
0.322118 0.776928 0
0.284993 0.284993 0.284993
0.311238 0.311238 0.311238
0.337484 0.337484 0.337484
0.340276 0.465278 0.240314
0.304616 0.759426 0
0.330861 0.785687 0
0.386877 0.738476 0.10808
0.585824 0.741787 0.49424
0.619989 0.786099 0.522499
0.318547 0.605905 0.088777
0.313359 0.768185 0
0.33962 0.79443 0
0.461585 0.656825 0.316091
0.602487 0.768597 0.505013
0.624369 0.780087 0.530449
0.844038 0.695232 0.618692
0.923003 0.737819 0.650782
0.939666 0.63003 0.499153
0.538293 0.670832 0.455665
0.611231 0.77734 0.513756
0.639551 0.71339 0.54374
0.934051 0.741772 0.650568
0.848936 0.669657 0.589471
0.959289 0.639979 0.505028
0.832242 0.64593 0.567193
0.643748 0.643748 0.643748
0.669993 0.669993 0.669993
0.948074 0.753231 0.660807
0.860899 0.624338 0.523537
0.968032 0.648722 0.513771
0.688518 0.634485 0.611658
0.652491 0.652491 0.652491
0.678752 0.678752 0.678752
0.704997 0.704997 0.704997
0.731243 0.731243 0.731243
0.757504 0.757504 0.757504
0.63621 0.635157 0.634714
0.66125 0.66125 0.66125
0.687495 0.687495 0.687495
0.713741 0.713741 0.713741
0.740001 0.740001 0.740001
0.766247 0.766247 0.766247
0.792493 0.792493 0.792493
0.818753 0.818753 0.818753
1 0.921263 0.407095
0.722499 0.722499 0.722499
0.748745 0.748745 0.748745
0.77499 0.77499 0.77499
0.801251 0.801251 0.801251
0.842329 0.834592 0.786755
1 0.955337 0.27042
1 0.970016 0.363073
1 0.717281 0.558343
1 0.550393 0.234424
0 0.162478 0.64625
0 0.188388 0.670848
0.0314183 0.107698 0.188281
0 0.331365 0.796277
0 0.329976 0.371801
0 0.738491 0.712276
0.021088 0.420249 0.409781
0.217502 0.217502 0.217502
0.243748 0.243748 0.243748
0 0.396017 0.97969
0 0.49958 0.483482
0 0.72076 0.695766
0.149798 0.267521 0.264439
0.226246 0.226246 0.226246
0.252491 0.252491 0.252491
0.278737 0.278737 0.278737
0.304982 0.304982 0.304982
0.331243 0.331243 0.331243
0.208743 0.208743 0.208743
0.234989 0.234989 0.234989
0.261234 0.261234 0.261234
0.287495 0.287495 0.287495
0.313741 0.313741 0.313741
0.339986 0.339986 0.339986
0.334691 0.50277 0.20029
0.307118 0.761929 0
0.333364 0.788174 0
0.296239 0.296239 0.296239
0.322484 0.322484 0.322484
0.348638 0.349203 0.34818
0.312764 0.644221 0.0477302
0.315862 0.770687 0
0.342107 0.796933 0
0.485557 0.648234 0.369589
0.60499 0.771099 0.5075
0.625345 0.765255 0.533089
0.300984 0.741848 0
0.32462 0.779431 0
0.354772 0.791638 0.00553903
0.554971 0.690578 0.473243
0.613733 0.779843 0.516258
0.653132 0.692851 0.550378
0.941817 0.746975 0.654551
0.83949 0.650752 0.567864
0.961791 0.642481 0.50753
0.593652 0.756344 0.498192
0.622492 0.788602 0.525002
0.751446 0.665858 0.587289
0.950423 0.755657 0.663264
0.883192 0.622827 0.512383
0.970535 0.651225 0.516274
0.663645 0.633371 0.620569
0.654994 0.654994 0.654994
0.681239 0.681239 0.681239
0.900954 0.721004 0.637247
0.951995 0.6336 0.499031
0.930037 0.653452 0.536568
0.637491 0.637491 0.637491
0.663752 0.663752 0.663752
0.689998 0.689998 0.689998
0.716243 0.716243 0.716243
0.742489 0.742489 0.742489
0.76875 0.76875 0.76875
0.64625 0.64625 0.64625
0.672496 0.672496 0.672496
0.698741 0.698741 0.698741
0.725002 0.725002 0.725002
0.751247 0.751247 0.751247
0.777493 0.777493 0.777493
0.803754 0.803754 0.803754
0.856886 0.842863 0.756146
1 0.959304 0.264469
0.733745 0.733745 0.733745
0.759991 0.759991 0.759991
0.786252 0.786252 0.786252
0.812497 0.812497 0.812497
0.937453 0.885969 0.567559
1 0.968063 0.273228
1 0.92166 0.645579
1 0.561379 0.266911
1 0.578363 0.276234
0 0.173739 0.657496
0 0.166445 0.524147
0.086717 0.107698 0.129763
0 0.380941 0.927291
0 0.553491 0.535058
0 0.694148 0.670481
0.176211 0.237873 0.236255
0.228748 0.228748 0.228748
0.254994 0.254994 0.254994
0 0.302953 0.533669
0 0.70074 0.675975
0 0.547463 0.530907
0.211231 0.211231 0.211231
0.237491 0.237491 0.237491
0.263737 0.263737 0.263737
0.289982 0.289982 0.289982
0.316243 0.316243 0.316243
0.342489 0.342489 0.342489
0.219989 0.219989 0.219989
0.246235 0.246235 0.246235
0.272496 0.272496 0.272496
0.298741 0.298741 0.298741
0.324987 0.324987 0.324987
0.350118 0.35613 0.345296
0.30782 0.678965 0.0110323
0.318364 0.773175 0
0.34461 0.799435 0
0.3075 0.3075 0.3075
0.333745 0.333745 0.333745
0.346426 0.418662 0.288685
0.301228 0.754131 0
0.327108 0.781933 0
0.364813 0.774502 0.0378576
0.569192 0.712123 0.484535
0.616236 0.782345 0.518761
0.672908 0.676097 0.55874
0.309621 0.764431 0
0.335866 0.790677 0
0.426719 0.685969 0.225727
0.598611 0.764553 0.501228
0.624567 0.790143 0.527413
0.788861 0.674556 0.600061
0.945937 0.753491 0.662333
0.907774 0.624582 0.504738
0.972641 0.653666 0.518868
0.607492 0.773602 0.510002
0.628428 0.745937 0.536522
0.905379 0.725475 0.639765
0.877684 0.701106 0.62002
0.955535 0.636225 0.501274
0.895445 0.651041 0.547753
0.639994 0.639994 0.639994
0.666239 0.666239 0.666239
0.6925 0.6925 0.6925
0.840543 0.635874 0.547402
0.964294 0.644968 0.510018
0.741497 0.638254 0.594614
0.648737 0.648737 0.648737
0.674998 0.674998 0.674998
0.701244 0.701244 0.701244
0.727489 0.727489 0.727489
0.75375 0.75375 0.75375
0.779995 0.779995 0.779995
0.657496 0.657496 0.657496
0.683742 0.683742 0.683742
0.710002 0.710002 0.710002
0.736248 0.736248 0.736248
0.762493 0.762493 0.762493
0.788754 0.788754 0.788754
0.815 0.815 0.815
0.965286 0.900587 0.500481
1 0.97055 0.275715
0.745007 0.745007 0.745007
0.771252 0.771252 0.771252
0.797498 0.797498 0.797498
0.827329 0.825467 0.813886
1 0.943984 0.310307
1 0.97583 0.304402
1 0.782284 0.658457
1 0.546639 0.230686
1 0.676982 0.516472
0 0.184985 0.668742
0 0.119203 0.25716
0 0.265766 0.599313
0 0.300328 0.436683
0 0.724453 0.698726
0 0.496773 0.482643
0.213748 0.213748 0.213748
0.239994 0.239994 0.239994
0.266255 0.266255 0.266255
0 0.417151 0.40766
0 0.741299 0.71519
0.100008 0.325734 0.319814
0.222492 0.222492 0.222492
0.248737 0.248737 0.248737
0.274983 0.274983 0.274983
0.301244 0.301244 0.301244
0.327489 0.327489 0.327489
0.350515 0.367727 0.336751
0.231235 0.231235 0.231235
0.257496 0.257496 0.257496
0.283742 0.283742 0.283742
0.309987 0.309987 0.309987
0.336233 0.336233 0.336233
0.342641 0.448402 0.258061
0.303365 0.758175 0
0.32961 0.784436 0
0.378668 0.751431 0.0822614
0.318746 0.318746 0.318746
0.344991 0.344991 0.344991
0.321675 0.585687 0.110567
0.312108 0.766934 0
0.338369 0.793179 0
0.449683 0.664805 0.286732
0.601236 0.767346 0.503761
0.624384 0.785245 0.529366
0.826108 0.687694 0.61265
0.320867 0.775677 0
0.347173 0.801663 0
0.528984 0.662531 0.443748
0.609979 0.776089 0.512505
0.63476 0.72433 0.541009
0.926574 0.737331 0.647547
0.857023 0.680003 0.600076
0.958038 0.638727 0.503777
0.854414 0.647776 0.560449
0.618738 0.784848 0.521263
0.699611 0.665599 0.568963
0.946822 0.75198 0.659556
0.851911 0.626795 0.530526
0.966796 0.647471 0.51252
0.704128 0.635477 0.606455
0.65124 0.65124 0.65124
0.677501 0.677501 0.677501
0.703746 0.703746 0.703746
0.930404 0.628077 0.500282
0.96463 0.65478 0.523827
0.637995 0.634302 0.632746
0.659998 0.659998 0.659998
0.686244 0.686244 0.686244
0.712489 0.712489 0.712489
0.73875 0.73875 0.73875
0.764996 0.764996 0.764996
0.791241 0.791241 0.791241
0.668742 0.668742 0.668742
0.695003 0.695003 0.695003
0.721248 0.721248 0.721248
0.747494 0.747494 0.747494
0.773739 0.773739 0.773739
0.8 0.8 0.8
0.836454 0.831128 0.798215
1 0.952209 0.279927
1 0.972534 0.340185
0.756252 0.756252 0.756252
0.782498 0.782498 0.782498
0.808743 0.808743 0.808743
0.897612 0.864958 0.662974
1 0.964309 0.269474
1 0.946258 0.54847
1 0.601129 0.342641
1 0.558129 0.242359
1 0.474342 0.431678
0 0.178637 0.596292
0.0849012 0.0972152 0.110231
0 0.397925 0.988296
0 0.472084 0.457206
0 0.730312 0.704814
0.134569 0.28513 0.281178
0.224994 0.224994 0.224994
0.251255 0.251255 0.251255
0.277501 0.277501 0.277501
0 0.647822 0.625299
0 0.618173 0.598215
0.206607 0.208667 0.208621
0.233738 0.233738 0.233738
0.259983 0.259983 0.259983
0.286244 0.286244 0.286244
0.31249 0.31249 0.31249
0.338735 0.338735 0.338735
0.337621 0.483421 0.221027
0.242496 0.242496 0.242496
0.268742 0.268742 0.268742
0.294987 0.294987 0.294987
0.321233 0.321233 0.321233
0.347494 0.347494 0.347494
0.315572 0.625406 0.0678264
0.314611 0.769436 0
0.340856 0.795682 0
0.47361 0.651087 0.344015
0.329992 0.329992 0.329992
0.349783 0.384176 0.322271
0.301579 0.732616 0
0.323369 0.77818 0
0.351339 0.797238 0
0.546944 0.680293 0.46537
0.612482 0.778592 0.515007
0.645624 0.7028 0.546853
0.939193 0.745022 0.652918
0.332113 0.786938 0
0.395865 0.725063 0.135775
0.590082 0.749752 0.496361
0.621241 0.78735 0.523751
0.733272 0.663828 0.580972
0.94931 0.754482 0.662058
0.871504 0.623072 0.51751
0.969284 0.649973 0.515023
0.675029 0.633783 0.616358
0.624659 0.773327 0.531701
0.861173 0.703044 0.624491
0.912398 0.729931 0.644541
0.947005 0.631907 0.498741
0.944183 0.654246 0.531701
0.636255 0.63624 0.63624
0.662501 0.662501 0.662501
0.688746 0.688746 0.688746
0.714992 0.714992 0.714992
0.96054 0.64123 0.506279
0.809369 0.643977 0.57409
0.644999 0.644999 0.644999
0.671244 0.671244 0.671244
0.69749 0.69749 0.69749
0.723751 0.723751 0.723751
0.749996 0.749996 0.749996
0.776242 0.776242 0.776242
0.802502 0.802502 0.802502
0.680003 0.680003 0.680003
0.706249 0.706249 0.706249
0.732494 0.732494 0.732494
0.75874 0.75874 0.75874
0.785 0.785 0.785
0.811246 0.811246 0.811246
0.923476 0.87863 0.601297
1 0.966812 0.271977
1 0.931441 0.615351
0.767498 0.767498 0.767498
0.793744 0.793744 0.793744
0.820005 0.820005 0.820005
1 0.927581 0.379248
1 0.975555 0.28072
1 0.838941 0.711162
1 0.542885 0.226932
1 0.657389 0.437476
1 0.133455 0.0862135
0 0.134585 0.344381
0.0128786 0.195285 0.387076
0 0.309895 0.593103
0 0.685344 0.661234
0 0.57171 0.553979
0.209995 0.209995 0.209995
0.236255 0.236255 0.236255
0.262501 0.262501 0.262501
0.288746 0.288746 0.288746
0 0.739727 0.713527
0.0415808 0.395575 0.386297
0.218738 0.218738 0.218738
0.244984 0.244984 0.244984
0.271244 0.271244 0.271244
0.29749 0.29749 0.29749
0.323735 0.323735 0.323735
0.349508 0.352087 0.347448
0.31017 0.66212 0.0287327
0.253742 0.253742 0.253742
0.279988 0.279988 0.279988
0.306233 0.306233 0.306233
0.332494 0.332494 0.332494
0.34786 0.405814 0.301518
0.300862 0.74905 0
0.325856 0.780682 0
0.359274 0.783963 0.0200198
0.562387 0.701305 0.479545
0.341238 0.341238 0.341238
0.331518 0.523186 0.178241
0.30837 0.76318 0
0.334615 0.789425 0
0.415869 0.698405 0.195071
0.596506 0.761318 0.499794
0.623728 0.789853 0.526253
0.770047 0.66952 0.593668
0.949447 0.755505 0.663539
0.343374 0.798184 0
0.497292 0.648341 0.392493
0.606241 0.772351 0.508751
0.626551 0.756024 0.534691
0.892073 0.718395 0.635081
0.88925 0.711345 0.629038
0.954284 0.634974 0.500023
0.913695 0.652369 0.541939
0.638743 0.638743 0.638743
0.662226 0.683833 0.554345
0.943069 0.748226 0.655802
0.838758 0.64268 0.55729
0.963043 0.643717 0.508782
0.763027 0.640009 0.588022
0.647501 0.647501 0.647501
0.673747 0.673747 0.673747
0.699992 0.699992 0.699992
0.726253 0.726253 0.726253
0.971786 0.652476 0.517525
0.654322 0.633219 0.624292
0.656245 0.656245 0.656245
0.68249 0.68249 0.68249
0.708751 0.708751 0.708751
0.734997 0.734997 0.734997
0.761242 0.761242 0.761242
0.787503 0.787503 0.787503
0.813748 0.813748 0.813748
0.691249 0.691249 0.691249
0.717494 0.717494 0.717494
0.74374 0.74374 0.74374
0.770001 0.770001 0.770001
0.796246 0.796246 0.796246
0.824048 0.82324 0.818235
1 0.938994 0.33051
1 0.976501 0.292165
1 0.802289 0.682124
0.778744 0.778744 0.778744
0.80499 0.80499 0.80499
0.865614 0.847684 0.736858
1 0.960555 0.265721
1 0.959716 0.447547
1 0.654948 0.444068
1 0.554147 0.238178
1 0.591882 0.529274
1 0.0994125 0.0496223
0.063386 0.100404 0.139528
0 0.379217 0.937804
0 0.391897 0.389105
0 0.742199 0.715984
0.0814527 0.347814 0.340825
0.221256 0.221256 0.221256
0.247501 0.247501 0.247501
0.273747 0.273747 0.273747
0.299992 0.299992 0.299992
0 0.677791 0.654932
0.18674 0.226612 0.225574
0.229984 0.229984 0.229984
0.256245 0.256245 0.256245
0.28249 0.28249 0.28249
0.308736 0.308736 0.308736
0.334997 0.334997 0.334997
0.344686 0.432853 0.274189
0.302113 0.756909 0
0.264988 0.264988 0.264988
0.291234 0.291234 0.291234
0.317494 0.317494 0.317494
0.34374 0.34374 0.34374
0.32491 0.565087 0.132845
0.310857 0.765682 0
0.337118 0.791928 0
0.438025 0.674632 0.256443
0.599985 0.766094 0.50251
0.350454 0.361349 0.341726
0.305745 0.694591 0
0.319615 0.774426 0
0.345861 0.800687 0
0.519051 0.655818 0.429435
0.608728 0.774853 0.511254
0.631098 0.735271 0.538613
0.916945 0.731838 0.643931
0.866773 0.690562 0.610315
0.371313 0.763516 0.058793
0.575357 0.722683 0.488502
0.617487 0.783597 0.520012
0.685344 0.669856 0.563607
0.945571 0.750729 0.658305
0.844984 0.63061 0.538491
0.965545 0.64622 0.511269
0.721813 0.636728 0.600763
0.649989 0.649989 0.649989
0.807675 0.680735 0.606424
0.940139 0.749767 0.659754
0.919585 0.6262 0.502129
0.970336 0.654444 0.520943
0.641566 0.633692 0.630365
0.658747 0.658747 0.658747
0.684993 0.684993 0.684993
0.711238 0.711238 0.711238
0.737499 0.737499 0.737499
0.875532 0.649485 0.553964
0.641245 0.641245 0.641245
0.667491 0.667491 0.667491
0.693751 0.693751 0.693751
0.719997 0.719997 0.719997
0.746242 0.746242 0.746242
0.772503 0.772503 0.772503
0.798749 0.798749 0.798749
0.831464 0.828092 0.807233
0.702495 0.702495 0.702495
0.72874 0.72874 0.72874
0.755001 0.755001 0.755001
0.781247 0.781247 0.781247
0.807492 0.807492 0.807492
0.885985 0.858747 0.690211
1 0.963058 0.268223
1 0.951125 0.51368
1 0.617807 0.374121
0.790005 0.790005 0.790005
0.816251 0.816251 0.816251
0.97879 0.907713 0.468055
1 0.971801 0.276967
1 0.885344 0.70602
1 0.541619 0.227726
1 0.618891 0.348928
1 0.222461 0.180224
1 0.110658 0.0608682
