public/luts/film_emulation/Agfa Portrait XPS 160.cube
#Created by: Denver Riddle
#Copyright: (C) Copyright Color Grading Central LLC
DOMAIN_MIN 0.0 0.0 0.0
DOMAIN_MAX 1.0 1.0 1.0
LUT_3D_SIZE 5
0.0095 0.0290 0.0006
0.1873 0.0516 0.0001
0.5244 0.0737 0.0001
0.8100 0.0983 0.0001
0.9936 0.1230 0.0001
0.0956 0.2427 0.0310
0.1906 0.2062 0.0173
0.5080 0.2605 0.0110
0.7888 0.3234 0.0027
0.9801 0.3811 0.0009
0.2003 0.4583 0.0580
0.3473 0.5049 0.0482
0.5136 0.5268 0.0905
0.7768 0.5550 0.0924
0.9733 0.5970 0.0956
0.2951 0.5953 0.1091
0.4671 0.6809 0.1085
0.6631 0.7683 0.1588
0.7708 0.7501 0.2005
0.9677 0.7893 0.2136
0.3817 0.6874 0.1865
0.5730 0.8038 0.1949
0.7762 0.9306 0.2458
0.8850 0.9759 0.3024
0.9666 0.9424 0.3754
0.0402 0.0136 0.2422
0.1734 0.0336 0.2635
0.4736 0.0706 0.2406
0.7861 0.0992 0.2198
0.9927 0.1390 0.1953
0.0218 0.2204 0.2375
0.1875 0.2107 0.2375
0.5048 0.2663 0.2157
0.7956 0.3276 0.1935
0.9889 0.3866 0.1731
0.1145 0.4935 0.2256
0.3447 0.5125 0.2829
0.5050 0.5245 0.2631
0.7778 0.5606 0.2545
0.9813 0.6021 0.2452
0.2467 0.6644 0.2799
0.4649 0.6971 0.3437
0.6560 0.7680 0.3299
0.7713 0.7566 0.3451
0.9685 0.7926 0.3457
0.3796 0.7888 0.3733
0.5720 0.8365 0.4233
0.7787 0.9402 0.4206
0.8837 0.9802 0.4442
0.9683 0.9513 0.4846
0.0983 0.0013 0.5143
0.2326 0.0104 0.5478
0.4537 0.0644 0.5852
0.7570 0.1234 0.5640
0.9574 0.1888 0.5360
0.0876 0.1982 0.5262
0.2426 0.1839 0.5299
0.4758 0.2336 0.5597
0.7743 0.3209 0.5337
0.9761 0.3963 0.5089
0.1008 0.5259 0.5008
0.2361 0.5247 0.5094
0.5009 0.5220 0.5231
0.7889 0.5631 0.5065
0.9866 0.6034 0.4789
0.2832 0.7300 0.5383
0.3839 0.7448 0.5433
0.6583 0.7688 0.5925
0.7740 0.7602 0.5625
0.9726 0.7981 0.5503
0.4651 0.8755 0.5873
0.5456 0.9055 0.5824
0.7811 0.9419 0.6304
0.8855 0.9832 0.6281
0.9687 0.9578 0.6392
0.1416 0.0017 0.6936
0.2731 0.0014 0.7222
0.4927 0.0557 0.7664
0.7388 0.1644 0.7961
0.9289 0.2767 0.7857
0.1379 0.1815 0.7177
0.2851 0.1649 0.7234
0.5162 0.2267 0.7543
0.7515 0.3464 0.7825
0.9442 0.4357 0.7638
0.1579 0.5350 0.7394
0.2879 0.5275 0.7416
0.5353 0.5094 0.7484
0.7661 0.5464 0.7615
0.9619 0.5977 0.7479
0.3407 0.7533 0.7026
0.3874 0.7542 0.7064
0.5661 0.7566 0.7210
0.7793 0.7659 0.7466
0.9755 0.7982 0.7330
0.6105 0.9276 0.7338
0.6153 0.9413 0.7287
0.7280 0.9615 0.7310
0.8836 0.9785 0.7720
0.9704 0.9661 0.7625
0.1852 0.0021 0.8558
0.3181 0.0018 0.8966
0.5364 0.0462 0.9511
0.7793 0.1705 0.9854
0.9180 0.3909 0.9980
0.1709 0.1465 0.8925
0.3281 0.1458 0.9001
0.5606 0.2175 0.9522
0.7951 0.3458 0.9919
0.9305 0.4831 0.9990
0.2187 0.5178 0.9386
0.3386 0.5108 0.9426
0.5769 0.4897 0.9507
0.8083 0.5339 0.9822
0.9461 0.6141 0.9996
0.4028 0.7755 0.9573
0.4391 0.7734 0.9581
0.6111 0.7631 0.9612
0.8168 0.7506 0.9647
0.9574 0.7829 0.9842
0.7319 0.9643 0.9395
0.6841 0.9639 0.9356
0.7203 0.9642 0.9385
0.8171 0.9651 0.9453
0.9715 0.9684 0.9607
