public/luts/film_emulation/Agfa Portrait XPS 160.cube
#Created by: Denver Riddle
#Copyright: (C) Copyright Color Grading Central LLC
DOMAIN_MIN 0.0 0.0 0.0
DOMAIN_MAX 1.0 1.0 1.0
LUT_3D_SIZE 33
0.0095 0.0290 0.0006
0.0155 0.0307 0.0005
0.0298 0.0359 0.0004
0.0393 0.0392 0.0003
0.0606 0.0399 0.0002
0.0846 0.0443 0.0001
0.1164 0.0456 0.0001
0.1516 0.0488 0.0001
0.1873 0.0516 0.0001
0.2269 0.0531 0.0001
0.2624 0.0572 0.0001
0.3015 0.0584 0.0001
0.3381 0.0613 0.0001
0.3788 0.0643 0.0001
0.4272 0.0655 0.0001
0.4733 0.0701 0.0001
0.5244 0.0737 0.0001
0.5761 0.0758 0.0001
0.6245 0.0778 0.0001
0.6684 0.0818 0.0001
0.7045 0.0827 0.0001
0.7324 0.0875 0.0001
0.7617 0.0902 0.0001
0.7866 0.0934 0.0001
0.8100 0.0983 0.0001
0.8354 0.0993 0.0001
0.8608 0.1025 0.0001
0.8857 0.1050 0.0001
0.9106 0.1098 0.0001
0.9389 0.1148 0.0001
0.9643 0.1158 0.0001
0.9941 0.1207 0.0001
0.9936 0.1230 0.0001
0.0152 0.0466 0.0010
0.0194 0.0425 0.0008
0.0330 0.0467 0.0006
0.0426 0.0515 0.0005
0.0598 0.0516 0.0003
0.0834 0.0559 0.0002
0.1150 0.0586 0.0002
0.1505 0.0608 0.0001
0.1859 0.0648 0.0001
0.2254 0.0658 0.0001
0.2609 0.0708 0.0001
0.2992 0.0734 0.0001
0.3371 0.0766 0.0001
0.3764 0.0776 0.0001
0.4225 0.0818 0.0001
0.4714 0.0835 0.0001
0.5224 0.0885 0.0001
0.5727 0.0900 0.0001
0.6220 0.0943 0.0001
0.6664 0.0983 0.0001
0.7021 0.1002 0.0001
0.7314 0.1024 0.0001
0.7592 0.1059 0.0001
0.7841 0.1109 0.0001
0.8085 0.1147 0.0001
0.8329 0.1168 0.0001
0.8578 0.1216 0.0001
0.8832 0.1229 0.0001
0.9081 0.1274 0.0001
0.9369 0.1324 0.0001
0.9613 0.1374 0.0001
0.9906 0.1422 0.0001
0.9926 0.1433 0.0001
0.0230 0.0652 0.0039
0.0284 0.0600 0.0011
0.0363 0.0574 0.0008
0.0461 0.0626 0.0007
0.0632 0.0669 0.0005
0.0822 0.0694 0.0004
0.1137 0.0719 0.0003
0.1492 0.0764 0.0002
0.1849 0.0779 0.0002
0.2241 0.0812 0.0002
0.2596 0.0840 0.0002
0.2972 0.0891 0.0002
0.3365 0.0901 0.0001
0.3746 0.0951 0.0001
0.4183 0.0980 0.0001
0.4696 0.1010 0.0001
0.5209 0.1022 0.0001
0.5702 0.1069 0.0001
0.6200 0.1118 0.0001
0.6644 0.1146 0.0001
0.7001 0.1177 0.0001
0.7304 0.1226 0.0001
0.7572 0.1236 0.0001
0.7826 0.1284 0.0001
0.8060 0.1333 0.0001
0.8304 0.1382 0.0001
0.8553 0.1432 0.0001
0.8807 0.1441 0.0001
0.9056 0.1491 0.0001
0.9339 0.1539 0.0001
0.9588 0.1586 0.0001
0.9876 0.1639 0.0002
0.9915 0.1688 0.0002
0.0319 0.0867 0.0106
0.0379 0.0798 0.0017
0.0444 0.0778 0.0012
0.0504 0.0751 0.0010
0.0668 0.0798 0.0008
0.0855 0.0856 0.0006
0.1124 0.0870 0.0004
0.1477 0.0895 0.0003
0.1832 0.0949 0.0003
0.2227 0.0971 0.0002
0.2581 0.1013 0.0002
0.2964 0.1023 0.0002
0.3353 0.1073 0.0002
0.3729 0.1124 0.0002
0.4175 0.1142 0.0002
0.4678 0.1183 0.0002
0.5189 0.1224 0.0002
0.5672 0.1243 0.0002
0.6180 0.1293 0.0002
0.6624 0.1343 0.0002
0.6976 0.1392 0.0002
0.7293 0.1431 0.0002
0.7547 0.1449 0.0002
0.7796 0.1499 0.0002
0.8040 0.1548 0.0002
0.8280 0.1598 0.0002
0.8533 0.1649 0.0002
0.8782 0.1696 0.0002
0.9026 0.1746 0.0002
0.9310 0.1796 0.0002
0.9559 0.1845 0.0002
0.9847 0.1910 0.0002
0.9900 0.1984 0.0002
0.0393 0.1078 0.0174
0.0478 0.1026 0.0082
0.0557 0.1011 0.0024
0.0603 0.0957 0.0014
0.0713 0.0941 0.0011
0.0891 0.1006 0.0009
0.1112 0.0997 0.0006
0.1458 0.1058 0.0005
0.1817 0.1116 0.0004
0.2211 0.1132 0.0003
0.2568 0.1183 0.0003
0.2954 0.1215 0.0003
0.3327 0.1245 0.0003
0.3711 0.1295 0.0003
0.4165 0.1346 0.0002
0.4658 0.1397 0.0002
0.5169 0.1426 0.0002
0.5642 0.1457 0.0002
0.6160 0.1508 0.0002
0.6604 0.1557 0.0002
0.6956 0.1607 0.0002
0.7273 0.1656 0.0002
0.7527 0.1706 0.0002
0.7771 0.1756 0.0002
0.8010 0.1804 0.0002
0.8259 0.1853 0.0002
0.8523 0.1928 0.0002
0.8752 0.1993 0.0003
0.8996 0.2043 0.0003
0.9280 0.2103 0.0003
0.9524 0.2181 0.0003
0.9812 0.2230 0.0003
0.9885 0.2316 0.0003
0.0505 0.1335 0.0230
0.0617 0.1281 0.0141
0.0679 0.1266 0.0073
0.0754 0.1228 0.0043
0.0827 0.1181 0.0017
0.0941 0.1165 0.0012
0.1172 0.1222 0.0040
0.1441 0.1218 0.0023
0.1802 0.1280 0.0006
0.2190 0.1336 0.0005
0.2544 0.1389 0.0005
0.2943 0.1412 0.0004
0.3304 0.1455 0.0004
0.3693 0.1506 0.0004
0.4152 0.1557 0.0003
0.4638 0.1609 0.0003
0.5148 0.1661 0.0003
0.5622 0.1710 0.0003
0.6135 0.1761 0.0003
0.6579 0.1812 0.0003
0.6936 0.1862 0.0003
0.7248 0.1949 0.0003
0.7497 0.2001 0.0003
0.7746 0.2050 0.0003
0.7980 0.2119 0.0003
0.8224 0.2189 0.0003
0.8507 0.2239 0.0003
0.8717 0.2330 0.0004
0.8966 0.2377 0.0004
0.9249 0.2449 0.0004
0.9493 0.2515 0.0004
0.9776 0.2606 0.0004
0.9864 0.2662 0.0004
0.0601 0.1648 0.0272
0.0735 0.1592 0.0187
0.0808 0.1545 0.0116
0.0905 0.1521 0.0093
0.0964 0.1478 0.0063
0.1091 0.1443 0.0057
0.1225 0.1401 0.0055
0.1479 0.1463 0.0084
0.1790 0.1476 0.0067
0.2170 0.1536 0.0052
0.2526 0.1595 0.0037
0.2917 0.1650 0.0022
0.3278 0.1704 0.0007
0.3674 0.1756 0.0005
0.4138 0.1807 0.0005
0.4617 0.1860 0.0004
0.5128 0.1952 0.0004
0.5596 0.2003 0.0004
0.6109 0.2055 0.0004
0.6554 0.2134 0.0004
0.6905 0.2194 0.0004
0.7223 0.2253 0.0004
0.7467 0.2333 0.0004
0.7716 0.2384 0.0004
0.7955 0.2465 0.0004
0.8194 0.2520 0.0004
0.8477 0.2614 0.0005
0.8687 0.2679 0.0005
0.8931 0.2751 0.0005
0.9214 0.2833 0.0005
0.9458 0.2889 0.0005
0.9741 0.2979 0.0005
0.9843 0.3043 0.0005
0.0764 0.2024 0.0296
0.0895 0.1977 0.0212
0.0987 0.1914 0.0143
0.1061 0.1880 0.0117
0.1165 0.1842 0.0108
0.1247 0.1805 0.0090
0.1396 0.1748 0.0104
0.1546 0.1708 0.0111
0.1784 0.1715 0.0132
0.2147 0.1773 0.0118
0.2504 0.1842 0.0105
0.2892 0.1930 0.0092
0.3259 0.1986 0.0079
0.3660 0.2041 0.0066
0.4122 0.2134 0.0053
0.4594 0.2188 0.0041
0.5102 0.2261 0.0028
0.5575 0.2332 0.0016
0.6083 0.2385 0.0005
0.6528 0.2475 0.0005
0.6879 0.2539 0.0005
0.7197 0.2617 0.0005
0.7441 0.2692 0.0006
0.7685 0.2755 0.0006
0.7919 0.2844 0.0006
0.8163 0.2907 0.0006
0.8441 0.2982 0.0006
0.8661 0.3064 0.0006
0.8895 0.3122 0.0006
0.9178 0.3216 0.0006
0.9422 0.3303 0.0007
0.9705 0.3375 0.0007
0.9822 0.3442 0.0007
0.0956 0.2427 0.0310
0.1057 0.2373 0.0232
0.1174 0.2327 0.0155
0.1248 0.2285 0.0134
0.1347 0.2248 0.0126
0.1470 0.2211 0.0129
0.1601 0.2185 0.0131
0.1751 0.2128 0.0151
0.1906 0.2062 0.0173
0.2169 0.2113 0.0190
0.2478 0.2141 0.0178
0.2867 0.2232 0.0166
0.3239 0.2303 0.0154
0.3643 0.2365 0.0143
0.4103 0.2453 0.0132
0.4572 0.2533 0.0121
0.5080 0.2605 0.0110
0.5549 0.2699 0.0100
0.6062 0.2758 0.0089
0.6502 0.2845 0.0079
0.6848 0.2915 0.0068
0.7166 0.2984 0.0058
0.7410 0.3073 0.0048
0.7654 0.3131 0.0037
0.7888 0.3234 0.0027
0.8137 0.3304 0.0017
0.8410 0.3386 0.0008
0.8639 0.3446 0.0008
0.8874 0.3533 0.0008
0.9142 0.3603 0.0008
0.9386 0.3671 0.0008
0.9669 0.3756 0.0008
0.9801 0.3811 0.0009
0.1123 0.2831 0.0320
0.1223 0.2779 0.0244
0.1349 0.2746 0.0168
0.1451 0.2707 0.0145
0.1564 0.2695 0.0138
0.1691 0.2670 0.0143
0.1813 0.2632 0.0152
0.1964 0.2593 0.0172
0.2137 0.2544 0.0202
0.2284 0.2475 0.0228
0.2582 0.2586 0.0256
0.2845 0.2549 0.0244
0.3215 0.2649 0.0234
0.3625 0.2724 0.0225
0.4080 0.2811 0.0215
0.4544 0.2901 0.0206
0.5053 0.2969 0.0196
0.5527 0.3060 0.0187
0.6036 0.3130 0.0179
0.6470 0.3235 0.0170
0.6822 0.3300 0.0161
0.7139 0.3390 0.0153
0.7388 0.3453 0.0144
0.7627 0.3528 0.0136
0.7862 0.3610 0.0128
0.8120 0.3668 0.0119
0.8379 0.3760 0.0111
0.8623 0.3809 0.0102
0.8857 0.3883 0.0094
0.9111 0.3954 0.0086
0.9355 0.4002 0.0077
0.9638 0.4094 0.0069
0.9790 0.4142 0.0060
0.1266 0.3168 0.0344
0.1411 0.3153 0.0263
0.1513 0.3129 0.0187
0.1637 0.3107 0.0153
0.1749 0.3115 0.0141
0.1908 0.3116 0.0156
0.2062 0.3103 0.0174
0.2218 0.3085 0.0195
0.2372 0.3050 0.0219
0.2523 0.2989 0.0251
0.2668 0.2925 0.0281
0.2970 0.3030 0.0330
0.3190 0.2983 0.0319
0.3605 0.3084 0.0311
0.4053 0.3196 0.0303
0.4511 0.3265 0.0294
0.5025 0.3362 0.0286
0.5500 0.3440 0.0279
0.5999 0.3516 0.0272
0.6448 0.3607 0.0265
0.6800 0.3668 0.0258
0.7117 0.3751 0.0251
0.7376 0.3801 0.0244
0.7611 0.3890 0.0238
0.7840 0.3947 0.0231
0.8109 0.4008 0.0225
0.8358 0.4088 0.0219
0.8602 0.4137 0.0212
0.8846 0.4221 0.0205
0.9090 0.4275 0.0199
0.9329 0.4327 0.0192
0.9613 0.4395 0.0186
0.9774 0.4465 0.0179
0.1403 0.3486 0.0372
0.1568 0.3481 0.0291
0.1676 0.3450 0.0220
0.1818 0.3450 0.0180
0.1966 0.3487 0.0176
0.2101 0.3492 0.0182
0.2267 0.3515 0.0197
0.2425 0.3509 0.0219
0.2589 0.3510 0.0240
0.2745 0.3480 0.0270
0.2915 0.3438 0.0308
0.3066 0.3379 0.0343
0.3365 0.3508 0.0401
0.3582 0.3437 0.0401
0.4029 0.3538 0.0393
0.4482 0.3628 0.0387
0.4997 0.3712 0.0380
0.5477 0.3775 0.0374
0.5961 0.3876 0.0368
0.6411 0.3932 0.0363
0.6778 0.4006 0.0358
0.7091 0.4076 0.0353
0.7360 0.4131 0.0348
0.7594 0.4216 0.0343
0.7828 0.4266 0.0339
0.8097 0.4318 0.0334
0.8336 0.4398 0.0329
0.8580 0.4460 0.0324
0.8820 0.4514 0.0320
0.9069 0.4564 0.0315
0.9313 0.4615 0.0310
0.9587 0.4696 0.0306
0.9767 0.4756 0.0301
0.1524 0.3736 0.0365
0.1691 0.3739 0.0315
0.1848 0.3738 0.0262
0.1980 0.3749 0.0214
0.2136 0.3798 0.0214
0.2283 0.3833 0.0216
0.2468 0.3870 0.0237
0.2641 0.3888 0.0262
0.2812 0.3911 0.0282
0.2971 0.3895 0.0313
0.3127 0.3891 0.0337
0.3293 0.3851 0.0377
0.3453 0.3800 0.0420
0.3770 0.3939 0.0483
0.4008 0.3843 0.0488
0.4455 0.3943 0.0483
0.4973 0.4024 0.0477
0.5459 0.4095 0.0473
0.5929 0.4188 0.0469
0.6379 0.4248 0.0465
0.6761 0.4303 0.0461
0.7074 0.4392 0.0458
0.7347 0.4449 0.0455
0.7582 0.4501 0.0452
0.7817 0.4554 0.0449
0.8076 0.4604 0.0446
0.8315 0.4696 0.0444
0.8559 0.4746 0.0441
0.8798 0.4796 0.0437
0.9057 0.4849 0.0434
0.9287 0.4898 0.0432
0.9570 0.4949 0.0429
0.9757 0.4998 0.0425
0.1671 0.3980 0.0411
0.1810 0.3981 0.0334
0.1969 0.3982 0.0262
0.2124 0.4008 0.0258
0.2294 0.4069 0.0262
0.2472 0.4130 0.0272
0.2647 0.4179 0.0287
0.2834 0.4228 0.0308
0.2999 0.4248 0.0331
0.3153 0.4249 0.0358
0.3326 0.4265 0.0387
0.3492 0.4266 0.0418
0.3659 0.4226 0.0464
0.3855 0.4213 0.0510
0.4208 0.4332 0.0590
0.4431 0.4212 0.0583
0.4947 0.4326 0.0579
0.5430 0.4400 0.0575
0.5886 0.4464 0.0572
0.6327 0.4527 0.0570
0.6744 0.4587 0.0568
0.7051 0.4679 0.0567
0.7335 0.4732 0.0565
0.7575 0.4785 0.0564
0.7805 0.4836 0.0563
0.8054 0.4883 0.0562
0.8298 0.4933 0.0561
0.8543 0.4984 0.0559
0.8782 0.5039 0.0559
0.9051 0.5089 0.0557
0.9281 0.5144 0.0556
0.9550 0.5194 0.0555
0.9751 0.5244 0.0553
0.1801 0.4193 0.0465
0.1914 0.4195 0.0391
0.2109 0.4209 0.0319
0.2283 0.4246 0.0278
0.2437 0.4307 0.0278
0.2619 0.4374 0.0330
0.2797 0.4433 0.0345
0.2971 0.4482 0.0364
0.3158 0.4531 0.0390
0.3341 0.4568 0.0419
0.3519 0.4593 0.0449
0.3693 0.4611 0.0482
0.3876 0.4622 0.0521
0.4043 0.4613 0.0560
0.4279 0.4580 0.0632
0.4631 0.4696 0.0688
0.4922 0.4592 0.0683
0.5416 0.4669 0.0680
0.5863 0.4738 0.0679
0.6304 0.4800 0.0678
0.6721 0.4857 0.0677
0.7039 0.4912 0.0677
0.7318 0.4966 0.0678
0.7558 0.5022 0.0679
0.7798 0.5074 0.0679
0.8037 0.5130 0.0680
0.8277 0.5181 0.0681
0.8521 0.5232 0.0682
0.8765 0.5320 0.0682
0.9039 0.5375 0.0683
0.9274 0.5426 0.0684
0.9524 0.5476 0.0684
0.9744 0.5526 0.0684
0.1897 0.4400 0.0519
0.2079 0.4416 0.0446
0.2217 0.4426 0.0375
0.2427 0.4478 0.0332
0.2604 0.4565 0.0334
0.2801 0.4651 0.0349
0.2980 0.4716 0.0365
0.3159 0.4777 0.0411
0.3338 0.4830 0.0449
0.3512 0.4874 0.0475
0.3688 0.4895 0.0511
0.3850 0.4905 0.0546
0.4044 0.4928 0.0590
0.4236 0.4935 0.0639
0.4446 0.4939 0.0692
0.4683 0.4936 0.0758
0.5016 0.4918 0.0791
0.5397 0.4894 0.0789
0.5840 0.4966 0.0789
0.6287 0.5032 0.0790
0.6708 0.5099 0.0790
0.7017 0.5155 0.0792
0.7296 0.5219 0.0795
0.7540 0.5299 0.0798
0.7775 0.5355 0.0800
0.8015 0.5408 0.0803
0.8260 0.5459 0.0806
0.8494 0.5506 0.0808
0.8764 0.5522 0.0810
0.9028 0.5573 0.0813
0.9268 0.5624 0.0815
0.9513 0.5675 0.0817
0.9739 0.5730 0.0819
0.2003 0.4583 0.0580
0.2179 0.4604 0.0508
0.2378 0.4630 0.0438
0.2556 0.4671 0.0395
0.2744 0.4761 0.0406
0.2929 0.4844 0.0420
0.3113 0.4922 0.0437
0.3295 0.4992 0.0457
0.3473 0.5049 0.0482
0.3649 0.5100 0.0509
0.3838 0.5151 0.0563
0.4031 0.5193 0.0623
0.4220 0.5240 0.0658
0.4449 0.5282 0.0711
0.4667 0.5301 0.0768
0.4882 0.5305 0.0829
0.5136 0.5268 0.0905
0.5382 0.5136 0.0902
0.5820 0.5229 0.0904
0.6263 0.5304 0.0906
0.6690 0.5370 0.0908
0.6999 0.5432 0.0912
0.7283 0.5470 0.0916
0.7528 0.5497 0.0919
0.7768 0.5550 0.0924
0.7998 0.5603 0.0928
0.8243 0.5655 0.0932
0.8483 0.5712 0.0937
0.8757 0.5760 0.0941
0.9006 0.5812 0.0946
0.9252 0.5868 0.0949
0.9492 0.5919 0.0953
0.9733 0.5970 0.0956
0.2122 0.4771 0.0639
0.2309 0.4800 0.0568
0.2507 0.4828 0.0500
0.2690 0.4875 0.0456
0.2880 0.4972 0.0467
0.3085 0.5071 0.0487
0.3266 0.5152 0.0503
0.3466 0.5237 0.0531
0.3621 0.5292 0.0548
0.3816 0.5363 0.0581
0.3994 0.5415 0.0613
0.4184 0.5461 0.0652
0.4392 0.5508 0.0700
0.4627 0.5556 0.0759
0.4843 0.5580 0.0818
0.5087 0.5599 0.0903
0.5316 0.5608 0.0985
0.5586 0.5560 0.1020
0.5802 0.5416 0.1018
0.6245 0.5495 0.1014
0.6677 0.5559 0.1011
0.6986 0.5622 0.1010
0.7271 0.5679 0.1009
0.7511 0.5733 0.1008
0.7746 0.5787 0.1012
0.7986 0.5840 0.1018
0.8221 0.5898 0.1024
0.8461 0.5946 0.1030
0.8745 0.6000 0.1036
0.8984 0.6056 0.1043
0.9230 0.6109 0.1048
0.9481 0.6179 0.1053
0.9721 0.6249 0.1058
0.2238 0.4971 0.0693
0.2411 0.5002 0.0621
0.2648 0.5053 0.0553
0.2860 0.5112 0.0516
0.3054 0.5221 0.0528
0.3244 0.5316 0.0543
0.3431 0.5410 0.0562
0.3610 0.5490 0.0584
0.3803 0.5566 0.0616
0.3988 0.5636 0.0644
0.4175 0.5702 0.0680
0.4373 0.5763 0.0723
0.4586 0.5820 0.0773
0.4805 0.5843 0.0838
0.5033 0.5882 0.0901
0.5273 0.5915 0.0969
0.5533 0.5939 0.1047
0.5735 0.5939 0.1111
0.5874 0.5728 0.1104
0.6225 0.5716 0.1108
0.6658 0.5789 0.1113
0.6973 0.5855 0.1120
0.7252 0.5913 0.1128
0.7498 0.5965 0.1136
0.7733 0.6024 0.1143
0.7963 0.6078 0.1151
0.8203 0.6159 0.1159
0.8443 0.6222 0.1167
0.8727 0.6281 0.1175
0.8967 0.6330 0.1182
0.9208 0.6396 0.1190
0.9474 0.6449 0.1196
0.9715 0.6502 0.1203
0.2360 0.5153 0.0755
0.2572 0.5194 0.0684
0.2773 0.5239 0.0620
0.2989 0.5303 0.0578
0.3185 0.5417 0.0591
0.3375 0.5521 0.0608
0.3567 0.5616 0.0628
0.3770 0.5720 0.0657
0.3951 0.5800 0.0682
0.4159 0.5890 0.0719
0.4339 0.5961 0.0753
0.4524 0.6022 0.0792
0.4772 0.6103 0.0852
0.4998 0.6165 0.0911
0.5207 0.6207 0.0967
0.5492 0.6265 0.1049
0.5706 0.6284 0.1117
0.5956 0.6303 0.1196
0.6210 0.6271 0.1244
0.6210 0.5940 0.1235
0.6644 0.6021 0.1240
0.6953 0.6116 0.1249
0.7228 0.6181 0.1259
0.7474 0.6238 0.1267
0.7709 0.6303 0.1278
0.7949 0.6359 0.1286
0.8185 0.6414 0.1298
0.8425 0.6469 0.1305
0.8709 0.6525 0.1315
0.8951 0.6579 0.1324
0.9192 0.6633 0.1332
0.9468 0.6691 0.1341
0.9709 0.6740 0.1350
0.2474 0.5319 0.0819
0.2695 0.5370 0.0750
0.2897 0.5420 0.0686
0.3137 0.5509 0.0643
0.3348 0.5637 0.0659
0.3543 0.5751 0.0677
0.3737 0.5855 0.0697
0.3917 0.5950 0.0720
0.4115 0.6049 0.0751
0.4305 0.6134 0.0782
0.4490 0.6209 0.0819
0.4700 0.6285 0.0869
0.4921 0.6351 0.0928
0.5175 0.6433 0.0994
0.5420 0.6504 0.1060
0.5649 0.6552 0.1128
0.5912 0.6600 0.1206
0.6149 0.6629 0.1282
0.6360 0.6634 0.1356
0.6597 0.6561 0.1378
0.6628 0.6285 0.1372
0.6939 0.6352 0.1382
0.7214 0.6419 0.1393
0.7460 0.6474 0.1404
0.7695 0.6532 0.1415
0.7931 0.6594 0.1426
0.8171 0.6650 0.1438
0.8412 0.6701 0.1449
0.8697 0.6763 0.1459
0.8934 0.6814 0.1469
0.9180 0.6873 0.1480
0.9456 0.6960 0.1490
0.9697 0.7013 0.1501
0.2588 0.5501 0.0875
0.2824 0.5561 0.0808
0.3058 0.5617 0.0747
0.3276 0.5695 0.0712
0.3489 0.5829 0.0730
0.3681 0.5942 0.0748
0.3868 0.6051 0.0768
0.4066 0.6160 0.0796
0.4253 0.6260 0.0822
0.4452 0.6359 0.0857
0.4664 0.6454 0.0902
0.4902 0.6559 0.0954
0.5119 0.6639 0.1009
0.5359 0.6725 0.1070
0.5610 0.6806 0.1139
0.5864 0.6869 0.1214
0.6095 0.6921 0.1284
0.6327 0.6955 0.1361
0.6553 0.6978 0.1438
0.6750 0.6954 0.1520
0.6893 0.6820 0.1519
0.6923 0.6577 0.1519
0.7199 0.6642 0.1531
0.7445 0.6700 0.1544
0.7681 0.6759 0.1556
0.7912 0.6843 0.1568
0.8152 0.6910 0.1583
0.8388 0.6967 0.1596
0.8684 0.7031 0.1609
0.8917 0.7083 0.1619
0.9158 0.7139 0.1631
0.9439 0.7200 0.1642
0.9691 0.7250 0.1655
0.2728 0.5663 0.0944
0.2943 0.5723 0.0878
0.3176 0.5784 0.0817
0.3396 0.5862 0.0778
0.3599 0.5995 0.0796
0.3807 0.6124 0.0818
0.4014 0.6238 0.0850
0.4208 0.6347 0.0880
0.4404 0.6451 0.0912
0.4610 0.6560 0.0950
0.4798 0.6650 0.0986
0.5064 0.6774 0.1047
0.5284 0.6874 0.1096
0.5550 0.6989 0.1164
0.5799 0.7075 0.1232
0.6048 0.7151 0.1305
0.6279 0.7209 0.1377
0.6518 0.7256 0.1456
0.6722 0.7285 0.1525
0.6942 0.7304 0.1605
0.7089 0.7288 0.1667
0.7226 0.7174 0.1669
0.7183 0.6896 0.1674
0.7425 0.6959 0.1689
0.7666 0.7018 0.1703
0.7897 0.7082 0.1717
0.8138 0.7142 0.1733
0.8380 0.7201 0.1746
0.8667 0.7262 0.1758
0.8904 0.7320 0.1772
0.9141 0.7376 0.1785
0.9428 0.7430 0.1799
0.9684 0.7482 0.1812
0.2835 0.5801 0.1019
0.3065 0.5861 0.0956
0.3320 0.5937 0.0893
0.3537 0.6030 0.0864
0.3740 0.6163 0.0881
0.3944 0.6296 0.0901
0.4138 0.6414 0.0925
0.4337 0.6523 0.0958
0.4528 0.6627 0.0992
0.4741 0.6746 0.1032
0.4956 0.6855 0.1077
0.5181 0.6965 0.1129
0.5441 0.7080 0.1194
0.5711 0.7199 0.1264
0.5983 0.7315 0.1334
0.6207 0.7391 0.1398
0.6449 0.7462 0.1473
0.6692 0.7520 0.1552
0.6906 0.7558 0.1628
0.7088 0.7571 0.1699
0.7204 0.7564 0.1755
0.7365 0.7582 0.1816
0.7525 0.7520 0.1827
0.7448 0.7215 0.1837
0.7650 0.7243 0.1853
0.7882 0.7309 0.1868
0.8123 0.7371 0.1884
0.8372 0.7412 0.1899
0.8655 0.7457 0.1913
0.8888 0.7516 0.1928
0.9130 0.7582 0.1942
0.9411 0.7641 0.1957
0.9683 0.7699 0.1972
0.2951 0.5953 0.1091
0.3189 0.6004 0.1032
0.3427 0.6075 0.0974
0.3647 0.6168 0.0942
0.3856 0.6310 0.0961
0.4056 0.6444 0.0981
0.4249 0.6557 0.1012
0.4458 0.6681 0.1048
0.4671 0.6809 0.1085
0.4876 0.6923 0.1124
0.5121 0.7057 0.1177
0.5358 0.7176 0.1231
0.5594 0.7285 0.1291
0.5873 0.7410 0.1364
0.6112 0.7506 0.1432
0.6372 0.7601 0.1507
0.6631 0.7683 0.1588
0.6829 0.7754 0.1647
0.7044 0.7806 0.1723
0.7223 0.7829 0.1791
0.7376 0.7842 0.1858
0.7501 0.7835 0.1919
0.7632 0.7852 0.1978
0.7770 0.7790 0.1991
0.7708 0.7501 0.2005
0.7867 0.7500 0.2023
0.8110 0.7565 0.2039
0.8364 0.7634 0.2055
0.8643 0.7660 0.2069
0.8881 0.7720 0.2086
0.9118 0.7779 0.2102
0.9400 0.7839 0.2120
0.9677 0.7893 0.2136
0.3049 0.6089 0.1218
0.3296 0.6155 0.1159
0.3545 0.6217 0.1094
0.3765 0.6306 0.1030
0.3985 0.6449 0.1057
0.4160 0.6567 0.1075
0.4376 0.6710 0.1104
0.4578 0.6838 0.1134
0.4784 0.6957 0.1174
0.5008 0.7076 0.1225
0.5262 0.7219 0.1281
0.5505 0.7348 0.1338
0.5762 0.7472 0.1402
0.6011 0.7587 0.1471
0.6286 0.7702 0.1547
0.6521 0.7793 0.1619
0.6756 0.7879 0.1690
0.7014 0.7970 0.1767
0.7197 0.8022 0.1834
0.7332 0.8034 0.1892
0.7507 0.8062 0.1963
0.7641 0.8095 0.2020
0.7741 0.8084 0.2076
0.7871 0.8068 0.2140
0.8006 0.8043 0.2160
0.7975 0.7801 0.2179
0.8102 0.7759 0.2218
0.8362 0.7814 0.2254
0.8631 0.7850 0.2270
0.8869 0.7912 0.2288
0.9117 0.7972 0.2305
0.9394 0.7999 0.2323
0.9681 0.8054 0.2342
0.3185 0.6213 0.1299
0.3426 0.6274 0.1246
0.3664 0.6349 0.1191
0.3882 0.6428 0.1164
0.4083 0.6571 0.1183
0.4296 0.6719 0.1207
0.4499 0.6842 0.1239
0.4707 0.6981 0.1256
0.4923 0.7114 0.1283
0.5159 0.7257 0.1322
0.5403 0.7396 0.1379
0.5649 0.7520 0.1440
0.5907 0.7644 0.1510
0.6183 0.7774 0.1585
0.6407 0.7874 0.1649
0.6651 0.7974 0.1723
0.6914 0.8080 0.1800
0.7135 0.8166 0.1869
0.7318 0.8220 0.1941
0.7474 0.8254 0.2015
0.7607 0.8272 0.2090
0.7740 0.8290 0.2159
0.7877 0.8318 0.2220
0.7973 0.8307 0.2282
0.8100 0.8296 0.2346
0.8257 0.8256 0.2369
0.8183 0.7985 0.2394
0.8359 0.7970 0.2413
0.8623 0.8042 0.2433
0.8862 0.8075 0.2451
0.9116 0.8128 0.2471
0.9383 0.8190 0.2492
0.9675 0.8234 0.2510
0.3280 0.6321 0.1384
0.3526 0.6392 0.1330
0.3760 0.6468 0.1280
0.3985 0.6552 0.1249
0.4207 0.6714 0.1271
0.4401 0.6837 0.1302
0.4630 0.6995 0.1337
0.4833 0.7133 0.1368
0.5030 0.7246 0.1411
