public/luts/film_emulation/Agfa Portrait XPS 160.cube
#Created by: Denver Riddle
#Copyright: (C) Copyright Color Grading Central LLC
DOMAIN_MIN 0.0 0.0 0.0
DOMAIN_MAX 1.0 1.0 1.0
LUT_3D_SIZE 9
0.0095 0.0290 0.0006
0.0606 0.0399 0.0002
0.1873 0.0516 0.0001
0.3381 0.0613 0.0001
0.5244 0.0737 0.0001
0.7045 0.0827 0.0001
0.8100 0.0983 0.0001
0.9106 0.1098 0.0001
0.9936 0.1230 0.0001
0.0393 0.1078 0.0174
0.0713 0.0941 0.0011
0.1817 0.1116 0.0004
0.3327 0.1245 0.0003
0.5169 0.1426 0.0002
0.6956 0.1607 0.0002
0.8010 0.1804 0.0002
0.8996 0.2043 0.0003
0.9885 0.2316 0.0003
0.0956 0.2427 0.0310
0.1347 0.2248 0.0126
0.1906 0.2062 0.0173
0.3239 0.2303 0.0154
0.5080 0.2605 0.0110
0.6848 0.2915 0.0068
0.7888 0.3234 0.0027
0.8874 0.3533 0.0008
0.9801 0.3811 0.0009
0.1524 0.3736 0.0365
0.2136 0.3798 0.0214
0.2812 0.3911 0.0282
0.3453 0.3800 0.0420
0.4973 0.4024 0.0477
0.6761 0.4303 0.0461
0.7817 0.4554 0.0449
0.8798 0.4796 0.0437
0.9757 0.4998 0.0425
0.2003 0.4583 0.0580
0.2744 0.4761 0.0406
0.3473 0.5049 0.0482
0.4220 0.5240 0.0658
0.5136 0.5268 0.0905
0.6690 0.5370 0.0908
0.7768 0.5550 0.0924
0.8757 0.5760 0.0941
0.9733 0.5970 0.0956
0.2474 0.5319 0.0819
0.3348 0.5637 0.0659
0.4115 0.6049 0.0751
0.4921 0.6351 0.0928
0.5912 0.6600 0.1206
0.6628 0.6285 0.1372
0.7695 0.6532 0.1415
0.8697 0.6763 0.1459
0.9697 0.7013 0.1501
0.2951 0.5953 0.1091
0.3856 0.6310 0.0961
0.4671 0.6809 0.1085
0.5594 0.7285 0.1291
0.6631 0.7683 0.1588
0.7376 0.7842 0.1858
0.7708 0.7501 0.2005
0.8643 0.7660 0.2069
0.9677 0.7893 0.2136
0.3390 0.6425 0.1475
0.4308 0.6823 0.1368
0.5167 0.7404 0.1508
0.6195 0.8002 0.1759
0.7214 0.8482 0.2050
0.7874 0.8713 0.2297
0.8338 0.8760 0.2561
0.8653 0.8414 0.2804
0.9653 0.8603 0.2898
0.3817 0.6874 0.1865
0.4766 0.7335 0.1770
0.5730 0.8038 0.1949
0.6833 0.8772 0.2194
0.7762 0.9306 0.2458
0.8349 0.9592 0.2737
0.8850 0.9759 0.3024
0.9343 0.9814 0.3425
0.9666 0.9424 0.3754
0.0182 0.0272 0.1165
0.0654 0.0270 0.1277
0.1702 0.0439 0.1145
0.3227 0.0549 0.1040
0.5029 0.0690 0.0977
0.6904 0.0798 0.0874
0.8003 0.0951 0.0771
0.8994 0.1119 0.0668
0.9961 0.1307 0.0567
0.0068 0.1021 0.1132
0.0633 0.0984 0.1130
0.1838 0.1101 0.1030
0.3330 0.1249 0.0967
0.5185 0.1410 0.0864
0.6957 0.1614 0.0761
0.8007 0.1815 0.0659
0.8978 0.2057 0.0558
0.9905 0.2338 0.0456
0.0332 0.2285 0.1077
0.1035 0.2346 0.1129
0.1886 0.2056 0.1170
0.3248 0.2330 0.1125
0.5063 0.2646 0.1049
0.6860 0.2947 0.0985
0.7914 0.3267 0.0945
0.8905 0.3550 0.0874
0.9843 0.3826 0.0801
0.0805 0.3807 0.0948
0.2044 0.3910 0.1430
0.2797 0.3889 0.1249
0.3425 0.3800 0.1297
0.4936 0.4055 0.1337
0.6767 0.4356 0.1288
0.7843 0.4579 0.1246
0.8825 0.4821 0.1204
0.9799 0.5017 0.1160
0.1379 0.4752 0.1242
0.2676 0.4914 0.1671
0.3487 0.5052 0.1455
0.4196 0.5209 0.1515
0.5075 0.5246 0.1674
0.6689 0.5404 0.1655
0.7764 0.5581 0.1639
0.8769 0.5788 0.1624
0.9765 0.5995 0.1608
0.2260 0.5564 0.1767
0.3291 0.5811 0.1870
0.4126 0.6060 0.1723
0.4945 0.6390 0.1820
0.5879 0.6589 0.1979
0.6620 0.6315 0.2082
0.7694 0.6568 0.2091
0.8696 0.6789 0.2099
0.9730 0.7046 0.2111
0.3007 0.6269 0.2288
0.3816 0.6500 0.2235
0.4678 0.6819 0.2054
0.5595 0.7289 0.2187
0.6574 0.7670 0.2352
0.7359 0.7845 0.2549
0.7722 0.7561 0.2634
0.8632 0.7694 0.2665
0.9685 0.7899 0.2712
0.3576 0.6816 0.2708
0.4270 0.7052 0.2647
0.5196 0.7437 0.2482
0.6209 0.8041 0.2600
0.7219 0.8519 0.2809
0.7862 0.8717 0.2990
0.8323 0.8768 0.3175
0.8637 0.8420 0.3343
0.9647 0.8603 0.3422
0.4135 0.7350 0.3073
0.4734 0.7601 0.2995
0.5757 0.8101 0.2861
0.6821 0.8813 0.3019
0.7768 0.9353 0.3217
0.8364 0.9635 0.3395
0.8840 0.9777 0.3633
0.9330 0.9827 0.3935
0.9674 0.9467 0.4237
0.0402 0.0136 0.2422
0.0900 0.0177 0.2538
0.1734 0.0336 0.2635
0.3016 0.0551 0.2512
0.4736 0.0706 0.2406
0.6684 0.0851 0.2302
0.7861 0.0992 0.2198
0.8852 0.1176 0.2056
0.9927 0.1390 0.1953
0.0355 0.0927 0.2416
0.0862 0.0860 0.2420
0.1806 0.0923 0.2522
0.3139 0.1177 0.2396
0.4917 0.1363 0.2291
0.6797 0.1548 0.2179
0.7920 0.1772 0.2046
0.8945 0.2078 0.1942
0.9970 0.2390 0.1839
0.0218 0.2204 0.2375
0.0732 0.2167 0.2372
0.1875 0.2107 0.2375
0.3283 0.2363 0.2279
0.5048 0.2663 0.2157
0.6883 0.2956 0.2037
0.7956 0.3276 0.1935
0.8927 0.3593 0.1832
0.9889 0.3866 0.1731
0.0622 0.3853 0.2148
0.1247 0.3897 0.2187
0.2616 0.3932 0.2488
0.3415 0.3763 0.2390
0.4935 0.4113 0.2387
0.6785 0.4391 0.2305
0.7856 0.4608 0.2233
0.8859 0.4837 0.2119
0.9847 0.5033 0.2045
0.1145 0.4935 0.2256
0.1898 0.5017 0.2309
0.3447 0.5125 0.2829
0.4203 0.5183 0.2610
0.5050 0.5245 0.2631
0.6706 0.5435 0.2591
0.7778 0.5606 0.2545
0.8779 0.5812 0.2496
0.9813 0.6021 0.2452
0.1772 0.5853 0.2438
0.2679 0.5993 0.2587
0.4108 0.6177 0.3054
0.4958 0.6381 0.2916
0.5838 0.6562 0.2982
0.6625 0.6346 0.2979
0.7704 0.6603 0.2948
0.8707 0.6824 0.2926
0.9739 0.7075 0.2907
0.2467 0.6644 0.2799
0.3508 0.6764 0.3190
0.4649 0.6971 0.3437
0.5603 0.7291 0.3237
0.6560 0.7680 0.3299
0.7332 0.7839 0.3455
0.7713 0.7566 0.3451
0.8642 0.7732 0.3450
0.9685 0.7926 0.3457
0.3099 0.7248 0.3254
0.4133 0.7425 0.3698
0.5131 0.7656 0.3843
0.6244 0.8090 0.3680
0.7173 0.8526 0.3781
0.7852 0.8735 0.3862
0.8309 0.8772 0.3972
0.8642 0.8449 0.4054
0.9651 0.8642 0.4097
0.3796 0.7888 0.3733
0.4776 0.8084 0.4210
0.5720 0.8365 0.4233
0.6847 0.8874 0.4115
0.7787 0.9402 0.4206
0.8372 0.9669 0.4308
0.8837 0.9802 0.4442
0.9316 0.9836 0.4648
0.9683 0.9513 0.4846
0.0672 0.0016 0.3731
0.1179 0.0058 0.3890
0.2021 0.0213 0.4055
0.3081 0.0444 0.4213
0.4482 0.0740 0.4077
0.6424 0.0914 0.3932
0.7714 0.1099 0.3788
0.8701 0.1341 0.3676
0.9760 0.1596 0.3538
0.0653 0.0825 0.3752
0.1130 0.0740 0.3762
0.2084 0.0818 0.3924
0.3141 0.1035 0.4071
0.4644 0.1350 0.3921
0.6581 0.1570 0.3775
0.7797 0.1851 0.3650
0.8803 0.2172 0.3529
0.9829 0.2537 0.3421
0.0535 0.2098 0.3761
0.1043 0.2070 0.3766
0.2120 0.1976 0.3782
0.3242 0.2112 0.3925
0.4781 0.2506 0.3763
0.6719 0.2835 0.3629
0.7881 0.3189 0.3528
0.8853 0.3535 0.3411
0.9892 0.3861 0.3289
0.0448 0.3809 0.3434
0.0978 0.3806 0.3468
0.1969 0.3797 0.3533
0.3324 0.3778 0.3637
0.4968 0.4153 0.3616
0.6818 0.4395 0.3532
0.7882 0.4642 0.3405
0.8883 0.4843 0.3273
0.9904 0.5039 0.3162
0.1044 0.5105 0.3568
0.1667 0.5132 0.3607
0.2670 0.5177 0.3685
0.4047 0.5182 0.3983
0.5003 0.5196 0.3838
0.6719 0.5447 0.3749
0.7806 0.5629 0.3649
0.8800 0.5834 0.3556
0.9843 0.6034 0.3514
0.1776 0.6144 0.3824
0.2445 0.6216 0.3858
0.3343 0.6323 0.3923
0.4922 0.6446 0.4431
0.5814 0.6530 0.4193
0.6614 0.6386 0.4101
0.7758 0.6641 0.4010
0.8723 0.6874 0.3945
0.9759 0.7096 0.3900
0.2607 0.7018 0.4156
0.3144 0.7107 0.4182
0.3920 0.7228 0.4237
0.5568 0.7417 0.4756
0.6567 0.7659 0.4573
0.7300 0.7814 0.4530
0.7706 0.7552 0.4459
0.8664 0.7770 0.4429
0.9700 0.7952 0.4408
0.3362 0.7693 0.4519
0.3808 0.7818 0.4520
0.4536 0.7976 0.4546
0.6208 0.8203 0.5071
0.7184 0.8527 0.4937
0.7853 0.8744 0.4971
0.8308 0.8768 0.4979
0.8638 0.8472 0.4961
0.9661 0.8678 0.4970
0.4104 0.8366 0.4889
0.4470 0.8538 0.4853
0.5538 0.8751 0.5189
0.6845 0.9035 0.5374
0.7804 0.9431 0.5305
0.8367 0.9670 0.5296
0.8857 0.9827 0.5349
0.9302 0.9836 0.5442
0.9687 0.9547 0.5567
0.0983 0.0013 0.5143
0.1490 0.0012 0.5305
0.2326 0.0104 0.5478
0.3382 0.0337 0.5665
0.4537 0.0644 0.5852
0.6202 0.0986 0.5753
0.7570 0.1234 0.5640
0.8587 0.1521 0.5505
0.9574 0.1888 0.5360
0.0882 0.0605 0.5193
0.1439 0.0603 0.5210
0.2395 0.0698 0.5398
0.3447 0.0935 0.5561
0.4632 0.1259 0.5720
0.6324 0.1637 0.5621
0.7678 0.1969 0.5494
0.8651 0.2366 0.5349
0.9677 0.2791 0.5219
0.0876 0.1982 0.5262
0.1397 0.1955 0.5268
0.2426 0.1839 0.5299
0.3552 0.2012 0.5475
0.4758 0.2336 0.5597
0.6466 0.2808 0.5483
0.7743 0.3209 0.5337
0.8715 0.3606 0.5218
0.9761 0.3963 0.5089
0.0780 0.3960 0.5296
0.1304 0.3928 0.5300
0.2268 0.3873 0.5304
0.3573 0.3816 0.5323
0.4867 0.3912 0.5480
0.6654 0.4227 0.5325
0.7812 0.4490 0.5216
0.8818 0.4753 0.5078
0.9829 0.4976 0.4934
0.1008 0.5259 0.5008
0.1503 0.5255 0.5040
0.2361 0.5247 0.5094
0.3429 0.5233 0.5146
0.5009 0.5220 0.5231
0.6757 0.5424 0.5206
0.7889 0.5631 0.5065
0.8836 0.5833 0.4926
0.9866 0.6034 0.4789
0.1863 0.6339 0.5132
0.2359 0.6374 0.5152
0.3122 0.6412 0.5196
0.4136 0.6462 0.5281
0.5874 0.6507 0.5705
0.6664 0.6442 0.5401
0.7815 0.6675 0.5305
0.8761 0.6910 0.5223
0.9790 0.7114 0.5137
0.2832 0.7300 0.5383
0.3205 0.7374 0.5392
0.3839 0.7448 0.5433
0.4861 0.7542 0.5515
0.6583 0.7688 0.5925
0.7293 0.7780 0.5790
0.7740 0.7602 0.5625
0.8692 0.7810 0.5546
0.9726 0.7981 0.5503
0.3675 0.8022 0.5664
0.3965 0.8125 0.5647
0.4609 0.8243 0.5672
0.5613 0.8396 0.5726
0.7210 0.8581 0.6141
0.7858 0.8746 0.6073
0.8300 0.8739 0.6046
0.8654 0.8505 0.5960
0.9682 0.8709 0.5933
0.4651 0.8755 0.5873
0.4901 0.8892 0.5834
0.5456 0.9055 0.5824
0.6832 0.9260 0.6331
0.7811 0.9419 0.6304
0.8361 0.9650 0.6303
0.8855 0.9832 0.6281
0.9291 0.9842 0.6340
0.9687 0.9578 0.6392
0.1259 0.0016 0.6307
0.1755 0.0015 0.6421
0.2581 0.0013 0.6594
0.3623 0.0267 0.6766
0.4765 0.0601 0.6924
0.6107 0.1043 0.7029
0.7421 0.1426 0.7041
0.8419 0.1787 0.6973
0.9441 0.2264 0.6905
0.1155 0.0484 0.6387
0.1713 0.0482 0.6409
0.2657 0.0599 0.6562
0.3702 0.0837 0.6730
0.4875 0.1173 0.6874
0.6224 0.1671 0.6999
0.7534 0.2159 0.6963
0.8503 0.2640 0.6895
0.9525 0.3149 0.6793
0.1177 0.1876 0.6500
0.1713 0.1850 0.6516
0.2698 0.1717 0.6552
0.3813 0.1926 0.6707
0.5013 0.2280 0.6838
0.6365 0.2812 0.6930
0.7608 0.3317 0.6884
0.8611 0.3728 0.6787
0.9589 0.4134 0.6715
0.1097 0.3856 0.6613
0.1629 0.3826 0.6622
0.2587 0.3777 0.6639
0.3788 0.3645 0.6670
0.5129 0.3816 0.6794
0.6483 0.4142 0.6867
0.7678 0.4478 0.6785
0.8676 0.4774 0.6704
0.9692 0.5030 0.6600
0.1341 0.5410 0.6643
0.1876 0.5375 0.6641
0.2682 0.5327 0.6649
0.3719 0.5273 0.6665
0.5205 0.5167 0.6703
0.6595 0.5315 0.6780
0.7787 0.5509 0.6693
0.8745 0.5733 0.6588
0.9761 0.5957 0.6485
0.2087 0.6607 0.6502
0.2429 0.6609 0.6533
0.3017 0.6604 0.6569
0.3865 0.6584 0.6606
0.5184 0.6512 0.6622
0.6716 0.6488 0.6678
0.7856 0.6680 0.6577
0.8793 0.6911 0.6476
0.9818 0.7114 0.6373
0.3090 0.7479 0.6364
0.3333 0.7519 0.6370
0.3801 0.7566 0.6395
0.4681 0.7609 0.6463
0.5928 0.7666 0.6577
0.7341 0.7764 0.6874
0.7776 0.7632 0.6760
0.8751 0.7841 0.6669
0.9752 0.7997 0.6596
0.4098 0.8221 0.6426
0.4288 0.8295 0.6412
0.4762 0.8360 0.6436
0.5564 0.8474 0.6476
0.6825 0.8591 0.6697
0.7871 0.8743 0.6902
0.8296 0.8745 0.6914
0.8706 0.8543 0.6885
0.9693 0.8742 0.6831
0.5368 0.9026 0.6523
0.5412 0.9119 0.6483
0.5806 0.9243 0.6467
0.6442 0.9388 0.6475
0.7773 0.9518 0.6923
0.8370 0.9637 0.6964
0.8844 0.9811 0.6942
0.9293 0.9860 0.6985
0.9691 0.9614 0.7076
0.1416 0.0017 0.6936
0.1907 0.0016 0.7039
0.2731 0.0014 0.7222
0.3775 0.0212 0.7414
0.4927 0.0557 0.7664
0.6279 0.1014 0.7837
0.7388 0.1644 0.7961
0.8290 0.2199 0.7940
0.9289 0.2767 0.7857
0.1311 0.0416 0.7035
0.1870 0.0414 0.7057
0.2809 0.0550 0.7210
0.3851 0.0786 0.7393
0.5022 0.1158 0.7566
0.6387 0.1678 0.7783
0.7437 0.2385 0.7897
0.8359 0.2988 0.7857
0.9377 0.3542 0.7715
0.1379 0.1815 0.7177
0.1750 0.1655 0.7194
0.2851 0.1649 0.7234
0.3967 0.1875 0.7389
0.5162 0.2267 0.7543
0.6514 0.2811 0.7670
0.7515 0.3464 0.7825
0.8429 0.3951 0.7705
0.9442 0.4357 0.7638
0.1329 0.3795 0.7335
0.1799 0.3770 0.7344
0.2789 0.3719 0.7368
0.3936 0.3573 0.7406
0.5277 0.3762 0.7527
0.6632 0.4111 0.7617
0.7563 0.4503 0.7680
0.8542 0.4839 0.7627
0.9525 0.5133 0.7561
0.1579 0.5350 0.7394
0.2101 0.5318 0.7403
0.2879 0.5275 0.7416
0.3897 0.5221 0.7444
0.5353 0.5094 0.7484
0.6745 0.5268 0.7559
0.7661 0.5464 0.7615
0.8617 0.5719 0.7550
0.9619 0.5977 0.7479
0.2351 0.6653 0.7401
0.2675 0.6632 0.7405
0.3204 0.6602 0.7411
0.4034 0.6557 0.7426
0.5354 0.6491 0.7454
0.6866 0.6432 0.7484
0.7737 0.6546 0.7537
0.8701 0.6763 0.7467
0.9722 0.7022 0.7403
0.3407 0.7533 0.7026
0.3523 0.7534 0.7036
0.3874 0.7542 0.7064
0.4583 0.7553 0.7121
0.5661 0.7566 0.7210
0.6953 0.7578 0.7331
0.7793 0.7659 0.7466
0.8772 0.7856 0.7405
0.9755 0.7982 0.7330
0.4682 0.8375 0.7141
0.4680 0.8409 0.7126
0.4959 0.8454 0.7135
0.5629 0.8502 0.7182
0.6526 0.8547 0.7256
0.7636 0.8612 0.7501
0.8297 0.8747 0.7591
0.8711 0.8571 0.7534
0.9691 0.8764 0.7447
0.6105 0.9276 0.7338
0.5954 0.9334 0.7296
0.6153 0.9413 0.7287
0.6605 0.9509 0.7290
0.7280 0.9615 0.7310
0.8283 0.9687 0.7672
0.8836 0.9785 0.7720
0.9299 0.9874 0.7675
0.9704 0.9661 0.7625
0.1606 0.0019 0.7662
0.2103 0.0018 0.7799
0.2936 0.0016 0.8036
0.3986 0.0170 0.8301
0.5127 0.0537 0.8531
0.6482 0.1009 0.8772
0.7596 0.1651 0.8965
0.8312 0.2632 0.9119
0.9116 0.3382 0.9069
0.1506 0.0334 0.7781
0.2057 0.0332 0.7808
0.3004 0.0482 0.8005
0.4053 0.0732 0.8250
0.5235 0.1118 0.8496
0.6587 0.1685 0.8709
0.7642 0.2424 0.8878
0.8353 0.3349 0.9022
0.9229 0.3976 0.8953
0.1576 0.1731 0.7957
0.1936 0.1573 0.7979
0.3039 0.1567 0.8024
0.4159 0.1807 0.8232
0.5361 0.2224 0.8461
0.6728 0.2792 0.8671
0.7715 0.3467 0.8801
0.8400 0.4134 0.8920
0.9298 0.4630 0.8837
0.1561 0.3719 0.8168
0.2032 0.3694 0.8180
0.3011 0.3640 0.8220
0.4118 0.3484 0.8259
0.5470 0.3692 0.8432
0.6836 0.4070 0.8598
0.7772 0.4499 0.8733
0.8471 0.4920 0.8823
0.9412 0.5320 0.8759
0.1872 0.5278 0.8279
0.2346 0.5251 0.8289
0.3107 0.5208 0.8312
0.4116 0.5151 0.8342
0.5531 0.5010 0.8386
0.6939 0.5201 0.8520
0.7839 0.5417 0.8631
0.8517 0.5732 0.8736
0.9481 0.6061 0.8642
0.2623 0.6591 0.8339
0.2923 0.6574 0.8342
0.3474 0.6542 0.8357
0.4251 0.6498 0.8371
0.5579 0.6425 0.8406
0.7048 0.6349 0.8431
0.7883 0.6495 0.8524
0.8589 0.6712 0.8615
0.9550 0.7008 0.8520
0.3633 0.7841 0.8344
0.3732 0.7835 0.8350
0.4058 0.7816 0.8354
0.4764 0.7775 0.8361
0.5831 0.7715 0.8378
0.7060 0.7652 0.8404
0.7928 0.7615 0.8415
0.8670 0.7717 0.8508
0.9663 0.7896 0.8404
0.5316 0.8498 0.8053
0.5117 0.8496 0.8037
0.5253 0.8497 0.8048
0.5698 0.8501 0.8084
0.6395 0.8512 0.8141
0.7195 0.8523 0.8207
0.7985 0.8529 0.8282
0.8729 0.8592 0.8400
0.9735 0.8755 0.8331
0.6816 0.9493 0.8296
0.6506 0.9515 0.8252
0.6496 0.9549 0.8236
0.6806 0.9595 0.8245
0.7247 0.9647 0.8264
0.7781 0.9704 0.8291
0.8482 0.9766 0.8403
0.9312 0.9884 0.8578
0.9700 0.9659 0.8464
0.1852 0.0021 0.8558
0.2350 0.0020 0.8701
0.3181 0.0018 0.8966
0.4242 0.0080 0.9305
0.5364 0.0462 0.9511
0.6701 0.0996 0.9719
0.7793 0.1705 0.9854
0.8486 0.2725 0.9929
0.9180 0.3909 0.9980
0.1769 0.0227 0.8703
0.2302 0.0225 0.8734
0.3250 0.0392 0.8955
0.4299 0.0658 0.9235
0.5490 0.1055 0.9570
0.6823 0.1647 0.9764
0.7856 0.2455 0.9884
0.8549 0.3405 0.9949
0.9213 0.4331 0.9985
0.1709 0.1465 0.8925
0.2182 0.1463 0.8947
0.3281 0.1458 0.9001
0.4403 0.1714 0.9244
0.5606 0.2175 0.9522
0.6982 0.2767 0.9828
0.7951 0.3458 0.9919
0.8618 0.4162 0.9964
0.9305 0.4831 0.9990
0.1866 0.3619 0.9216
0.2344 0.3591 0.9230
0.3284 0.3538 0.9272
0.4356 0.3374 0.9317
0.5713 0.3598 0.9522
0.7080 0.4016 0.9741
0.8025 0.4436 0.9954
0.8706 0.4881 0.9985
0.9397 0.5409 0.9996
0.2187 0.5178 0.9386
0.2646 0.5151 0.9405
0.3386 0.5108 0.9426
0.4371 0.5051 0.9459
0.5769 0.4897 0.9507
0.7181 0.5107 0.9683
0.8083 0.5339 0.9822
0.8770 0.5669 0.9995
0.9461 0.6141 0.9996
0.2992 0.6497 0.9503
0.3263 0.6481 0.9511
0.3773 0.6450 0.9525
0.4562 0.6404 0.9542
0.5862 0.6328 0.9578
0.7288 0.6235 0.9615
0.8125 0.6403 0.9740
0.8828 0.6635 0.9849
0.9541 0.6995 0.9997
0.4028 0.7755 0.9573
0.4057 0.7754 0.9573
0.4391 0.7734 0.9581
0.5071 0.7693 0.9592
0.6111 0.7631 0.9612
0.7325 0.7560 0.9638
0.8168 0.7506 0.9647
0.8871 0.7641 0.9752
0.9574 0.7829 0.9842
0.5678 0.8699 0.9600
0.5465 0.8711 0.9598
0.5518 0.8708 0.9599
0.5939 0.8683 0.9603
0.6655 0.8640 0.9615
0.7419 0.8594 0.9622
0.8144 0.8552 0.9634
0.8913 0.8515 0.9640
0.9625 0.8639 0.9725
0.7319 0.9643 0.9395
0.6995 0.9640 0.9368
0.6841 0.9639 0.9356
0.6952 0.9640 0.9365
0.7203 0.9642 0.9385
0.7639 0.9646 0.9421
0.8171 0.9651 0.9453
0.8844 0.9662 0.9508
0.9715 0.9684 0.9607
