public/luts/film_emulation/Fuji Provia 100F.cube
#Created by: Denver Riddle
#Copyright: (C) Copyright Color Grading Central LLC
DOMAIN_MIN 0.0 0.0 0.0
DOMAIN_MAX 1.0 1.0 1.0
LUT_3D_SIZE 33
0.0226 0.0011 0.0000
0.0301 0.0014 0.0000
0.0413 0.0020 0.0000
0.0526 0.0025 0.0000
0.0639 0.0050 0.0000
0.0789 0.0075 0.0000
0.0975 0.0084 0.0000
0.1140 0.0090 0.0000
0.1357 0.0099 0.0000
0.1566 0.0135 0.0000
0.1757 0.0157 0.0000
0.1939 0.0163 0.0000
0.2146 0.0196 0.0000
0.2338 0.0223 0.0000
0.2480 0.0227 0.0000
0.2647 0.0235 0.0000
0.2767 0.0244 0.0000
0.2910 0.0274 0.0000
0.3008 0.0290 0.0000
0.3088 0.0294 0.0000
0.3197 0.0322 0.0000
0.3257 0.0339 0.0000
0.3304 0.0342 0.0000
0.3339 0.0342 0.0000
0.3362 0.0348 0.0000
0.3387 0.0374 0.0000
0.3388 0.0382 0.0000
0.3362 0.0380 0.0000
0.3340 0.0404 0.0000
0.3305 0.0416 0.0000
0.3258 0.0412 0.0000
0.3200 0.0408 0.0000
0.3092 0.0409 0.0013
0.0234 0.0077 0.0000
0.0313 0.0114 0.0000
0.0403 0.0118 0.0000
0.0538 0.0125 0.0000
0.0650 0.0134 0.0000
0.0801 0.0165 0.0000
0.0988 0.0184 0.0000
0.1188 0.0194 0.0000
0.1420 0.0228 0.0000
0.1639 0.0252 0.0000
0.1844 0.0262 0.0000
0.2071 0.0275 0.0000
0.2258 0.0291 0.0000
0.2459 0.0322 0.0000
0.2649 0.0340 0.0000
0.2790 0.0350 0.0000
0.2959 0.0379 0.0000
0.3079 0.0398 0.0000
0.3220 0.0406 0.0000
0.3313 0.0411 0.0000
0.3414 0.0425 0.0000
0.3503 0.0452 0.0000
0.3564 0.0460 0.0000
0.3623 0.0469 0.0000
0.3681 0.0494 0.0000
0.3705 0.0504 0.0000
0.3715 0.0507 0.0000
0.3718 0.0530 0.0000
0.3707 0.0542 0.0000
0.3681 0.0543 0.0000
0.3620 0.0542 0.0000
0.3563 0.0544 0.0000
0.3502 0.0565 0.0007
0.0283 0.0179 0.0000
0.0352 0.0182 0.0000
0.0400 0.0218 0.0000
0.0536 0.0227 0.0000
0.0665 0.0254 0.0000
0.0815 0.0272 0.0000
0.1007 0.0284 0.0000
0.1226 0.0294 0.0000
0.1468 0.0316 0.0000
0.1700 0.0350 0.0000
0.1917 0.0364 0.0000
0.2157 0.0383 0.0000
0.2387 0.0416 0.0000
0.2581 0.0433 0.0000
0.2768 0.0446 0.0000
0.2960 0.0477 0.0000
0.3106 0.0496 0.0000
0.3270 0.0507 0.0000
0.3386 0.0513 0.0000
0.3527 0.0527 0.0000
0.3640 0.0556 0.0000
0.3741 0.0568 0.0000
0.3831 0.0576 0.0000
0.3905 0.0603 0.0000
0.3972 0.0616 0.0000
0.4021 0.0620 0.0000
0.4048 0.0644 0.0000
0.4073 0.0658 0.0000
0.4072 0.0660 0.0000
0.4047 0.0677 0.0000
0.4024 0.0693 0.0000
0.3965 0.0693 0.0000
0.3904 0.0704 0.0000
0.0329 0.0247 0.0000
0.0387 0.0283 0.0000
0.0449 0.0319 0.0000
0.0527 0.0345 0.0000
0.0673 0.0363 0.0000
0.0828 0.0372 0.0000
0.1021 0.0384 0.0000
0.1253 0.0401 0.0000
0.1509 0.0437 0.0000
0.1749 0.0455 0.0000
0.1980 0.0470 0.0000
0.2234 0.0506 0.0000
0.2474 0.0528 0.0000
0.2701 0.0539 0.0000
0.2917 0.0573 0.0000
0.3086 0.0594 0.0000
0.3274 0.0604 0.0000
0.3423 0.0631 0.0000
0.3584 0.0655 0.0000
0.3735 0.0664 0.0000
0.3873 0.0686 0.0000
0.3991 0.0712 0.0000
0.4114 0.0721 0.0000
0.4218 0.0737 0.0000
0.4301 0.0762 0.0000
0.4370 0.0771 0.0000
0.4424 0.0781 0.0000
0.4464 0.0804 0.0000
0.4475 0.0814 0.0000
0.4473 0.0817 0.0000
0.4463 0.0839 0.0000
0.4419 0.0860 0.0000
0.4374 0.0878 0.0000
0.0369 0.0358 0.0008
0.0415 0.0382 0.0003
0.0497 0.0406 0.0000
0.0575 0.0433 0.0000
0.0654 0.0461 0.0000
0.0843 0.0489 0.0000
0.1030 0.0516 0.0000
0.1269 0.0528 0.0000
0.1537 0.0557 0.0000
0.1792 0.0590 0.0000
0.2070 0.0603 0.0000
0.2303 0.0629 0.0000
0.2553 0.0662 0.0000
0.2791 0.0676 0.0000
0.3018 0.0697 0.0000
0.3220 0.0727 0.0000
0.3400 0.0744 0.0000
0.3586 0.0758 0.0000
0.3767 0.0788 0.0000
0.3932 0.0820 0.0000
0.4089 0.0848 0.0000
0.4263 0.0859 0.0000
0.4391 0.0876 0.0000
0.4510 0.0903 0.0000
0.4610 0.0914 0.0000
0.4716 0.0926 0.0000
0.4787 0.0951 0.0000
0.4846 0.0977 0.0000
0.4893 0.0999 0.0000
0.4909 0.1002 0.0000
0.4910 0.1015 0.0000
0.4888 0.1034 0.0000
0.4834 0.1037 0.0000
0.0388 0.0475 0.0045
0.0431 0.0510 0.0043
0.0544 0.0532 0.0016
0.0620 0.0555 0.0004
0.0724 0.0579 0.0000
0.0824 0.0608 0.0000
0.1046 0.0642 0.0000
0.1277 0.0673 0.0000
0.1558 0.0710 0.0000
0.1822 0.0723 0.0000
0.2113 0.0749 0.0000
0.2393 0.0786 0.0000
0.2631 0.0800 0.0000
0.2875 0.0821 0.0000
0.3112 0.0854 0.0000
0.3341 0.0886 0.0000
0.3553 0.0918 0.0000
0.3755 0.0928 0.0000
0.3943 0.0951 0.0000
0.4139 0.0982 0.0000
0.4322 0.0993 0.0000
0.4507 0.1013 0.0000
0.4652 0.1041 0.0000
0.4816 0.1072 0.0000
0.4966 0.1098 0.0000
0.5062 0.1103 0.0000
0.5160 0.1124 0.0000
0.5232 0.1148 0.0000
0.5305 0.1176 0.0000
0.5335 0.1200 0.0000
0.5352 0.1222 0.0000
0.5347 0.1228 0.0000
0.5335 0.1234 0.0000
0.0387 0.0593 0.0091
0.0463 0.0628 0.0078
0.0545 0.0660 0.0063
0.0674 0.0683 0.0030
0.0790 0.0708 0.0009
0.0903 0.0759 0.0000
0.1039 0.0793 0.0025
0.1272 0.0826 0.0014
0.1562 0.0843 0.0010
0.1843 0.0866 0.0000
0.2147 0.0904 0.0000
0.2440 0.0940 0.0000
0.2717 0.0971 0.0000
0.2979 0.0986 0.0000
0.3197 0.1010 0.0000
0.3433 0.1045 0.0000
0.3664 0.1078 0.0000
0.3877 0.1111 0.0000
0.4114 0.1146 0.0000
0.4339 0.1159 0.0000
0.4545 0.1179 0.0000
0.4752 0.1210 0.0000
0.4950 0.1243 0.0000
0.5119 0.1271 0.0000
0.5267 0.1279 0.0000
0.5390 0.1299 0.0000
0.5525 0.1327 0.0000
0.5605 0.1354 0.0000
0.5668 0.1380 0.0000
0.5725 0.1405 0.0000
0.5770 0.1430 0.0000
0.5791 0.1448 0.0000
0.5789 0.1451 0.0015
0.0380 0.0714 0.0141
0.0514 0.0741 0.0105
0.0577 0.0813 0.0112
0.0704 0.0839 0.0081
0.0843 0.0868 0.0047
0.0962 0.0888 0.0024
0.1120 0.0941 0.0004
0.1256 0.0993 0.0060
0.1562 0.1017 0.0041
0.1855 0.1053 0.0030
0.2172 0.1091 0.0023
0.2476 0.1123 0.0000
0.2764 0.1141 0.0002
0.3042 0.1167 0.0000
0.3295 0.1202 0.0000
0.3541 0.1236 0.0000
0.3798 0.1272 0.0000
0.4024 0.1305 0.0000
0.4279 0.1338 0.0000
0.4534 0.1370 0.0000
0.4756 0.1381 0.0000
0.4997 0.1409 0.0000
0.5213 0.1442 0.0000
0.5400 0.1473 0.0000
0.5573 0.1504 0.0000
0.5704 0.1531 0.0000
0.5854 0.1563 0.0000
0.5924 0.1589 0.0000
0.6021 0.1617 0.0000
0.6099 0.1643 0.0007
0.6136 0.1668 0.0019
0.6174 0.1693 0.0045
0.6195 0.1714 0.0049
0.0426 0.0839 0.0174
0.0499 0.0885 0.0168
0.0620 0.0926 0.0143
0.0747 0.0996 0.0128
0.0878 0.1027 0.0098
0.1057 0.1079 0.0063
0.1195 0.1107 0.0040
0.1379 0.1157 0.0015
0.1551 0.1208 0.0083
0.1856 0.1240 0.0087
0.2187 0.1276 0.0058
0.2503 0.1317 0.0060
0.2807 0.1353 0.0043
0.3098 0.1390 0.0039
0.3375 0.1425 0.0033
0.3639 0.1460 0.0024
0.3891 0.1495 0.0030
0.4165 0.1529 0.0012
0.4443 0.1568 0.0023
0.4714 0.1603 0.0005
0.4976 0.1639 0.0012
0.5244 0.1674 0.0003
0.5455 0.1707 0.0007
0.5662 0.1739 0.0011
0.5858 0.1770 0.0009
0.5989 0.1784 0.0023
0.6139 0.1797 0.0013
0.6254 0.1827 0.0039
0.6331 0.1866 0.0044
0.6419 0.1913 0.0071
0.6466 0.1937 0.0083
0.6503 0.1962 0.0101
0.6536 0.1986 0.0122
0.0441 0.0971 0.0222
0.0524 0.1049 0.0225
0.0614 0.1105 0.0216
0.0766 0.1142 0.0180
0.0904 0.1217 0.0166
0.1091 0.1243 0.0117
0.1266 0.1308 0.0091
0.1475 0.1359 0.0059
0.1679 0.1413 0.0053
0.1853 0.1491 0.0136
0.2194 0.1531 0.0133
0.2527 0.1570 0.0118
0.2843 0.1608 0.0111
0.3144 0.1626 0.0102
0.3431 0.1648 0.0089
0.3706 0.1684 0.0093
0.3975 0.1733 0.0083
0.4294 0.1790 0.0093
0.4587 0.1828 0.0074
0.4889 0.1867 0.0085
0.5169 0.1901 0.0069
0.5455 0.1938 0.0076
0.5687 0.1971 0.0071
0.5926 0.2006 0.0076
0.6094 0.2036 0.0083
0.6268 0.2067 0.0088
0.6401 0.2098 0.0103
0.6513 0.2125 0.0108
0.6624 0.2154 0.0130
0.6697 0.2179 0.0133
0.6776 0.2207 0.0162
0.6833 0.2231 0.0165
0.6866 0.2257 0.0195
0.0441 0.1130 0.0287
0.0531 0.1188 0.0279
0.0669 0.1266 0.0263
0.0815 0.1315 0.0235
0.0954 0.1396 0.0222
0.1103 0.1471 0.0206
0.1333 0.1536 0.0162
0.1567 0.1579 0.0113
0.1774 0.1627 0.0085
0.1973 0.1710 0.0116
0.2164 0.1784 0.0200
0.2535 0.1824 0.0191
0.2867 0.1863 0.0183
0.3181 0.1900 0.0175
0.3484 0.1937 0.0174
0.3776 0.1973 0.0166
0.4088 0.2011 0.0168
0.4398 0.2047 0.0155
0.4711 0.2089 0.0162
0.5039 0.2126 0.0145
0.5349 0.2165 0.0156
0.5650 0.2207 0.0140
0.5911 0.2265 0.0163
0.6134 0.2302 0.0155
0.6343 0.2336 0.0173
0.6504 0.2367 0.0172
0.6646 0.2397 0.0191
0.6758 0.2424 0.0198
0.6887 0.2454 0.0215
0.6965 0.2488 0.0230
0.7076 0.2538 0.0252
0.7132 0.2567 0.0270
0.7178 0.2591 0.0287
0.0445 0.1277 0.0346
0.0551 0.1346 0.0337
0.0666 0.1434 0.0334
0.0833 0.1522 0.0314
0.1003 0.1604 0.0292
0.1187 0.1647 0.0252
0.1401 0.1756 0.0232
0.1631 0.1824 0.0194
0.1860 0.1886 0.0157
0.2066 0.1942 0.0134
0.2314 0.1999 0.0178
0.2516 0.2110 0.0273
0.2879 0.2150 0.0267
0.3208 0.2188 0.0260
0.3525 0.2226 0.0258
0.3830 0.2263 0.0255
0.4154 0.2301 0.0251
0.4507 0.2353 0.0250
0.4845 0.2413 0.0251
0.5202 0.2455 0.0249
0.5530 0.2493 0.0244
0.5835 0.2530 0.0248
0.6091 0.2579 0.0251
0.6336 0.2633 0.0266
0.6550 0.2665 0.0268
0.6724 0.2698 0.0285
0.6879 0.2728 0.0289
0.7000 0.2757 0.0310
0.7140 0.2793 0.0317
0.7237 0.2842 0.0348
0.7318 0.2872 0.0357
0.7422 0.2901 0.0382
0.7482 0.2927 0.0390
0.0465 0.1432 0.0404
0.0576 0.1531 0.0406
0.0708 0.1626 0.0400
0.0860 0.1696 0.0378
0.1021 0.1805 0.0370
0.1246 0.1887 0.0333
0.1472 0.1967 0.0298
0.1700 0.2043 0.0264
0.1916 0.2151 0.0250
0.2190 0.2213 0.0207
0.2397 0.2304 0.0230
0.2643 0.2374 0.0286
0.2868 0.2472 0.0362
0.3226 0.2510 0.0365
0.3557 0.2547 0.0352
0.3874 0.2586 0.0361
0.4213 0.2630 0.0350
0.4580 0.2697 0.0364
0.4942 0.2738 0.0351
0.5317 0.2780 0.0360
0.5670 0.2818 0.0346
0.5996 0.2871 0.0363
0.6268 0.2925 0.0361
0.6514 0.2961 0.0381
0.6722 0.3006 0.0382
0.6921 0.3061 0.0412
0.7080 0.3091 0.0411
0.7239 0.3124 0.0438
0.7352 0.3150 0.0439
0.7497 0.3196 0.0472
0.7595 0.3240 0.0480
0.7706 0.3270 0.0511
0.7778 0.3308 0.0519
0.0490 0.1605 0.0469
0.0612 0.1674 0.0455
0.0765 0.1807 0.0458
0.0931 0.1903 0.0442
0.1098 0.1995 0.0426
0.1320 0.2085 0.0394
0.1534 0.2205 0.0381
0.1758 0.2288 0.0351
0.1973 0.2404 0.0341
0.2244 0.2512 0.0317
0.2529 0.2575 0.0275
0.2725 0.2684 0.0342
0.2965 0.2786 0.0422
0.3206 0.2887 0.0493
0.3579 0.2903 0.0475
0.3910 0.2941 0.0468
0.4264 0.2983 0.0474
0.4655 0.3040 0.0471
0.5047 0.3098 0.0478
0.5451 0.3140 0.0474
0.5826 0.3193 0.0479
0.6157 0.3252 0.0489
0.6433 0.3288 0.0494
0.6693 0.3324 0.0505
0.6905 0.3358 0.0512
0.7105 0.3409 0.0535
0.7292 0.3455 0.0546
0.7432 0.3485 0.0569
0.7598 0.3528 0.0578
0.7748 0.3579 0.0611
0.7852 0.3607 0.0617
0.7984 0.3652 0.0650
0.8063 0.3701 0.0691
0.0520 0.1770 0.0530
0.0627 0.1876 0.0537
0.0791 0.1979 0.0524
0.0955 0.2080 0.0511
0.1163 0.2213 0.0500
0.1382 0.2318 0.0475
0.1596 0.2435 0.0461
0.1808 0.2558 0.0453
0.2076 0.2675 0.0429
0.2298 0.2771 0.0413
0.2564 0.2895 0.0401
0.2842 0.2980 0.0377
0.3047 0.3098 0.0475
0.3289 0.3203 0.0565
0.3529 0.3304 0.0647
0.3931 0.3296 0.0588
0.4301 0.3354 0.0606
0.4709 0.3411 0.0596
0.5124 0.3457 0.0611
0.5542 0.3510 0.0603
0.5929 0.3573 0.0621
0.6262 0.3612 0.0620
0.6589 0.3658 0.0634
0.6832 0.3717 0.0651
0.7086 0.3755 0.0663
0.7297 0.3793 0.0679
0.7463 0.3844 0.0698
0.7652 0.3884 0.0721
0.7828 0.3914 0.0728
0.7956 0.3965 0.0763
0.8109 0.4010 0.0798
0.8244 0.4039 0.0803
0.8341 0.4087 0.0841
0.0551 0.1926 0.0587
0.0713 0.2038 0.0577
0.0838 0.2178 0.0595
0.1025 0.2284 0.0577
0.1231 0.2423 0.0570
0.1440 0.2557 0.0562
0.1647 0.2690 0.0558
0.1859 0.2813 0.0550
0.2125 0.2946 0.0534
0.2391 0.3067 0.0518
0.2604 0.3188 0.0519
0.2877 0.3293 0.0503
0.3137 0.3421 0.0552
0.3345 0.3542 0.0644
0.3606 0.3656 0.0724
0.3845 0.3763 0.0816
0.4318 0.3735 0.0744
0.4742 0.3791 0.0740
0.5185 0.3846 0.0754
0.5613 0.3888 0.0744
0.6025 0.3951 0.0768
0.6398 0.4004 0.0769
0.6697 0.4044 0.0788
0.6986 0.4098 0.0800
0.7221 0.4153 0.0823
0.7450 0.4208 0.0846
0.7663 0.4249 0.0860
0.7848 0.4282 0.0884
0.8015 0.4335 0.0923
0.8189 0.4377 0.0933
0.8349 0.4410 0.0961
0.8505 0.4454 0.0977
0.8610 0.4500 0.1008
0.0585 0.2076 0.0642
0.0733 0.2223 0.0653
0.0880 0.2368 0.0666
0.1084 0.2513 0.0660
0.1298 0.2636 0.0644
0.1504 0.2772 0.0639
0.1703 0.2932 0.0650
0.1966 0.3068 0.0633
0.2175 0.3200 0.0634
0.2442 0.3329 0.0621
0.2707 0.3458 0.0614
0.2942 0.3592 0.0620
0.3179 0.3727 0.0629
0.3436 0.3859 0.0725
0.3657 0.3982 0.0826
0.3897 0.4119 0.0925
0.4186 0.4236 0.1004
0.4725 0.4217 0.0923
0.5214 0.4234 0.0905
0.5670 0.4293 0.0904
0.6117 0.4356 0.0929
0.6484 0.4395 0.0929
0.6834 0.4455 0.0953
0.7098 0.4510 0.0972
0.7347 0.4565 0.0994
0.7584 0.4610 0.1019
0.7809 0.4646 0.1051
0.8026 0.4698 0.1064
0.8226 0.4753 0.1100
0.8415 0.4805 0.1119
0.8586 0.4842 0.1143
0.8748 0.4875 0.1164
0.8872 0.4927 0.1207
0.0640 0.2251 0.0701
0.0755 0.2400 0.0726
0.0957 0.2551 0.0723
0.1158 0.2700 0.0721
0.1361 0.2852 0.0722
0.1564 0.2999 0.0724
0.1765 0.3166 0.0738
0.2022 0.3308 0.0726
0.2284 0.3447 0.0717
0.2485 0.3601 0.0734
0.2745 0.3745 0.0735
0.3011 0.3875 0.0732
0.3217 0.4018 0.0752
0.3474 0.4162 0.0807
0.3728 0.4300 0.0905
0.3988 0.4433 0.0999
0.4250 0.4576 0.1099
0.4593 0.4723 0.1195
0.5169 0.4701 0.1123
0.5713 0.4703 0.1072
0.6172 0.4770 0.1100
0.6557 0.4824 0.1112
0.6920 0.4867 0.1127
0.7202 0.4924 0.1155
0.7493 0.4984 0.1194
0.7722 0.5037 0.1209
0.7966 0.5075 0.1238
0.8203 0.5114 0.1253
0.8405 0.5168 0.1282
0.8624 0.5222 0.1312
0.8811 0.5276 0.1356
0.8956 0.5304 0.1365
0.9083 0.5345 0.1406
0.0687 0.2425 0.0764
0.0834 0.2573 0.0777
0.1033 0.2731 0.0779
0.1223 0.2912 0.0797
0.1424 0.3064 0.0800
0.1628 0.3212 0.0803
0.1876 0.3392 0.0810
0.2097 0.3537 0.0812
0.2330 0.3711 0.0828
0.2591 0.3854 0.0824
0.2845 0.4013 0.0835
0.3050 0.4163 0.0857
0.3304 0.4323 0.0875
0.3562 0.4466 0.0889
0.3792 0.4623 0.1003
0.4068 0.4769 0.1105
0.4364 0.4914 0.1205
0.4690 0.5051 0.1300
0.4994 0.5206 0.1408
0.5677 0.5172 0.1307
0.6214 0.5178 0.1274
0.6621 0.5248 0.1301
0.6989 0.5291 0.1333
0.7313 0.5337 0.1344
0.7592 0.5395 0.1380
0.7862 0.5451 0.1403
0.8111 0.5501 0.1429
0.8347 0.5537 0.1455
0.8570 0.5586 0.1496
0.8783 0.5638 0.1516
0.8989 0.5694 0.1561
0.9140 0.5736 0.1587
0.9280 0.5767 0.1616
0.0715 0.2581 0.0826
0.0907 0.2760 0.0839
0.1101 0.2930 0.0849
0.1293 0.3106 0.0865
0.1490 0.3271 0.0877
0.1725 0.3440 0.0881
0.1937 0.3607 0.0894
0.2187 0.3783 0.0903
0.2418 0.3935 0.0910
0.2635 0.4112 0.0936
0.2889 0.4281 0.0952
0.3108 0.4440 0.0975
0.3342 0.4602 0.1000
0.3597 0.4764 0.1023
0.3849 0.4924 0.1096
0.4142 0.5083 0.1204
0.4461 0.5242 0.1307
0.4772 0.5382 0.1405
0.5140 0.5527 0.1501
0.5512 0.5677 0.1600
0.6139 0.5658 0.1545
0.6662 0.5662 0.1495
0.7049 0.5718 0.1528
0.7388 0.5757 0.1545
0.7677 0.5809 0.1570
0.7960 0.5868 0.1609
0.8224 0.5926 0.1649
0.8473 0.5969 0.1671
0.8744 0.6007 0.1708
0.8972 0.6060 0.1732
0.9150 0.6106 0.1771
0.9315 0.6136 0.1788
0.9465 0.6185 0.1834
0.0791 0.2761 0.0883
0.0986 0.2931 0.0891
0.1172 0.3121 0.0915
0.1370 0.3282 0.0924
0.1557 0.3470 0.0951
0.1803 0.3654 0.0960
0.2052 0.3820 0.0962
0.2241 0.4013 0.0999
0.2492 0.4184 0.1010
0.2743 0.4354 0.1025
0.2938 0.4527 0.1059
0.3185 0.4706 0.1086
0.3436 0.4876 0.1112
0.3693 0.5039 0.1137
0.3947 0.5202 0.1167
0.4249 0.5373 0.1277
0.4552 0.5543 0.1394
0.4888 0.5708 0.1504
0.5275 0.5862 0.1604
0.5629 0.6010 0.1709
0.6003 0.6147 0.1828
0.6579 0.6151 0.1779
0.7081 0.6146 0.1731
0.7445 0.6181 0.1757
0.7747 0.6223 0.1788
0.8042 0.6281 0.1820
0.8314 0.6329 0.1864
0.8609 0.6364 0.1878
0.8864 0.6420 0.1916
0.9108 0.6469 0.1948
0.9300 0.6504 0.1988
0.9470 0.6548 0.2010
0.9599 0.6598 0.2058
0.0876 0.2915 0.0926
0.1059 0.3112 0.0953
0.1256 0.3280 0.0964
0.1441 0.3472 0.0992
0.1681 0.3668 0.1007
0.1869 0.3852 0.1036
0.2112 0.4047 0.1056
0.2358 0.4228 0.1072
0.2543 0.4418 0.1113
0.2789 0.4606 0.1138
0.3041 0.4773 0.1156
0.3235 0.4945 0.1194
0.3486 0.5124 0.1225
0.3733 0.5302 0.1260
0.4042 0.5472 0.1283
0.4346 0.5653 0.1371
0.4677 0.5837 0.1486
0.5017 0.6004 0.1594
0.5408 0.6178 0.1704
0.5749 0.6327 0.1816
0.6092 0.6466 0.1944
0.6442 0.6599 0.2058
0.6984 0.6604 0.2022
0.7431 0.6611 0.1999
0.7801 0.6636 0.2010
0.8110 0.6683 0.2034
0.8422 0.6721 0.2058
0.8707 0.6759 0.2093
0.8972 0.6802 0.2130
0.9225 0.6858 0.2164
0.9426 0.6902 0.2210
0.9609 0.6940 0.2248
0.9750 0.6990 0.2279
0.0953 0.3089 0.0982
0.1147 0.3261 0.0994
0.1330 0.3458 0.1025
0.1514 0.3652 0.1057
0.1754 0.3852 0.1075
0.1993 0.4050 0.1095
0.2180 0.4239 0.1132
0.2420 0.4434 0.1157
0.2658 0.4635 0.1190
0.2845 0.4827 0.1236
0.3087 0.5018 0.1269
0.3340 0.5185 0.1291
0.3588 0.5372 0.1328
0.3834 0.5552 0.1366
0.4144 0.5734 0.1396
0.4481 0.5917 0.1444
0.4807 0.6115 0.1578
0.5158 0.6279 0.1685
0.5542 0.6448 0.1795
0.5880 0.6612 0.1912
0.6240 0.6763 0.2028
0.6555 0.6906 0.2165
0.6856 0.7046 0.2306
0.7328 0.7068 0.2290
0.7743 0.7069 0.2259
0.8148 0.7054 0.2244
0.8493 0.7086 0.2265
0.8780 0.7130 0.2304
0.9096 0.7191 0.2357
0.9323 0.7233 0.2388
0.9539 0.7268 0.2423
0.9701 0.7323 0.2476
0.9854 0.7365 0.2508
0.1045 0.3229 0.1016
0.1222 0.3431 0.1051
0.1407 0.3631 0.1084
0.1644 0.3835 0.1104
0.1826 0.4033 0.1143
0.2067 0.4230 0.1163
0.2298 0.4446 0.1201
0.2499 0.4648 0.1244
0.2723 0.4838 0.1277
0.2962 0.5036 0.1313
0.3157 0.5228 0.1361
0.3388 0.5427 0.1405
0.3666 0.5594 0.1426
0.3941 0.5792 0.1468
0.4280 0.5985 0.1500
0.4604 0.6170 0.1537
0.4960 0.6343 0.1632
0.5316 0.6542 0.1769
0.5680 0.6709 0.1885
0.6014 0.6885 0.2010
0.6343 0.7049 0.2133
0.6656 0.7180 0.2267
0.6903 0.7338 0.2408
0.7172 0.7447 0.2540
0.7658 0.7453 0.2517
0.8068 0.7468 0.2518
0.8510 0.7471 0.2512
0.8841 0.7486 0.2513
0.9164 0.7527 0.2559
0.9403 0.7565 0.2603
0.9630 0.7598 0.2625
0.9805 0.7640 0.2672
0.9935 0.7693 0.2724
0.1131 0.3380 0.1060
0.1305 0.3588 0.1100
0.1488 0.3792 0.1138
0.1721 0.4007 0.1166
0.1958 0.4209 0.1189
0.2131 0.4426 0.1245
0.2366 0.4634 0.1278
0.2602 0.4837 0.1313
0.2784 0.5041 0.1367
0.3021 0.5242 0.1406
0.3262 0.5436 0.1443
0.3504 0.5636 0.1488
0.3752 0.5820 0.1526
0.4088 0.6023 0.1559
0.4406 0.6222 0.1601
0.4766 0.6401 0.1631
0.5101 0.6592 0.1705
0.5486 0.6777 0.1832
0.5815 0.6973 0.1979
0.6140 0.7134 0.2100
0.6452 0.7295 0.2224
0.6769 0.7419 0.2354
0.7020 0.7567 0.2494
0.7274 0.7709 0.2625
0.7536 0.7818 0.2777
0.7985 0.7830 0.2769
0.8439 0.7823 0.2756
0.8832 0.7812 0.2741
0.9218 0.7823 0.2746
0.9479 0.7881 0.2801
0.9710 0.7930 0.2842
0.9876 0.7962 0.2876
0.9999 0.7994 0.2919
0.1218 0.3521 0.1098
0.1397 0.3727 0.1138
0.1622 0.3966 0.1180
0.1810 0.4171 0.1220
0.2035 0.4381 0.1254
0.2258 0.4612 0.1301
0.2493 0.4819 0.1336
0.2669 0.5032 0.1397
0.2908 0.5232 0.1433
0.3130 0.5444 0.1484
0.3346 0.5650 0.1537
0.3622 0.5840 0.1569
0.3895 0.6050 0.1617
0.4221 0.6241 0.1649
0.4517 0.6445 0.1699
0.4909 0.6636 0.1733
0.5252 0.6813 0.1776
0.5643 0.6998 0.1895
0.5965 0.7202 0.2050
0.6270 0.7342 0.2171
0.6576 0.7502 0.2296
0.6833 0.7656 0.2431
0.7128 0.7782 0.2559
0.7361 0.7918 0.2707
0.7599 0.8046 0.2855
0.7869 0.8157 0.2996
0.8335 0.8173 0.3007
0.8765 0.8170 0.3000
0.9211 0.8152 0.2967
0.9546 0.8162 0.2986
0.9770 0.8200 0.3033
0.9930 0.8234 0.3079
1.0000 0.8261 0.3104
0.1312 0.3656 0.1133
0.1512 0.3878 0.1174
0.1715 0.4099 0.1216
0.1937 0.4338 0.1264
0.2131 0.4557 0.1315
0.2338 0.4772 0.1362
0.2565 0.5000 0.1412
0.2758 0.5200 0.1461
0.2976 0.5413 0.1512
0.3208 0.5629 0.1564
0.3448 0.5831 0.1610
0.3725 0.6033 0.1650
0.4041 0.6245 0.1691
0.4337 0.6450 0.1738
0.4700 0.6644 0.1773
0.5059 0.6851 0.1824
0.5420 0.7030 0.1869
0.5780 0.7212 0.1969
0.6080 0.7388 0.2106
0.6416 0.7566 0.2252
0.6703 0.7702 0.2368
0.6954 0.7856 0.2504
0.7212 0.7989 0.2637
0.7470 0.8117 0.2786
0.7716 0.8233 0.2911
0.7965 0.8317 0.3059
0.8219 0.8427 0.3200
0.8696 0.8436 0.3205
0.9154 0.8423 0.3194
0.9545 0.8388 0.3174
0.9802 0.8397 0.3182
0.9978 0.8436 0.3230
1.0000 0.8468 0.3274
0.1403 0.3793 0.1170
0.1626 0.4029 0.1211
0.1843 0.4259 0.1255
0.2020 0.4490 0.1317
0.2242 0.4725 0.1368
0.2472 0.4942 0.1410
0.2643 0.5163 0.1477
0.2874 0.5378 0.1524
0.3100 0.5603 0.1581
