public/luts/film_emulation/Fuji Provia 100F.cube
#Created by: Denver Riddle
#Copyright: (C) Copyright Color Grading Central LLC
DOMAIN_MIN 0.0 0.0 0.0
DOMAIN_MAX 1.0 1.0 1.0
LUT_3D_SIZE 5
0.0226 0.0011 0.0000
0.1357 0.0099 0.0000
0.2767 0.0244 0.0000
0.3362 0.0348 0.0000
0.3092 0.0409 0.0013
0.0426 0.0839 0.0174
0.1551 0.1208 0.0083
0.3891 0.1495 0.0030
0.5858 0.1770 0.0009
0.6536 0.1986 0.0122
0.0585 0.2076 0.0642
0.2175 0.3200 0.0634
0.4186 0.4236 0.1004
0.7347 0.4565 0.0994
0.8872 0.4927 0.1207
0.1131 0.3380 0.1060
0.2784 0.5041 0.1367
0.5101 0.6592 0.1705
0.7536 0.7818 0.2777
0.9999 0.7994 0.2919
0.2021 0.4386 0.1261
0.3730 0.6350 0.1829
0.6385 0.7985 0.2286
0.8556 0.8884 0.3131
1.0000 0.9281 0.4224
0.0680 0.0004 0.1420
0.1453 0.0000 0.1157
0.3424 0.0136 0.1067
0.4816 0.0339 0.1053
0.5158 0.0448 0.1216
0.0185 0.1017 0.1202
0.1608 0.1202 0.1310
0.4004 0.1480 0.1191
0.6013 0.1775 0.1142
0.6683 0.1961 0.1278
0.0000 0.2870 0.1622
0.2442 0.3163 0.0936
0.4411 0.4056 0.1747
0.7436 0.4473 0.1804
0.8939 0.4842 0.2020
0.0000 0.4075 0.1936
0.3043 0.5114 0.1332
0.5439 0.6652 0.2149
0.7712 0.7749 0.3358
0.9993 0.7950 0.3511
0.0345 0.4976 0.2356
0.3997 0.6546 0.1872
0.6631 0.8069 0.2417
0.8772 0.8958 0.3480
1.0000 0.9367 0.4763
0.1498 0.0037 0.3118
0.2274 0.0008 0.3372
0.3960 0.0232 0.3420
0.6082 0.0651 0.3421
0.6833 0.0882 0.3610
0.1291 0.1084 0.3465
0.2479 0.1221 0.3732
0.4115 0.1236 0.3570
0.6645 0.1713 0.3536
0.7800 0.2051 0.3688
0.0470 0.3336 0.3280
0.1543 0.3625 0.3563
0.4483 0.4105 0.3933
0.7457 0.4531 0.3895
0.8924 0.4903 0.4050
0.0000 0.5150 0.3710
0.1488 0.5941 0.4166
0.5695 0.6736 0.3205
0.7855 0.7752 0.4763
0.9916 0.8026 0.4938
0.0000 0.5771 0.3906
0.2104 0.6650 0.3535
0.6812 0.8216 0.2956
0.8935 0.9069 0.4275
1.0000 0.9546 0.5962
0.1974 0.0000 0.3255
0.2952 0.0080 0.4176
0.4817 0.0535 0.5662
0.6923 0.1519 0.6641
0.8118 0.1957 0.6775
0.2086 0.1069 0.4244
0.3238 0.1226 0.4799
0.5037 0.1447 0.6059
0.7073 0.2165 0.6789
0.8533 0.2667 0.6905
0.1834 0.3390 0.5788
0.2945 0.3679 0.6239
0.5569 0.4126 0.7047
0.7437 0.4207 0.7146
0.9121 0.4716 0.7255
0.2667 0.6355 0.6250
0.3006 0.6647 0.6534
0.4547 0.7248 0.7113
0.7913 0.7867 0.7618
0.9732 0.8195 0.7719
0.1866 0.7116 0.5989
0.2544 0.7774 0.6482
0.4884 0.8818 0.7079
0.8935 0.9289 0.6056
0.9942 0.9725 0.8064
0.1888 0.0000 0.2044
0.2988 0.0070 0.3413
0.5104 0.0675 0.5740
0.7411 0.1869 0.7797
0.8657 0.2793 0.8618
0.2114 0.0993 0.3478
0.3324 0.1175 0.4209
0.5373 0.1546 0.6298
0.7601 0.2460 0.8092
0.8803 0.3224 0.8763
0.2301 0.3380 0.6065
0.3443 0.3673 0.6609
0.6023 0.4126 0.7666
0.8062 0.4371 0.8818
0.9157 0.4749 0.9116
0.3558 0.6395 0.7806
0.3901 0.6681 0.8175
0.5451 0.7263 0.8939
0.8676 0.7937 0.9831
0.9630 0.7810 0.9588
0.4771 0.7911 0.7909
0.4705 0.8194 0.8191
0.5422 0.8769 0.8766
0.7769 0.9454 0.9451
0.9877 0.9846 0.9835
