public/luts/film_emulation/Fuji Provia 100F.cube
#Created by: Denver Riddle
#Copyright: (C) Copyright Color Grading Central LLC
DOMAIN_MIN 0.0 0.0 0.0
DOMAIN_MAX 1.0 1.0 1.0
LUT_3D_SIZE 9
0.0226 0.0011 0.0000
0.0639 0.0050 0.0000
0.1357 0.0099 0.0000
0.2146 0.0196 0.0000
0.2767 0.0244 0.0000
0.3197 0.0322 0.0000
0.3362 0.0348 0.0000
0.3340 0.0404 0.0000
0.3092 0.0409 0.0013
0.0369 0.0358 0.0008
0.0654 0.0461 0.0000
0.1537 0.0557 0.0000
0.2553 0.0662 0.0000
0.3400 0.0744 0.0000
0.4089 0.0848 0.0000
0.4610 0.0914 0.0000
0.4893 0.0999 0.0000
0.4834 0.1037 0.0000
0.0426 0.0839 0.0174
0.0878 0.1027 0.0098
0.1551 0.1208 0.0083
0.2807 0.1353 0.0043
0.3891 0.1495 0.0030
0.4976 0.1639 0.0012
0.5858 0.1770 0.0009
0.6331 0.1866 0.0044
0.6536 0.1986 0.0122
0.0465 0.1432 0.0404
0.1021 0.1805 0.0370
0.1916 0.2151 0.0250
0.2868 0.2472 0.0362
0.4213 0.2630 0.0350
0.5670 0.2818 0.0346
0.6722 0.3006 0.0382
0.7352 0.3150 0.0439
0.7778 0.3308 0.0519
0.0585 0.2076 0.0642
0.1298 0.2636 0.0644
0.2175 0.3200 0.0634
0.3179 0.3727 0.0629
0.4186 0.4236 0.1004
0.6117 0.4356 0.0929
0.7347 0.4565 0.0994
0.8226 0.4753 0.1100
0.8872 0.4927 0.1207
0.0791 0.2761 0.0883
0.1557 0.3470 0.0951
0.2492 0.4184 0.1010
0.3436 0.4876 0.1112
0.4552 0.5543 0.1394
0.6003 0.6147 0.1828
0.7747 0.6223 0.1788
0.8864 0.6420 0.1916
0.9599 0.6598 0.2058
0.1131 0.3380 0.1060
0.1958 0.4209 0.1189
0.2784 0.5041 0.1367
0.3752 0.5820 0.1526
0.5101 0.6592 0.1705
0.6452 0.7295 0.2224
0.7536 0.7818 0.2777
0.9218 0.7823 0.2746
0.9999 0.7994 0.2919
0.1551 0.3934 0.1189
0.2326 0.4874 0.1421
0.3185 0.5756 0.1642
0.4321 0.6620 0.1837
0.5731 0.7409 0.2035
0.6918 0.8054 0.2496
0.7979 0.8504 0.3002
0.9017 0.8840 0.3566
1.0000 0.8807 0.3594
0.2021 0.4386 0.1261
0.2811 0.5415 0.1565
0.3730 0.6350 0.1829
0.5028 0.7262 0.2059
0.6385 0.7985 0.2286
0.7458 0.8494 0.2632
0.8556 0.8884 0.3131
0.9476 0.9134 0.3618
1.0000 0.9281 0.4224
0.0360 0.0000 0.0615
0.0589 0.0000 0.0500
0.1430 0.0017 0.0438
0.2368 0.0095 0.0396
0.3142 0.0205 0.0344
0.3686 0.0260 0.0316
0.4072 0.0342 0.0351
0.4189 0.0367 0.0416
0.4049 0.0413 0.0482
0.0250 0.0428 0.0565
0.0649 0.0461 0.0559
0.1578 0.0564 0.0492
0.2634 0.0673 0.0445
0.3484 0.0755 0.0389
0.4195 0.0829 0.0350
0.4743 0.0931 0.0374
0.5004 0.0983 0.0423
0.4968 0.1054 0.0479
0.0157 0.1052 0.0560
0.0918 0.1028 0.0300
0.1590 0.1227 0.0571
0.2844 0.1344 0.0518
0.3966 0.1488 0.0473
0.5067 0.1630 0.0434
0.5920 0.1765 0.0441
0.6405 0.1866 0.0482
0.6610 0.1979 0.0557
0.0130 0.1662 0.0631
0.1144 0.1771 0.0317
0.2032 0.2080 0.0437
0.2918 0.2424 0.0750
0.4289 0.2612 0.0730
0.5771 0.2802 0.0712
0.6785 0.2959 0.0746
0.7436 0.3138 0.0816
0.7852 0.3268 0.0904
0.0102 0.2424 0.0982
0.1413 0.2627 0.0602
0.2353 0.3172 0.0574
0.3280 0.3687 0.0919
0.4289 0.4152 0.1278
0.6194 0.4308 0.1220
0.7415 0.4497 0.1287
0.8263 0.4698 0.1391
0.8913 0.4883 0.1504
0.0176 0.3101 0.1296
0.1701 0.3497 0.0916
0.2604 0.4187 0.0981
0.3553 0.4856 0.1181
0.4716 0.5504 0.1597
0.6143 0.6060 0.2046
0.7783 0.6173 0.2034
0.8931 0.6374 0.2163
0.9637 0.6555 0.2325
0.0351 0.3710 0.1572
0.2048 0.4272 0.1192
0.2940 0.5084 0.1344
0.3918 0.5842 0.1499
0.5274 0.6625 0.1898
0.6612 0.7268 0.2405
0.7631 0.7795 0.3006
0.9260 0.7808 0.2983
1.0000 0.7962 0.3155
0.0691 0.4256 0.1739
0.2463 0.4960 0.1423
0.3325 0.5837 0.1648
0.4478 0.6666 0.1829
0.5939 0.7444 0.2098
0.7067 0.8074 0.2640
0.8076 0.8526 0.3189
0.9099 0.8818 0.3774
1.0000 0.8819 0.3815
0.1125 0.4753 0.1840
0.2877 0.5522 0.1604
0.3865 0.6448 0.1850
0.5226 0.7341 0.2069
0.6545 0.8022 0.2294
0.7553 0.8530 0.2752
0.8643 0.8914 0.3262
0.9549 0.9161 0.3800
1.0000 0.9313 0.4426
0.0680 0.0004 0.1420
0.0878 0.0000 0.1346
0.1453 0.0000 0.1157
0.2544 0.0040 0.1079
0.3424 0.0136 0.1067
0.4223 0.0264 0.1055
0.4816 0.0339 0.1053
0.5156 0.0427 0.1113
0.5158 0.0448 0.1216
0.0628 0.0454 0.1445
0.0944 0.0468 0.1432
0.1513 0.0410 0.1217
0.2692 0.0550 0.1132
0.3699 0.0679 0.1109
0.4677 0.0791 0.1071
0.5425 0.0887 0.1052
0.5845 0.0992 0.1104
0.5964 0.1041 0.1193
0.0185 0.1017 0.1202
0.0658 0.1104 0.1291
0.1608 0.1202 0.1310
0.2896 0.1369 0.1221
0.4004 0.1480 0.1191
0.5168 0.1634 0.1151
0.6013 0.1775 0.1142
0.6482 0.1891 0.1197
0.6683 0.1961 0.1278
0.0000 0.1958 0.1306
0.0591 0.2124 0.1415
0.2111 0.2064 0.0921
0.2941 0.2423 0.1382
0.4350 0.2603 0.1348
0.5828 0.2792 0.1326
0.6847 0.2968 0.1345
0.7459 0.3118 0.1422
0.7884 0.3278 0.1521
0.0000 0.2870 0.1622
0.0661 0.2960 0.1462
0.2442 0.3163 0.0936
0.3432 0.3645 0.1286
0.4411 0.4056 0.1747
0.6250 0.4286 0.1732
0.7436 0.4473 0.1804
0.8313 0.4656 0.1901
0.8939 0.4842 0.2020
0.0000 0.3497 0.1702
0.0909 0.3783 0.1466
0.2760 0.4210 0.1042
0.3680 0.4863 0.1488
0.4859 0.5490 0.1937
0.6279 0.5996 0.2436
0.7840 0.6145 0.2476
0.8963 0.6355 0.2608
0.9626 0.6532 0.2751
0.0000 0.4075 0.1936
0.1208 0.4530 0.1662
0.3043 0.5114 0.1332
0.4067 0.5893 0.1684
0.5439 0.6652 0.2149
0.6745 0.7270 0.2700
0.7712 0.7749 0.3358
0.9286 0.7815 0.3364
0.9993 0.7950 0.3511
0.0028 0.4575 0.2191
0.1568 0.5192 0.1912
0.3418 0.5891 0.1652
0.4665 0.6718 0.1820
0.6022 0.7490 0.2318
0.7148 0.8104 0.2870
0.8157 0.8533 0.3467
0.9162 0.8836 0.4103
1.0000 0.8847 0.4166
0.0345 0.4976 0.2356
0.2031 0.5741 0.2063
0.3997 0.6546 0.1872
0.5376 0.7399 0.2078
0.6631 0.8069 0.2417
0.7690 0.8578 0.2923
0.8772 0.8958 0.3480
0.9617 0.9178 0.4046
1.0000 0.9367 0.4763
0.1083 0.0025 0.2334
0.1300 0.0000 0.2336
0.1777 0.0000 0.2289
0.2653 0.0000 0.2122
0.3699 0.0145 0.2086
0.4743 0.0298 0.2081
0.5552 0.0459 0.2091
0.5958 0.0537 0.2137
0.6105 0.0615 0.2263
0.1072 0.0477 0.2434
0.1376 0.0492 0.2462
0.1844 0.0416 0.2380
0.2713 0.0434 0.2181
0.3883 0.0610 0.2135
0.5091 0.0797 0.2113
0.5975 0.0938 0.2111
0.6443 0.1031 0.2151
0.6684 0.1133 0.2267
0.0713 0.1053 0.2382
0.1190 0.1141 0.2492
0.1949 0.1187 0.2524
0.2808 0.1153 0.2273
0.4106 0.1355 0.2217
0.5466 0.1529 0.2176
0.6397 0.1701 0.2176
0.6938 0.1842 0.2215
0.7256 0.1961 0.2324
0.0169 0.1982 0.2072
0.0568 0.2069 0.2160
0.1564 0.2265 0.2359
0.2964 0.2434 0.2427
0.4390 0.2639 0.2367
0.5904 0.2836 0.2332
0.6851 0.2987 0.2346
0.7501 0.3150 0.2390
0.7923 0.3302 0.2497
0.0000 0.3134 0.2291
0.0447 0.3333 0.2434
0.1596 0.3626 0.2573
0.3489 0.3652 0.1979
0.4470 0.4051 0.2583
0.6287 0.4270 0.2562
0.7441 0.4487 0.2630
0.8347 0.4663 0.2702
0.8936 0.4846 0.2815
0.0000 0.3993 0.2580
0.0354 0.4322 0.2785
0.1822 0.4575 0.2465
0.3764 0.4904 0.1963
0.5043 0.5477 0.2491
0.6361 0.5942 0.3092
0.7848 0.6148 0.3142
0.8966 0.6340 0.3263
0.9599 0.6537 0.3420
0.0000 0.4627 0.2876
0.0520 0.4914 0.2757
0.2173 0.5403 0.2387
0.4189 0.5958 0.2025
0.5568 0.6675 0.2544
0.6817 0.7277 0.3190
0.7814 0.7749 0.3905
0.9292 0.7813 0.3927
0.9967 0.7982 0.4093
0.0000 0.4987 0.2877
0.0774 0.5346 0.2710
0.2532 0.6062 0.2347
0.4810 0.6811 0.2087
0.6155 0.7546 0.2611
0.7233 0.8146 0.3212
0.8266 0.8578 0.3895
0.9215 0.8878 0.4614
1.0000 0.8904 0.4701
0.0000 0.5223 0.2760
0.1171 0.5754 0.2548
0.3012 0.6608 0.2247
0.5529 0.7459 0.2102
0.6756 0.8139 0.2635
0.7758 0.8633 0.3178
0.8834 0.8995 0.3804
0.9640 0.9231 0.4440
1.0000 0.9442 0.5254
0.1498 0.0037 0.3118
0.1740 0.0019 0.3210
0.2274 0.0008 0.3372
0.2986 0.0062 0.3487
0.3960 0.0232 0.3420
0.5243 0.0474 0.3394
0.6082 0.0651 0.3421
0.6580 0.0800 0.3501
0.6833 0.0882 0.3610
0.1510 0.0486 0.3294
0.1829 0.0508 0.3381
0.2354 0.0466 0.3512
0.3053 0.0478 0.3581
0.4021 0.0609 0.3478
0.5437 0.0878 0.3440
0.6364 0.1082 0.3462
0.6929 0.1220 0.3530
0.7289 0.1326 0.3628
0.1291 0.1084 0.3465
0.1775 0.1173 0.3598
0.2479 0.1221 0.3732
0.3159 0.1164 0.3728
0.4115 0.1236 0.3570
0.5669 0.1526 0.3520
0.6645 0.1713 0.3536
0.7322 0.1893 0.3598
0.7800 0.2051 0.3688
0.0835 0.2026 0.3512
0.1240 0.2113 0.3625
0.2250 0.2311 0.3881
0.3335 0.2393 0.3975
0.4271 0.2367 0.3722
0.5960 0.2651 0.3661
0.7030 0.2870 0.3675
0.7814 0.3045 0.3724
0.8367 0.3223 0.3810
0.0470 0.3336 0.3280
0.0770 0.3425 0.3367
0.1543 0.3625 0.3563
0.2842 0.3905 0.3836
0.4483 0.4105 0.3933
0.6300 0.4328 0.3872
0.7457 0.4531 0.3895
0.8337 0.4720 0.3954
0.8924 0.4903 0.4050
0.0261 0.4465 0.3527
0.0632 0.4655 0.3667
0.1509 0.5044 0.3948
0.2864 0.5411 0.4096
0.5128 0.5514 0.3413
0.6418 0.5957 0.4148
0.7831 0.6160 0.4199
0.8951 0.6378 0.4286
0.9543 0.6548 0.4417
0.0000 0.5150 0.3710
0.0452 0.5480 0.3939
0.1488 0.5941 0.4166
0.3105 0.6261 0.3804
0.5695 0.6736 0.3205
0.6909 0.7330 0.3948
0.7855 0.7752 0.4763
0.9287 0.7878 0.4797
0.9916 0.8026 0.4938
0.0000 0.5547 0.3830
0.0308 0.5963 0.4097
0.1747 0.6343 0.3869
0.3640 0.6982 0.3432
0.6260 0.7623 0.3058
0.7314 0.8218 0.3785
0.8299 0.8652 0.4560
0.9263 0.8928 0.5342
1.0000 0.8987 0.5452
0.0000 0.5771 0.3906
0.0600 0.6159 0.3794
0.2104 0.6650 0.3535
0.4380 0.7575 0.3115
0.6812 0.8216 0.2956
0.7859 0.8716 0.3591
0.8935 0.9069 0.4275
0.9668 0.9291 0.5032
1.0000 0.9546 0.5962
0.1824 0.0027 0.3495
0.2097 0.0027 0.3686
0.2697 0.0056 0.4074
0.3504 0.0167 0.4516
0.4351 0.0385 0.4861
0.5642 0.0777 0.4944
0.6523 0.1009 0.4967
0.7137 0.1194 0.5043
0.7535 0.1355 0.5153
0.1864 0.0473 0.3759
0.2201 0.0504 0.3906
0.2793 0.0502 0.4263
0.3586 0.0570 0.4663
0.4421 0.0740 0.4960
0.5703 0.1083 0.5002
0.6667 0.1339 0.5019
0.7380 0.1555 0.5088
0.7880 0.1719 0.5181
0.1812 0.1097 0.4161
0.2205 0.1170 0.4288
0.2942 0.1237 0.4564
0.3716 0.1237 0.4896
0.4529 0.1331 0.5117
0.5798 0.1599 0.5093
0.6882 0.1882 0.5101
0.7692 0.2098 0.5157
0.8258 0.2294 0.5250
0.1458 0.2053 0.4568
0.1871 0.2142 0.4706
0.2897 0.2342 0.5021
0.3931 0.2432 0.5287
0.4709 0.2403 0.5380
0.5954 0.2547 0.5243
0.7145 0.2838 0.5243
0.8091 0.3089 0.5292
0.8662 0.3273 0.5386
0.1214 0.3366 0.4814
0.1518 0.3454 0.4926
0.2300 0.3652 0.5181
0.3611 0.3928 0.5541
0.4961 0.4094 0.5754
0.6172 0.4064 0.5453
0.7455 0.4318 0.5443
0.8499 0.4562 0.5484
0.9087 0.4760 0.5583
0.1307 0.4884 0.4759
0.1495 0.4975 0.4847
0.2014 0.5180 0.5044
0.2958 0.5467 0.5319
0.4302 0.5787 0.5623
0.6414 0.6023 0.5694
0.7826 0.6236 0.5685
0.8945 0.6441 0.5733
0.9476 0.6615 0.5847
0.1077 0.5807 0.4891
0.1316 0.5992 0.5032
0.1923 0.6340 0.5297
0.2903 0.6803 0.5633
0.4485 0.7235 0.5802
0.6914 0.7397 0.5089
0.7885 0.7819 0.5992
0.9256 0.7935 0.5991
0.9832 0.8103 0.6149
0.0726 0.6231 0.4890
0.1046 0.6524 0.5102
0.1762 0.6991 0.5429
0.2854 0.7479 0.5679
0.5090 0.7953 0.5142
0.7319 0.8324 0.4668
0.8352 0.8731 0.5519
0.9266 0.8999 0.6381
0.9999 0.9068 0.6494
0.0315 0.6387 0.4802
0.0764 0.6761 0.5064
0.1660 0.7283 0.5349
0.3258 0.7635 0.5048
0.5826 0.8435 0.4451
0.7886 0.8814 0.4214
0.8953 0.9165 0.4999
0.9652 0.9413 0.5879
0.9977 0.9623 0.6875
0.1974 0.0000 0.3255
0.2279 0.0007 0.3551
0.2952 0.0080 0.4176
0.3858 0.0251 0.4946
0.4817 0.0535 0.5662
0.5979 0.1045 0.6364
0.6923 0.1519 0.6641
0.7681 0.1778 0.6680
0.8118 0.1957 0.6775
0.2043 0.0431 0.3617
0.2399 0.0471 0.3824
0.3063 0.0512 0.4417
0.3957 0.0640 0.5145
0.4903 0.0876 0.5816
0.6047 0.1325 0.6459
0.6982 0.1757 0.6699
0.7831 0.2042 0.6730
0.8309 0.2239 0.6826
0.2086 0.1069 0.4244
0.2459 0.1139 0.4388
0.3238 0.1226 0.4799
0.4113 0.1286 0.5460
0.5037 0.1447 0.6059
0.6155 0.1799 0.6609
0.7073 0.2165 0.6789
0.8013 0.2473 0.6815
0.8533 0.2667 0.6905
0.1925 0.2055 0.5025
0.2346 0.2145 0.5187
0.3324 0.2336 0.5538
0.4370 0.2446 0.5988
0.5259 0.2484 0.6466
0.6332 0.2678 0.6860
0.7225 0.2935 0.6937
0.8255 0.3252 0.6958
0.8801 0.3470 0.7054
0.1834 0.3390 0.5788
0.2146 0.3479 0.5925
0.2945 0.3679 0.6239
0.4281 0.3958 0.6682
0.5569 0.4126 0.7047
0.6580 0.4100 0.7217
0.7437 0.4207 0.7146
0.8569 0.4499 0.7155
0.9121 0.4716 0.7255
0.2085 0.4908 0.6214
0.2272 0.4996 0.6324
0.2789 0.5194 0.6572
0.3731 0.5469 0.6923
0.5073 0.5774 0.7316
0.6868 0.6031 0.7642
0.7683 0.5964 0.7389
0.8904 0.6221 0.7389
0.9463 0.6420 0.7489
0.2667 0.6355 0.6250
0.2742 0.6445 0.6337
0.3006 0.6647 0.6534
0.3595 0.6932 0.6809
0.4547 0.7248 0.7113
0.6225 0.7656 0.7502
0.7913 0.7867 0.7618
0.9218 0.8059 0.7615
0.9732 0.8195 0.7719
0.2361 0.6947 0.6201
0.2477 0.7118 0.6338
0.2830 0.7444 0.6599
0.3501 0.7849 0.6917
0.4655 0.8352 0.7295
0.6369 0.8792 0.7495
0.8336 0.8846 0.6873
0.9265 0.9113 0.7772
0.9906 0.9197 0.7858
0.1866 0.7116 0.5989
0.2052 0.7357 0.6172
0.2544 0.7774 0.6482
0.3336 0.8236 0.6811
0.4884 0.8818 0.7079
0.6895 0.9130 0.6531
0.8935 0.9289 0.6056
0.9648 0.9520 0.7014
0.9942 0.9725 0.8064
0.1948 0.0000 0.2571
0.2278 0.0000 0.2959
0.3008 0.0078 0.3781
0.3993 0.0296 0.4817
0.5039 0.0633 0.5818
0.6313 0.1209 0.6887
0.7247 0.1767 0.7547
0.8119 0.2338 0.7950
0.8460 0.2480 0.7976
0.2041 0.0377 0.3023
0.2411 0.0424 0.3278
0.3132 0.0500 0.4067
0.4105 0.0675 0.5058
0.5138 0.0963 0.6013
0.6394 0.1478 0.7024
0.7314 0.1989 0.7640
0.8177 0.2519 0.8006
0.8558 0.2680 0.8032
0.2136 0.1023 0.3844
0.2515 0.1093 0.4003
0.3327 0.1197 0.4516
0.4281 0.1304 0.5438
0.5292 0.1517 0.6320
0.6521 0.1936 0.7241
0.7421 0.2372 0.7787
0.8267 0.2839 0.8095
0.8694 0.3023 0.8122
0.2148 0.2036 0.4931
0.2575 0.2126 0.5113
0.3480 0.2305 0.5481
0.4571 0.2437 0.6071
0.5547 0.2527 0.6833
0.6731 0.2788 0.7603
0.7596 0.3101 0.8032
0.8417 0.3464 0.8243
0.8886 0.3668 0.8269
0.2176 0.3388 0.6072
0.2495 0.3477 0.6229
0.3308 0.3679 0.6585
0.4663 0.3961 0.7089
0.5903 0.4130 0.7562
0.7025 0.4172 0.8118
0.7842 0.4316 0.8379
0.8626 0.4534 0.8450
0.9138 0.4739 0.8472
0.2565 0.4926 0.6966
0.2758 0.5015 0.7095
0.3289 0.5214 0.7388
0.4251 0.5492 0.7802
0.5614 0.5800 0.8268
0.7366 0.6059 0.8733
0.8127 0.6007 0.8790
0.8869 0.6059 0.8690
0.9414 0.6265 0.8710
0.3297 0.6383 0.7352
0.3370 0.6471 0.7456
0.3630 0.6668 0.7690
0.4214 0.6943 0.8019
0.5159 0.7247 0.8385
0.6829 0.7636 0.8861
0.8404 0.7925 0.9200
0.9104 0.7817 0.8924
0.9665 0.7994 0.8940
0.3998 0.7382 0.7350
0.3990 0.7470 0.7437
0.4068 0.7668 0.7633
0.4397 0.7944 0.7906
0.5062 0.8250 0.8209
0.6373 0.8642 0.8596
0.7741 0.8946 0.8895
0.9266 0.9180 0.9085
0.9859 0.9297 0.9093
0.3726 0.7688 0.7251
0.3740 0.7830 0.7375
0.3897 0.8111 0.7621
0.4334 0.8463 0.7925
0.5211 0.8882 0.8280
0.6591 0.9337 0.8657
0.8020 0.9730 0.8949
0.9596 0.9651 0.8424
0.9883 0.9816 0.9143
0.1888 0.0000 0.2044
0.2230 0.0000 0.2482
0.2988 0.0070 0.3413
0.4013 0.0313 0.4591
0.5104 0.0675 0.5740
0.6433 0.1285 0.6993
0.7411 0.1869 0.7797
0.8271 0.2494 0.8405
0.8657 0.2793 0.8618
0.1992 0.0343 0.2547
0.2370 0.0394 0.2826
0.3119 0.0487 0.3723
0.4132 0.0685 0.4855
0.5208 0.1000 0.5957
0.6521 0.1549 0.7152
0.7485 0.2085 0.7911
0.8333 0.2666 0.8479
0.8714 0.2947 0.8674
0.2114 0.0993 0.3478
0.2496 0.1064 0.3642
0.3324 0.1175 0.4209
0.4318 0.1306 0.5270
0.5373 0.1546 0.6298
0.6658 0.1998 0.7402
0.7601 0.2460 0.8092
0.8430 0.2973 0.8596
0.8803 0.3224 0.8763
0.2213 0.2019 0.4732
0.2643 0.2110 0.4924
0.3511 0.2283 0.5298
0.4624 0.2425 0.5958
0.5645 0.2542 0.6864
0.6885 0.2836 0.7817
0.7793 0.3176 0.8392
0.8591 0.3575 0.8789
0.8950 0.3778 0.8910
0.2301 0.3380 0.6065
0.2622 0.3470 0.6231
0.3443 0.3673 0.6609
0.4803 0.3955 0.7141
0.6023 0.4126 0.7666
0.7202 0.4201 0.8407
0.8062 0.4371 0.8818
0.8815 0.4614 0.9061
0.9157 0.4749 0.9116
0.2759 0.4928 0.7182
0.2955 0.5017 0.7321
0.3493 0.5218 0.7635
0.4465 0.5497 0.8080
0.5839 0.5807 0.8579
0.7569 0.6066 0.9110
0.8374 0.6040 0.9325
0.9076 0.6103 0.9381
0.9397 0.6161 0.9355
0.3558 0.6395 0.7806
0.3634 0.6483 0.7919
0.3901 0.6681 0.8175
0.4494 0.6957 0.8536
0.5451 0.7263 0.8939
0.7134 0.7654 0.9465
0.8676 0.7937 0.9831
0.9329 0.7828 0.9697
0.9630 0.7810 0.9588
0.4318 0.7401 0.7943
0.4311 0.7488 0.8039
0.4390 0.7684 0.8255
0.4722 0.7958 0.8557
0.5388 0.8261 0.8893
0.6701 0.8649 0.9327
0.8071 0.8949 0.9665
0.9507 0.9192 0.9921
0.9793 0.9123 0.9751
0.4771 0.7911 0.7909
0.4722 0.7998 0.7996
0.4705 0.8194 0.8191
0.4903 0.8467 0.8464
0.5422 0.8769 0.8766
0.6546 0.9155 0.9152
0.7769 0.9454 0.9451
0.9170 0.9730 0.9726
0.9877 0.9846 0.9835
