public/luts/film_emulation/Polaroid 600.cube
#Created by: Denver Riddle
#Copyright: (C) Copyright Color Grading Central LLC
DOMAIN_MIN 0.0 0.0 0.0
DOMAIN_MAX 1.0 1.0 1.0
LUT_3D_SIZE 9
0.1024 0.0852 0.0419
0.1273 0.0873 0.0401
0.1880 0.0925 0.0358
0.2498 0.0980 0.0334
0.2910 0.1018 0.0324
0.3225 0.1046 0.0301
0.3360 0.1057 0.0291
0.3349 0.1060 0.0323
0.3151 0.1044 0.0344
0.1056 0.1103 0.0442
0.1294 0.1106 0.0400
0.2082 0.1171 0.0345
0.2809 0.1226 0.0295
0.3409 0.1274 0.0275
0.3985 0.1320 0.0250
0.4381 0.1350 0.0221
0.4597 0.1370 0.0210
0.4563 0.1371 0.0244
0.1281 0.1657 0.0530
0.1547 0.1625 0.0431
0.2148 0.1664 0.0347
0.3000 0.1730 0.0291
0.3873 0.1797 0.0233
0.4754 0.1872 0.0202
0.5457 0.1930 0.0160
0.5916 0.1967 0.0126
0.6087 0.1982 0.0127
0.1612 0.2423 0.0655
0.2020 0.2625 0.0572
0.2487 0.2583 0.0414
0.3054 0.2615 0.0313
0.4192 0.2702 0.0245
0.5435 0.2802 0.0176
0.6377 0.2882 0.0145
0.7009 0.2937 0.0101
0.7334 0.2961 0.0077
0.2038 0.3363 0.0814
0.2537 0.3639 0.0724
0.3039 0.3797 0.0602
0.3518 0.3863 0.0480
0.4297 0.3727 0.0293
0.5863 0.3848 0.0209
0.7044 0.3947 0.0166
0.7837 0.4013 0.0131
0.8293 0.4048 0.0101
0.2464 0.4160 0.0934
0.3024 0.4547 0.0864
0.3586 0.4923 0.0799
0.4165 0.5168 0.0692
0.4944 0.5213 0.0504
0.6029 0.5140 0.0307
0.7487 0.5257 0.0251
0.8442 0.5334 0.0229
0.8979 0.5374 0.0201
0.2856 0.4803 0.1019
0.3506 0.5404 0.1001
0.4183 0.6050 0.1000
0.4940 0.6612 0.0952
0.5796 0.6939 0.0807
0.6743 0.6976 0.0614
0.7677 0.6820 0.0424
0.8809 0.6870 0.0400
0.9444 0.6915 0.0376
0.3230 0.5382 0.1095
0.4012 0.6287 0.1150
0.4797 0.7170 0.1212
0.5660 0.7843 0.1181
0.6569 0.8216 0.1041
0.7418 0.8317 0.0868
0.8249 0.8238 0.0703
0.8974 0.8093 0.0592
0.9701 0.8014 0.0529
0.3578 0.5859 0.1146
0.4448 0.7019 0.1279
0.5342 0.8005 0.1355
0.6274 0.8641 0.1295
0.7167 0.8973 0.1153
0.7940 0.9037 0.0985
0.8693 0.8926 0.0826
0.9303 0.8797 0.0707
0.9820 0.8691 0.0649
0.1036 0.0900 0.0830
0.1325 0.0927 0.0823
0.2045 0.0992 0.0801
0.2735 0.1053 0.0759
0.3256 0.1095 0.0739
0.3715 0.1131 0.0727
0.4036 0.1159 0.0707
0.4153 0.1163 0.0732
0.4035 0.1152 0.0743
0.1093 0.1215 0.0879
0.1319 0.1154 0.0822
0.2121 0.1220 0.0793
0.2864 0.1279 0.0750
0.3482 0.1327 0.0721
0.4071 0.1376 0.0702
0.4520 0.1417 0.0670
0.4718 0.1439 0.0687
0.4696 0.1438 0.0693
0.1325 0.1850 0.0801
0.1559 0.1662 0.0659
0.2157 0.1707 0.0764
0.3038 0.1779 0.0734
0.3928 0.1849 0.0682
0.4822 0.1924 0.0637
0.5579 0.1989 0.0601
0.6030 0.2030 0.0572
0.6224 0.2053 0.0590
0.1704 0.2789 0.0816
0.2037 0.2670 0.0655
0.2506 0.2617 0.0635
0.3059 0.2658 0.0724
0.4227 0.2753 0.0683
0.5481 0.2853 0.0607
0.6468 0.2939 0.0566
0.7079 0.2991 0.0535
0.7439 0.3021 0.0523
0.2171 0.3797 0.0915
0.2567 0.3698 0.0734
0.3062 0.3842 0.0681
0.3532 0.3884 0.0695
0.4316 0.3773 0.0702
0.5889 0.3898 0.0639
0.7122 0.4000 0.0571
0.7893 0.4066 0.0556
0.8348 0.4101 0.0525
0.2603 0.4610 0.1045
0.3065 0.4631 0.0880
0.3616 0.4976 0.0808
0.4202 0.5244 0.0776
0.4962 0.5249 0.0718
0.6040 0.5193 0.0718
0.7520 0.5308 0.0656
0.8469 0.5384 0.0627
0.9018 0.5428 0.0614
0.3082 0.5399 0.1158
0.3556 0.5508 0.1021
0.4243 0.6181 0.1027
0.4985 0.6707 0.0972
0.5829 0.6998 0.0885
0.6758 0.7013 0.0837
0.7671 0.6860 0.0823
0.8819 0.6920 0.0776
0.9455 0.6969 0.0778
0.3552 0.6132 0.1263
0.4085 0.6446 0.1185
0.4860 0.7302 0.1242
0.5715 0.7937 0.1199
0.6597 0.8262 0.1050
0.7451 0.8362 0.0939
0.8257 0.8289 0.0938
0.8969 0.8131 0.0954
0.9683 0.8067 0.0918
0.4010 0.6810 0.1361
0.4536 0.7213 0.1325
0.5410 0.8144 0.1388
0.6325 0.8748 0.1321
0.7205 0.9044 0.1168
0.7962 0.9075 0.0993
0.8707 0.8967 0.0901
0.9307 0.8832 0.0932
0.9801 0.8745 0.1028
0.1187 0.0972 0.1456
0.1390 0.0920 0.1460
0.2215 0.0945 0.1419
0.3007 0.0999 0.1399
0.3700 0.1047 0.1362
0.4417 0.1097 0.1330
0.4940 0.1133 0.1326
0.5249 0.1153 0.1335
0.5272 0.1155 0.1333
0.1173 0.1233 0.1564
0.1387 0.1211 0.1481
0.2205 0.1201 0.1424
0.3071 0.1259 0.1397
0.3887 0.1280 0.1354
0.4738 0.1344 0.1310
0.5373 0.1387 0.1295
0.5780 0.1385 0.1297
0.5911 0.1397 0.1287
0.1271 0.1855 0.1646
0.1527 0.1880 0.1579
0.2173 0.1779 0.1425
0.3083 0.1854 0.1394
0.3987 0.1927 0.1345
0.4940 0.2006 0.1287
0.5669 0.2074 0.1263
0.6140 0.2124 0.1258
0.6363 0.2146 0.1242
0.1812 0.3102 0.1576
0.2084 0.3001 0.1438
0.2532 0.2689 0.1181
0.3085 0.2731 0.1370
0.4269 0.2827 0.1326
0.5550 0.2931 0.1254
0.6529 0.3016 0.1200
0.7182 0.3074 0.1183
0.7536 0.3106 0.1187
0.2336 0.4222 0.1524
0.2635 0.4115 0.1370
0.3097 0.3927 0.1137
0.3557 0.3946 0.1230
0.4338 0.3846 0.1327
0.5922 0.3976 0.1267
0.7161 0.4076 0.1198
0.7945 0.4142 0.1168
0.8408 0.4182 0.1169
0.2835 0.5116 0.1449
0.3201 0.5137 0.1318
0.3663 0.5071 0.1128
0.4248 0.5333 0.1222
0.4983 0.5318 0.1242
0.6052 0.5267 0.1318
0.7539 0.5386 0.1272
0.8500 0.5461 0.1220
0.9057 0.5507 0.1221
0.3365 0.6004 0.1426
0.3800 0.6172 0.1325
0.4286 0.6279 0.1188
0.5036 0.6809 0.1294
0.5870 0.7074 0.1322
0.6777 0.7102 0.1343
0.7665 0.6923 0.1402
0.8828 0.6999 0.1363
0.9477 0.7045 0.1350
0.3947 0.6923 0.1433
0.4392 0.7205 0.1376
0.4922 0.7427 0.1270
0.5776 0.8035 0.1352
0.6653 0.8381 0.1376
0.7490 0.8471 0.1379
0.8264 0.8363 0.1412
0.8959 0.8199 0.1531
0.9678 0.8145 0.1470
0.4479 0.7682 0.1548
0.4908 0.8025 0.1527
0.5485 0.8297 0.1425
0.6380 0.8857 0.1347
0.7244 0.9121 0.1316
0.7990 0.9163 0.1301
0.8717 0.9046 0.1329
0.9306 0.8909 0.1401
0.9777 0.8817 0.1575
0.1485 0.1137 0.2274
0.1720 0.1103 0.2375
0.2273 0.0924 0.2301
0.3199 0.0946 0.2334
0.4136 0.1010 0.2310
0.5094 0.1076 0.2279
0.5829 0.1127 0.2263
0.6264 0.1157 0.2272
0.6435 0.1167 0.2295
0.1511 0.1418 0.2495
0.1742 0.1407 0.2473
0.2278 0.1186 0.2344
0.3193 0.1166 0.2337
0.4232 0.1200 0.2305
0.5328 0.1239 0.2264
0.6174 0.1299 0.2239
0.6703 0.1300 0.2240
0.6973 0.1282 0.2254
0.1416 0.1854 0.2633
0.1672 0.1883 0.2596
0.2276 0.1826 0.2408
0.3172 0.1805 0.2352
0.4306 0.1839 0.2310
0.5507 0.1888 0.2265
0.6492 0.1924 0.2229
0.7112 0.1928 0.2220
0.7435 0.1925 0.2233
0.1635 0.2933 0.2815
0.1919 0.2967 0.2734
0.2510 0.3027 0.2567
0.3125 0.2844 0.2363
0.4317 0.2942 0.2315
0.5640 0.3055 0.2258
0.6644 0.3142 0.2217
0.7267 0.3198 0.2205
0.7646 0.3233 0.2211
0.2407 0.4354 0.2618
0.2777 0.4502 0.2518
0.3184 0.4377 0.2313
0.3605 0.4041 0.2050
0.4369 0.3959 0.2291
0.5989 0.4094 0.2225
0.7217 0.4196 0.2178
0.8024 0.4266 0.2157
0.8479 0.4307 0.2162
0.3126 0.5645 0.2415
0.3406 0.5640 0.2300
0.3786 0.5570 0.2127
0.4305 0.5443 0.1900
0.5016 0.5430 0.2036
0.6068 0.5383 0.2246
0.7558 0.5504 0.2200
0.8529 0.5584 0.2178
0.9100 0.5632 0.2179
0.3776 0.6746 0.2295
0.4108 0.6876 0.2211
0.4500 0.6974 0.2095
0.5106 0.6957 0.1868
0.5931 0.7201 0.1976
0.6803 0.7226 0.2107
0.7660 0.7029 0.2290
0.8835 0.7119 0.2271
0.9487 0.7164 0.2272
0.4426 0.7727 0.2179
0.4752 0.7949 0.2142
0.5187 0.8146 0.2055
0.5852 0.8178 0.1827
0.6712 0.8489 0.1911
0.7522 0.8586 0.2003
0.8274 0.8479 0.2165
0.8945 0.8307 0.2397
0.9668 0.8272 0.2370
0.4955 0.8475 0.2092
0.5291 0.8729 0.2068
0.5753 0.8928 0.1972
0.6439 0.8979 0.1743
0.7295 0.9232 0.1783
0.8011 0.9242 0.1813
0.8725 0.9133 0.1938
0.9302 0.9028 0.2153
0.9754 0.8930 0.2449
0.1839 0.1338 0.3142
0.2139 0.1341 0.3401
0.2752 0.1193 0.3544
0.3403 0.1013 0.3627
0.4525 0.0940 0.3716
0.5716 0.1021 0.3676
0.6631 0.1084 0.3656
0.7220 0.1125 0.3653
0.7520 0.1145 0.3680
0.1940 0.1662 0.3528
0.2181 0.1656 0.3547
0.2778 0.1467 0.3648
0.3414 0.1235 0.3677
0.4524 0.1085 0.3717
0.5859 0.1115 0.3665
0.6874 0.1175 0.3638
0.7517 0.1185 0.3630
0.7870 0.1173 0.3648
0.1915 0.2130 0.3883
0.2186 0.2165 0.3879
0.2793 0.2115 0.3787
0.3428 0.1886 0.3788
0.4507 0.1668 0.3729
0.5943 0.1708 0.3671
0.7066 0.1729 0.3632
0.7803 0.1724 0.3619
0.8201 0.1715 0.3631
0.1869 0.2925 0.4194
0.2175 0.2970 0.4157
0.2749 0.3037 0.4072
0.3423 0.3031 0.3921
0.4469 0.2856 0.3758
0.6032 0.2906 0.3691
0.7237 0.2931 0.3647
0.8036 0.2929 0.3631
0.8528 0.2907 0.3632
0.2264 0.4066 0.4435
0.2510 0.4102 0.4345
0.2909 0.4154 0.4210
0.3479 0.4215 0.4038
0.4416 0.4130 0.3775
0.6052 0.4269 0.3702
0.7305 0.4374 0.3650
0.8111 0.4445 0.3628
0.8596 0.4491 0.3631
0.3239 0.5698 0.4030
0.3547 0.5839 0.3960
0.3940 0.6001 0.3862
0.4420 0.6014 0.3664
0.5078 0.5594 0.3281
0.6102 0.5559 0.3681
0.7609 0.5683 0.3626
0.8573 0.5763 0.3605
0.9157 0.5813 0.3607
0.4217 0.7366 0.3723
0.4494 0.7597 0.3681
0.4796 0.7665 0.3583
0.5267 0.7621 0.3375
0.6008 0.7375 0.3018
0.6840 0.7394 0.3298
0.7667 0.7205 0.3667
0.8845 0.7294 0.3645
0.9477 0.7338 0.3651
0.4921 0.8512 0.3421
0.5155 0.8670 0.3392
0.5497 0.8780 0.3294
0.6012 0.8802 0.3095
0.6791 0.8640 0.2757
0.7585 0.8734 0.2999
0.8293 0.8649 0.3316
0.8927 0.8481 0.3733
0.9665 0.8456 0.3706
0.5452 0.9195 0.3118
0.5689 0.9364 0.3092
0.6060 0.9472 0.2982
0.6626 0.9508 0.2774
0.7358 0.9373 0.2468
0.8077 0.9385 0.2645
0.8745 0.9292 0.2905
0.9298 0.9193 0.3281
0.9730 0.9101 0.3760
0.2248 0.1578 0.4007
0.2600 0.1612 0.4345
0.3298 0.1511 0.4712
0.4043 0.1383 0.5078
0.4958 0.1154 0.5383
0.6304 0.0930 0.5619
0.7374 0.1003 0.5588
0.8052 0.1048 0.5605
0.8431 0.1071 0.5658
0.2430 0.1951 0.4505
0.2683 0.1952 0.4562
0.3358 0.1806 0.4882
0.4077 0.1586 0.5176
0.4987 0.1280 0.5458
0.6304 0.0967 0.5609
0.7466 0.1010 0.5582
0.8231 0.1062 0.5581
0.8671 0.1090 0.5630
0.2495 0.2465 0.5058
0.2804 0.2520 0.5106
0.3418 0.2479 0.5138
0.4111 0.2263 0.5369
0.4990 0.1882 0.5548
0.6300 0.1485 0.5611
0.7569 0.1503 0.5581
0.8403 0.1496 0.5580
0.8872 0.1472 0.5613
0.2580 0.3316 0.5707
0.2891 0.3363 0.5708
0.3465 0.3433 0.5691
0.4138 0.3438 0.5655
0.4985 0.3084 0.5713
0.6276 0.2652 0.5642
0.7619 0.2678 0.5607
0.8528 0.2635 0.5589
0.9089 0.2567 0.5626
0.2862 0.4277 0.6247
0.3103 0.4314 0.6211
0.3490 0.4367 0.6154
0.4038 0.4434 0.6086
0.4982 0.4450 0.5916
0.6230 0.4108 0.5670
0.7688 0.4141 0.5633
0.8665 0.4177 0.5618
0.9229 0.4163 0.5646
0.3349 0.5490 0.6557
0.3479 0.5511 0.6492
0.3682 0.5544 0.6412
0.4041 0.5592 0.6265
0.4796 0.5680 0.6014
0.6177 0.5798 0.5712
0.7691 0.5913 0.5660
0.8669 0.5978 0.5636
0.9268 0.5993 0.5675
0.4482 0.7474 0.5983
0.4637 0.7595 0.5959
0.4876 0.7705 0.5900
0.5346 0.7863 0.5765
0.6123 0.8066 0.5496
0.6929 0.7610 0.5043
0.7700 0.7442 0.5622
0.8869 0.7534 0.5610
0.9512 0.7580 0.5609
0.5384 0.8880 0.5421
0.5537 0.9035 0.5408
0.5816 0.9247 0.5338
0.6283 0.9420 0.5177
0.6928 0.9266 0.4847
0.7670 0.8920 0.4461
0.8344 0.8878 0.5002
0.8927 0.8725 0.5636
0.9678 0.8709 0.5617
0.6012 0.9853 0.4821
0.6161 0.9951 0.4800
0.6435 1.0000 0.4702
0.6860 0.9977 0.4504
0.7478 0.9862 0.4221
0.8165 0.9566 0.3883
0.8785 0.9514 0.4330
0.9309 0.9429 0.4930
0.9723 0.9343 0.5633
0.2668 0.1831 0.4732
0.3112 0.1925 0.5161
0.3885 0.1869 0.5660
0.4696 0.1779 0.6169
0.5673 0.1582 0.6704
0.6892 0.1257 0.7262
0.7989 0.0943 0.7680
0.8692 0.0952 0.7711
0.9139 0.0981 0.7727
0.2947 0.2268 0.5292
0.3225 0.2284 0.5395
0.3977 0.2171 0.5849
0.4763 0.2002 0.6303
0.5726 0.1723 0.6805
0.6903 0.1281 0.7285
0.7989 0.0943 0.7680
0.8768 0.0958 0.7697
0.9245 0.0989 0.7715
0.3105 0.2836 0.5951
0.3450 0.2910 0.6021
0.4059 0.2870 0.6145
0.4820 0.2676 0.6551
0.5751 0.2333 0.6976
0.6920 0.1811 0.7387
0.7980 0.1307 0.7684
0.8836 0.1263 0.7700
0.9378 0.1231 0.7712
0.3287 0.3730 0.6810
0.3613 0.3787 0.6852
0.4192 0.3864 0.6876
0.4873 0.3880 0.6953
0.5777 0.3534 0.7292
0.6922 0.2965 0.7564
0.7951 0.2375 0.7720
0.8888 0.2258 0.7712
0.9472 0.2189 0.7726
0.3648 0.4725 0.7650
0.3909 0.4769 0.7657
0.4310 0.4830 0.7667
0.4839 0.4898 0.7669
0.5793 0.4923 0.7650
0.6913 0.4448 0.7793
0.7910 0.3933 0.7761
0.8946 0.3858 0.7748
0.9566 0.3783 0.7755
0.4208 0.5941 0.8421
0.4337 0.5968 0.8418
0.4548 0.6008 0.8399
0.4926 0.6064 0.8344
0.5684 0.6157 0.8232
0.6899 0.6160 0.8045
0.7864 0.5673 0.7817
0.8965 0.5636 0.7782
0.9616 0.5594 0.7797
0.4903 0.7324 0.8920
0.4943 0.7337 0.8902
0.5048 0.7367 0.8850
0.5282 0.7410 0.8721
0.5771 0.7492 0.8513
0.6628 0.7594 0.8209
0.7810 0.7683 0.7866
0.8953 0.7722 0.7833
0.9633 0.7752 0.7844
0.5721 0.8836 0.8221
0.5775 0.8881 0.8220
0.5939 0.8962 0.8165
0.6259 0.9072 0.8031
0.6833 0.9222 0.7828
0.7739 0.9460 0.7548
0.8456 0.9113 0.7159
0.8964 0.8986 0.7800
0.9710 0.8977 0.7785
0.6468 0.9800 0.7380
0.6519 0.9873 0.7390
0.6720 0.9971 0.7333
0.7121 1.0000 0.7213
0.7706 1.0000 0.6998
0.8288 1.0000 0.6675
0.8887 0.9774 0.6340
0.9361 0.9713 0.7053
0.9752 0.9608 0.7750
0.3077 0.2085 0.5277
0.3589 0.2226 0.5691
0.4411 0.2203 0.6223
0.5241 0.2125 0.6761
0.6214 0.1921 0.7379
0.7401 0.1569 0.8060
0.8474 0.1233 0.8595
0.9283 0.0984 0.8954
0.9632 0.0932 0.9005
0.3432 0.2576 0.5792
0.3735 0.2609 0.5913
0.4517 0.2500 0.6383
0.5314 0.2353 0.6877
0.6264 0.2030 0.7448
0.7436 0.1591 0.8106
0.8485 0.1240 0.8612
0.9283 0.0984 0.8954
0.9670 0.0935 0.8998
0.3654 0.3188 0.6440
0.4002 0.3258 0.6491
0.4612 0.3224 0.6690
0.5382 0.3017 0.7138
0.6304 0.2646 0.7657
0.7454 0.2114 0.8235
0.8493 0.1585 0.8667
0.9276 0.1170 0.8959
0.9735 0.1084 0.8998
0.3860 0.4080 0.7361
0.4185 0.4140 0.7413
0.4767 0.4221 0.7459
0.5424 0.4228 0.7584
0.6315 0.3851 0.8022
0.7456 0.3260 0.8481
0.8478 0.2634 0.8796
0.9251 0.2067 0.8994
0.9753 0.1873 0.9012
0.4237 0.5068 0.8324
0.4475 0.5109 0.8348
0.4868 0.5163 0.8368
0.5396 0.5229 0.8398
0.6338 0.5257 0.8470
0.7446 0.4745 0.8800
0.8454 0.4208 0.8982
0.9211 0.3667 0.9060
0.9784 0.3467 0.9050
0.4777 0.6266 0.9312
0.4902 0.6291 0.9314
0.5119 0.6330 0.9305
0.5490 0.6383 0.9283
0.6236 0.6471 0.9230
0.7438 0.6476 0.9175
0.8422 0.5972 0.9193
0.9162 0.5458 0.9131
0.9775 0.5271 0.9092
0.5483 0.7639 1.0000
0.5514 0.7651 1.0000
0.5634 0.7684 1.0000
0.5873 0.7729 0.9991
0.6362 0.7810 0.9857
0.7225 0.7913 0.9660
0.8388 0.8004 0.9437
0.9106 0.7654 0.9220
0.9768 0.7543 0.9144
0.6280 0.8725 1.0000
0.6250 0.8721 1.0000
0.6296 0.8732 1.0000
0.6467 0.8772 1.0000
0.6790 0.8829 1.0000
0.7356 0.8912 0.9782
0.8144 0.9005 0.9517
0.9033 0.9089 0.9265
0.9752 0.9096 0.9184
0.6924 0.9558 0.9761
0.6870 0.9565 0.9812
0.6927 0.9619 0.9802
0.7113 0.9666 0.9715
0.7497 0.9773 0.9569
0.8062 0.9881 0.9365
0.8822 0.9999 0.9139
0.9452 0.9907 0.8878
0.9794 0.9773 0.9161
0.3432 0.2312 0.5614
0.3984 0.2485 0.5955
0.4802 0.2460 0.6459
0.5586 0.2351 0.6980
0.6518 0.2118 0.7630
0.7696 0.1755 0.8408
0.8752 0.1404 0.9018
0.9549 0.1145 0.9427
1.0000 0.0977 0.9718
0.3831 0.2839 0.6024
0.4122 0.2864 0.6129
0.4898 0.2744 0.6580
0.5651 0.2555 0.7068
0.6562 0.2218 0.7682
0.7717 0.1768 0.8429
0.8760 0.1409 0.9029
0.9554 0.1148 0.9434
1.0000 0.0977 0.9718
0.4034 0.3439 0.6597
0.4384 0.3504 0.6642
0.4974 0.3463 0.6877
0.5699 0.3208 0.7324
0.6598 0.2835 0.7898
0.7745 0.2262 0.8574
0.8780 0.1749 0.9110
0.9560 0.1335 0.9467
1.0000 0.1012 0.9720
0.4218 0.4297 0.7543
0.4528 0.4348 0.7591
0.5087 0.4429 0.7649
0.5736 0.4431 0.7806
0.6622 0.4029 0.8306
0.7746 0.3437 0.8866
0.8773 0.2760 0.9280
0.9552 0.2178 0.9557
1.0000 0.1676 0.9747
0.4574 0.5262 0.8569
0.4811 0.5305 0.8600
0.5181 0.5357 0.8637
0.5702 0.5417 0.8670
0.6628 0.5441 0.8788
0.7742 0.4907 0.9239
0.8755 0.4350 0.9536
0.9515 0.3783 0.9693
1.0000 0.3215 0.9807
0.5120 0.6455 0.9682
0.5225 0.6473 0.9681
0.5443 0.6515 0.9692
0.5808 0.6566 0.9689
0.6543 0.6649 0.9665
0.7738 0.6657 0.9688
0.8726 0.6126 0.9822
0.9474 0.5571 0.9852
1.0000 0.5003 0.9876
0.5812 0.7821 1.0000
0.5852 0.7834 1.0000
0.5958 0.7863 1.0000
0.6212 0.7913 1.0000
0.6696 0.7991 1.0000
0.7554 0.8089 1.0000
0.8700 0.8183 1.0000
0.9430 0.7799 1.0000
0.9958 0.7361 0.9967
0.6653 0.8911 1.0000
0.6605 0.8906 1.0000
0.6662 0.8919 1.0000
0.6814 0.8952 1.0000
0.7139 0.9010 1.0000
0.7702 0.9094 1.0000
0.8485 0.9187 1.0000
0.9372 0.9274 1.0000
0.9912 0.9064 1.0000
0.7644 0.9614 1.0000
0.7458 0.9584 1.0000
0.7399 0.9577 1.0000
0.7475 0.9590 1.0000
0.7697 0.9629 1.0000
0.8067 0.9683 1.0000
0.8613 0.9748 1.0000
0.9236 0.9812 1.0000
0.9881 0.9871 1.0000
