public/luts/film_emulation/Polaroid 600.cube
#Created by: Denver Riddle
#Copyright: (C) Copyright Color Grading Central LLC
DOMAIN_MIN 0.0 0.0 0.0
DOMAIN_MAX 1.0 1.0 1.0
LUT_3D_SIZE 5
0.1024 0.0852 0.0419
0.1880 0.0925 0.0358
0.2910 0.1018 0.0324
0.3360 0.1057 0.0291
0.3151 0.1044 0.0344
0.1281 0.1657 0.0530
0.2148 0.1664 0.0347
0.3873 0.1797 0.0233
0.5457 0.1930 0.0160
0.6087 0.1982 0.0127
0.2038 0.3363 0.0814
0.3039 0.3797 0.0602
0.4297 0.3727 0.0293
0.7044 0.3947 0.0166
0.8293 0.4048 0.0101
0.2856 0.4803 0.1019
0.4183 0.6050 0.1000
0.5796 0.6939 0.0807
0.7677 0.6820 0.0424
0.9444 0.6915 0.0376
0.3578 0.5859 0.1146
0.5342 0.8005 0.1355
0.7167 0.8973 0.1153
0.8693 0.8926 0.0826
0.9820 0.8691 0.0649
0.1187 0.0972 0.1456
0.2215 0.0945 0.1419
0.3700 0.1047 0.1362
0.4940 0.1133 0.1326
0.5272 0.1155 0.1333
0.1271 0.1855 0.1646
0.2173 0.1779 0.1425
0.3987 0.1927 0.1345
0.5669 0.2074 0.1263
0.6363 0.2146 0.1242
0.2336 0.4222 0.1524
0.3097 0.3927 0.1137
0.4338 0.3846 0.1327
0.7161 0.4076 0.1198
0.8408 0.4182 0.1169
0.3365 0.6004 0.1426
0.4286 0.6279 0.1188
0.5870 0.7074 0.1322
0.7665 0.6923 0.1402
0.9477 0.7045 0.1350
0.4479 0.7682 0.1548
0.5485 0.8297 0.1425
0.7244 0.9121 0.1316
0.8717 0.9046 0.1329
0.9777 0.8817 0.1575
0.1839 0.1338 0.3142
0.2752 0.1193 0.3544
0.4525 0.0940 0.3716
0.6631 0.1084 0.3656
0.7520 0.1145 0.3680
0.1915 0.2130 0.3883
0.2793 0.2115 0.3787
0.4507 0.1668 0.3729
0.7066 0.1729 0.3632
0.8201 0.1715 0.3631
0.2264 0.4066 0.4435
0.2909 0.4154 0.4210
0.4416 0.4130 0.3775
0.7305 0.4374 0.3650
0.8596 0.4491 0.3631
0.4217 0.7366 0.3723
0.4796 0.7665 0.3583
0.6008 0.7375 0.3018
0.7667 0.7205 0.3667
0.9477 0.7338 0.3651
0.5452 0.9195 0.3118
0.6060 0.9472 0.2982
0.7358 0.9373 0.2468
0.8745 0.9292 0.2905
0.9730 0.9101 0.3760
0.2668 0.1831 0.4732
0.3885 0.1869 0.5660
0.5673 0.1582 0.6704
0.7989 0.0943 0.7680
0.9139 0.0981 0.7727
0.3105 0.2836 0.5951
0.4059 0.2870 0.6145
0.5751 0.2333 0.6976
0.7980 0.1307 0.7684
0.9378 0.1231 0.7712
0.3648 0.4725 0.7650
0.4310 0.4830 0.7667
0.5793 0.4923 0.7650
0.7910 0.3933 0.7761
0.9566 0.3783 0.7755
0.4903 0.7324 0.8920
0.5048 0.7367 0.8850
0.5771 0.7492 0.8513
0.7810 0.7683 0.7866
0.9633 0.7752 0.7844
0.6468 0.9800 0.7380
0.6720 0.9971 0.7333
0.7706 1.0000 0.6998
0.8887 0.9774 0.6340
0.9752 0.9608 0.7750
0.3432 0.2312 0.5614
0.4802 0.2460 0.6459
0.6518 0.2118 0.7630
0.8752 0.1404 0.9018
1.0000 0.0977 0.9718
0.4034 0.3439 0.6597
0.4974 0.3463 0.6877
0.6598 0.2835 0.7898
0.8780 0.1749 0.9110
1.0000 0.1012 0.9720
0.4574 0.5262 0.8569
0.5181 0.5357 0.8637
0.6628 0.5441 0.8788
0.8755 0.4350 0.9536
1.0000 0.3215 0.9807
0.5812 0.7821 1.0000
0.5958 0.7863 1.0000
0.6696 0.7991 1.0000
0.8700 0.8183 1.0000
0.9958 0.7361 0.9967
0.7644 0.9614 1.0000
0.7399 0.9577 1.0000
0.7697 0.9629 1.0000
0.8613 0.9748 1.0000
0.9881 0.9871 1.0000
