public/luts/film_emulation/Polaroid 600.cube
#Created by: Denver Riddle
#Copyright: (C) Copyright Color Grading Central LLC
DOMAIN_MIN 0.0 0.0 0.0
DOMAIN_MAX 1.0 1.0 1.0
LUT_3D_SIZE 33
0.1024 0.0852 0.0419
0.1024 0.0852 0.0419
0.1061 0.0855 0.0416
0.1171 0.0864 0.0408
0.1273 0.0873 0.0401
0.1401 0.0884 0.0392
0.1558 0.0897 0.0381
0.1737 0.0913 0.0368
0.1880 0.0925 0.0358
0.2046 0.0939 0.0347
0.2202 0.0953 0.0338
0.2347 0.0966 0.0336
0.2498 0.0980 0.0334
0.2608 0.0991 0.0334
0.2719 0.1001 0.0334
0.2820 0.1010 0.0330
0.2910 0.1018 0.0324
0.3009 0.1027 0.0317
0.3094 0.1034 0.0311
0.3142 0.1038 0.0307
0.3225 0.1046 0.0301
0.3249 0.1048 0.0299
0.3302 0.1052 0.0296
0.3343 0.1056 0.0293
0.3360 0.1057 0.0291
0.3360 0.1058 0.0299
0.3360 0.1059 0.0307
0.3360 0.1060 0.0314
0.3349 0.1060 0.0323
0.3308 0.1057 0.0333
0.3255 0.1053 0.0337
0.3229 0.1050 0.0339
0.3151 0.1044 0.0344
0.1023 0.0880 0.0419
0.1023 0.0880 0.0419
0.1069 0.0884 0.0415
0.1170 0.0893 0.0408
0.1281 0.0903 0.0401
0.1431 0.0915 0.0390
0.1610 0.0931 0.0377
0.1768 0.0944 0.0366
0.1956 0.0960 0.0353
0.2134 0.0976 0.0341
0.2303 0.0990 0.0329
0.2464 0.1004 0.0320
0.2583 0.1016 0.0320
0.2707 0.1027 0.0319
0.2833 0.1039 0.0318
0.2947 0.1050 0.0318
0.3050 0.1059 0.0314
0.3139 0.1067 0.0308
0.3228 0.1075 0.0301
0.3324 0.1083 0.0294
0.3373 0.1087 0.0291
0.3457 0.1095 0.0285
0.3523 0.1101 0.0280
0.3577 0.1105 0.0276
0.3584 0.1106 0.0276
0.3602 0.1108 0.0275
0.3613 0.1110 0.0282
0.3613 0.1110 0.0290
0.3599 0.1110 0.0298
0.3584 0.1110 0.0307
0.3577 0.1110 0.0314
0.3521 0.1105 0.0318
0.3453 0.1099 0.0323
0.1021 0.0938 0.0419
0.1048 0.0940 0.0417
0.1068 0.0942 0.0415
0.1168 0.0950 0.0408
0.1286 0.0960 0.0400
0.1435 0.0973 0.0390
0.1619 0.0989 0.0377
0.1822 0.1006 0.0363
0.2009 0.1022 0.0350
0.2174 0.1036 0.0338
0.2355 0.1052 0.0325
0.2527 0.1067 0.0313
0.2688 0.1081 0.0305
0.2796 0.1091 0.0306
0.2935 0.1104 0.0304
0.3063 0.1116 0.0303
0.3182 0.1127 0.0303
0.3282 0.1137 0.0298
0.3373 0.1145 0.0292
0.3495 0.1155 0.0283
0.3584 0.1163 0.0277
0.3653 0.1169 0.0272
0.3734 0.1176 0.0266
0.3801 0.1182 0.0261
0.3854 0.1187 0.0257
0.3896 0.1191 0.0254
0.3921 0.1193 0.0253
0.3932 0.1195 0.0261
0.3932 0.1196 0.0269
0.3918 0.1196 0.0277
0.3888 0.1192 0.0288
0.3846 0.1188 0.0295
0.3790 0.1181 0.0299
0.1033 0.1015 0.0427
0.1056 0.0998 0.0416
0.1093 0.1002 0.0414
0.1166 0.1018 0.0409
0.1295 0.1028 0.0400
0.1456 0.1040 0.0388
0.1644 0.1054 0.0375
0.1850 0.1070 0.0361
0.2038 0.1085 0.0348
0.2241 0.1100 0.0334
0.2436 0.1117 0.0320
0.2580 0.1129 0.0310
0.2753 0.1144 0.0298
0.2877 0.1155 0.0294
0.3029 0.1169 0.0291
0.3172 0.1182 0.0289
0.3302 0.1195 0.0288
0.3418 0.1206 0.0288
0.3566 0.1219 0.0279
0.3656 0.1227 0.0272
0.3777 0.1238 0.0264
0.3886 0.1247 0.0256
0.3978 0.1256 0.0249
0.4058 0.1263 0.0244
0.4127 0.1269 0.0239
0.4176 0.1273 0.0235
0.4215 0.1277 0.0232
0.4239 0.1279 0.0233
0.4250 0.1281 0.0240
0.4248 0.1282 0.0248
0.4234 0.1282 0.0257
0.4204 0.1280 0.0267
0.4163 0.1277 0.0274
0.1056 0.1103 0.0442
0.1083 0.1106 0.0435
0.1128 0.1063 0.0411
0.1201 0.1081 0.0406
0.1294 0.1106 0.0400
0.1466 0.1121 0.0388
0.1666 0.1138 0.0374
0.1858 0.1154 0.0361
0.2082 0.1171 0.0345
0.2297 0.1187 0.0331
0.2492 0.1203 0.0317
0.2661 0.1215 0.0305
0.2809 0.1226 0.0295
0.2987 0.1240 0.0283
0.3110 0.1250 0.0279
0.3267 0.1262 0.0277
0.3409 0.1274 0.0275
0.3585 0.1289 0.0270
0.3702 0.1299 0.0270
0.3851 0.1310 0.0260
0.3985 0.1320 0.0250
0.4105 0.1330 0.0242
0.4211 0.1337 0.0234
0.4304 0.1344 0.0227
0.4381 0.1350 0.0221
0.4455 0.1357 0.0216
0.4541 0.1364 0.0210
0.4578 0.1368 0.0207
0.4597 0.1370 0.0210
0.4608 0.1372 0.0217
0.4608 0.1373 0.0225
0.4592 0.1373 0.0234
0.4563 0.1371 0.0244
0.1111 0.1213 0.0454
0.1136 0.1204 0.0444
0.1180 0.1214 0.0433
0.1239 0.1175 0.0407
0.1332 0.1197 0.0398
0.1465 0.1208 0.0388
0.1676 0.1226 0.0374
0.1881 0.1244 0.0360
0.2116 0.1264 0.0344
0.2325 0.1282 0.0330
0.2523 0.1299 0.0316
0.2700 0.1314 0.0304
0.2874 0.1329 0.0292
0.3043 0.1343 0.0281
0.3225 0.1359 0.0268
0.3358 0.1371 0.0265
0.3552 0.1389 0.0260
0.3697 0.1403 0.0258
0.3875 0.1419 0.0254
0.4035 0.1434 0.0249
0.4184 0.1448 0.0239
0.4317 0.1460 0.0229
0.4435 0.1469 0.0221
0.4582 0.1480 0.0210
0.4671 0.1487 0.0203
0.4746 0.1492 0.0198
0.4826 0.1497 0.0192
0.4902 0.1503 0.0186
0.4933 0.1505 0.0184
0.4961 0.1506 0.0188
0.4967 0.1506 0.0195
0.4967 0.1505 0.0203
0.4945 0.1502 0.0213
0.1148 0.1333 0.0476
0.1180 0.1350 0.0470
0.1231 0.1359 0.0455
0.1299 0.1301 0.0421
0.1374 0.1296 0.0398
0.1503 0.1300 0.0386
0.1677 0.1337 0.0375
0.1892 0.1353 0.0360
0.2140 0.1372 0.0343
0.2339 0.1388 0.0330
0.2572 0.1406 0.0314
0.2754 0.1419 0.0302
0.2928 0.1432 0.0290
0.3090 0.1445 0.0279
0.3284 0.1460 0.0266
0.3470 0.1474 0.0253
0.3640 0.1488 0.0249
0.3844 0.1505 0.0243
0.4033 0.1521 0.0238
0.4209 0.1537 0.0234
0.4369 0.1552 0.0228
0.4559 0.1569 0.0214
0.4687 0.1581 0.0205
0.4800 0.1591 0.0197
0.4946 0.1605 0.0186
0.5045 0.1614 0.0179
0.5149 0.1624 0.0171
0.5206 0.1629 0.0167
0.5253 0.1634 0.0164
0.5307 0.1639 0.0160
0.5349 0.1644 0.0165
0.5356 0.1646 0.0172
0.5349 0.1646 0.0181
0.1202 0.1494 0.0507
0.1247 0.1487 0.0488
0.1301 0.1504 0.0473
0.1371 0.1473 0.0443
0.1454 0.1472 0.0419
0.1578 0.1426 0.0382
0.1718 0.1458 0.0373
0.1892 0.1483 0.0362
0.2152 0.1505 0.0344
0.2363 0.1523 0.0330
0.2568 0.1540 0.0316
0.2779 0.1558 0.0302
0.2991 0.1576 0.0288
0.3168 0.1591 0.0277
0.3355 0.1607 0.0264
0.3576 0.1626 0.0249
0.3762 0.1642 0.0238
0.3981 0.1660 0.0232
0.4184 0.1677 0.0226
0.4371 0.1693 0.0221
0.4589 0.1713 0.0214
0.4748 0.1725 0.0206
0.4928 0.1740 0.0193
0.5087 0.1753 0.0181
0.5212 0.1763 0.0172
0.5330 0.1772 0.0163
0.5428 0.1779 0.0156
0.5541 0.1789 0.0148
0.5594 0.1793 0.0143
0.5638 0.1795 0.0140
0.5688 0.1798 0.0139
0.5724 0.1801 0.0144
0.5729 0.1801 0.0152
0.1281 0.1657 0.0530
0.1334 0.1675 0.0516
0.1380 0.1670 0.0497
0.1459 0.1690 0.0475
0.1547 0.1625 0.0431
0.1645 0.1614 0.0400
0.1792 0.1594 0.0370
0.1969 0.1623 0.0358
0.2148 0.1664 0.0347
0.2375 0.1682 0.0332
0.2592 0.1698 0.0318
0.2799 0.1714 0.0304
0.3000 0.1730 0.0291
0.3218 0.1747 0.0277
0.3415 0.1762 0.0264
0.3626 0.1778 0.0250
0.3873 0.1797 0.0233
0.4105 0.1816 0.0222
0.4323 0.1834 0.0215
0.4569 0.1856 0.0206
0.4754 0.1872 0.0202
0.4964 0.1890 0.0195
0.5160 0.1906 0.0182
0.5300 0.1917 0.0172
0.5457 0.1930 0.0160
0.5605 0.1942 0.0150
0.5724 0.1951 0.0141
0.5810 0.1959 0.0134
0.5916 0.1967 0.0126
0.5968 0.1970 0.0122
0.6036 0.1975 0.0117
0.6069 0.1979 0.0120
0.6087 0.1982 0.0127
0.1351 0.1812 0.0553
0.1409 0.1875 0.0552
0.1470 0.1865 0.0527
0.1557 0.1877 0.0499
0.1635 0.1843 0.0461
0.1756 0.1818 0.0420
0.1859 0.1808 0.0389
0.2007 0.1798 0.0359
0.2190 0.1818 0.0347
0.2377 0.1861 0.0335
0.2604 0.1878 0.0321
0.2826 0.1895 0.0306
0.3040 0.1913 0.0293
0.3243 0.1929 0.0279
0.3482 0.1947 0.0264
0.3711 0.1965 0.0249
0.3973 0.1985 0.0232
0.4218 0.2004 0.0216
0.4447 0.2023 0.0207
0.4710 0.2046 0.0198
0.4950 0.2066 0.0189
0.5176 0.2086 0.0182
0.5366 0.2102 0.0175
0.5567 0.2119 0.0161
0.5713 0.2131 0.0150
0.5861 0.2143 0.0140
0.5991 0.2155 0.0130
0.6112 0.2165 0.0121
0.6214 0.2174 0.0114
0.6277 0.2180 0.0109
0.6356 0.2188 0.0103
0.6398 0.2192 0.0100
0.6423 0.2196 0.0107
0.1420 0.2001 0.0589
0.1496 0.2056 0.0578
0.1575 0.2104 0.0565
0.1652 0.2081 0.0529
0.1764 0.2087 0.0491
0.1860 0.2097 0.0462
0.1979 0.2041 0.0414
0.2101 0.1983 0.0367
0.2268 0.2007 0.0346
0.2455 0.2054 0.0335
0.2604 0.2095 0.0326
0.2841 0.2115 0.0311
0.3066 0.2131 0.0297
0.3286 0.2148 0.0283
0.3538 0.2167 0.0267
0.3782 0.2186 0.0252
0.4057 0.2208 0.0234
0.4321 0.2228 0.0217
0.4611 0.2252 0.0199
0.4850 0.2272 0.0192
0.5128 0.2295 0.0182
0.5336 0.2313 0.0176
0.5588 0.2335 0.0167
0.5781 0.2352 0.0157
0.5961 0.2366 0.0144
0.6124 0.2380 0.0132
0.6261 0.2393 0.0123
0.6392 0.2404 0.0113
0.6485 0.2411 0.0106
0.6572 0.2418 0.0100
0.6653 0.2424 0.0093
0.6704 0.2427 0.0089
0.6743 0.2430 0.0091
0.1516 0.2213 0.0622
0.1598 0.2278 0.0613
0.1673 0.2322 0.0599
0.1768 0.2318 0.0563
0.1877 0.2339 0.0531
0.1992 0.2344 0.0492
0.2110 0.2342 0.0455
0.2227 0.2334 0.0421
0.2353 0.2307 0.0380
0.2495 0.2275 0.0338
0.2667 0.2301 0.0327
0.2842 0.2337 0.0317
0.3063 0.2354 0.0304
0.3313 0.2373 0.0288
0.3569 0.2392 0.0273
0.3842 0.2413 0.0256
0.4132 0.2436 0.0238
0.4406 0.2457 0.0221
0.4712 0.2481 0.0201
0.5003 0.2505 0.0187
0.5266 0.2528 0.0178
0.5529 0.2550 0.0169
0.5769 0.2571 0.0161
0.5986 0.2592 0.0155
0.6170 0.2610 0.0143
0.6337 0.2625 0.0131
0.6489 0.2640 0.0120
0.6626 0.2653 0.0111
0.6745 0.2665 0.0102
0.6854 0.2676 0.0094
0.6931 0.2684 0.0089
0.7002 0.2691 0.0084
0.7060 0.2697 0.0079
0.1612 0.2423 0.0655
0.1699 0.2498 0.0648
0.1801 0.2554 0.0629
0.1905 0.2599 0.0605
0.2020 0.2625 0.0572
0.2119 0.2636 0.0541
0.2227 0.2614 0.0495
0.2354 0.2605 0.0456
0.2487 0.2583 0.0414
0.2600 0.2579 0.0384
0.2739 0.2543 0.0340
0.2878 0.2567 0.0323
0.3054 0.2615 0.0313
0.3327 0.2636 0.0297
0.3565 0.2654 0.0283
0.3885 0.2679 0.0264
0.4192 0.2702 0.0245
0.4507 0.2727 0.0226
0.4805 0.2751 0.0208
0.5141 0.2777 0.0187
0.5435 0.2802 0.0176
0.5688 0.2823 0.0169
0.5950 0.2846 0.0160
0.6179 0.2866 0.0153
0.6377 0.2882 0.0145
0.6583 0.2902 0.0131
0.6741 0.2915 0.0120
0.6882 0.2926 0.0110
0.7009 0.2937 0.0101
0.7117 0.2945 0.0093
0.7196 0.2951 0.0088
0.7275 0.2957 0.0082
0.7334 0.2961 0.0077
0.1725 0.2680 0.0699
0.1817 0.2763 0.0692
0.1917 0.2808 0.0670
0.2015 0.2825 0.0640
0.2135 0.2864 0.0609
0.2259 0.2893 0.0575
0.2383 0.2914 0.0538
0.2505 0.2926 0.0500
0.2626 0.2934 0.0468
0.2752 0.2929 0.0433
0.2866 0.2926 0.0403
0.3006 0.2893 0.0360
0.3131 0.2873 0.0324
0.3318 0.2907 0.0309
0.3582 0.2927 0.0293
0.3915 0.2953 0.0274
0.4235 0.2977 0.0255
0.4592 0.3005 0.0235
0.4927 0.3031 0.0215
0.5243 0.3056 0.0196
0.5548 0.3081 0.0181
0.5847 0.3106 0.0170
0.6118 0.3129 0.0162
0.6359 0.3150 0.0155
0.6582 0.3169 0.0148
0.6781 0.3188 0.0137
0.6947 0.3201 0.0126
0.7098 0.3214 0.0115
0.7235 0.3225 0.0106
0.7355 0.3234 0.0098
0.7462 0.3243 0.0090
0.7531 0.3248 0.0085
0.7615 0.3254 0.0079
0.1821 0.2886 0.0732
0.1915 0.2971 0.0725
0.2026 0.3043 0.0709
0.2154 0.3094 0.0679
0.2275 0.3146 0.0653
0.2392 0.3196 0.0627
0.2519 0.3228 0.0593
0.2647 0.3256 0.0558
0.2773 0.3270 0.0520
0.2868 0.3243 0.0484
0.2990 0.3234 0.0450
0.3124 0.3217 0.0411
0.3252 0.3205 0.0377
0.3399 0.3163 0.0332
0.3585 0.3172 0.0305
0.3934 0.3198 0.0285
0.4271 0.3224 0.0266
0.4640 0.3253 0.0245
0.4989 0.3280 0.0225
0.5326 0.3306 0.0206
0.5672 0.3333 0.0186
0.5996 0.3360 0.0173
0.6249 0.3381 0.0166
0.6527 0.3405 0.0157
0.6758 0.3427 0.0151
0.6961 0.3444 0.0143
0.7137 0.3458 0.0132
0.7296 0.3471 0.0122
0.7440 0.3483 0.0112
0.7566 0.3493 0.0103
0.7684 0.3503 0.0095
0.7786 0.3510 0.0088
0.7854 0.3515 0.0083
0.1929 0.3124 0.0772
0.2034 0.3220 0.0766
0.2164 0.3293 0.0742
0.2279 0.3369 0.0726
0.2411 0.3427 0.0698
0.2542 0.3478 0.0668
0.2654 0.3466 0.0625
0.2786 0.3502 0.0591
0.2897 0.3549 0.0569
0.3023 0.3571 0.0534
0.3142 0.3590 0.0504
0.3244 0.3543 0.0465
0.3392 0.3517 0.0421
0.3544 0.3484 0.0377
0.3703 0.3443 0.0330
0.3940 0.3448 0.0298
0.4291 0.3475 0.0279
0.4678 0.3505 0.0257
0.5044 0.3533 0.0237
0.5432 0.3564 0.0216
0.5754 0.3589 0.0198
0.6093 0.3616 0.0181
0.6397 0.3641 0.0171
0.6677 0.3665 0.0163
0.6905 0.3686 0.0157
0.7133 0.3706 0.0152
0.7314 0.3721 0.0141
0.7487 0.3735 0.0130
0.7660 0.3749 0.0119
0.7777 0.3758 0.0111
0.7894 0.3768 0.0104
0.8003 0.3776 0.0096
0.8079 0.3782 0.0091
0.2038 0.3363 0.0814
0.2165 0.3460 0.0799
0.2283 0.3554 0.0788
0.2418 0.3618 0.0761
0.2537 0.3639 0.0724
0.2672 0.3701 0.0698
0.2797 0.3764 0.0675
0.2925 0.3818 0.0648
0.3039 0.3797 0.0602
0.3153 0.3843 0.0579
0.3269 0.3881 0.0553
0.3406 0.3890 0.0516
0.3518 0.3863 0.0480
0.3678 0.3805 0.0426
0.3851 0.3761 0.0374
0.4044 0.3694 0.0315
0.4297 0.3727 0.0293
0.4700 0.3758 0.0272
0.5101 0.3789 0.0250
0.5482 0.3818 0.0230
0.5863 0.3848 0.0209
0.6207 0.3875 0.0190
0.6527 0.3902 0.0179
0.6811 0.3928 0.0171
0.7044 0.3947 0.0166
0.7291 0.3968 0.0160
0.7484 0.3985 0.0153
0.7678 0.4000 0.0141
0.7837 0.4013 0.0131
0.7970 0.4023 0.0122
0.8091 0.4033 0.0115
0.8202 0.4041 0.0107
0.8293 0.4048 0.0101
0.2155 0.3594 0.0850
0.2279 0.3702 0.0841
0.2400 0.3738 0.0808
0.2523 0.3838 0.0798
0.2663 0.3914 0.0774
0.2783 0.3930 0.0736
0.2922 0.3991 0.0708
0.3057 0.4055 0.0683
0.3180 0.4114 0.0661
0.3276 0.4108 0.0626
0.3414 0.4139 0.0591
0.3532 0.4186 0.0568
0.3676 0.4189 0.0528
0.3828 0.4181 0.0488
0.4014 0.4138 0.0432
0.4206 0.4075 0.0373
0.4404 0.4010 0.0315
0.4703 0.4048 0.0291
0.5149 0.4080 0.0268
0.5526 0.4111 0.0249
0.5912 0.4139 0.0228
0.6272 0.4169 0.0209
0.6610 0.4194 0.0194
0.6906 0.4220 0.0187
0.7188 0.4246 0.0179
0.7421 0.4263 0.0174
0.7642 0.4285 0.0170
0.7822 0.4296 0.0159
0.7994 0.4312 0.0149
0.8150 0.4322 0.0139
0.8290 0.4336 0.0131
0.8386 0.4340 0.0125
0.8474 0.4349 0.0119
0.2243 0.3763 0.0876
0.2388 0.3873 0.0860
0.2516 0.3985 0.0852
0.2645 0.4033 0.0821
0.2787 0.4112 0.0798
0.2929 0.4191 0.0774
0.3065 0.4239 0.0743
0.3176 0.4287 0.0720
0.3299 0.4360 0.0703
0.3439 0.4410 0.0673
0.3559 0.4467 0.0652
0.3699 0.4496 0.0616
0.3844 0.4525 0.0579
0.3994 0.4525 0.0540
0.4178 0.4494 0.0487
0.4366 0.4447 0.0431
0.4595 0.4366 0.0362
0.4797 0.4300 0.0304
0.5159 0.4368 0.0289
0.5579 0.4403 0.0268
0.5984 0.4431 0.0248
0.6368 0.4463 0.0228
0.6713 0.4488 0.0211
0.7022 0.4516 0.0203
0.7312 0.4542 0.0196
0.7546 0.4559 0.0191
0.7790 0.4582 0.0186
0.7986 0.4595 0.0178
0.8160 0.4611 0.0168
0.8326 0.4622 0.0158
0.8444 0.4634 0.0152
0.8553 0.4639 0.0145
0.8676 0.4651 0.0138
0.2356 0.3979 0.0909
0.2499 0.4100 0.0899
0.2628 0.4153 0.0870
0.2773 0.4263 0.0855
0.2907 0.4355 0.0839
0.3033 0.4398 0.0809
0.3181 0.4481 0.0786
0.3318 0.4563 0.0767
0.3454 0.4641 0.0746
0.3580 0.4715 0.0730
0.3722 0.4766 0.0700
0.3847 0.4822 0.0678
0.3990 0.4853 0.0642
0.4158 0.4861 0.0592
0.4342 0.4844 0.0542
0.4530 0.4801 0.0486
0.4767 0.4801 0.0434
0.4999 0.4718 0.0366
0.5245 0.4657 0.0307
0.5602 0.4760 0.0296
0.6021 0.4785 0.0276
0.6409 0.4817 0.0257
0.6766 0.4846 0.0240
0.7101 0.4866 0.0228
0.7397 0.4892 0.0222
0.7674 0.4908 0.0215
0.7903 0.4929 0.0211
0.8133 0.4942 0.0204
0.8300 0.4957 0.0196
0.8466 0.4963 0.0186
0.8594 0.4975 0.0179
0.8739 0.4979 0.0170
0.8836 0.4989 0.0165
0.2464 0.4160 0.0934
0.2601 0.4257 0.0917
0.2740 0.4384 0.0910
0.2872 0.4440 0.0882
0.3024 0.4547 0.0864
0.3176 0.4643 0.0844
0.3307 0.4748 0.0835
0.3458 0.4833 0.0812
0.3586 0.4923 0.0799
0.3722 0.5001 0.0780
0.3862 0.5063 0.0755
0.4010 0.5113 0.0723
0.4165 0.5168 0.0692
0.4348 0.5224 0.0653
0.4521 0.5226 0.0604
0.4724 0.5267 0.0568
0.4944 0.5213 0.0504
0.5175 0.5192 0.0449
0.5432 0.5124 0.0381
0.5692 0.5084 0.0323
0.6029 0.5140 0.0307
0.6429 0.5172 0.0289
0.6838 0.5206 0.0271
0.7186 0.5230 0.0257
0.7487 0.5257 0.0251
0.7775 0.5278 0.0245
0.8024 0.5300 0.0241
0.8241 0.5316 0.0238
0.8442 0.5334 0.0229
0.8595 0.5343 0.0221
0.8765 0.5359 0.0212
0.8885 0.5365 0.0206
0.8979 0.5374 0.0201
0.2557 0.4330 0.0960
0.2711 0.4465 0.0950
0.2846 0.4533 0.0925
0.3004 0.4655 0.0910
0.3160 0.4769 0.0895
0.3301 0.4877 0.0883
0.3448 0.4984 0.0869
0.3582 0.5092 0.0861
0.3731 0.5176 0.0839
0.3867 0.5261 0.0823
0.4035 0.5396 0.0814
0.4193 0.5446 0.0779
0.4364 0.5553 0.0761
0.4534 0.5574 0.0714
0.4725 0.5646 0.0680
0.4946 0.5678 0.0630
0.5154 0.5654 0.0576
0.5396 0.5640 0.0520
0.5632 0.5633 0.0471
0.5899 0.5598 0.0411
0.6156 0.5509 0.0343
0.6456 0.5574 0.0328
0.6864 0.5607 0.0311
0.7226 0.5632 0.0295
0.7550 0.5660 0.0288
0.7858 0.5682 0.0283
0.8115 0.5705 0.0279
0.8335 0.5721 0.0277
0.8547 0.5739 0.0270
0.8744 0.5752 0.0260
0.8894 0.5765 0.0254
0.9006 0.5767 0.0247
0.9133 0.5778 0.0241
0.2671 0.4513 0.0983
0.2802 0.4601 0.0966
0.2953 0.4746 0.0962
0.3112 0.4871 0.0949
0.3272 0.4997 0.0936
0.3429 0.5104 0.0919
0.3567 0.5225 0.0914
0.3710 0.5335 0.0903
0.3880 0.5482 0.0897
0.4021 0.5583 0.0885
0.4191 0.5711 0.0873
0.4359 0.5814 0.0854
0.4560 0.5919 0.0826
0.4739 0.5962 0.0784
0.4932 0.6046 0.0753
0.5145 0.6094 0.0706
0.5361 0.6111 0.0657
0.5592 0.6118 0.0608
0.5850 0.6090 0.0547
0.6087 0.6085 0.0500
0.6336 0.6042 0.0444
0.6599 0.6022 0.0394
0.6874 0.5997 0.0353
0.7247 0.6019 0.0337
0.7594 0.6048 0.0328
0.7906 0.6067 0.0322
0.8201 0.6093 0.0318
0.8446 0.6108 0.0315
0.8641 0.6125 0.0312
0.8847 0.6139 0.0303
0.8979 0.6150 0.0297
0.9131 0.6160 0.0290
0.9241 0.6169 0.0285
0.2744 0.4638 0.1001
0.2910 0.4790 0.0994
0.3073 0.4931 0.0985
0.3239 0.5070 0.0975
0.3400 0.5195 0.0962
0.3542 0.5329 0.0960
0.3698 0.5447 0.0948
0.3863 0.5617 0.0952
0.4021 0.5780 0.0956
0.4191 0.5893 0.0939
0.4380 0.6055 0.0934
0.4549 0.6160 0.0916
0.4754 0.6281 0.0892
0.4948 0.6368 0.0862
0.5155 0.6437 0.0822
0.5353 0.6497 0.0783
0.5578 0.6530 0.0729
0.5825 0.6586 0.0690
0.6040 0.6577 0.0642
0.6290 0.6541 0.0582
0.6534 0.6502 0.0526
0.6793 0.6494 0.0479
0.7039 0.6437 0.0425
0.7276 0.6407 0.0381
0.7645 0.6437 0.0370
0.7969 0.6458 0.0365
0.8253 0.6483 0.0362
0.8510 0.6497 0.0359
0.8727 0.6516 0.0358
0.8935 0.6526 0.0349
0.9082 0.6538 0.0343
0.9241 0.6544 0.0335
0.9362 0.6555 0.0330
0.2856 0.4803 0.1019
0.3025 0.4961 0.1014
0.3189 0.5110 0.1008
0.3347 0.5263 0.1007
0.3506 0.5404 0.1001
0.3686 0.5571 0.0997
0.3837 0.5717 0.0997
0.4002 0.5895 0.1005
0.4183 0.6050 0.1000
0.4341 0.6210 0.1004
0.4545 0.6374 0.0995
0.4739 0.6505 0.0979
0.4940 0.6612 0.0952
0.5145 0.6725 0.0928
0.5366 0.6809 0.0889
0.5582 0.6878 0.0848
0.5796 0.6939 0.0807
0.6010 0.6965 0.0759
0.6256 0.6998 0.0716
0.6503 0.6988 0.0663
0.6743 0.6976 0.0614
0.6975 0.6958 0.0568
0.7199 0.6942 0.0527
0.7436 0.6879 0.0473
0.7677 0.6820 0.0424
0.8006 0.6805 0.0406
0.8296 0.6830 0.0403
0.8561 0.6849 0.0401
0.8809 0.6870 0.0400
0.8981 0.6880 0.0394
0.9163 0.6895 0.0387
0.9308 0.6904 0.0381
0.9444 0.6915 0.0376
0.2945 0.4967 0.1047
0.3118 0.5136 0.1044
0.3288 0.5290 0.1038
0.3460 0.5441 0.1031
0.3644 0.5643 0.1039
0.3809 0.5813 0.1043
0.3964 0.5974 0.1048
0.4169 0.6192 0.1057
0.4332 0.6365 0.1065
0.4523 0.6527 0.1060
0.4715 0.6695 0.1057
0.4920 0.6818 0.1035
0.5132 0.6957 0.1017
0.5339 0.7081 0.0996
0.5561 0.7168 0.0958
0.5782 0.7248 0.0920
0.6000 0.7323 0.0883
0.6224 0.7355 0.0831
0.6462 0.7369 0.0780
0.6682 0.7373 0.0736
0.6911 0.7372 0.0692
0.7143 0.7356 0.0646
0.7377 0.7334 0.0600
0.7607 0.7310 0.0556
0.7819 0.7262 0.0512
0.8045 0.7221 0.0477
0.8317 0.7159 0.0445
0.8598 0.7180 0.0443
0.8859 0.7202 0.0442
0.9034 0.7213 0.0438
0.9237 0.7229 0.0431
0.9386 0.7238 0.0425
0.9531 0.7250 0.0420
0.3049 0.5110 0.1061
0.3226 0.5285 0.1060
0.3401 0.5449 0.1056
0.3589 0.5646 0.1060
0.3757 0.5843 0.1074
0.3920 0.6025 0.1083
0.4129 0.6254 0.1095
0.4296 0.6440 0.1106
0.4500 0.6644 0.1113
0.4694 0.6818 0.1112
0.4883 0.6976 0.1107
0.5103 0.7138 0.1094
0.5312 0.7265 0.1073
0.5545 0.7381 0.1042
0.5748 0.7499 0.1022
0.5996 0.7578 0.0976
0.6208 0.7650 0.0940
0.6424 0.7696 0.0895
0.6639 0.7725 0.0849
0.6864 0.7734 0.0805
0.7098 0.7731 0.0758
0.7323 0.7725 0.0715
0.7555 0.7715 0.0672
0.7746 0.7671 0.0629
0.7976 0.7650 0.0589
0.8172 0.7599 0.0547
0.8372 0.7586 0.0529
0.8620 0.7474 0.0483
0.8897 0.7497 0.0482
0.9087 0.7509 0.0479
0.9294 0.7526 0.0472
0.9456 0.7536 0.0466
0.9577 0.7545 0.0462
0.3144 0.5246 0.1076
0.3313 0.5433 0.1083
0.3493 0.5619 0.1086
0.3691 0.5831 0.1093
0.3872 0.6036 0.1105
0.4075 0.6284 0.1126
0.4252 0.6495 0.1143
0.4452 0.6701 0.1151
0.4636 0.6914 0.1169
