70 CGC LUTs/Film Emulation/Fuji Eterna 8563.cube
#Created by: Denver Riddle
#Copyright: (C) Copyright Color Grading Central LLC
DOMAIN_MIN 0.0 0.0 0.0
DOMAIN_MAX 1.0 1.0 1.0
LUT_3D_SIZE 5
0.0000 0.0000 0.0000
0.1969 0.0000 0.0000
0.3969 0.0000 0.0000
0.5677 0.0000 0.0000
0.6771 0.0000 0.0000
0.0600 0.2027 0.0000
0.2532 0.1770 0.0003
0.4638 0.1558 0.0000
0.6489 0.1333 0.0000
0.7793 0.1199 0.0000
0.1665 0.4259 0.0000
0.3532 0.4563 0.0000
0.5540 0.4308 0.0485
0.7798 0.4123 0.0169
0.9067 0.3990 0.0000
0.2763 0.5847 0.0000
0.4580 0.6669 0.0000
0.6620 0.7121 0.0602
0.8829 0.6786 0.1406
0.9722 0.6693 0.1242
0.3554 0.6684 0.0000
0.5322 0.7739 0.0000
0.7428 0.8609 0.0596
0.9448 0.8838 0.1620
0.9722 0.8546 0.2302
0.0388 0.0000 0.1855
0.2177 0.0000 0.1942
0.4303 0.0000 0.1517
0.6124 0.0000 0.1065
0.7351 0.0000 0.0735
0.0203 0.1976 0.1988
0.2340 0.2000 0.2060
0.4517 0.1840 0.1637
0.6435 0.1630 0.1183
0.7783 0.1506 0.0853
0.1293 0.4362 0.1611
0.3206 0.4787 0.1814
0.5336 0.4544 0.2222
0.7579 0.4398 0.1842
0.8974 0.4259 0.1567
0.2671 0.6095 0.1239
0.4290 0.6820 0.1449
0.6338 0.7340 0.2156
0.8624 0.7058 0.2836
0.9722 0.6922 0.2626
0.3636 0.7097 0.0996
0.5035 0.7909 0.1207
0.7107 0.8768 0.2040
0.9256 0.9120 0.2935
0.9722 0.8784 0.3517
0.0915 0.0000 0.3028
0.2690 0.0000 0.3891
0.4716 0.0221 0.4424
0.6727 0.0243 0.3969
0.8128 0.0254 0.3638
0.0688 0.1877 0.3896
0.2807 0.1922 0.4266
0.4838 0.2028 0.4543
0.6975 0.1969 0.4088
0.8428 0.1926 0.3759
0.1367 0.4763 0.4445
0.2695 0.4824 0.4608
0.5040 0.4865 0.4733
0.7369 0.4687 0.4278
0.8824 0.4556 0.3949
0.2999 0.6743 0.4042
0.3979 0.7029 0.4193
0.5968 0.7583 0.4426
0.8352 0.7398 0.4949
0.9645 0.7267 0.4681
0.4157 0.7749 0.3770
0.4918 0.8215 0.3930
0.6703 0.9018 0.4168
0.8979 0.9373 0.4891
0.9722 0.9125 0.5360
0.1554 0.0000 0.2695
0.3291 0.0000 0.4482
0.5307 0.0292 0.6133
0.7467 0.0989 0.7388
0.8921 0.1194 0.7208
0.1301 0.1745 0.4463
0.3408 0.1816 0.5195
0.5390 0.2027 0.6576
0.7588 0.2476 0.7544
0.9052 0.2578 0.7325
0.1965 0.4648 0.6474
0.3274 0.4702 0.6834
0.5579 0.4758 0.7286
0.7817 0.4892 0.7782
0.9251 0.4889 0.7524
0.4011 0.7544 0.7446
0.4288 0.7598 0.7626
0.5497 0.7661 0.7836
0.8021 0.7719 0.8035
0.9480 0.7612 0.7724
0.5438 0.8945 0.7247
0.5428 0.9105 0.7398
0.6343 0.9344 0.7583
0.8556 0.9674 0.7787
0.9722 0.9504 0.8093
0.1876 0.0000 0.1701
0.3653 0.0000 0.3986
0.5594 0.0316 0.6216
0.7832 0.1066 0.8103
0.9217 0.1760 0.9139
0.1655 0.1650 0.3954
0.3772 0.1757 0.4881
0.5711 0.2020 0.6843
0.7948 0.2521 0.8429
0.9331 0.2973 0.9256
0.2296 0.4583 0.6756
0.3624 0.4636 0.7223
0.5900 0.4700 0.7855
0.8143 0.4882 0.8969
0.9448 0.5137 0.9445
0.4295 0.7476 0.8560
0.4587 0.7534 0.8852
0.5808 0.7593 0.9178
0.8381 0.7656 0.9533
0.9604 0.7700 0.9650
0.6411 0.9450 0.9115
0.6007 0.9509 0.9275
0.6465 0.9591 0.9460
0.8177 0.9674 0.9660
0.9713 0.9723 0.9791
