70 CGC LUTs/Film Emulation/Fuji Superia Xtra 400.cube
#Created by: Denver Riddle
#Copyright: (C) Copyright Color Grading Central LLC
DOMAIN_MIN 0.0 0.0 0.0
DOMAIN_MAX 1.0 1.0 1.0
LUT_3D_SIZE 33
0.0314 0.0314 0.0314
0.0314 0.0331 0.0314
0.0314 0.0351 0.0314
0.0314 0.0372 0.0314
0.0314 0.0393 0.0314
0.0423 0.0415 0.0314
0.0674 0.0439 0.0314
0.0917 0.0463 0.0314
0.1155 0.0489 0.0314
0.1386 0.0516 0.0314
0.1639 0.0547 0.0314
0.1844 0.0575 0.0314
0.2098 0.0612 0.0314
0.2322 0.0645 0.0314
0.2602 0.0688 0.0317
0.2842 0.0731 0.0322
0.3126 0.0775 0.0327
0.3394 0.0825 0.0334
0.3724 0.0881 0.0342
0.4101 0.0947 0.0352
0.4486 0.1014 0.0362
0.4863 0.1091 0.0374
0.5208 0.1168 0.0387
0.5588 0.1250 0.0402
0.5880 0.1326 0.0415
0.6147 0.1396 0.0428
0.6337 0.1459 0.0440
0.6532 0.1513 0.0451
0.6649 0.1555 0.0459
0.6741 0.1590 0.0465
0.6809 0.1615 0.0470
0.6863 0.1635 0.0474
0.6911 0.1652 0.0478
0.0314 0.0387 0.0314
0.0314 0.0384 0.0314
0.0314 0.0403 0.0314
0.0314 0.0425 0.0314
0.0314 0.0446 0.0314
0.0424 0.0467 0.0314
0.0680 0.0491 0.0314
0.0924 0.0515 0.0314
0.1160 0.0541 0.0314
0.1393 0.0568 0.0314
0.1645 0.0599 0.0314
0.1853 0.0627 0.0314
0.2108 0.0664 0.0314
0.2332 0.0697 0.0315
0.2615 0.0740 0.0320
0.2857 0.0783 0.0326
0.3145 0.0827 0.0332
0.3414 0.0877 0.0339
0.3749 0.0933 0.0347
0.4150 0.0999 0.0357
0.4513 0.1065 0.0368
0.4892 0.1143 0.0381
0.5243 0.1220 0.0394
0.5622 0.1302 0.0409
0.5919 0.1377 0.0423
0.6182 0.1448 0.0437
0.6376 0.1511 0.0449
0.6574 0.1565 0.0460
0.6688 0.1607 0.0468
0.6785 0.1642 0.0475
0.6853 0.1667 0.0480
0.6902 0.1686 0.0484
0.6955 0.1705 0.0488
0.0314 0.0477 0.0314
0.0314 0.0455 0.0314
0.0314 0.0468 0.0314
0.0314 0.0489 0.0314
0.0314 0.0510 0.0314
0.0426 0.0531 0.0314
0.0684 0.0556 0.0314
0.0932 0.0579 0.0314
0.1166 0.0605 0.0314
0.1400 0.0632 0.0314
0.1654 0.0662 0.0314
0.1863 0.0691 0.0314
0.2124 0.0728 0.0315
0.2347 0.0761 0.0319
0.2632 0.0804 0.0325
0.2878 0.0846 0.0331
0.3168 0.0891 0.0337
0.3442 0.0941 0.0344
0.3775 0.0997 0.0353
0.4189 0.1062 0.0364
0.4547 0.1129 0.0375
0.4929 0.1207 0.0389
0.5314 0.1283 0.0403
0.5656 0.1365 0.0419
0.5962 0.1442 0.0433
0.6225 0.1512 0.0448
0.6441 0.1576 0.0460
0.6620 0.1631 0.0472
0.6737 0.1671 0.0480
0.6833 0.1706 0.0487
0.6902 0.1732 0.0493
0.6955 0.1752 0.0497
0.7004 0.1770 0.0501
0.0314 0.0574 0.0314
0.0314 0.0555 0.0314
0.0314 0.0539 0.0314
0.0314 0.0560 0.0314
0.0314 0.0581 0.0314
0.0427 0.0603 0.0314
0.0687 0.0627 0.0314
0.0936 0.0650 0.0314
0.1172 0.0676 0.0314
0.1412 0.0704 0.0314
0.1663 0.0734 0.0314
0.1875 0.0762 0.0315
0.2151 0.0800 0.0320
0.2364 0.0832 0.0324
0.2650 0.0875 0.0330
0.2898 0.0917 0.0336
0.3190 0.0962 0.0343
0.3498 0.1012 0.0351
0.3837 0.1067 0.0361
0.4223 0.1133 0.0372
0.4583 0.1200 0.0384
0.4995 0.1277 0.0398
0.5359 0.1355 0.0413
0.5705 0.1437 0.0430
0.6006 0.1513 0.0445
0.6274 0.1584 0.0460
0.6512 0.1647 0.0473
0.6673 0.1701 0.0485
0.6790 0.1744 0.0494
0.6892 0.1778 0.0502
0.6960 0.1804 0.0507
0.7013 0.1823 0.0511
0.7068 0.1843 0.0516
0.0314 0.0673 0.0314
0.0314 0.0656 0.0314
0.0314 0.0634 0.0314
0.0314 0.0634 0.0314
0.0314 0.0655 0.0314
0.0428 0.0676 0.0314
0.0689 0.0701 0.0314
0.0939 0.0724 0.0314
0.1177 0.0750 0.0314
0.1426 0.0777 0.0314
0.1672 0.0807 0.0316
0.1885 0.0835 0.0320
0.2177 0.0873 0.0325
0.2379 0.0905 0.0330
0.2671 0.0948 0.0336
0.2921 0.0991 0.0343
0.3213 0.1035 0.0350
0.3532 0.1085 0.0359
0.3878 0.1141 0.0369
0.4257 0.1207 0.0381
0.4620 0.1273 0.0393
0.5043 0.1351 0.0409
0.5402 0.1429 0.0424
0.5747 0.1511 0.0441
0.6052 0.1587 0.0458
0.6323 0.1658 0.0473
0.6565 0.1722 0.0487
0.6724 0.1776 0.0499
0.6843 0.1818 0.0509
0.6945 0.1854 0.0517
0.7018 0.1880 0.0522
0.7086 0.1899 0.0527
0.7155 0.1918 0.0531
0.0314 0.0810 0.0314
0.0314 0.0797 0.0314
0.0314 0.0778 0.0314
0.0314 0.0755 0.0314
0.0314 0.0760 0.0314
0.0427 0.0782 0.0314
0.0691 0.0806 0.0314
0.0943 0.0829 0.0314
0.1186 0.0855 0.0315
0.1444 0.0882 0.0318
0.1684 0.0912 0.0323
0.1912 0.0941 0.0327
0.2197 0.0978 0.0333
0.2399 0.1010 0.0338
0.2694 0.1053 0.0345
0.2951 0.1096 0.0353
0.3247 0.1141 0.0361
0.3570 0.1190 0.0370
0.3920 0.1246 0.0381
0.4306 0.1311 0.0394
0.4676 0.1378 0.0407
0.5100 0.1456 0.0424
0.5457 0.1535 0.0440
0.5850 0.1617 0.0459
0.6156 0.1693 0.0476
0.6396 0.1765 0.0492
0.6634 0.1829 0.0507
0.6799 0.1884 0.0520
0.6926 0.1926 0.0530
0.7028 0.1962 0.0539
0.7135 0.1986 0.0545
0.7189 0.2006 0.0549
0.7237 0.2025 0.0554
0.0314 0.0943 0.0314
0.0314 0.0933 0.0314
0.0314 0.0919 0.0314
0.0314 0.0899 0.0314
0.0314 0.0874 0.0314
0.0425 0.0887 0.0314
0.0691 0.0911 0.0314
0.0945 0.0935 0.0317
0.1194 0.0961 0.0321
0.1457 0.0987 0.0326
0.1699 0.1017 0.0330
0.1939 0.1046 0.0335
0.2214 0.1083 0.0341
0.2418 0.1116 0.0347
0.2719 0.1159 0.0355
0.2978 0.1201 0.0363
0.3279 0.1245 0.0372
0.3605 0.1295 0.0382
0.3960 0.1352 0.0393
0.4352 0.1417 0.0407
0.4762 0.1484 0.0422
0.5150 0.1562 0.0439
0.5530 0.1640 0.0457
0.5909 0.1723 0.0477
0.6221 0.1800 0.0495
0.6503 0.1872 0.0512
0.6707 0.1937 0.0528
0.6877 0.1991 0.0542
0.7004 0.2033 0.0553
0.7140 0.2068 0.0562
0.7213 0.2094 0.0568
0.7246 0.2115 0.0573
0.7285 0.2133 0.0578
0.0314 0.1107 0.0314
0.0314 0.1100 0.0314
0.0314 0.1090 0.0314
0.0314 0.1075 0.0314
0.0349 0.1057 0.0314
0.0428 0.1033 0.0325
0.0689 0.1044 0.0322
0.0946 0.1067 0.0326
0.1202 0.1093 0.0331
0.1468 0.1120 0.0335
0.1719 0.1150 0.0341
0.1959 0.1178 0.0346
0.2233 0.1216 0.0353
0.2441 0.1248 0.0360
0.2745 0.1291 0.0368
0.3031 0.1334 0.0377
0.3318 0.1378 0.0387
0.3649 0.1428 0.0398
0.4009 0.1484 0.0410
0.4416 0.1550 0.0426
0.4819 0.1619 0.0442
0.5218 0.1696 0.0460
0.5626 0.1774 0.0480
0.5987 0.1858 0.0501
0.6306 0.1936 0.0520
0.6586 0.2008 0.0539
0.6795 0.2071 0.0556
0.6970 0.2127 0.0571
0.7135 0.2170 0.0582
0.7242 0.2205 0.0592
0.7280 0.2231 0.0599
0.7334 0.2250 0.0604
0.7388 0.2271 0.0609
0.0314 0.1259 0.0314
0.0314 0.1256 0.0314
0.0357 0.1250 0.0314
0.0432 0.1241 0.0314
0.0512 0.1227 0.0314
0.0590 0.1210 0.0314
0.0688 0.1181 0.0336
0.0944 0.1196 0.0336
0.1204 0.1222 0.0341
0.1473 0.1248 0.0346
0.1736 0.1279 0.0352
0.1970 0.1307 0.0358
0.2248 0.1344 0.0366
0.2460 0.1376 0.0373
0.2769 0.1420 0.0382
0.3074 0.1462 0.0392
0.3353 0.1507 0.0402
0.3689 0.1557 0.0414
0.4055 0.1614 0.0428
0.4496 0.1680 0.0444
0.4878 0.1748 0.0461
0.5314 0.1826 0.0482
0.5690 0.1905 0.0502
0.6056 0.1989 0.0525
0.6381 0.2067 0.0546
0.6668 0.2139 0.0566
0.6882 0.2204 0.0584
0.7068 0.2260 0.0600
0.7228 0.2304 0.0612
0.7300 0.2339 0.0622
0.7373 0.2364 0.0630
0.7432 0.2384 0.0635
0.7485 0.2404 0.0641
0.0395 0.1436 0.0314
0.0458 0.1437 0.0314
0.0529 0.1436 0.0314
0.0612 0.1431 0.0314
0.0695 0.1423 0.0314
0.0774 0.1411 0.0314
0.0853 0.1393 0.0314
0.0950 0.1367 0.0358
0.1202 0.1375 0.0354
0.1475 0.1402 0.0360
0.1748 0.1433 0.0367
0.1980 0.1461 0.0373
0.2262 0.1498 0.0382
0.2480 0.1532 0.0390
0.2796 0.1574 0.0400
0.3107 0.1619 0.0411
0.3391 0.1662 0.0422
0.3734 0.1713 0.0435
0.4131 0.1769 0.0450
0.4556 0.1836 0.0468
0.4947 0.1905 0.0486
0.5393 0.1984 0.0508
0.5769 0.2062 0.0531
0.6177 0.2147 0.0555
0.6508 0.2225 0.0578
0.6761 0.2299 0.0600
0.6984 0.2364 0.0619
0.7203 0.2421 0.0636
0.7300 0.2463 0.0649
0.7412 0.2500 0.0660
0.7485 0.2526 0.0668
0.7544 0.2545 0.0674
0.7597 0.2565 0.0680
0.0591 0.1637 0.0314
0.0657 0.1642 0.0314
0.0733 0.1647 0.0314
0.0813 0.1648 0.0314
0.0921 0.1646 0.0314
0.0978 0.1641 0.0314
0.1067 0.1631 0.0314
0.1153 0.1616 0.0325
0.1241 0.1594 0.0388
0.1473 0.1586 0.0378
0.1754 0.1616 0.0385
0.1988 0.1645 0.0393
0.2277 0.1682 0.0402
0.2506 0.1716 0.0411
0.2820 0.1760 0.0423
0.3143 0.1802 0.0435
0.3430 0.1848 0.0447
0.3788 0.1898 0.0462
0.4204 0.1956 0.0478
0.4622 0.2022 0.0497
0.5053 0.2090 0.0518
0.5471 0.2171 0.0542
0.5890 0.2250 0.0567
0.6274 0.2336 0.0593
0.6610 0.2414 0.0618
0.6872 0.2489 0.0641
0.7135 0.2554 0.0662
0.7285 0.2611 0.0681
0.7427 0.2656 0.0695
0.7539 0.2692 0.0707
0.7617 0.2719 0.0715
0.7679 0.2740 0.0722
0.7733 0.2759 0.0728
0.0777 0.1829 0.0314
0.0847 0.1841 0.0314
0.0945 0.1851 0.0314
0.1013 0.1858 0.0314
0.1097 0.1862 0.0314
0.1178 0.1862 0.0314
0.1271 0.1859 0.0314
0.1360 0.1851 0.0314
0.1444 0.1837 0.0347
0.1514 0.1818 0.0410
0.1752 0.1802 0.0406
0.1991 0.1830 0.0414
0.2286 0.1868 0.0425
0.2532 0.1901 0.0434
0.2842 0.1945 0.0447
0.3170 0.1989 0.0460
0.3503 0.2034 0.0474
0.3868 0.2085 0.0490
0.4257 0.2142 0.0508
0.4695 0.2210 0.0529
0.5117 0.2280 0.0551
0.5583 0.2360 0.0578
0.5975 0.2440 0.0604
0.6366 0.2526 0.0633
0.6712 0.2605 0.0660
0.6984 0.2682 0.0685
0.7246 0.2748 0.0708
0.7407 0.2806 0.0728
0.7544 0.2849 0.0742
0.7663 0.2888 0.0755
0.7743 0.2915 0.0765
0.7806 0.2936 0.0772
0.7868 0.2956 0.0778
0.0942 0.1990 0.0314
0.0998 0.2006 0.0314
0.1084 0.2020 0.0314
0.1176 0.2031 0.0314
0.1266 0.2041 0.0314
0.1356 0.2046 0.0314
0.1442 0.2049 0.0314
0.1513 0.2047 0.0314
0.1597 0.2040 0.0315
0.1674 0.2027 0.0378
0.1777 0.2006 0.0449
0.1990 0.1991 0.0434
0.2290 0.2029 0.0445
0.2550 0.2062 0.0456
0.2857 0.2107 0.0470
0.3193 0.2151 0.0484
0.3535 0.2197 0.0499
0.3901 0.2247 0.0516
0.4299 0.2306 0.0535
0.4772 0.2373 0.0558
0.5174 0.2444 0.0582
0.5643 0.2526 0.0610
0.6044 0.2605 0.0638
0.6478 0.2692 0.0669
0.6795 0.2774 0.0698
0.7086 0.2849 0.0725
0.7310 0.2917 0.0749
0.7505 0.2977 0.0770
0.7646 0.3020 0.0785
0.7767 0.3059 0.0799
0.7851 0.3084 0.0809
0.7886 0.3105 0.0816
0.7937 0.3127 0.0823
0.1099 0.2174 0.0314
0.1179 0.2194 0.0314
0.1270 0.2212 0.0314
0.1366 0.2230 0.0314
0.1455 0.2245 0.0314
0.1521 0.2257 0.0314
0.1619 0.2266 0.0314
0.1685 0.2271 0.0314
0.1786 0.2272 0.0314
0.1855 0.2266 0.0343
0.1963 0.2255 0.0415
0.2030 0.2237 0.0482
0.2290 0.2221 0.0472
0.2562 0.2255 0.0483
0.2871 0.2299 0.0498
0.3211 0.2343 0.0513
0.3561 0.2391 0.0530
0.3936 0.2442 0.0548
0.4345 0.2500 0.0569
0.4824 0.2569 0.0594
0.5238 0.2640 0.0620
0.5715 0.2722 0.0650
0.6160 0.2803 0.0680
0.6565 0.2892 0.0714
0.6892 0.2977 0.0744
0.7213 0.3049 0.0773
0.7422 0.3119 0.0799
0.7617 0.3179 0.0821
0.7767 0.3225 0.0838
0.7886 0.3262 0.0853
0.7937 0.3289 0.0863
0.8001 0.3311 0.0871
0.8064 0.3332 0.0879
0.1255 0.2326 0.0314
0.1343 0.2347 0.0314
0.1412 0.2373 0.0314
0.1504 0.2395 0.0314
0.1577 0.2414 0.0314
0.1664 0.2431 0.0314
0.1769 0.2446 0.0314
0.1834 0.2457 0.0314
0.1929 0.2463 0.0314
0.2012 0.2465 0.0316
0.2090 0.2461 0.0387
0.2195 0.2450 0.0455
0.2303 0.2419 0.0514
0.2564 0.2423 0.0507
0.2878 0.2465 0.0524
0.3225 0.2511 0.0540
0.3581 0.2558 0.0558
0.3965 0.2609 0.0577
0.4379 0.2669 0.0600
0.4863 0.2740 0.0626
0.5320 0.2810 0.0653
0.5769 0.2892 0.0686
0.6221 0.2977 0.0718
0.6639 0.3065 0.0753
0.6970 0.3150 0.0786
0.7258 0.3227 0.0816
0.7510 0.3297 0.0843
0.7719 0.3355 0.0867
0.7868 0.3403 0.0885
0.7952 0.3440 0.0901
0.8044 0.3469 0.0911
0.8108 0.3490 0.0920
0.8164 0.3511 0.0928
0.1401 0.2498 0.0314
0.1491 0.2526 0.0314
0.1557 0.2554 0.0314
0.1657 0.2581 0.0314
0.1759 0.2607 0.0314
0.1824 0.2628 0.0314
0.1914 0.2651 0.0314
0.2002 0.2669 0.0314
0.2079 0.2682 0.0314
0.2187 0.2690 0.0314
0.2271 0.2697 0.0358
0.2345 0.2695 0.0426
0.2439 0.2682 0.0514
0.2575 0.2651 0.0558
0.2883 0.2665 0.0555
0.3236 0.2710 0.0573
0.3600 0.2757 0.0592
0.3992 0.2810 0.0613
0.4430 0.2869 0.0637
0.4911 0.2942 0.0666
0.5379 0.3014 0.0695
0.5867 0.3097 0.0730
0.6293 0.3184 0.0764
0.6716 0.3273 0.0802
0.7059 0.3358 0.0836
0.7359 0.3435 0.0869
0.7612 0.3506 0.0898
0.7826 0.3565 0.0923
0.7942 0.3613 0.0942
0.8069 0.3652 0.0959
0.8156 0.3680 0.0970
0.8188 0.3700 0.0979
0.8253 0.3720 0.0988
0.1593 0.2717 0.0314
0.1672 0.2750 0.0314
0.1773 0.2785 0.0314
0.1846 0.2819 0.0314
0.1949 0.2851 0.0314
0.2020 0.2881 0.0314
0.2100 0.2913 0.0314
0.2208 0.2938 0.0314
0.2290 0.2961 0.0314
0.2370 0.2981 0.0314
0.2460 0.2996 0.0325
0.2575 0.3005 0.0392
0.2677 0.3007 0.0481
0.2762 0.3001 0.0558
0.2896 0.2967 0.0623
0.3243 0.2979 0.0620
0.3617 0.3024 0.0640
0.4019 0.3079 0.0663
0.4491 0.3141 0.0690
0.4985 0.3214 0.0721
0.5437 0.3285 0.0753
0.5943 0.3372 0.0790
0.6381 0.3457 0.0828
0.6814 0.3550 0.0868
0.7208 0.3635 0.0906
0.7480 0.3712 0.0941
0.7748 0.3783 0.0973
0.7923 0.3846 0.0999
0.8088 0.3893 0.1020
0.8177 0.3929 0.1038
0.8268 0.3958 0.1050
0.8341 0.3978 0.1060
0.8369 0.3999 0.1069
0.1804 0.2958 0.0314
0.1869 0.2999 0.0314
0.1975 0.3038 0.0314
0.2052 0.3081 0.0314
0.2139 0.3124 0.0314
0.2235 0.3161 0.0314
0.2322 0.3200 0.0314
0.2401 0.3234 0.0314
0.2488 0.3268 0.0314
0.2609 0.3299 0.0314
0.2705 0.3330 0.0314
0.2794 0.3351 0.0360
0.2905 0.3370 0.0448
0.3008 0.3377 0.0526
0.3154 0.3377 0.0629
0.3279 0.3355 0.0714
0.3627 0.3344 0.0700
0.4041 0.3399 0.0725
0.4527 0.3460 0.0754
0.5048 0.3533 0.0788
0.5500 0.3608 0.0823
0.6021 0.3693 0.0864
0.6508 0.3781 0.0905
0.6926 0.3873 0.0950
0.7291 0.3958 0.0991
0.7612 0.4036 0.1029
0.7886 0.4109 0.1063
0.8078 0.4170 0.1092
0.8204 0.4216 0.1115
0.8341 0.4255 0.1134
0.8394 0.4282 0.1148
0.8467 0.4303 0.1158
0.8536 0.4325 0.1168
0.2046 0.3266 0.0314
0.2116 0.3316 0.0314
0.2226 0.3365 0.0314
0.2309 0.3419 0.0314
0.2392 0.3469 0.0314
0.2471 0.3518 0.0314
0.2598 0.3568 0.0314
0.2683 0.3615 0.0314
0.2780 0.3664 0.0314
0.2876 0.3708 0.0314
0.2983 0.3751 0.0314
0.3116 0.3790 0.0326
0.3238 0.3829 0.0414
0.3343 0.3858 0.0493
0.3515 0.3883 0.0597
0.3642 0.3895 0.0701
0.3768 0.3893 0.0809
0.4055 0.3856 0.0827
0.4554 0.3899 0.0847
0.5096 0.3973 0.0886
0.5603 0.4048 0.0925
0.6143 0.4133 0.0971
0.6615 0.4221 0.1017
0.7059 0.4313 0.1066
0.7441 0.4398 0.1112
0.7782 0.4474 0.1155
0.8033 0.4544 0.1193
0.8229 0.4603 0.1225
0.8369 0.4649 0.1250
0.8506 0.4688 0.1271
0.8574 0.4714 0.1286
0.8642 0.4734 0.1297
0.8720 0.4753 0.1306
0.2294 0.3579 0.0314
0.2368 0.3635 0.0314
0.2452 0.3693 0.0314
0.2575 0.3756 0.0314
0.2664 0.3817 0.0314
0.2750 0.3875 0.0314
0.2848 0.3939 0.0314
0.2944 0.3995 0.0314
0.3083 0.4058 0.0314
0.3188 0.4116 0.0314
0.3306 0.4174 0.0314
0.3412 0.4228 0.0314
0.3586 0.4286 0.0389
0.3700 0.4333 0.0468
0.3887 0.4381 0.0573
0.4026 0.4420 0.0678
0.4206 0.4446 0.0788
0.4352 0.4458 0.0910
0.4581 0.4430 0.0992
0.5122 0.4453 0.1000
0.5652 0.4525 0.1044
0.6216 0.4610 0.1095
0.6716 0.4695 0.1147
0.7213 0.4780 0.1201
0.7583 0.4868 0.1252
0.7903 0.4938 0.1299
0.8166 0.5009 0.1310
0.8380 0.5067 0.1346
0.8569 0.5109 0.1374
0.8680 0.5145 0.1398
0.8740 0.5169 0.1415
0.8822 0.5193 0.1427
0.8900 0.5213 0.1440
0.2537 0.3890 0.0314
0.2628 0.3951 0.0314
0.2716 0.4019 0.0314
0.2812 0.4092 0.0314
0.2905 0.4160 0.0314
0.3013 0.4228 0.0314
0.3145 0.4301 0.0314
0.3245 0.4369 0.0314
0.3360 0.4442 0.0314
0.3510 0.4510 0.0314
0.3637 0.4586 0.0314
0.3754 0.4651 0.0314
0.3938 0.4729 0.0374
0.4065 0.4790 0.0453
0.4265 0.4863 0.0559
0.4430 0.4920 0.0665
0.4605 0.4972 0.0776
0.4800 0.5014 0.0901
0.4995 0.5048 0.1043
0.5194 0.5052 0.1195
0.5681 0.5028 0.1181
0.6274 0.5113 0.1239
0.6790 0.5193 0.1296
0.7285 0.5276 0.1326
0.7719 0.5359 0.1382
0.8059 0.5432 0.1435
0.8341 0.5500 0.1482
0.8563 0.5553 0.1523
0.8720 0.5597 0.1554
0.8842 0.5630 0.1580
0.8914 0.5655 0.1599
0.8997 0.5675 0.1613
0.9067 0.5694 0.1627
0.2756 0.4172 0.0314
0.2839 0.4240 0.0314
0.2937 0.4316 0.0314
0.3072 0.4396 0.0314
0.3177 0.4472 0.0314
0.3275 0.4544 0.0314
0.3391 0.4629 0.0314
0.3537 0.4705 0.0314
0.3659 0.4785 0.0314
0.3784 0.4868 0.0314
0.3953 0.4953 0.0314
0.4077 0.5028 0.0314
0.4274 0.5117 0.0369
0.4416 0.5193 0.0449
0.4615 0.5281 0.0556
0.4814 0.5368 0.0663
0.5004 0.5437 0.0776
0.5179 0.5509 0.0903
0.5393 0.5568 0.1047
0.5626 0.5616 0.1218
0.5846 0.5638 0.1359
0.6302 0.5612 0.1364
0.6848 0.5685 0.1424
0.7368 0.5767 0.1493
0.7821 0.5845 0.1556
0.8164 0.5918 0.1614
0.8447 0.5978 0.1666
0.8685 0.6034 0.1710
0.8851 0.6074 0.1745
0.8982 0.6113 0.1774
0.9067 0.6137 0.1794
0.9148 0.6155 0.1810
0.9196 0.6172 0.1826
0.2944 0.4418 0.0314
0.3069 0.4488 0.0314
0.3172 0.4571 0.0314
0.3277 0.4656 0.0314
0.3386 0.4739 0.0314
0.3530 0.4819 0.0314
0.3651 0.4906 0.0314
0.3766 0.4991 0.0314
0.3931 0.5082 0.0314
0.4060 0.5164 0.0314
0.4240 0.5259 0.0314
0.4371 0.5349 0.0314
0.4571 0.5451 0.0374
0.4751 0.5535 0.0454
0.4925 0.5643 0.0562
0.5131 0.5742 0.0670
0.5335 0.5835 0.0785
0.5521 0.5923 0.0913
0.5738 0.6010 0.1060
0.5983 0.6088 0.1234
0.6216 0.6150 0.1380
0.6450 0.6185 0.1587
0.6877 0.6159 0.1598
0.7422 0.6229 0.1661
0.7886 0.6305 0.1730
0.8244 0.6375 0.1793
0.8563 0.6439 0.1852
0.8778 0.6492 0.1900
0.8955 0.6536 0.1938
0.9094 0.6568 0.1970
0.9189 0.6594 0.1992
0.9269 0.6613 0.2009
0.9355 0.6633 0.2026
0.3138 0.4612 0.0314
0.3231 0.4690 0.0314
0.3336 0.4776 0.0314
0.3465 0.4863 0.0314
0.3598 0.4948 0.0314
0.3707 0.5033 0.0314
0.3875 0.5126 0.0314
0.3992 0.5218 0.0314
0.4165 0.5310 0.0314
0.4296 0.5406 0.0314
0.4481 0.5509 0.0314
0.4615 0.5602 0.0314
0.4824 0.5719 0.0384
0.4995 0.5811 0.0465
0.5184 0.5933 0.0574
0.5398 0.6038 0.0683
0.5608 0.6146 0.0799
0.5818 0.6254 0.0928
0.6026 0.6360 0.1077
0.6289 0.6468 0.1255
0.6537 0.6555 0.1404
0.6761 0.6628 0.1615
0.6974 0.6672 0.1827
0.7446 0.6643 0.1823
0.7908 0.6715 0.1892
0.8310 0.6779 0.1960
0.8608 0.6847 0.2022
0.8873 0.6900 0.2051
0.9065 0.6944 0.2081
0.9189 0.6978 0.2116
0.9298 0.7003 0.2140
0.9357 0.7022 0.2158
0.9449 0.7041 0.2177
0.3277 0.4780 0.0314
0.3374 0.4858 0.0314
0.3520 0.4948 0.0314
0.3637 0.5038 0.0314
0.3751 0.5126 0.0314
0.3906 0.5218 0.0314
0.4036 0.5315 0.0314
0.4196 0.5410 0.0314
0.4335 0.5514 0.0314
0.4508 0.5612 0.0314
0.4659 0.5719 0.0314
0.4834 0.5821 0.0314
0.5043 0.5942 0.0398
0.5189 0.6043 0.0480
0.5415 0.6172 0.0589
0.5630 0.6297 0.0700
0.5850 0.6417 0.0816
0.6039 0.6541 0.0948
0.6284 0.6662 0.1099
0.6556 0.6793 0.1277
0.6775 0.6905 0.1430
0.7028 0.7012 0.1646
0.7253 0.7082 0.1863
0.7510 0.7105 0.2044
0.7933 0.7095 0.2049
0.8356 0.7163 0.2087
0.8663 0.7226 0.2153
0.8905 0.7284 0.2209
0.9104 0.7328 0.2252
0.9258 0.7362 0.2288
0.9355 0.7387 0.2316
0.9454 0.7406 0.2335
0.9507 0.7426 0.2353
0.3391 0.4911 0.0314
0.3527 0.4991 0.0314
0.3639 0.5087 0.0314
0.3758 0.5179 0.0314
0.3915 0.5268 0.0314
0.4031 0.5364 0.0314
0.4204 0.5466 0.0314
0.4330 0.5558 0.0314
0.4505 0.5665 0.0314
0.4646 0.5767 0.0314
0.4834 0.5884 0.0314
0.5014 0.5987 0.0322
0.5189 0.6117 0.0414
0.5379 0.6229 0.0495
0.5603 0.6365 0.0605
0.5808 0.6497 0.0717
0.6006 0.6628 0.0834
0.6245 0.6759 0.0967
0.6498 0.6905 0.1120
0.6737 0.7056 0.1301
0.6979 0.7182 0.1456
0.7246 0.7314 0.1675
0.7480 0.7416 0.1897
0.7724 0.7489 0.2100
0.7957 0.7479 0.2206
0.8369 0.7494 0.2228
0.8706 0.7557 0.2297
0.8955 0.7610 0.2355
0.9159 0.7650 0.2403
0.9319 0.7693 0.2442
0.9423 0.7717 0.2469
0.9483 0.7737 0.2488
0.9585 0.7751 0.2510
0.3525 0.5018 0.0314
0.3627 0.5104 0.0314
0.3741 0.5198 0.0314
0.3901 0.5291 0.0314
0.4021 0.5393 0.0314
0.4179 0.5485 0.0314
0.4316 0.5587 0.0314
0.4479 0.5689 0.0314
0.4622 0.5797 0.0314
0.4800 0.5903 0.0314
0.4966 0.6025 0.0314
0.5131 0.6132 0.0337
0.5350 0.6268 0.0429
0.5500 0.6385 0.0512
0.5734 0.6531 0.0622
0.5958 0.6667 0.0734
0.6182 0.6803 0.0852
0.6391 0.6954 0.0986
0.6649 0.7105 0.1141
0.6902 0.7268 0.1306
0.7184 0.7421 0.1481
0.7417 0.7567 0.1703
0.7674 0.7693 0.1928
0.7889 0.7786 0.2136
0.8108 0.7850 0.2360
0.8369 0.7829 0.2399
0.8730 0.7850 0.2429
0.8992 0.7907 0.2493
0.9189 0.7951 0.2541
0.9355 0.7985 0.2581
0.9473 0.8010 0.2595
0.9539 0.8032 0.2596
0.9644 0.8048 0.2617
0.3608 0.5113 0.0314
0.3710 0.5198 0.0314
0.3868 0.5291 0.0314
0.3990 0.5393 0.0314
0.4135 0.5490 0.0314
0.4272 0.5587 0.0314
0.4421 0.5694 0.0314
0.4576 0.5797 0.0314
0.4758 0.5908 0.0314
