70 CGC LUTs/Film Emulation/Fuji Sensia 100.cube
#Created by: Denver Riddle
#Copyright: (C) Copyright Color Grading Central LLC
DOMAIN_MIN 0.0 0.0 0.0
DOMAIN_MAX 1.0 1.0 1.0
LUT_3D_SIZE 5
0.0000 0.0000 0.0000
0.1364 0.0000 0.0000
0.2570 0.0000 0.0000
0.2393 0.0000 0.0000
0.1712 0.0000 0.0000
0.0171 0.2030 0.0000
0.1875 0.2279 0.0220
0.4149 0.1884 0.0000
0.4641 0.1594 0.0000
0.4503 0.1359 0.0000
0.0411 0.4212 0.0000
0.2116 0.4857 0.0249
0.5336 0.5508 0.1690
0.6767 0.5218 0.1542
0.7392 0.4983 0.1422
0.0621 0.5481 0.0000
0.2326 0.6471 0.0274
0.5565 0.7825 0.2268
0.7620 0.8324 0.3730
0.8932 0.8154 0.3884
0.0752 0.5970 0.0000
0.2457 0.7175 0.0290
0.5696 0.8939 0.2562
0.7750 0.9698 0.4201
0.9418 1.0000 0.5644
0.0910 0.0000 0.2172
0.2014 0.0000 0.2166
0.3797 0.0000 0.1515
0.4010 0.0000 0.1086
0.3645 0.0000 0.0737
0.0339 0.2223 0.2143
0.1925 0.2227 0.2143
0.4271 0.1813 0.1536
0.4798 0.1523 0.1111
0.4689 0.1288 0.0766
0.0931 0.4740 0.1902
0.2204 0.4924 0.1902
0.5409 0.5438 0.2737
0.6877 0.5148 0.2476
0.7530 0.4913 0.2265
0.1450 0.6302 0.1692
0.2447 0.6643 0.1692
0.5636 0.7829 0.3029
0.7690 0.8261 0.4126
0.9028 0.8083 0.4163
0.1773 0.6974 0.1561
0.2599 0.7412 0.1561
0.5767 0.8993 0.3159
0.7821 0.9685 0.4432
0.9489 1.0000 0.5579
0.2303 0.0000 0.3887
0.3406 0.0000 0.4664
0.5496 0.0000 0.5413
0.6305 0.0000 0.4984
0.6424 0.0000 0.4635
0.1586 0.2177 0.4962
0.3263 0.2177 0.5136
0.5511 0.2213 0.5413
0.6622 0.1923 0.4984
0.6986 0.1688 0.4635
0.2038 0.5356 0.5439
0.2774 0.5356 0.5443
0.5532 0.5342 0.5413
0.7067 0.5052 0.4984
0.7775 0.4817 0.4635
0.3033 0.7380 0.5231
0.3478 0.7532 0.5231
0.5743 0.7836 0.5254
0.7798 0.8163 0.5791
0.9174 0.7975 0.5649
0.3650 0.8331 0.5100
0.3924 0.8581 0.5100
0.5874 0.9077 0.5132
0.7929 0.9665 0.5846
0.9597 0.9937 0.6539
0.3330 0.0000 0.3908
0.4434 0.0000 0.5261
0.6530 0.0000 0.7139
0.7859 0.0000 0.7859
0.8336 0.0000 0.7511
0.2522 0.2138 0.5801
0.4278 0.2138 0.6106
0.6530 0.2191 0.7425
0.7859 0.2228 0.7859
0.8581 0.1993 0.7511
0.2845 0.5317 0.7427
0.3660 0.5317 0.7563
0.6530 0.5320 0.7826
0.7859 0.5357 0.7859
0.8925 0.5122 0.7511
0.4445 0.8037 0.7842
0.4483 0.8050 0.7842
0.5972 0.8076 0.7842
0.7877 0.8092 0.7842
0.9282 0.7896 0.7567
0.5279 0.9194 0.7711
0.5146 0.9305 0.7711
0.6309 0.9516 0.7711
0.8008 0.9650 0.7711
0.9676 0.9859 0.8068
0.4136 0.0000 0.3186
0.5239 0.0000 0.4990
0.7336 0.0000 0.7728
0.8665 0.0000 0.8993
0.9744 0.0000 0.9751
0.3256 0.2108 0.5720
0.5073 0.2108 0.6128
0.7336 0.2161 0.8249
0.8665 0.2198 0.9228
0.9744 0.2227 0.9755
0.3479 0.5287 0.8247
0.4355 0.5287 0.8486
0.7336 0.5290 0.8981
0.8665 0.5327 0.9559
0.9744 0.5356 0.9760
0.5070 0.8067 0.9469
0.5123 0.8067 0.9559
0.6640 0.8067 0.9731
0.8563 0.8067 0.9840
0.9744 0.8093 0.9764
0.6702 0.9788 0.9758
0.6249 0.9791 0.9758
0.6805 0.9795 0.9758
0.8120 0.9798 0.9758
0.9735 0.9800 0.9758
