70 CGC LUTs/Film Emulation/Fuji Astia 100F.cube
#Created by: Denver Riddle
#Copyright: (C) Copyright Color Grading Central LLC
DOMAIN_MIN 0.0 0.0 0.0
DOMAIN_MAX 1.0 1.0 1.0
LUT_3D_SIZE 33
0.0016 0.0170 0.0148
0.0219 0.0175 0.0125
0.0436 0.0191 0.0110
0.0611 0.0204 0.0099
0.0787 0.0241 0.0110
0.0922 0.0265 0.0115
0.1052 0.0274 0.0107
0.1178 0.0305 0.0121
0.1304 0.0330 0.0128
0.1461 0.0340 0.0119
0.1600 0.0371 0.0131
0.1813 0.0402 0.0135
0.2032 0.0416 0.0122
0.2312 0.0433 0.0107
0.2634 0.0460 0.0096
0.3009 0.0507 0.0100
0.3391 0.0535 0.0087
0.3808 0.0564 0.0072
0.4213 0.0612 0.0076
0.4643 0.0642 0.0063
0.5023 0.0666 0.0050
0.5384 0.0710 0.0058
0.5698 0.0735 0.0053
0.5961 0.0747 0.0041
0.6209 0.0759 0.0031
0.6426 0.0785 0.0036
0.6635 0.0819 0.0050
0.6825 0.0827 0.0042
0.7008 0.0850 0.0048
0.7170 0.0883 0.0065
0.7330 0.0890 0.0059
0.7464 0.0909 0.0065
0.7599 0.0941 0.0084
0.0050 0.0299 0.0143
0.0262 0.0301 0.0128
0.0464 0.0309 0.0138
0.0667 0.0324 0.0138
0.0801 0.0350 0.0131
0.0935 0.0381 0.0144
0.1069 0.0391 0.0150
0.1204 0.0416 0.0143
0.1339 0.0448 0.0155
0.1473 0.0457 0.0162
0.1649 0.0483 0.0153
0.1869 0.0521 0.0144
0.2088 0.0535 0.0137
0.2392 0.0555 0.0141
0.2691 0.0573 0.0132
0.3074 0.0620 0.0119
0.3489 0.0658 0.0121
0.3895 0.0680 0.0108
0.4324 0.0727 0.0094
0.4723 0.0764 0.0099
0.5131 0.0784 0.0089
0.5466 0.0824 0.0078
0.5767 0.0854 0.0067
0.6031 0.0868 0.0068
0.6294 0.0902 0.0079
0.6512 0.0930 0.0073
0.6712 0.0940 0.0076
0.6905 0.0949 0.0088
0.7090 0.0965 0.0082
0.7250 0.0998 0.0090
0.7416 0.1012 0.0104
0.7550 0.1024 0.0101
0.7686 0.1056 0.0100
0.0121 0.0427 0.0154
0.0311 0.0435 0.0160
0.0506 0.0427 0.0159
0.0681 0.0440 0.0166
0.0842 0.0462 0.0172
0.0968 0.0496 0.0167
0.1094 0.0508 0.0176
0.1221 0.0526 0.0185
0.1351 0.0560 0.0181
0.1516 0.0575 0.0172
0.1686 0.0594 0.0167
0.1896 0.0633 0.0180
0.2143 0.0655 0.0174
0.2445 0.0680 0.0162
0.2789 0.0726 0.0169
0.3169 0.0756 0.0158
0.3572 0.0779 0.0141
0.3986 0.0802 0.0143
0.4430 0.0843 0.0134
0.4829 0.0885 0.0119
0.5207 0.0904 0.0103
0.5556 0.0938 0.0101
0.5862 0.0977 0.0112
0.6127 0.0989 0.0102
0.6365 0.1016 0.0104
0.6594 0.1051 0.0119
0.6792 0.1060 0.0112
0.6983 0.1070 0.0113
0.7168 0.1079 0.0126
0.7333 0.1111 0.0126
0.7501 0.1132 0.0122
0.7635 0.1138 0.0117
0.7773 0.1169 0.0133
0.0191 0.0553 0.0160
0.0379 0.0565 0.0177
0.0561 0.0545 0.0199
0.0719 0.0573 0.0191
0.0869 0.0606 0.0200
0.1003 0.0616 0.0209
0.1137 0.0626 0.0202
0.1264 0.0636 0.0194
0.1391 0.0670 0.0193
0.1539 0.0692 0.0208
0.1717 0.0705 0.0206
0.1935 0.0744 0.0199
0.2198 0.0774 0.0208
0.2500 0.0793 0.0201
0.2862 0.0839 0.0188
0.3253 0.0877 0.0192
0.3677 0.0901 0.0182
0.4098 0.0924 0.0163
0.4502 0.0955 0.0146
0.4936 0.1003 0.0142
0.5320 0.1027 0.0146
0.5645 0.1051 0.0135
0.5938 0.1092 0.0137
0.6206 0.1110 0.0147
0.6466 0.1123 0.0138
0.6677 0.1133 0.0138
0.6881 0.1163 0.0154
0.7065 0.1191 0.0153
0.7251 0.1199 0.0146
0.7436 0.1226 0.0142
0.7589 0.1254 0.0156
0.7722 0.1260 0.0166
0.7858 0.1283 0.0164
0.0259 0.0678 0.0188
0.0446 0.0692 0.0193
0.0607 0.0676 0.0217
0.0749 0.0683 0.0233
0.0888 0.0718 0.0228
0.1016 0.0731 0.0221
0.1150 0.0741 0.0216
0.1283 0.0751 0.0230
0.1418 0.0780 0.0233
0.1593 0.0810 0.0228
0.1769 0.0822 0.0239
0.1990 0.0855 0.0239
0.2251 0.0892 0.0229
0.2580 0.0913 0.0234
0.2940 0.0935 0.0227
0.3320 0.0961 0.0209
0.3748 0.1011 0.0194
0.4192 0.1045 0.0185
0.4614 0.1071 0.0187
0.5020 0.1117 0.0176
0.5396 0.1147 0.0171
0.5725 0.1167 0.0179
0.6036 0.1207 0.0173
0.6289 0.1231 0.0173
0.6537 0.1243 0.0183
0.6754 0.1253 0.0178
0.6962 0.1276 0.0173
0.7147 0.1309 0.0171
0.7334 0.1319 0.0180
0.7515 0.1339 0.0190
0.7672 0.1372 0.0189
0.7811 0.1381 0.0199
0.7940 0.1387 0.0210
0.0326 0.0800 0.0199
0.0511 0.0812 0.0226
0.0658 0.0807 0.0235
0.0805 0.0792 0.0242
0.0931 0.0800 0.0237
0.1056 0.0825 0.0253
0.1182 0.0858 0.0257
0.1307 0.0866 0.0251
0.1472 0.0891 0.0265
0.1606 0.0926 0.0271
0.1825 0.0940 0.0260
0.2046 0.0967 0.0271
0.2335 0.1011 0.0271
0.2650 0.1032 0.0256
0.3038 0.1056 0.0238
0.3430 0.1079 0.0229
0.3858 0.1126 0.0234
0.4276 0.1165 0.0221
0.4721 0.1189 0.0210
0.5120 0.1233 0.0218
0.5495 0.1269 0.0210
0.5821 0.1285 0.0203
0.6101 0.1300 0.0213
0.6375 0.1320 0.0208
0.6606 0.1356 0.0204
0.6827 0.1373 0.0197
0.7038 0.1389 0.0205
0.7243 0.1424 0.0218
0.7414 0.1440 0.0214
0.7596 0.1453 0.0222
0.7752 0.1485 0.0237
0.7896 0.1501 0.0234
0.8030 0.1511 0.0231
0.0368 0.0926 0.0215
0.0545 0.0934 0.0225
0.0722 0.0936 0.0237
0.0835 0.0924 0.0266
0.0952 0.0916 0.0279
0.1085 0.0933 0.0273
0.1218 0.0968 0.0290
0.1350 0.0983 0.0294
0.1484 0.0999 0.0288
0.1660 0.1037 0.0303
0.1879 0.1059 0.0304
0.2098 0.1074 0.0294
0.2404 0.1093 0.0279
0.2714 0.1129 0.0275
0.3104 0.1175 0.0281
0.3518 0.1200 0.0265
0.3935 0.1238 0.0257
0.4386 0.1287 0.0263
0.4793 0.1309 0.0250
0.5218 0.1346 0.0242
0.5579 0.1389 0.0252
0.5885 0.1404 0.0246
0.6171 0.1432 0.0238
0.6453 0.1471 0.0233
0.6683 0.1483 0.0239
0.6903 0.1505 0.0249
0.7123 0.1541 0.0247
0.7326 0.1552 0.0253
0.7496 0.1571 0.0266
0.7691 0.1605 0.0264
0.7842 0.1615 0.0260
0.7989 0.1631 0.0259
0.8133 0.1664 0.0279
0.0426 0.1052 0.0215
0.0605 0.1038 0.0248
0.0750 0.1027 0.0269
0.0880 0.1042 0.0278
0.0985 0.1044 0.0305
0.1100 0.1042 0.0318
0.1231 0.1076 0.0314
0.1364 0.1098 0.0328
0.1517 0.1110 0.0333
0.1687 0.1145 0.0328
0.1897 0.1173 0.0319
0.2154 0.1191 0.0314
0.2456 0.1234 0.0324
0.2804 0.1271 0.0314
0.3188 0.1295 0.0304
0.3610 0.1343 0.0310
0.4037 0.1383 0.0300
0.4485 0.1408 0.0287
0.4906 0.1452 0.0294
0.5304 0.1491 0.0288
0.5660 0.1509 0.0276
0.5991 0.1545 0.0268
0.6276 0.1578 0.0275
0.6529 0.1591 0.0283
0.6773 0.1621 0.0278
0.6987 0.1652 0.0287
0.7197 0.1663 0.0297
0.7408 0.1689 0.0294
0.7598 0.1724 0.0294
0.7784 0.1756 0.0294
0.7942 0.1774 0.0310
0.8088 0.1783 0.0315
0.8237 0.1816 0.0316
0.0493 0.1178 0.0248
0.0674 0.1174 0.0261
0.0800 0.1193 0.0289
0.0934 0.1186 0.0312
0.1044 0.1182 0.0320
0.1151 0.1200 0.0347
0.1269 0.1205 0.0361
0.1394 0.1219 0.0356
0.1553 0.1255 0.0351
0.1729 0.1276 0.0350
0.1945 0.1295 0.0361
0.2208 0.1337 0.0357
0.2512 0.1367 0.0350
0.2886 0.1395 0.0355
0.3283 0.1444 0.0348
0.3712 0.1479 0.0337
0.4147 0.1507 0.0340
0.4564 0.1554 0.0335
0.5016 0.1605 0.0323
0.5421 0.1650 0.0314
0.5763 0.1668 0.0315
0.6068 0.1695 0.0324
0.6353 0.1736 0.0320
0.6639 0.1774 0.0327
0.6876 0.1812 0.0343
0.7109 0.1847 0.0341
0.7299 0.1859 0.0336
0.7512 0.1880 0.0332
0.7720 0.1914 0.0350
0.7895 0.1949 0.0360
0.8060 0.1980 0.0361
0.8223 0.2015 0.0363
0.8355 0.2045 0.0373
0.0562 0.1319 0.0268
0.0720 0.1336 0.0293
0.0857 0.1325 0.0303
0.0969 0.1331 0.0330
0.1083 0.1350 0.0354
0.1193 0.1339 0.0363
0.1305 0.1339 0.0373
0.1435 0.1365 0.0380
0.1604 0.1403 0.0396
0.1782 0.1431 0.0396
0.2001 0.1446 0.0390
0.2260 0.1487 0.0403
0.2602 0.1533 0.0398
0.2955 0.1582 0.0392
0.3352 0.1630 0.0400
0.3786 0.1674 0.0394
0.4232 0.1700 0.0378
0.4682 0.1745 0.0366
0.5095 0.1792 0.0368
0.5497 0.1839 0.0378
0.5855 0.1882 0.0372
0.6178 0.1926 0.0378
0.6461 0.1964 0.0393
0.6730 0.2004 0.0391
0.6975 0.2039 0.0390
0.7210 0.2077 0.0389
0.7424 0.2114 0.0408
0.7638 0.2148 0.0418
0.7850 0.2184 0.0419
0.8030 0.2216 0.0420
0.8205 0.2250 0.0429
0.8371 0.2283 0.0449
0.8510 0.2315 0.0455
0.0636 0.1477 0.0282
0.0785 0.1498 0.0311
0.0925 0.1516 0.0338
0.1034 0.1537 0.0347
0.1143 0.1555 0.0356
0.1248 0.1555 0.0371
0.1351 0.1550 0.0402
0.1493 0.1565 0.0422
0.1621 0.1585 0.0433
0.1838 0.1626 0.0448
0.2058 0.1668 0.0450
0.2357 0.1712 0.0445
0.2661 0.1759 0.0457
0.3051 0.1808 0.0455
0.3460 0.1859 0.0445
0.3899 0.1909 0.0434
0.4330 0.1961 0.0436
0.4794 0.2011 0.0445
0.5215 0.2060 0.0438
0.5604 0.2105 0.0442
0.5958 0.2150 0.0456
0.6266 0.2190 0.0453
0.6572 0.2232 0.0451
0.6826 0.2271 0.0451
0.7076 0.2307 0.0468
0.7326 0.2369 0.0485
0.7563 0.2419 0.0489
0.7767 0.2455 0.0491
0.7990 0.2489 0.0499
0.8173 0.2525 0.0519
0.8354 0.2557 0.0525
0.8537 0.2612 0.0540
0.8691 0.2662 0.0566
0.0689 0.1720 0.0312
0.0861 0.1739 0.0327
0.0988 0.1762 0.0338
0.1103 0.1782 0.0353
0.1218 0.1804 0.0385
0.1329 0.1823 0.0403
0.1437 0.1844 0.0418
0.1560 0.1862 0.0452
0.1709 0.1878 0.0477
0.1893 0.1889 0.0500
0.2112 0.1926 0.0515
0.2415 0.1974 0.0517
0.2735 0.2020 0.0511
0.3128 0.2072 0.0503
0.3538 0.2128 0.0506
0.3965 0.2206 0.0523
0.4445 0.2264 0.0516
0.4873 0.2314 0.0519
0.5314 0.2363 0.0531
0.5711 0.2410 0.0529
0.6038 0.2455 0.0527
0.6358 0.2524 0.0533
0.6669 0.2575 0.0552
0.6934 0.2616 0.0564
0.7193 0.2681 0.0573
0.7447 0.2726 0.0577
0.7694 0.2767 0.0586
0.7906 0.2825 0.0613
0.8142 0.2874 0.0623
0.8337 0.2907 0.0631
0.8535 0.2970 0.0660
0.8719 0.3015 0.0672
0.8875 0.3048 0.0678
0.0785 0.1993 0.0312
0.0935 0.2019 0.0330
0.1055 0.2043 0.0363
0.1164 0.2067 0.0381
0.1281 0.2106 0.0396
0.1400 0.2154 0.0430
0.1515 0.2177 0.0452
0.1637 0.2196 0.0469
0.1780 0.2216 0.0507
0.1959 0.2229 0.0540
0.2181 0.2256 0.0571
0.2471 0.2308 0.0583
0.2816 0.2358 0.0587
0.3201 0.2420 0.0603
0.3640 0.2500 0.0604
0.4078 0.2551 0.0607
0.4535 0.2617 0.0623
0.4991 0.2691 0.0627
0.5418 0.2742 0.0625
0.5798 0.2802 0.0628
0.6166 0.2870 0.0650
0.6482 0.2915 0.0663
0.6785 0.2964 0.0667
0.7069 0.3030 0.0678
0.7308 0.3069 0.0687
0.7565 0.3117 0.0710
0.7825 0.3177 0.0725
0.8067 0.3241 0.0742
0.8291 0.3293 0.0768
0.8495 0.3329 0.0779
0.8699 0.3381 0.0790
0.8892 0.3442 0.0805
0.9056 0.3497 0.0830
0.0893 0.2331 0.0334
0.1013 0.2371 0.0356
0.1156 0.2399 0.0374
0.1268 0.2447 0.0408
0.1380 0.2490 0.0430
0.1488 0.2516 0.0445
0.1600 0.2563 0.0479
0.1747 0.2605 0.0510
0.1896 0.2625 0.0531
0.2082 0.2668 0.0560
0.2304 0.2700 0.0604
0.2554 0.2710 0.0664
0.2910 0.2749 0.0693
0.3298 0.2821 0.0703
0.3729 0.2874 0.0718
0.4188 0.2947 0.0723
0.4624 0.3021 0.0729
0.5108 0.3101 0.0735
0.5534 0.3160 0.0753
0.5907 0.3208 0.0768
0.6260 0.3280 0.0779
0.6572 0.3343 0.0790
0.6902 0.3409 0.0806
0.7175 0.3448 0.0826
0.7451 0.3504 0.0842
0.7687 0.3565 0.0859
0.7954 0.3630 0.0890
0.8216 0.3691 0.0909
0.8440 0.3753 0.0926
0.8653 0.3787 0.0933
0.8860 0.3835 0.0955
0.9042 0.3897 0.0987
0.9218 0.3952 0.1003
0.0979 0.2720 0.0339
0.1129 0.2759 0.0379
0.1248 0.2811 0.0404
0.1365 0.2850 0.0420
0.1481 0.2884 0.0456
0.1600 0.2935 0.0483
0.1720 0.2990 0.0501
0.1860 0.3038 0.0523
0.2020 0.3064 0.0557
0.2206 0.3101 0.0608
0.2427 0.3151 0.0650
0.2718 0.3189 0.0711
0.3014 0.3213 0.0787
0.3376 0.3229 0.0828
0.3811 0.3310 0.0837
0.4258 0.3387 0.0846
0.4737 0.3469 0.0870
0.5173 0.3547 0.0894
0.5609 0.3610 0.0902
0.6003 0.3659 0.0908
0.6354 0.3723 0.0924
0.6686 0.3794 0.0955
0.6985 0.3857 0.0975
0.7273 0.3924 0.0994
0.7551 0.3979 0.1023
0.7817 0.4019 0.1037
0.8070 0.4074 0.1052
0.8337 0.4140 0.1071
0.8567 0.4200 0.1098
0.8794 0.4264 0.1132
0.9016 0.4320 0.1150
0.9196 0.4352 0.1159
0.9377 0.4405 0.1177
0.1106 0.3135 0.0370
0.1244 0.3195 0.0389
0.1352 0.3228 0.0424
0.1462 0.3271 0.0452
0.1577 0.3325 0.0470
0.1697 0.3383 0.0489
0.1835 0.3436 0.0520
0.1969 0.3495 0.0563
0.2153 0.3529 0.0599
0.2339 0.3567 0.0641
0.2593 0.3618 0.0710
0.2848 0.3670 0.0766
0.3173 0.3710 0.0837
0.3522 0.3747 0.0917
0.3919 0.3773 0.0986
0.4358 0.3830 0.1006
0.4828 0.3912 0.1022
0.5283 0.3988 0.1037
0.5692 0.4066 0.1058
0.6079 0.4136 0.1090
0.6422 0.4192 0.1108
0.6768 0.4237 0.1120
0.7059 0.4305 0.1155
0.7352 0.4368 0.1179
0.7643 0.4435 0.1200
0.7925 0.4497 0.1220
0.8173 0.4548 0.1244
0.8448 0.4590 0.1270
0.8681 0.4649 0.1290
0.8915 0.4712 0.1313
0.9145 0.4771 0.1335
0.9337 0.4810 0.1362
0.9484 0.4851 0.1385
0.1217 0.3554 0.0386
0.1357 0.3614 0.0420
0.1477 0.3674 0.0439
0.1590 0.3727 0.0459
0.1699 0.3762 0.0485
0.1809 0.3809 0.0524
0.1946 0.3870 0.0554
0.2099 0.3928 0.0589
0.2285 0.3993 0.0645
0.2475 0.4050 0.0689
0.2728 0.4088 0.0745
0.3003 0.4129 0.0808
0.3330 0.4185 0.0899
0.3664 0.4233 0.0996
0.4025 0.4267 0.1091
0.4463 0.4313 0.1168
0.4906 0.4365 0.1181
0.5356 0.4431 0.1212
0.5789 0.4505 0.1238
0.6136 0.4577 0.1262
0.6492 0.4639 0.1294
0.6829 0.4686 0.1314
0.7130 0.4746 0.1334
0.7423 0.4806 0.1355
0.7717 0.4846 0.1374
0.8008 0.4907 0.1410
0.8258 0.4972 0.1435
0.8544 0.5033 0.1458
0.8785 0.5079 0.1475
0.9022 0.5119 0.1503
0.9253 0.5178 0.1535
0.9452 0.5221 0.1552
0.9608 0.5262 0.1580
0.1335 0.3955 0.0397
0.1455 0.4015 0.0418
0.1574 0.4074 0.0446
0.1693 0.4138 0.0487
0.1812 0.4196 0.0515
0.1931 0.4251 0.0544
0.2044 0.4288 0.0586
0.2197 0.4348 0.0624
0.2385 0.4411 0.0666
0.2607 0.4481 0.0717
0.2858 0.4531 0.0790
0.3146 0.4581 0.0876
0.3473 0.4645 0.0961
0.3836 0.4680 0.1059
0.4196 0.4706 0.1162
0.4567 0.4741 0.1286
0.5011 0.4795 0.1361
0.5453 0.4868 0.1385
0.5848 0.4920 0.1415
0.6230 0.4981 0.1443
0.6579 0.5049 0.1468
0.6918 0.5092 0.1483
0.7230 0.5152 0.1512
0.7499 0.5215 0.1550
0.7784 0.5278 0.1576
0.8084 0.5338 0.1600
0.8370 0.5378 0.1616
0.8624 0.5438 0.1654
0.8871 0.5490 0.1684
0.9115 0.5530 0.1701
0.9335 0.5588 0.1737
0.9531 0.5637 0.1768
0.9683 0.5668 0.1782
0.1434 0.4341 0.0398
0.1573 0.4401 0.0446
0.1686 0.4463 0.0473
0.1793 0.4502 0.0500
0.1904 0.4557 0.0543
0.2020 0.4617 0.0573
0.2174 0.4686 0.0608
0.2326 0.4740 0.0644
0.2507 0.4790 0.0700
0.2730 0.4862 0.0771
0.2984 0.4925 0.0837
0.3302 0.4981 0.0923
0.3626 0.5048 0.1015
0.3983 0.5110 0.1134
0.4370 0.5164 0.1258
0.4728 0.5196 0.1370
0.5117 0.5215 0.1510
0.5543 0.5272 0.1571
0.5930 0.5326 0.1592
0.6310 0.5386 0.1616
0.6629 0.5453 0.1650
0.6983 0.5504 0.1684
0.7284 0.5550 0.1704
0.7588 0.5591 0.1721
0.7849 0.5647 0.1746
0.8149 0.5708 0.1784
0.8446 0.5753 0.1813
0.8700 0.5807 0.1838
0.8952 0.5864 0.1875
0.9194 0.5901 0.1901
0.9406 0.5957 0.1928
0.9612 0.6012 0.1965
0.9770 0.6044 0.1989
0.1557 0.4684 0.0427
0.1674 0.4739 0.0456
0.1793 0.4804 0.0500
0.1912 0.4867 0.0533
0.2023 0.4925 0.0559
0.2146 0.4974 0.0589
0.2277 0.5035 0.0632
0.2448 0.5104 0.0692
0.2634 0.5161 0.0741
0.2857 0.5233 0.0801
0.3143 0.5312 0.0882
0.3444 0.5372 0.0985
0.3773 0.5431 0.1091
0.4130 0.5482 0.1200
0.4492 0.5545 0.1331
0.4890 0.5586 0.1470
0.5247 0.5612 0.1592
0.5609 0.5647 0.1721
0.6020 0.5697 0.1762
0.6370 0.5744 0.1795
0.6721 0.5820 0.1832
0.7033 0.5874 0.1857
0.7341 0.5916 0.1878
0.7641 0.5963 0.1910
0.7943 0.6015 0.1944
0.8213 0.6078 0.1975
0.8508 0.6121 0.2006
0.8765 0.6163 0.2035
0.9019 0.6201 0.2054
0.9272 0.6258 0.2093
0.9482 0.6310 0.2129
0.9679 0.6349 0.2149
0.9836 0.6381 0.2173
0.1656 0.5012 0.0448
0.1764 0.5058 0.0481
0.1878 0.5108 0.0508
0.1994 0.5165 0.0537
0.2113 0.5230 0.0577
0.2239 0.5284 0.0626
0.2379 0.5344 0.0663
0.2566 0.5422 0.0714
0.2750 0.5481 0.0766
0.3004 0.5564 0.0855
0.3258 0.5648 0.0939
0.3578 0.5720 0.1037
0.3930 0.5787 0.1163
0.4284 0.5848 0.1287
0.4653 0.5915 0.1411
0.5030 0.5970 0.1543
0.5407 0.5998 0.1683
0.5731 0.6022 0.1816
0.6053 0.6041 0.1936
0.6422 0.6105 0.1968
0.6779 0.6163 0.1998
0.7081 0.6207 0.2030
0.7389 0.6250 0.2061
0.7697 0.6307 0.2091
0.7998 0.6375 0.2136
0.8266 0.6415 0.2166
0.8570 0.6455 0.2188
0.8824 0.6493 0.2216
0.9081 0.6536 0.2249
0.9337 0.6573 0.2270
0.9554 0.6609 0.2297
0.9720 0.6668 0.2339
0.9891 0.6721 0.2369
0.1764 0.5300 0.0459
0.1872 0.5348 0.0487
0.1980 0.5397 0.0526
0.2090 0.5454 0.0572
0.2202 0.5519 0.0601
0.2345 0.5580 0.0641
0.2489 0.5638 0.0681
0.2664 0.5702 0.0748
0.2861 0.5779 0.0816
0.3118 0.5871 0.0894
0.3399 0.5952 0.0997
0.3721 0.6030 0.1110
0.4050 0.6101 0.1219
0.4412 0.6188 0.1343
0.4810 0.6264 0.1489
0.5168 0.6310 0.1634
0.5527 0.6346 0.1770
0.5877 0.6376 0.1905
0.6168 0.6395 0.2020
0.6474 0.6414 0.2129
0.6827 0.6464 0.2167
0.7135 0.6543 0.2210
0.7437 0.6586 0.2242
0.7745 0.6629 0.2276
0.8053 0.6671 0.2301
0.8317 0.6715 0.2333
0.8622 0.6757 0.2367
0.8885 0.6795 0.2390
0.9145 0.6852 0.2429
0.9398 0.6913 0.2475
0.9618 0.6949 0.2497
0.9791 0.6982 0.2522
0.9957 0.7019 0.2554
0.1841 0.5543 0.0468
0.1955 0.5598 0.0517
0.2070 0.5657 0.0549
0.2191 0.5732 0.0582
0.2304 0.5783 0.0614
0.2420 0.5835 0.0664
0.2568 0.5896 0.0718
0.2752 0.5968 0.0774
0.2968 0.6043 0.0855
0.3218 0.6124 0.0946
0.3515 0.6226 0.1043
0.3843 0.6331 0.1154
0.4205 0.6415 0.1285
0.4563 0.6489 0.1427
0.4921 0.6552 0.1562
0.5315 0.6612 0.1712
0.5673 0.6653 0.1851
0.5994 0.6690 0.1989
0.6302 0.6750 0.2128
0.6587 0.6775 0.2248
0.6895 0.6797 0.2347
0.7224 0.6836 0.2381
0.7510 0.6882 0.2410
0.7793 0.6924 0.2442
0.8105 0.6967 0.2479
0.8415 0.7009 0.2505
0.8674 0.7053 0.2539
0.8937 0.7092 0.2573
0.9200 0.7130 0.2597
0.9426 0.7171 0.2628
0.9638 0.7207 0.2661
0.9810 0.7240 0.2682
0.9983 0.7273 0.2707
0.1929 0.5782 0.0489
0.2038 0.5839 0.0520
0.2146 0.5891 0.0552
0.2260 0.5947 0.0601
0.2374 0.6004 0.0646
0.2522 0.6068 0.0691
0.2671 0.6132 0.0752
0.2855 0.6215 0.0821
0.3079 0.6316 0.0894
0.3339 0.6404 0.0981
0.3647 0.6499 0.1091
0.3966 0.6590 0.1218
0.4319 0.6683 0.1350
0.4708 0.6768 0.1495
0.5066 0.6837 0.1633
0.5447 0.6903 0.1791
0.5798 0.6952 0.1944
0.6111 0.6990 0.2074
0.6427 0.7021 0.2214
0.6685 0.7051 0.2336
0.6966 0.7069 0.2460
0.7252 0.7097 0.2530
0.7580 0.7136 0.2566
0.7846 0.7181 0.2595
0.8155 0.7225 0.2629
0.8463 0.7267 0.2668
0.8729 0.7307 0.2694
0.8994 0.7351 0.2728
0.9251 0.7389 0.2764
0.9477 0.7426 0.2789
0.9696 0.7466 0.2819
0.9866 0.7499 0.2851
1.0000 0.7531 0.2873
0.2018 0.5989 0.0496
0.2130 0.6050 0.0544
0.2238 0.6106 0.0588
0.2346 0.6159 0.0622
0.2476 0.6222 0.0676
0.2595 0.6283 0.0726
0.2772 0.6358 0.0783
0.2956 0.6434 0.0845
0.3184 0.6521 0.0926
0.3458 0.6622 0.1037
0.3768 0.6723 0.1152
0.4097 0.6820 0.1272
0.4453 0.6918 0.1406
0.4811 0.7004 0.1553
0.5207 0.7086 0.1722
0.5562 0.7150 0.1866
0.5920 0.7210 0.2023
0.6242 0.7254 0.2170
0.6521 0.7288 0.2292
0.6806 0.7317 0.2425
0.7059 0.7345 0.2549
0.7308 0.7364 0.2664
0.7610 0.7397 0.2718
0.7936 0.7437 0.2757
0.8208 0.7482 0.2788
0.8512 0.7525 0.2823
0.8777 0.7565 0.2861
0.9043 0.7609 0.2892
0.9308 0.7648 0.2924
0.9529 0.7685 0.2959
0.9727 0.7719 0.2984
0.9895 0.7757 0.3013
1.0000 0.7790 0.3044
0.2078 0.6160 0.0523
0.2193 0.6220 0.0559
0.2308 0.6283 0.0607
0.2421 0.6342 0.0656
0.2538 0.6400 0.0694
0.2684 0.6469 0.0743
0.2867 0.6552 0.0807
0.3051 0.6633 0.0887
0.3301 0.6731 0.0980
0.3551 0.6825 0.1071
0.3874 0.6937 0.1190
0.4224 0.7046 0.1331
0.4576 0.7147 0.1481
0.4950 0.7244 0.1630
0.5317 0.7327 0.1787
0.5700 0.7401 0.1960
0.6020 0.7457 0.2097
0.6334 0.7511 0.2241
0.6618 0.7551 0.2378
0.6905 0.7584 0.2509
0.7150 0.7612 0.2628
0.7400 0.7641 0.2756
0.7649 0.7659 0.2876
0.7969 0.7697 0.2914
0.8255 0.7741 0.2955
0.8564 0.7787 0.2991
0.8831 0.7827 0.3024
0.9092 0.7867 0.3062
0.9358 0.7911 0.3096
0.9585 0.7948 0.3126
0.9758 0.7982 0.3159
0.9936 0.8016 0.3192
1.0000 0.8052 0.3224
0.2156 0.6331 0.0541
0.2264 0.6392 0.0590
0.2372 0.6450 0.0625
0.2483 0.6511 0.0661
0.2623 0.6581 0.0712
0.2765 0.6652 0.0776
0.2940 0.6733 0.0843
0.3144 0.6825 0.0916
0.3396 0.6928 0.1008
0.3680 0.7038 0.1123
0.4000 0.7156 0.1259
0.4337 0.7266 0.1391
0.4694 0.7373 0.1541
0.5088 0.7478 0.1716
0.5447 0.7570 0.1868
0.5808 0.7649 0.2029
0.6148 0.7714 0.2190
0.6447 0.7766 0.2326
0.6739 0.7815 0.2465
0.6999 0.7853 0.2598
0.7257 0.7885 0.2721
0.7494 0.7917 0.2840
0.7743 0.7941 0.2971
0.8004 0.7949 0.3075
0.8291 0.7962 0.3093
0.8612 0.8008 0.3138
0.8879 0.8048 0.3171
0.9146 0.8088 0.3205
0.9406 0.8127 0.3244
0.9634 0.8169 0.3283
0.9807 0.8203 0.3315
0.9978 0.8236 0.3340
1.0000 0.8267 0.3369
0.2233 0.6498 0.0562
0.2347 0.6560 0.0600
0.2457 0.6621 0.0639
0.2565 0.6682 0.0692
0.2691 0.6754 0.0742
0.2839 0.6829 0.0795
0.3023 0.6916 0.0861
0.3240 0.7018 0.0950
0.3490 0.7126 0.1059
