70 CGC LUTs/Film Emulation/Fuji Superia Xtra 400.cube
#Created by: Denver Riddle
#Copyright: (C) Copyright Color Grading Central LLC
DOMAIN_MIN 0.0 0.0 0.0
DOMAIN_MAX 1.0 1.0 1.0
LUT_3D_SIZE 9
0.0314 0.0314 0.0314
0.0314 0.0393 0.0314
0.1155 0.0489 0.0314
0.2098 0.0612 0.0314
0.3126 0.0775 0.0327
0.4486 0.1014 0.0362
0.5880 0.1326 0.0415
0.6649 0.1555 0.0459
0.6911 0.1652 0.0478
0.0314 0.0673 0.0314
0.0314 0.0655 0.0314
0.1177 0.0750 0.0314
0.2177 0.0873 0.0325
0.3213 0.1035 0.0350
0.4620 0.1273 0.0393
0.6052 0.1587 0.0458
0.6843 0.1818 0.0509
0.7155 0.1918 0.0531
0.0314 0.1259 0.0314
0.0512 0.1227 0.0314
0.1204 0.1222 0.0341
0.2248 0.1344 0.0366
0.3353 0.1507 0.0402
0.4878 0.1748 0.0461
0.6381 0.2067 0.0546
0.7228 0.2304 0.0612
0.7485 0.2404 0.0641
0.0942 0.1990 0.0314
0.1266 0.2041 0.0314
0.1597 0.2040 0.0315
0.2290 0.2029 0.0445
0.3535 0.2197 0.0499
0.5174 0.2444 0.0582
0.6795 0.2774 0.0698
0.7646 0.3020 0.0785
0.7937 0.3127 0.0823
0.1593 0.2717 0.0314
0.1949 0.2851 0.0314
0.2290 0.2961 0.0314
0.2677 0.3007 0.0481
0.3617 0.3024 0.0640
0.5437 0.3285 0.0753
0.7208 0.3635 0.0906
0.8088 0.3893 0.1020
0.8369 0.3999 0.1069
0.2537 0.3890 0.0314
0.2905 0.4160 0.0314
0.3360 0.4442 0.0314
0.3938 0.4729 0.0374
0.4605 0.4972 0.0776
0.5681 0.5028 0.1181
0.7719 0.5359 0.1382
0.8720 0.5597 0.1554
0.9067 0.5694 0.1627
0.3277 0.4780 0.0314
0.3751 0.5126 0.0314
0.4335 0.5514 0.0314
0.5043 0.5942 0.0398
0.5850 0.6417 0.0816
0.6775 0.6905 0.1430
0.7933 0.7095 0.2049
0.9104 0.7328 0.2252
0.9507 0.7426 0.2353
0.3684 0.5193 0.0314
0.4233 0.5578 0.0314
0.4848 0.6006 0.0314
0.5588 0.6507 0.0461
0.6423 0.7095 0.0888
0.7427 0.7800 0.1529
0.8385 0.8374 0.2435
0.9211 0.8467 0.2754
0.9644 0.8563 0.2876
0.3929 0.5415 0.0314
0.4496 0.5816 0.0314
0.5122 0.6273 0.0314
0.5880 0.6813 0.0515
0.6741 0.7474 0.0949
0.7796 0.8282 0.1604
0.8767 0.9037 0.2547
0.9346 0.9330 0.3211
0.9644 0.9319 0.3250
0.0314 0.0321 0.0682
0.0314 0.0334 0.0771
0.0980 0.0419 0.0765
0.1966 0.0528 0.0758
0.2937 0.0696 0.0764
0.4306 0.0951 0.0794
0.5738 0.1263 0.0834
0.6556 0.1492 0.0869
0.6819 0.1591 0.0884
0.0314 0.0558 0.0654
0.0314 0.0640 0.0700
0.1110 0.0736 0.0701
0.2104 0.0858 0.0711
0.3175 0.1020 0.0727
0.4588 0.1258 0.0758
0.6035 0.1571 0.0806
0.6833 0.1802 0.0846
0.7145 0.1901 0.0864
0.0314 0.1140 0.0517
0.0502 0.1227 0.0604
0.1179 0.1223 0.0705
0.2237 0.1345 0.0722
0.3346 0.1507 0.0749
0.4878 0.1747 0.0794
0.6386 0.2064 0.0861
0.7237 0.2300 0.0915
0.7495 0.2401 0.0938
0.0568 0.1906 0.0314
0.1262 0.2052 0.0429
0.1577 0.2041 0.0647
0.2277 0.2029 0.0783
0.3522 0.2196 0.0825
0.5170 0.2442 0.0893
0.6795 0.2772 0.0990
0.7657 0.3016 0.1065
0.7942 0.3124 0.1098
0.1377 0.2658 0.0314
0.1947 0.2874 0.0314
0.2286 0.2977 0.0500
0.2669 0.3009 0.0783
0.3603 0.3024 0.0943
0.5428 0.3282 0.1040
0.7208 0.3632 0.1173
0.8088 0.3888 0.1273
0.8375 0.3997 0.1306
0.2465 0.3866 0.0314
0.2914 0.4204 0.0314
0.3364 0.4476 0.0357
0.3941 0.4753 0.0635
0.4600 0.4986 0.1025
0.5666 0.5028 0.1393
0.7714 0.5359 0.1606
0.8720 0.5592 0.1763
0.9067 0.5689 0.1830
0.3286 0.4814 0.0314
0.3768 0.5184 0.0314
0.4347 0.5558 0.0348
0.5053 0.5983 0.0629
0.5854 0.6443 0.1030
0.6775 0.6920 0.1624
0.7923 0.7090 0.2197
0.9099 0.7323 0.2422
0.9507 0.7426 0.2519
0.3734 0.5268 0.0314
0.4255 0.5638 0.0314
0.4863 0.6056 0.0393
0.5603 0.6560 0.0678
0.6441 0.7139 0.1086
0.7437 0.7825 0.1703
0.8380 0.8384 0.2587
0.9201 0.8467 0.2901
0.9644 0.8563 0.3017
0.4004 0.5509 0.0314
0.4518 0.5875 0.0314
0.5140 0.6327 0.0436
0.5900 0.6866 0.0724
0.6756 0.7518 0.1137
0.7806 0.8319 0.1768
0.8773 0.9054 0.2653
0.9341 0.9330 0.3345
0.9644 0.9319 0.3376
0.0314 0.0331 0.1197
0.0314 0.0324 0.1306
0.0813 0.0358 0.1390
0.1882 0.0466 0.1381
0.2917 0.0612 0.1372
0.4252 0.0827 0.1360
0.5622 0.1132 0.1361
0.6414 0.1392 0.1398
0.6716 0.1502 0.1416
0.0314 0.0568 0.1175
0.0314 0.0629 0.1264
0.0945 0.0660 0.1315
0.1990 0.0768 0.1308
0.3017 0.0912 0.1306
0.4374 0.1140 0.1306
0.5885 0.1489 0.1343
0.6702 0.1720 0.1372
0.6989 0.1819 0.1386
0.0314 0.0994 0.1129
0.0314 0.1111 0.1179
0.1126 0.1210 0.1218
0.2197 0.1335 0.1226
0.3311 0.1496 0.1241
0.4853 0.1735 0.1269
0.6376 0.2052 0.1306
0.7233 0.2287 0.1323
0.7495 0.2387 0.1340
0.0314 0.1797 0.0955
0.0864 0.1952 0.0969
0.1557 0.2043 0.1108
0.2258 0.2030 0.1251
0.3510 0.2196 0.1280
0.5170 0.2440 0.1306
0.6799 0.2767 0.1372
0.7668 0.3011 0.1430
0.7957 0.3119 0.1456
0.0882 0.2613 0.0750
0.1683 0.2812 0.0755
0.2280 0.2996 0.0929
0.2655 0.3011 0.1205
0.3586 0.3022 0.1339
0.5419 0.3282 0.1415
0.7208 0.3627 0.1524
0.8098 0.3885 0.1608
0.8380 0.3992 0.1644
0.2226 0.3925 0.0492
0.2851 0.4177 0.0486
0.3372 0.4525 0.0737
0.3941 0.4790 0.1002
0.4593 0.5000 0.1345
0.5652 0.5028 0.1744
0.7704 0.5354 0.1931
0.8720 0.5587 0.2051
0.9067 0.5689 0.2096
0.3238 0.4906 0.0363
0.3763 0.5218 0.0467
0.4367 0.5621 0.0693
0.5067 0.6034 0.0955
0.5859 0.6487 0.1306
0.6775 0.6939 0.1906
0.7913 0.7086 0.2467
0.9089 0.7323 0.2639
0.9502 0.7421 0.2728
0.3828 0.5364 0.0344
0.4289 0.5709 0.0509
0.4887 0.6132 0.0720
0.5622 0.6618 0.0984
0.6469 0.7192 0.1337
0.7441 0.7866 0.1958
0.8375 0.8389 0.2782
0.9191 0.8462 0.3085
0.9644 0.8563 0.3197
0.4126 0.5634 0.0399
0.4576 0.5970 0.0551
0.5170 0.6404 0.0753
0.5924 0.6934 0.1019
0.6775 0.7576 0.1376
0.7816 0.8364 0.2010
0.8773 0.9075 0.2864
0.9330 0.9330 0.3510
0.9644 0.9308 0.3529
0.0314 0.0341 0.1734
0.0314 0.0336 0.1890
0.0706 0.0335 0.2051
0.1782 0.0402 0.2113
0.2910 0.0547 0.2100
0.4350 0.0762 0.2088
0.5779 0.1045 0.2072
0.6547 0.1254 0.2061
0.6780 0.1343 0.2056
0.0314 0.0579 0.1720
0.0314 0.0640 0.1821
0.0813 0.0636 0.1997
0.1860 0.0700 0.2051
0.2985 0.0844 0.2051
0.4473 0.1058 0.2044
0.5895 0.1340 0.2029
0.6634 0.1549 0.2018
0.6897 0.1649 0.2022
0.0314 0.1005 0.1689
0.0314 0.1122 0.1746
0.1015 0.1182 0.1863
0.2021 0.1244 0.1932
0.3168 0.1386 0.1922
0.4637 0.1599 0.1910
0.6201 0.1942 0.1939
0.7038 0.2191 0.1974
0.7344 0.2291 0.1986
0.0314 0.1650 0.1648
0.0314 0.1774 0.1696
0.1179 0.1926 0.1722
0.2237 0.2031 0.1786
0.3484 0.2196 0.1801
0.5160 0.2440 0.1832
0.6804 0.2765 0.1881
0.7679 0.3009 0.1923
0.7967 0.3114 0.1943
0.0314 0.2543 0.1431
0.1091 0.2710 0.1444
0.2031 0.2920 0.1456
0.2641 0.3016 0.1687
0.3565 0.3022 0.1860
0.5411 0.3280 0.1916
0.7208 0.3625 0.1998
0.8103 0.3880 0.2051
0.8390 0.3987 0.2060
0.1883 0.3987 0.1152
0.2477 0.4216 0.1153
0.3289 0.4500 0.1149
0.3943 0.4829 0.1416
0.4586 0.5018 0.1781
0.5630 0.5023 0.2149
0.7694 0.5349 0.2307
0.8715 0.5582 0.2427
0.9067 0.5685 0.2478
0.3067 0.5077 0.0984
0.3632 0.5310 0.0980
0.4347 0.5651 0.1069
0.5082 0.6098 0.1321
0.5867 0.6536 0.1680
0.6770 0.6964 0.2229
0.7894 0.7086 0.2780
0.9085 0.7319 0.2969
0.9498 0.7416 0.3049
0.3717 0.5573 0.0936
0.4294 0.5811 0.0930
0.4902 0.6190 0.1088
0.5639 0.6691 0.1327
0.6488 0.7257 0.1688
0.7446 0.7907 0.2248
0.8370 0.8398 0.3059
0.9189 0.8462 0.3381
0.9644 0.8557 0.3482
0.4150 0.5845 0.0921
0.4659 0.6078 0.0924
0.5204 0.6482 0.1119
0.5948 0.7017 0.1350
0.6795 0.7645 0.1713
0.7826 0.8414 0.2284
0.8773 0.9099 0.3106
0.9319 0.9324 0.3770
0.9644 0.9303 0.3784
0.0314 0.0365 0.2887
0.0314 0.0362 0.3059
0.0744 0.0364 0.3284
0.1609 0.0374 0.3546
0.2657 0.0429 0.3826
0.4518 0.0634 0.3787
0.6211 0.0917 0.3768
0.7059 0.1126 0.3755
0.7354 0.1214 0.3750
0.0314 0.0602 0.2894
0.0314 0.0665 0.3022
0.0861 0.0663 0.3215
0.1699 0.0669 0.3503
0.2741 0.0720 0.3731
0.4581 0.0924 0.3697
0.6284 0.1207 0.3679
0.7164 0.1414 0.3667
0.7432 0.1503 0.3663
0.0314 0.1029 0.2898
0.0314 0.1146 0.2974
0.1059 0.1207 0.3087
0.1865 0.1206 0.3357
0.2892 0.1248 0.3569
0.4739 0.1454 0.3541
0.6414 0.1737 0.3524
0.7269 0.1948 0.3510
0.7573 0.2038 0.3508
0.0314 0.1638 0.2883
0.0314 0.1759 0.2951
0.1095 0.1901 0.3028
0.2095 0.1992 0.3158
0.3145 0.2024 0.3383
0.4934 0.2237 0.3362
0.6654 0.2526 0.3345
0.7490 0.2744 0.3334
0.7796 0.2836 0.3329
0.0314 0.2349 0.2837
0.0314 0.2480 0.2896
0.1070 0.2631 0.2967
0.2133 0.2823 0.3053
0.3391 0.2977 0.3138
0.5238 0.3214 0.3133
0.7086 0.3568 0.3170
0.8022 0.3822 0.3199
0.8360 0.3927 0.3213
0.1148 0.4048 0.2595
0.1686 0.4228 0.2598
0.2359 0.4449 0.2613
0.3318 0.4734 0.2628
0.4566 0.5057 0.2816
0.5583 0.5023 0.3211
0.7674 0.5344 0.3311
0.8710 0.5578 0.3388
0.9067 0.5675 0.3423
0.2688 0.5378 0.2339
0.3131 0.5578 0.2345
0.3746 0.5821 0.2349
0.4776 0.6150 0.2345
0.5880 0.6638 0.2595
0.6761 0.7012 0.3090
0.7886 0.7082 0.3643
0.9067 0.7314 0.3784
0.9478 0.7411 0.3845
0.3535 0.5996 0.2239
0.3963 0.6200 0.2243
0.4588 0.6453 0.2243
0.5500 0.6803 0.2235
0.6522 0.7397 0.2551
0.7456 0.8000 0.3059
0.8369 0.8414 0.3819
0.9186 0.8452 0.4100
0.9644 0.8552 0.4178
0.4046 0.6331 0.2199
0.4488 0.6541 0.2201
0.5077 0.6798 0.2200
0.5934 0.7153 0.2192
0.6838 0.7805 0.2545
0.7851 0.8530 0.3056
0.8767 0.9143 0.3823
0.9289 0.9313 0.4395
0.9644 0.9284 0.4407
0.0314 0.0401 0.4611
0.0314 0.0401 0.4827
0.0796 0.0407 0.5093
0.1655 0.0423 0.5440
0.2606 0.0456 0.5856
0.3972 0.0527 0.6437
0.6381 0.0766 0.6479
0.7728 0.0961 0.6479
0.8093 0.1050 0.6479
0.0314 0.0638 0.4660
0.0314 0.0703 0.4784
0.0932 0.0705 0.5070
0.1765 0.0716 0.5387
0.2692 0.0744 0.5785
0.4067 0.0807 0.6349
0.6508 0.1044 0.6420
0.7767 0.1241 0.6398
0.8137 0.1330 0.6393
0.0314 0.1065 0.4709
0.0314 0.1182 0.4784
0.1105 0.1246 0.4985
0.1923 0.1249 0.5279
0.2842 0.1268 0.5659
0.4272 0.1318 0.6198
0.6668 0.1552 0.6261
0.7857 0.1756 0.6247
0.8188 0.1845 0.6237
0.0314 0.1674 0.4765
0.0314 0.1795 0.4852
0.1171 0.1940 0.4956
0.2149 0.2033 0.5129
0.3092 0.2038 0.5488
0.4539 0.2070 0.5985
0.6872 0.2306 0.6041
0.7957 0.2520 0.6033
0.8336 0.2611 0.6028
0.0314 0.2391 0.4818
0.0361 0.2520 0.4900
0.1176 0.2673 0.4994
0.2212 0.2865 0.5093
0.3341 0.2981 0.5328
0.4834 0.2992 0.5780
0.7047 0.3239 0.5843
0.8152 0.3465 0.5829
0.8497 0.3561 0.5824
0.0673 0.3906 0.4827
0.1069 0.4051 0.4895
0.1601 0.4221 0.4971
0.2318 0.4432 0.5066
0.3407 0.4700 0.5143
0.5393 0.4986 0.5362
0.7476 0.5218 0.5417
0.8542 0.5423 0.5409
0.8901 0.5522 0.5409
0.2102 0.5638 0.4756
0.2377 0.5792 0.4775
0.2778 0.5974 0.4803
0.3412 0.6205 0.4832
0.4566 0.6521 0.4861
0.6547 0.7007 0.4895
0.7811 0.7077 0.5387
0.9054 0.7304 0.5440
0.9478 0.7401 0.5464
0.3222 0.6482 0.4582
0.3470 0.6647 0.4596
0.3885 0.6852 0.4616
0.4537 0.7114 0.4635
0.5608 0.7489 0.4655
0.7359 0.8077 0.4660
0.8351 0.8447 0.5318
0.9114 0.8447 0.5571
0.9616 0.8541 0.5615
0.3946 0.6949 0.4480
0.4196 0.7119 0.4494
0.4564 0.7338 0.4509
0.5170 0.7615 0.4523
0.6177 0.8016 0.4533
0.7811 0.8647 0.4548
0.8751 0.9225 0.5226
0.9236 0.9294 0.5722
0.9644 0.9279 0.5757
0.0314 0.0425 0.5605
0.0314 0.0428 0.5878
0.0834 0.0437 0.6162
0.1680 0.0456 0.6524
0.2635 0.0493 0.7035
0.4004 0.0570 0.7759
0.5890 0.0711 0.8555
0.7480 0.0905 0.8513
0.8093 0.0985 0.8494
0.0314 0.0663 0.5668
0.0314 0.0728 0.5852
0.0957 0.0733 0.6125
0.1790 0.0748 0.6479
0.2719 0.0780 0.6976
0.4106 0.0849 0.7686
0.5979 0.0983 0.8460
0.7573 0.1175 0.8417
0.8164 0.1255 0.8396
0.0314 0.1090 0.5780
0.0314 0.1207 0.5887
0.1151 0.1272 0.6062
0.1963 0.1279 0.6437
0.2871 0.1302 0.6874
0.4303 0.1358 0.7550
0.6172 0.1478 0.8284
0.7743 0.1672 0.8241
0.8320 0.1753 0.8226
0.0314 0.1700 0.5912
0.0314 0.1822 0.5977
0.1227 0.1966 0.6091
0.2193 0.2061 0.6329
0.3124 0.2070 0.6734
0.4571 0.2109 0.7365
0.6396 0.2211 0.8046
0.7942 0.2410 0.8002
0.8521 0.2491 0.7983
0.0314 0.2419 0.5994
0.0452 0.2547 0.6082
0.1257 0.2699 0.6189
0.2250 0.2892 0.6325
0.3372 0.3011 0.6579
0.4868 0.3029 0.7151
0.6688 0.3112 0.7803
0.8166 0.3319 0.7774
0.8680 0.3410 0.7764
0.0818 0.3936 0.6130
0.1208 0.4082 0.6208
0.1705 0.4252 0.6300
0.2390 0.4462 0.6412
0.3494 0.4729 0.6514
0.5424 0.5018 0.6762
0.7213 0.5043 0.7317
0.8547 0.5247 0.7287
0.8950 0.5330 0.7282
0.2256 0.5544 0.6153
0.2377 0.5685 0.6213
0.2630 0.5849 0.6286
0.3060 0.6047 0.6373
0.3861 0.6310 0.6479
0.5424 0.6667 0.6607
0.7690 0.7046 0.6811
0.8924 0.7257 0.6806
0.9371 0.7362 0.6816
0.3053 0.6623 0.6227
0.3154 0.6779 0.6276
0.3381 0.6959 0.6304
0.3870 0.7178 0.6334
0.4686 0.7469 0.6378
0.6245 0.7907 0.6429
0.8320 0.8467 0.6539
0.9067 0.8447 0.6835
0.9576 0.8535 0.6855
0.3873 0.7202 0.6111
0.3977 0.7367 0.6130
0.4223 0.7557 0.6153
0.4646 0.7800 0.6179
0.5432 0.8121 0.6213
0.6863 0.8613 0.6252
0.8735 0.9284 0.6416
0.9196 0.9284 0.6869
0.9600 0.9274 0.6932
0.0314 0.0443 0.6257
0.0314 0.0447 0.6514
0.0868 0.0457 0.6864
0.1707 0.0479 0.7307
0.2655 0.0519 0.7832
0.4026 0.0600 0.8635
0.5863 0.0737 0.9189
0.7184 0.0880 0.9189
0.7787 0.0963 0.9189
0.0314 0.0680 0.6339
0.0314 0.0746 0.6500
0.0974 0.0753 0.6840
0.1809 0.0770 0.7271
0.2739 0.0805 0.7803
0.4150 0.0879 0.8571
0.5958 0.1008 0.9189
0.7246 0.1146 0.9189
0.7886 0.1229 0.9189
0.0314 0.1108 0.6479
0.0320 0.1225 0.6562
0.1169 0.1291 0.6796
0.1981 0.1300 0.7205
0.2892 0.1326 0.7745
0.4325 0.1387 0.8455
0.6151 0.1502 0.9189
0.7407 0.1636 0.9189
0.8017 0.1719 0.9189
0.0314 0.1719 0.6616
0.0338 0.1841 0.6726
0.1259 0.1984 0.6855
0.2212 0.2081 0.7122
0.3145 0.2093 0.7623
0.4593 0.2137 0.8290
0.6371 0.2233 0.9189
0.7636 0.2358 0.9189
0.8215 0.2444 0.9189
0.0314 0.2438 0.6786
0.0518 0.2567 0.6889
0.1309 0.2719 0.7010
0.2275 0.2913 0.7156
0.3394 0.3033 0.7492
0.4887 0.3056 0.8105
0.6663 0.3131 0.8912
0.7886 0.3250 0.9189
0.8447 0.3339 0.9189
0.0947 0.3958 0.7025
0.1309 0.4104 0.7108
0.1789 0.4274 0.7210
0.2441 0.4483 0.7341
0.3542 0.4753 0.7506
0.5442 0.5038 0.7798
0.7189 0.5052 0.8450
0.8341 0.5140 0.8754
0.8884 0.5228 0.8737
0.2359 0.5563 0.7137
0.2475 0.5704 0.7210
0.2721 0.5866 0.7297
0.3145 0.6069 0.7404
0.3929 0.6327 0.7536
0.5471 0.6686 0.7725
0.7663 0.7046 0.7973
0.8745 0.7100 0.8231
0.9247 0.7182 0.8221
0.3437 0.6536 0.7146
0.3470 0.6677 0.7210
0.3591 0.6842 0.7287
0.3880 0.7056 0.7380
0.4476 0.7323 0.7492
0.5685 0.7698 0.7654
0.7657 0.8160 0.7813
0.9021 0.8425 0.7915
0.9502 0.8520 0.7920
0.4065 0.7221 0.7205
0.4048 0.7387 0.7265
0.4131 0.7572 0.7341
0.4347 0.7810 0.7433
0.4897 0.8107 0.7531
0.6168 0.8510 0.7594
0.8122 0.9048 0.7665
0.9189 0.9279 0.7853
0.9561 0.9274 0.7939
0.0314 0.0456 0.6726
0.0314 0.0462 0.7044
0.0895 0.0474 0.7424
0.1738 0.0497 0.7858
0.2671 0.0540 0.8469
0.4043 0.0624 0.9189
0.5880 0.0766 0.9189
0.7023 0.0887 0.9189
0.7519 0.0950 0.9189
0.0314 0.0694 0.6825
0.0314 0.0760 0.7039
0.0988 0.0769 0.7404
0.1823 0.0788 0.7832
0.2756 0.0825 0.8433
0.4177 0.0903 0.9189
0.5971 0.1035 0.9189
0.7150 0.1152 0.9189
0.7612 0.1213 0.9189
0.0314 0.1121 0.6996
0.0337 0.1239 0.7117
0.1184 0.1305 0.7380
0.1996 0.1317 0.7803
0.2908 0.1346 0.8362
0.4342 0.1410 0.9189
0.6164 0.1530 0.9189
0.7280 0.1638 0.9189
0.7782 0.1695 0.9189
0.0314 0.1733 0.7205
0.0381 0.1855 0.7331
0.1280 0.2000 0.7472
0.2226 0.2096 0.7759
0.3161 0.2112 0.8265
0.4610 0.2159 0.9024
0.6391 0.2260 0.9189
0.7514 0.2356 0.9189
0.7981 0.2412 0.9189
0.0314 0.2453 0.7424
0.0576 0.2581 0.7536
0.1351 0.2735 0.7665
0.2297 0.2931 0.7803
0.3410 0.3049 0.8153
0.4907 0.3077 0.8864
0.6678 0.3157 0.9189
0.7777 0.3239 0.9189
0.8210 0.3292 0.9189
0.1017 0.3975 0.7740
0.1377 0.4121 0.7803
0.1838 0.4291 0.7915
0.2482 0.4500 0.8056
0.3572 0.4767 0.8236
0.5462 0.5057 0.8560
0.7203 0.5077 0.9189
0.8215 0.5117 0.9189
0.8647 0.5159 0.9189
0.2446 0.5582 0.7900
0.2587 0.5724 0.7978
0.2794 0.5884 0.8075
0.3209 0.6083 0.8195
0.3982 0.6346 0.8348
0.5505 0.6706 0.8560
0.7679 0.7065 0.8886
0.8652 0.7065 0.9189
0.9067 0.7086 0.9189
0.3579 0.6555 0.7959
0.3588 0.6696 0.8030
0.3682 0.6861 0.8114
0.3960 0.7069 0.8221
0.4544 0.7343 0.8353
0.5734 0.7717 0.8533
0.7690 0.8182 0.8764
0.8905 0.8374 0.9005
0.9346 0.8389 0.9128
0.4479 0.7173 0.7968
0.4381 0.7323 0.8035
0.4393 0.7494 0.8114
0.4571 0.7713 0.8206
0.5019 0.7985 0.8328
0.5983 0.8369 0.8494
0.7690 0.8846 0.8703
0.9002 0.9170 0.8839
0.9478 0.9242 0.8912
