70 CGC LUTs/Film Emulation/Fuji Sensia 100.cube
#Created by: Denver Riddle
#Copyright: (C) Copyright Color Grading Central LLC
DOMAIN_MIN 0.0 0.0 0.0
DOMAIN_MAX 1.0 1.0 1.0
LUT_3D_SIZE 33
0.0000 0.0000 0.0000
0.0122 0.0000 0.0000
0.0241 0.0000 0.0000
0.0388 0.0000 0.0000
0.0559 0.0000 0.0000
0.0723 0.0000 0.0000
0.0908 0.0000 0.0000
0.1132 0.0000 0.0000
0.1364 0.0000 0.0000
0.1608 0.0000 0.0000
0.1840 0.0000 0.0000
0.2035 0.0000 0.0000
0.2214 0.0000 0.0000
0.2358 0.0000 0.0000
0.2461 0.0000 0.0000
0.2529 0.0000 0.0000
0.2570 0.0000 0.0000
0.2590 0.0000 0.0000
0.2594 0.0000 0.0000
0.2585 0.0000 0.0000
0.2565 0.0000 0.0000
0.2533 0.0000 0.0000
0.2492 0.0000 0.0000
0.2448 0.0000 0.0000
0.2393 0.0000 0.0000
0.2328 0.0000 0.0000
0.2262 0.0000 0.0000
0.2186 0.0000 0.0000
0.2102 0.0000 0.0000
0.2011 0.0000 0.0000
0.1918 0.0000 0.0000
0.1818 0.0000 0.0000
0.1712 0.0000 0.0000
0.0020 0.0261 0.0000
0.0150 0.0268 0.0000
0.0279 0.0269 0.0000
0.0432 0.0246 0.0000
0.0611 0.0217 0.0000
0.0783 0.0189 0.0000
0.0977 0.0156 0.0000
0.1213 0.0113 0.0000
0.1458 0.0065 0.0000
0.1717 0.0010 0.0000
0.1966 0.0000 0.0000
0.2177 0.0000 0.0000
0.2372 0.0000 0.0000
0.2533 0.0000 0.0000
0.2652 0.0000 0.0000
0.2734 0.0000 0.0000
0.2789 0.0000 0.0000
0.2821 0.0000 0.0000
0.2835 0.0000 0.0000
0.2837 0.0000 0.0000
0.2827 0.0000 0.0000
0.2804 0.0000 0.0000
0.2773 0.0000 0.0000
0.2737 0.0000 0.0000
0.2691 0.0000 0.0000
0.2635 0.0000 0.0000
0.2577 0.0000 0.0000
0.2509 0.0000 0.0000
0.2434 0.0000 0.0000
0.2350 0.0000 0.0000
0.2265 0.0000 0.0000
0.2173 0.0000 0.0000
0.2074 0.0000 0.0000
0.0040 0.0516 0.0000
0.0171 0.0526 0.0000
0.0301 0.0534 0.0000
0.0466 0.0543 0.0011
0.0655 0.0523 0.0000
0.0835 0.0495 0.0000
0.1037 0.0462 0.0000
0.1285 0.0419 0.0000
0.1544 0.0371 0.0000
0.1817 0.0315 0.0000
0.2083 0.0255 0.0000
0.2309 0.0197 0.0000
0.2522 0.0135 0.0000
0.2700 0.0072 0.0000
0.2835 0.0014 0.0000
0.2931 0.0000 0.0000
0.2999 0.0000 0.0000
0.3042 0.0000 0.0000
0.3067 0.0000 0.0000
0.3080 0.0000 0.0000
0.3080 0.0000 0.0000
0.3068 0.0000 0.0000
0.3046 0.0000 0.0000
0.3018 0.0000 0.0000
0.2980 0.0000 0.0000
0.2933 0.0000 0.0000
0.2883 0.0000 0.0000
0.2824 0.0000 0.0000
0.2756 0.0000 0.0000
0.2681 0.0000 0.0000
0.2603 0.0000 0.0000
0.2519 0.0000 0.0000
0.2428 0.0000 0.0000
0.0061 0.0766 0.0000
0.0191 0.0778 0.0000
0.0321 0.0789 0.0000
0.0486 0.0801 0.0000
0.0686 0.0813 0.0025
0.0878 0.0800 0.0014
0.1089 0.0767 0.0000
0.1349 0.0724 0.0000
0.1620 0.0676 0.0000
0.1909 0.0621 0.0000
0.2191 0.0561 0.0000
0.2434 0.0503 0.0000
0.2664 0.0441 0.0000
0.2859 0.0378 0.0000
0.3009 0.0320 0.0000
0.3120 0.0268 0.0000
0.3201 0.0220 0.0000
0.3256 0.0177 0.0000
0.3291 0.0139 0.0000
0.3315 0.0100 0.0000
0.3325 0.0062 0.0000
0.3322 0.0026 0.0000
0.3310 0.0000 0.0000
0.3290 0.0000 0.0000
0.3261 0.0000 0.0000
0.3223 0.0000 0.0000
0.3181 0.0000 0.0000
0.3130 0.0000 0.0000
0.3070 0.0000 0.0000
0.3003 0.0000 0.0000
0.2934 0.0000 0.0000
0.2857 0.0000 0.0000
0.2773 0.0000 0.0000
0.0081 0.1010 0.0000
0.0211 0.1025 0.0000
0.0341 0.1038 0.0000
0.0506 0.1053 0.0000
0.0706 0.1070 0.0013
0.0906 0.1083 0.0046
0.1132 0.1072 0.0044
0.1404 0.1030 0.0000
0.1688 0.0982 0.0000
0.1992 0.0926 0.0000
0.2291 0.0866 0.0000
0.2549 0.0808 0.0000
0.2796 0.0746 0.0000
0.3008 0.0683 0.0000
0.3174 0.0625 0.0000
0.3300 0.0573 0.0000
0.3394 0.0525 0.0000
0.3460 0.0482 0.0000
0.3506 0.0444 0.0000
0.3540 0.0405 0.0000
0.3560 0.0368 0.0000
0.3568 0.0331 0.0000
0.3565 0.0297 0.0000
0.3554 0.0267 0.0000
0.3533 0.0235 0.0000
0.3504 0.0203 0.0000
0.3470 0.0174 0.0000
0.3426 0.0144 0.0000
0.3375 0.0114 0.0000
0.3317 0.0084 0.0000
0.3254 0.0056 0.0000
0.3185 0.0028 0.0000
0.3109 0.0000 0.0000
0.0104 0.1284 0.0000
0.0234 0.1302 0.0000
0.0364 0.1318 0.0000
0.0530 0.1337 0.0000
0.0729 0.1357 0.0000
0.0929 0.1375 0.0036
0.1164 0.1393 0.0080
0.1456 0.1381 0.0082
0.1756 0.1333 0.0023
0.2078 0.1277 0.0000
0.2395 0.1217 0.0000
0.2671 0.1159 0.0000
0.2938 0.1097 0.0000
0.3170 0.1034 0.0000
0.3354 0.0976 0.0000
0.3496 0.0924 0.0000
0.3605 0.0876 0.0000
0.3685 0.0833 0.0000
0.3743 0.0795 0.0000
0.3789 0.0756 0.0000
0.3821 0.0719 0.0000
0.3840 0.0682 0.0000
0.3848 0.0648 0.0000
0.3846 0.0618 0.0000
0.3836 0.0586 0.0000
0.3816 0.0554 0.0000
0.3791 0.0525 0.0000
0.3757 0.0495 0.0000
0.3716 0.0465 0.0000
0.3666 0.0435 0.0000
0.3613 0.0407 0.0000
0.3553 0.0379 0.0000
0.3485 0.0351 0.0000
0.0124 0.1517 0.0000
0.0255 0.1537 0.0000
0.0385 0.1556 0.0000
0.0550 0.1578 0.0000
0.0750 0.1602 0.0000
0.0950 0.1624 0.0027
0.1184 0.1646 0.0074
0.1489 0.1670 0.0139
0.1806 0.1638 0.0112
0.2143 0.1583 0.0047
0.2476 0.1523 0.0000
0.2768 0.1465 0.0000
0.3053 0.1402 0.0000
0.3301 0.1340 0.0000
0.3501 0.1282 0.0000
0.3658 0.1230 0.0000
0.3780 0.1182 0.0000
0.3872 0.1139 0.0000
0.3940 0.1101 0.0000
0.3997 0.1061 0.0000
0.4039 0.1024 0.0000
0.4068 0.0988 0.0000
0.4085 0.0953 0.0000
0.4092 0.0923 0.0000
0.4090 0.0892 0.0000
0.4079 0.0860 0.0000
0.4062 0.0831 0.0000
0.4036 0.0801 0.0000
0.4003 0.0771 0.0000
0.3962 0.0741 0.0000
0.3916 0.0713 0.0000
0.3863 0.0685 0.0000
0.3804 0.0657 0.0000
0.0148 0.1777 0.0000
0.0278 0.1800 0.0000
0.0408 0.1822 0.0000
0.0573 0.1848 0.0000
0.0773 0.1877 0.0000
0.0973 0.1903 0.0016
0.1208 0.1930 0.0067
0.1512 0.1961 0.0136
0.1852 0.1987 0.0217
0.2207 0.1934 0.0159
0.2559 0.1874 0.0091
0.2870 0.1816 0.0025
0.3173 0.1753 0.0000
0.3442 0.1691 0.0000
0.3660 0.1633 0.0000
0.3833 0.1581 0.0000
0.3970 0.1533 0.0000
0.4075 0.1490 0.0000
0.4155 0.1452 0.0000
0.4225 0.1412 0.0000
0.4278 0.1375 0.0000
0.4319 0.1339 0.0000
0.4347 0.1305 0.0000
0.4363 0.1274 0.0000
0.4371 0.1243 0.0000
0.4371 0.1211 0.0000
0.4362 0.1182 0.0000
0.4346 0.1152 0.0000
0.4322 0.1122 0.0000
0.4290 0.1092 0.0000
0.4253 0.1064 0.0000
0.4210 0.1036 0.0000
0.4159 0.1008 0.0000
0.0171 0.2030 0.0000
0.0301 0.2056 0.0000
0.0431 0.2080 0.0000
0.0596 0.2110 0.0000
0.0796 0.2143 0.0000
0.0996 0.2174 0.0005
0.1231 0.2207 0.0060
0.1535 0.2244 0.0134
0.1875 0.2279 0.0220
0.2260 0.2285 0.0277
0.2631 0.2225 0.0213
0.2959 0.2167 0.0150
0.3283 0.2105 0.0083
0.3571 0.2042 0.0015
0.3807 0.1984 0.0000
0.3997 0.1932 0.0000
0.4149 0.1884 0.0000
0.4268 0.1841 0.0000
0.4360 0.1803 0.0000
0.4442 0.1763 0.0000
0.4507 0.1726 0.0000
0.4559 0.1690 0.0000
0.4598 0.1656 0.0000
0.4623 0.1626 0.0000
0.4641 0.1594 0.0000
0.4651 0.1562 0.0000
0.4651 0.1533 0.0000
0.4645 0.1503 0.0000
0.4630 0.1473 0.0000
0.4608 0.1443 0.0000
0.4580 0.1415 0.0000
0.4545 0.1387 0.0000
0.4503 0.1359 0.0000
0.0197 0.2307 0.0000
0.0327 0.2336 0.0000
0.0458 0.2364 0.0000
0.0623 0.2398 0.0000
0.0822 0.2436 0.0000
0.1022 0.2472 0.0000
0.1257 0.2511 0.0052
0.1561 0.2556 0.0131
0.1902 0.2599 0.0223
0.2295 0.2639 0.0336
0.2698 0.2622 0.0358
0.3047 0.2564 0.0300
0.3393 0.2501 0.0236
0.3703 0.2439 0.0172
0.3960 0.2381 0.0114
0.4168 0.2328 0.0060
0.4338 0.2280 0.0011
0.4471 0.2237 0.0000
0.4577 0.2199 0.0000
0.4673 0.2160 0.0000
0.4751 0.2123 0.0000
0.4816 0.2086 0.0000
0.4867 0.2052 0.0000
0.4903 0.2022 0.0000
0.4932 0.1990 0.0000
0.4953 0.1958 0.0000
0.4964 0.1929 0.0000
0.4968 0.1899 0.0000
0.4964 0.1869 0.0000
0.4952 0.1839 0.0000
0.4934 0.1811 0.0000
0.4909 0.1783 0.0000
0.4877 0.1755 0.0000
0.0223 0.2573 0.0000
0.0354 0.2605 0.0000
0.0484 0.2637 0.0000
0.0649 0.2675 0.0000
0.0849 0.2718 0.0000
0.1049 0.2759 0.0000
0.1283 0.2804 0.0044
0.1588 0.2856 0.0128
0.1928 0.2908 0.0227
0.2321 0.2958 0.0345
0.2746 0.3001 0.0480
0.3120 0.2959 0.0457
0.3488 0.2896 0.0397
0.3820 0.2833 0.0338
0.4098 0.2776 0.0282
0.4324 0.2723 0.0232
0.4511 0.2675 0.0186
0.4660 0.2632 0.0145
0.4779 0.2594 0.0109
0.4889 0.2555 0.0072
0.4980 0.2518 0.0036
0.5058 0.2481 0.0002
0.5121 0.2447 0.0000
0.5167 0.2417 0.0000
0.5208 0.2385 0.0000
0.5240 0.2353 0.0000
0.5262 0.2324 0.0000
0.5276 0.2294 0.0000
0.5283 0.2264 0.0000
0.5282 0.2234 0.0000
0.5273 0.2206 0.0000
0.5258 0.2178 0.0000
0.5236 0.2150 0.0000
0.0250 0.2832 0.0000
0.0380 0.2868 0.0000
0.0510 0.2902 0.0000
0.0675 0.2944 0.0000
0.0875 0.2993 0.0000
0.1075 0.3039 0.0000
0.1310 0.3090 0.0036
0.1614 0.3150 0.0126
0.1954 0.3210 0.0230
0.2348 0.3270 0.0355
0.2772 0.3324 0.0497
0.3180 0.3356 0.0624
0.3570 0.3294 0.0568
0.3924 0.3231 0.0512
0.4222 0.3173 0.0461
0.4467 0.3121 0.0414
0.4671 0.3073 0.0371
0.4835 0.3030 0.0333
0.4967 0.2992 0.0299
0.5092 0.2953 0.0264
0.5196 0.2916 0.0231
0.5287 0.2879 0.0198
0.5362 0.2845 0.0168
0.5419 0.2815 0.0141
0.5471 0.2783 0.0113
0.5515 0.2751 0.0084
0.5547 0.2722 0.0058
0.5572 0.2692 0.0031
0.5589 0.2662 0.0005
0.5599 0.2632 0.0000
0.5600 0.2604 0.0000
0.5595 0.2576 0.0000
0.5583 0.2548 0.0000
0.0281 0.3128 0.0000
0.0411 0.3167 0.0000
0.0541 0.3206 0.0000
0.0707 0.3253 0.0000
0.0906 0.3308 0.0000
0.1106 0.3360 0.0000
0.1341 0.3418 0.0027
0.1645 0.3487 0.0122
0.1986 0.3558 0.0234
0.2379 0.3630 0.0367
0.2804 0.3696 0.0518
0.3214 0.3749 0.0670
0.3648 0.3767 0.0783
0.4029 0.3704 0.0732
0.4351 0.3646 0.0684
0.4619 0.3594 0.0641
0.4843 0.3546 0.0602
0.5025 0.3503 0.0567
0.5173 0.3465 0.0536
0.5314 0.3426 0.0504
0.5434 0.3389 0.0473
0.5541 0.3352 0.0443
0.5630 0.3318 0.0415
0.5700 0.3288 0.0391
0.5766 0.3256 0.0365
0.5823 0.3224 0.0339
0.5867 0.3195 0.0315
0.5905 0.3165 0.0290
0.5935 0.3135 0.0266
0.5957 0.3105 0.0241
0.5970 0.3077 0.0219
0.5977 0.3049 0.0196
0.5977 0.3021 0.0173
0.0313 0.3412 0.0000
0.0443 0.3455 0.0000
0.0573 0.3498 0.0000
0.0738 0.3550 0.0000
0.0938 0.3611 0.0000
0.1138 0.3669 0.0000
0.1373 0.3734 0.0017
0.1677 0.3813 0.0119
0.2017 0.3894 0.0237
0.2410 0.3978 0.0379
0.2835 0.4057 0.0539
0.3245 0.4122 0.0699
0.3690 0.4180 0.0880
0.4113 0.4180 0.0964
0.4460 0.4122 0.0921
0.4750 0.4070 0.0882
0.4995 0.4021 0.0846
0.5195 0.3979 0.0815
0.5360 0.3941 0.0786
0.5517 0.3901 0.0757
0.5653 0.3864 0.0730
0.5775 0.3828 0.0702
0.5879 0.3793 0.0677
0.5962 0.3763 0.0655
0.6041 0.3732 0.0631
0.6112 0.3700 0.0607
0.6168 0.3671 0.0586
0.6219 0.3641 0.0563
0.6261 0.3611 0.0541
0.6296 0.3581 0.0519
0.6322 0.3553 0.0498
0.6341 0.3525 0.0477
0.6353 0.3497 0.0456
0.0344 0.3683 0.0000
0.0474 0.3730 0.0000
0.0604 0.3776 0.0000
0.0770 0.3834 0.0000
0.0969 0.3901 0.0000
0.1169 0.3965 0.0000
0.1404 0.4037 0.0007
0.1708 0.4125 0.0116
0.2049 0.4216 0.0241
0.2442 0.4312 0.0391
0.2867 0.4404 0.0560
0.3277 0.4482 0.0728
0.3722 0.4554 0.0918
0.4164 0.4612 0.1115
0.4549 0.4598 0.1171
0.4861 0.4546 0.1136
0.5126 0.4498 0.1104
0.5345 0.4455 0.1075
0.5525 0.4417 0.1050
0.5700 0.4378 0.1023
0.5851 0.4341 0.0998
0.5989 0.4304 0.0974
0.6108 0.4270 0.0951
0.6203 0.4240 0.0931
0.6296 0.4208 0.0910
0.6380 0.4176 0.0888
0.6449 0.4147 0.0869
0.6512 0.4117 0.0849
0.6568 0.4087 0.0829
0.6615 0.4057 0.0809
0.6653 0.4029 0.0790
0.6684 0.4001 0.0771
0.6708 0.3973 0.0752
0.0379 0.3962 0.0000
0.0509 0.4014 0.0000
0.0639 0.4064 0.0000
0.0804 0.4127 0.0000
0.1004 0.4201 0.0000
0.1204 0.4272 0.0000
0.1438 0.4352 0.0000
0.1743 0.4450 0.0112
0.2083 0.4552 0.0245
0.2476 0.4661 0.0404
0.2901 0.4768 0.0582
0.3311 0.4859 0.0760
0.3756 0.4945 0.0960
0.4199 0.5018 0.1166
0.4609 0.5075 0.1364
0.4958 0.5064 0.1426
0.5245 0.5016 0.1397
0.5484 0.4973 0.1372
0.5682 0.4935 0.1350
0.5875 0.4896 0.1327
0.6043 0.4859 0.1305
0.6198 0.4822 0.1284
0.6333 0.4788 0.1263
0.6442 0.4758 0.1246
0.6549 0.4726 0.1227
0.6649 0.4694 0.1208
0.6731 0.4665 0.1191
0.6808 0.4635 0.1174
0.6878 0.4605 0.1156
0.6939 0.4575 0.1138
0.6990 0.4547 0.1122
0.7033 0.4519 0.1105
0.7070 0.4491 0.1089
0.0411 0.4212 0.0000
0.0541 0.4268 0.0000
0.0671 0.4323 0.0000
0.0837 0.4391 0.0000
0.1036 0.4471 0.0000
0.1236 0.4548 0.0000
0.1471 0.4636 0.0000
0.1775 0.4743 0.0109
0.2116 0.4857 0.0249
0.2509 0.4978 0.0417
0.2934 0.5098 0.0604
0.3344 0.5202 0.0790
0.3789 0.5302 0.1000
0.4231 0.5389 0.1216
0.4641 0.5459 0.1422
0.5014 0.5512 0.1614
0.5336 0.5508 0.1690
0.5593 0.5465 0.1668
0.5808 0.5427 0.1649
0.6018 0.5388 0.1629
0.6203 0.5351 0.1610
0.6374 0.5314 0.1591
0.6524 0.5280 0.1574
0.6647 0.5250 0.1558
0.6767 0.5218 0.1542
0.6881 0.5186 0.1526
0.6976 0.5157 0.1511
0.7066 0.5127 0.1496
0.7149 0.5097 0.1480
0.7224 0.5068 0.1465
0.7287 0.5039 0.1451
0.7343 0.5011 0.1436
0.7392 0.4983 0.1422
0.0443 0.4445 0.0000
0.0573 0.4505 0.0000
0.0704 0.4564 0.0000
0.0869 0.4637 0.0000
0.1068 0.4723 0.0000
0.1269 0.4807 0.0000
0.1503 0.4901 0.0000
0.1807 0.5019 0.0106
0.2148 0.5142 0.0253
0.2541 0.5276 0.0429
0.2966 0.5409 0.0625
0.3376 0.5526 0.0820
0.3821 0.5640 0.1039
0.4263 0.5741 0.1264
0.4674 0.5823 0.1479
0.5046 0.5888 0.1679
0.5387 0.5939 0.1868
0.5679 0.5951 0.1973
0.5911 0.5913 0.1956
0.6138 0.5873 0.1939
0.6339 0.5836 0.1923
0.6526 0.5800 0.1907
0.6690 0.5766 0.1892
0.6826 0.5735 0.1879
0.6961 0.5704 0.1866
0.7088 0.5672 0.1852
0.7196 0.5643 0.1839
0.7299 0.5613 0.1826
0.7395 0.5583 0.1813
0.7482 0.5553 0.1800
0.7558 0.5525 0.1788
0.7626 0.5497 0.1775
0.7687 0.5469 0.1763
0.0473 0.4646 0.0000
0.0603 0.4710 0.0000
0.0733 0.4773 0.0000
0.0898 0.4850 0.0000
0.1098 0.4942 0.0000
0.1298 0.5031 0.0000
0.1533 0.5132 0.0000
0.1837 0.5258 0.0103
0.2177 0.5392 0.0257
0.2571 0.5537 0.0440
0.2995 0.5682 0.0644
0.3405 0.5810 0.0848
0.3850 0.5937 0.1075
0.4293 0.6051 0.1309
0.4703 0.6144 0.1532
0.5075 0.6220 0.1739
0.5417 0.6281 0.1934
0.5720 0.6328 0.2110
0.5986 0.6357 0.2249
0.6228 0.6318 0.2235
0.6444 0.6281 0.2221
0.6645 0.6244 0.2208
0.6824 0.6210 0.2195
0.6972 0.6180 0.2184
0.7119 0.6148 0.2173
0.7259 0.6116 0.2161
0.7378 0.6087 0.2151
0.7493 0.6057 0.2140
0.7601 0.6027 0.2129
0.7700 0.5997 0.2118
0.7787 0.5969 0.2107
0.7866 0.5941 0.2097
0.7939 0.5913 0.2087
0.0502 0.4835 0.0000
0.0632 0.4902 0.0000
0.0762 0.4968 0.0000
0.0927 0.5051 0.0000
0.1127 0.5148 0.0000
0.1327 0.5243 0.0000
0.1562 0.5351 0.0000
0.1866 0.5485 0.0099
0.2206 0.5628 0.0260
0.2600 0.5784 0.0451
0.3025 0.5941 0.0663
0.3435 0.6081 0.0875
0.3879 0.6221 0.1111
0.4322 0.6347 0.1353
0.4732 0.6452 0.1584
0.5104 0.6538 0.1798
0.5446 0.6609 0.2000
0.5749 0.6665 0.2182
0.6018 0.6710 0.2347
0.6298 0.6751 0.2520
0.6531 0.6722 0.2528
0.6747 0.6686 0.2518
0.6939 0.6651 0.2507
0.7098 0.6621 0.2498
0.7258 0.6590 0.2489
0.7411 0.6558 0.2480
0.7542 0.6529 0.2471
0.7668 0.6499 0.2462
0.7788 0.6469 0.2453
0.7899 0.6439 0.2444
0.7997 0.6411 0.2436
0.8087 0.6383 0.2428
0.8171 0.6355 0.2419
0.0531 0.5011 0.0000
0.0661 0.5082 0.0000
0.0791 0.5152 0.0000
0.0957 0.5239 0.0000
0.1156 0.5342 0.0000
0.1356 0.5442 0.0000
0.1591 0.5557 0.0000
0.1895 0.5700 0.0096
0.2236 0.5852 0.0264
0.2629 0.6019 0.0462
0.3054 0.6188 0.0683
0.3464 0.6340 0.0902
0.3909 0.6492 0.1146
0.4351 0.6631 0.1397
0.4761 0.6747 0.1636
0.5134 0.6844 0.1857
0.5475 0.6924 0.2065
0.5779 0.6989 0.2254
0.6047 0.7041 0.2423
0.6327 0.7091 0.2602
0.6589 0.7133 0.2773
0.6830 0.7126 0.2837
0.7035 0.7092 0.2829
0.7207 0.7062 0.2822
0.7379 0.7030 0.2815
0.7545 0.6998 0.2808
0.7687 0.6969 0.2801
0.7825 0.6939 0.2794
0.7957 0.6909 0.2787
0.8080 0.6879 0.2781
0.8188 0.6851 0.2774
0.8290 0.6823 0.2768
0.8385 0.6795 0.2761
0.0554 0.5142 0.0000
0.0684 0.5216 0.0000
0.0815 0.5289 0.0000
0.0980 0.5380 0.0000
0.1179 0.5487 0.0000
0.1380 0.5592 0.0000
0.1614 0.5712 0.0000
0.1918 0.5862 0.0094
0.2259 0.6022 0.0266
0.2652 0.6198 0.0471
0.3077 0.6376 0.0698
0.3487 0.6537 0.0923
0.3932 0.6699 0.1175
0.4374 0.6848 0.1432
0.4785 0.6974 0.1677
0.5157 0.7078 0.1904
0.5498 0.7166 0.2117
0.5802 0.7238 0.2310
0.6070 0.7296 0.2484
0.6350 0.7352 0.2667
0.6612 0.7400 0.2842
0.6872 0.7442 0.3017
0.7099 0.7441 0.3092
0.7280 0.7411 0.3087
0.7462 0.7380 0.3081
0.7638 0.7348 0.3076
0.7789 0.7319 0.3071
0.7937 0.7289 0.3066
0.8078 0.7259 0.3060
0.8210 0.7229 0.3055
0.8328 0.7201 0.3050
0.8438 0.7173 0.3045
0.8542 0.7144 0.3041
0.0581 0.5284 0.0000
0.0711 0.5361 0.0000
0.0841 0.5437 0.0000
0.1006 0.5532 0.0000
0.1206 0.5645 0.0000
0.1406 0.5755 0.0000
0.1641 0.5881 0.0000
0.1945 0.6038 0.0091
0.2285 0.6208 0.0270
0.2679 0.6393 0.0481
0.3103 0.6583 0.0715
0.3513 0.6754 0.0948
0.3958 0.6928 0.1207
0.4401 0.7087 0.1472
0.4811 0.7224 0.1724
0.5183 0.7338 0.1958
0.5525 0.7435 0.2177
0.5828 0.7514 0.2375
0.6097 0.7580 0.2554
0.6377 0.7642 0.2742
0.6639 0.7697 0.2921
0.6898 0.7746 0.3101
0.7142 0.7788 0.3272
0.7351 0.7812 0.3398
0.7544 0.7780 0.3394
0.7731 0.7748 0.3391
0.7893 0.7719 0.3388
0.8051 0.7689 0.3384
0.8203 0.7659 0.3381
0.8346 0.7629 0.3378
0.8473 0.7601 0.3375
0.8594 0.7573 0.3372
0.8708 0.7545 0.3369
0.0601 0.5385 0.0000
0.0731 0.5465 0.0000
0.0861 0.5544 0.0000
0.1026 0.5642 0.0000
0.1226 0.5759 0.0000
0.1426 0.5873 0.0000
0.1661 0.6003 0.0000
0.1965 0.6166 0.0089
0.2306 0.6342 0.0272
0.2699 0.6536 0.0489
0.3124 0.6733 0.0729
0.3534 0.6913 0.0967
0.3978 0.7095 0.1232
0.4421 0.7263 0.1503
0.4831 0.7408 0.1760
0.5203 0.7529 0.1999
0.5545 0.7632 0.2222
0.5848 0.7718 0.2425
0.6117 0.7788 0.2607
0.6397 0.7857 0.2799
0.6659 0.7916 0.2981
0.6918 0.7971 0.3165
0.7162 0.8018 0.3339
0.7375 0.8055 0.3493
0.7596 0.8085 0.3638
0.7792 0.8052 0.3636
0.7962 0.8023 0.3634
0.8128 0.7994 0.3633
0.8288 0.7964 0.3631
0.8439 0.7934 0.3629
0.8575 0.7906 0.3627
0.8703 0.7877 0.3625
0.8824 0.7849 0.3624
0.0621 0.5481 0.0000
0.0751 0.5564 0.0000
0.0881 0.5645 0.0000
0.1047 0.5746 0.0000
0.1246 0.5867 0.0000
0.1446 0.5984 0.0000
0.1681 0.6119 0.0000
0.1985 0.6289 0.0087
0.2326 0.6471 0.0274
0.2719 0.6672 0.0496
0.3144 0.6878 0.0742
0.3554 0.7066 0.0985
0.3999 0.7257 0.1256
0.4441 0.7434 0.1533
0.4851 0.7586 0.1796
0.5224 0.7715 0.2040
0.5565 0.7825 0.2268
0.5869 0.7916 0.2474
0.6137 0.7992 0.2660
0.6417 0.8066 0.2855
0.6679 0.8130 0.3042
0.6939 0.8190 0.3228
0.7182 0.8241 0.3406
0.7395 0.8283 0.3562
0.7620 0.8324 0.3730
0.7845 0.8357 0.3887
0.8022 0.8328 0.3886
0.8197 0.8298 0.3886
0.8365 0.8268 0.3885
0.8524 0.8238 0.3885
0.8667 0.8210 0.3885
0.8803 0.8182 0.3884
0.8932 0.8154 0.3884
0.0641 0.5572 0.0000
0.0772 0.5657 0.0000
0.0902 0.5740 0.0000
0.1067 0.5845 0.0000
0.1267 0.5969 0.0000
0.1467 0.6091 0.0000
0.1701 0.6231 0.0000
0.2005 0.6406 0.0085
0.2346 0.6595 0.0277
0.2739 0.6804 0.0504
0.3164 0.7018 0.0755
0.3574 0.7213 0.1004
0.4019 0.7413 0.1281
0.4461 0.7598 0.1564
0.4872 0.7759 0.1832
0.5244 0.7895 0.2081
0.5585 0.8011 0.2313
0.5889 0.8109 0.2524
0.6158 0.8190 0.2713
0.6437 0.8269 0.2912
0.6700 0.8339 0.3102
0.6959 0.8403 0.3292
0.7202 0.8460 0.3472
0.7415 0.8506 0.3632
0.7640 0.8551 0.3802
0.7867 0.8594 0.3977
0.8073 0.8629 0.4136
0.8257 0.8602 0.4144
0.8433 0.8572 0.4145
0.8601 0.8543 0.4146
0.8751 0.8514 0.4147
0.8895 0.8486 0.4148
0.9031 0.8458 0.4149
0.0659 0.5644 0.0000
0.0789 0.5731 0.0000
0.0919 0.5817 0.0000
0.1084 0.5925 0.0000
0.1284 0.6052 0.0000
0.1484 0.6177 0.0000
0.1718 0.6321 0.0000
0.2023 0.6501 0.0083
0.2363 0.6696 0.0279
0.2756 0.6911 0.0510
0.3181 0.7132 0.0766
0.3591 0.7335 0.1020
0.4036 0.7541 0.1302
0.4479 0.7734 0.1590
0.4889 0.7902 0.1862
0.5261 0.8044 0.2115
0.5602 0.8166 0.2352
0.5906 0.8268 0.2566
0.6175 0.8354 0.2758
0.6454 0.8438 0.2960
0.6717 0.8512 0.3153
0.6976 0.8580 0.3346
0.7219 0.8641 0.3529
0.7432 0.8691 0.3691
0.7657 0.8740 0.3864
0.7885 0.8786 0.4041
0.8090 0.8825 0.4203
0.8302 0.8862 0.4368
0.8485 0.8832 0.4370
0.8659 0.8802 0.4373
0.8816 0.8774 0.4375
0.8966 0.8745 0.4377
0.9109 0.8717 0.4379
0.0676 0.5714 0.0000
0.0806 0.5804 0.0000
0.0936 0.5892 0.0000
0.1101 0.6002 0.0000
0.1301 0.6133 0.0000
0.1501 0.6261 0.0000
0.1736 0.6409 0.0000
0.2040 0.6594 0.0081
0.2381 0.6795 0.0281
