70 CGC LUTs/Film Emulation/Fuji Eterna 3513.cube
#Created by: Denver Riddle
#Copyright: (C) Copyright Color Grading Central LLC
DOMAIN_MIN 0.0 0.0 0.0
DOMAIN_MAX 1.0 1.0 1.0
LUT_3D_SIZE 33
0.0039 0.0870 0.0975
0.0039 0.0873 0.0961
0.0039 0.0881 0.0924
0.0039 0.0892 0.0872
0.0039 0.0904 0.0812
0.0039 0.0919 0.0734
0.0104 0.0936 0.0641
0.0400 0.0956 0.0522
0.0670 0.0973 0.0413
0.0884 0.0982 0.0392
0.1029 0.0987 0.0392
0.1240 0.0995 0.0392
0.1439 0.1002 0.0392
0.1628 0.1009 0.0392
0.1805 0.1015 0.0392
0.1989 0.1021 0.0392
0.2166 0.1028 0.0392
0.2312 0.1032 0.0392
0.2472 0.1038 0.0392
0.2583 0.1042 0.0392
0.2666 0.1044 0.0392
0.2770 0.1048 0.0392
0.2833 0.1051 0.0392
0.2858 0.1051 0.0392
0.2872 0.1052 0.0392
0.2867 0.1052 0.0392
0.2855 0.1051 0.0392
0.2826 0.1051 0.0392
0.2748 0.1048 0.0392
0.2648 0.1044 0.0392
0.2551 0.1041 0.0392
0.2431 0.1037 0.0392
0.2289 0.1032 0.0392
0.0039 0.0870 0.0975
0.0039 0.0877 0.0941
0.0039 0.0885 0.0906
0.0039 0.0893 0.0864
0.0039 0.0905 0.0803
0.0039 0.0925 0.0701
0.0234 0.0945 0.0589
0.0548 0.0966 0.0462
0.0807 0.0979 0.0394
0.0970 0.0985 0.0392
0.1202 0.0993 0.0392
0.1418 0.1001 0.0392
0.1631 0.1009 0.0392
0.1831 0.1016 0.0392
0.2059 0.1024 0.0392
0.2273 0.1031 0.0392
0.2472 0.1038 0.0392
0.2636 0.1044 0.0392
0.2807 0.1049 0.0392
0.2935 0.1054 0.0392
0.3076 0.1059 0.0392
0.3162 0.1062 0.0392
0.3249 0.1065 0.0392
0.3317 0.1072 0.0392
0.3359 0.1091 0.0392
0.3368 0.1107 0.0392
0.3359 0.1106 0.0392
0.3322 0.1105 0.0392
0.3252 0.1103 0.0392
0.3162 0.1100 0.0392
0.3084 0.1097 0.0392
0.2943 0.1092 0.0392
0.2814 0.1087 0.0392
0.0039 0.0870 0.0975
0.0039 0.0877 0.0941
0.0039 0.0885 0.0906
0.0039 0.0899 0.0838
0.0039 0.0912 0.0769
0.0041 0.0932 0.0667
0.0358 0.0953 0.0539
0.0688 0.0975 0.0406
0.0906 0.0983 0.0392
0.1133 0.0991 0.0392
0.1332 0.0998 0.0392
0.1603 0.1008 0.0392
0.1823 0.1015 0.0392
0.2071 0.1024 0.0392
0.2310 0.1042 0.0392
0.2544 0.1068 0.0392
0.2760 0.1086 0.0392
0.2960 0.1092 0.0392
0.3147 0.1099 0.0392
0.3327 0.1105 0.0392
0.3451 0.1110 0.0392
0.3582 0.1114 0.0392
0.3694 0.1117 0.0392
0.3749 0.1119 0.0392
0.3796 0.1120 0.0392
0.3830 0.1122 0.0392
0.3835 0.1122 0.0392
0.3813 0.1121 0.0392
0.3765 0.1120 0.0392
0.3723 0.1119 0.0392
0.3629 0.1115 0.0392
0.3500 0.1119 0.0392
0.3388 0.1133 0.0392
0.0039 0.0901 0.1009
0.0039 0.0908 0.0975
0.0039 0.0905 0.0900
0.0039 0.0899 0.0838
0.0039 0.0919 0.0734
0.0108 0.0950 0.0646
0.0436 0.0989 0.0521
0.0801 0.1017 0.0396
0.0991 0.1023 0.0392
0.1251 0.1032 0.0392
0.1501 0.1041 0.0392
0.1779 0.1051 0.0392
0.2049 0.1061 0.0392
0.2309 0.1070 0.0392
0.2585 0.1079 0.0392
0.2836 0.1088 0.0392
0.3091 0.1097 0.0392
0.3310 0.1105 0.0392
0.3502 0.1111 0.0392
0.3709 0.1118 0.0392
0.3850 0.1122 0.0392
0.4008 0.1128 0.0392
0.4125 0.1145 0.0392
0.4195 0.1164 0.0392
0.4276 0.1174 0.0392
0.4324 0.1176 0.0392
0.4346 0.1176 0.0392
0.4341 0.1176 0.0392
0.4310 0.1175 0.0392
0.4254 0.1173 0.0392
0.4168 0.1170 0.0392
0.4098 0.1168 0.0392
0.3954 0.1165 0.0392
0.0039 0.0901 0.1007
0.0039 0.0910 0.0966
0.0039 0.0923 0.0906
0.0039 0.0937 0.0837
0.0039 0.0956 0.0741
0.0229 0.0981 0.0607
0.0582 0.1004 0.0465
0.0899 0.1020 0.0393
0.1139 0.1029 0.0392
0.1387 0.1037 0.0392
0.1666 0.1048 0.0392
0.1958 0.1058 0.0392
0.2270 0.1069 0.0392
0.2563 0.1097 0.0392
0.2845 0.1124 0.0392
0.3135 0.1136 0.0392
0.3415 0.1145 0.0392
0.3648 0.1153 0.0392
0.3862 0.1161 0.0392
0.4093 0.1168 0.0392
0.4249 0.1173 0.0392
0.4431 0.1179 0.0392
0.4577 0.1184 0.0392
0.4655 0.1192 0.0392
0.4754 0.1213 0.0392
0.4818 0.1230 0.0392
0.4861 0.1231 0.0392
0.4874 0.1231 0.0392
0.4857 0.1231 0.0392
0.4818 0.1230 0.0392
0.4747 0.1227 0.0392
0.4650 0.1224 0.0392
0.4575 0.1222 0.0392
0.0039 0.0939 0.1009
0.0039 0.0947 0.0974
0.0039 0.0956 0.0933
0.0039 0.0972 0.0858
0.0039 0.0993 0.0749
0.0268 0.1019 0.0608
0.0675 0.1046 0.0444
0.0953 0.1059 0.0393
0.1241 0.1070 0.0392
0.1531 0.1080 0.0392
0.1825 0.1091 0.0392
0.2167 0.1103 0.0392
0.2499 0.1115 0.0392
0.2821 0.1125 0.0392
0.3130 0.1147 0.0392
0.3432 0.1174 0.0392
0.3719 0.1193 0.0392
0.3986 0.1203 0.0392
0.4217 0.1210 0.0392
0.4465 0.1218 0.0392
0.4645 0.1224 0.0392
0.4845 0.1231 0.0392
0.5051 0.1236 0.0392
0.5195 0.1241 0.0392
0.5263 0.1243 0.0392
0.5350 0.1262 0.0392
0.5409 0.1282 0.0392
0.5438 0.1286 0.0392
0.5443 0.1286 0.0392
0.5423 0.1286 0.0392
0.5370 0.1284 0.0392
0.5282 0.1290 0.0392
0.5210 0.1305 0.0392
0.0039 0.0971 0.1043
0.0039 0.0978 0.1009
0.0039 0.0993 0.0941
0.0039 0.1009 0.0866
0.0039 0.1031 0.0758
0.0327 0.1060 0.0600
0.0811 0.1087 0.0404
0.1062 0.1102 0.0392
0.1340 0.1111 0.0392
0.1667 0.1123 0.0392
0.2021 0.1136 0.0392
0.2354 0.1147 0.0392
0.2700 0.1159 0.0392
0.3069 0.1172 0.0392
0.3417 0.1184 0.0392
0.3726 0.1197 0.0392
0.4042 0.1225 0.0392
0.4317 0.1251 0.0392
0.4594 0.1260 0.0392
0.4835 0.1268 0.0392
0.5117 0.1276 0.0392
0.5292 0.1282 0.0392
0.5482 0.1301 0.0392
0.5642 0.1324 0.0392
0.5730 0.1333 0.0392
0.5827 0.1336 0.0392
0.5905 0.1338 0.0392
0.5963 0.1340 0.0392
0.5983 0.1348 0.0392
0.5968 0.1365 0.0392
0.5934 0.1376 0.0392
0.5876 0.1375 0.0392
0.5788 0.1372 0.0392
0.0039 0.1031 0.1112
0.0039 0.1044 0.1058
0.0039 0.1055 0.1009
0.0039 0.1078 0.0906
0.0039 0.1086 0.0785
0.0392 0.1100 0.0590
0.0887 0.1132 0.0399
0.1171 0.1131 0.0392
0.1473 0.1153 0.0392
0.1811 0.1165 0.0392
0.2180 0.1178 0.0392
0.2559 0.1192 0.0392
0.2926 0.1205 0.0392
0.3317 0.1236 0.0392
0.3680 0.1266 0.0392
0.4027 0.1279 0.0392
0.4346 0.1290 0.0392
0.4643 0.1299 0.0392
0.4975 0.1310 0.0392
0.5239 0.1329 0.0392
0.5501 0.1355 0.0392
0.5706 0.1370 0.0392
0.5900 0.1375 0.0392
0.6080 0.1381 0.0392
0.6182 0.1384 0.0392
0.6313 0.1393 0.0392
0.6411 0.1414 0.0392
0.6479 0.1432 0.0392
0.6513 0.1432 0.0392
0.6518 0.1433 0.0392
0.6503 0.1449 0.0392
0.6474 0.1467 0.0392
0.6391 0.1466 0.0392
0.0039 0.1079 0.1160
0.0039 0.1100 0.1101
0.0039 0.1115 0.1031
0.0039 0.1129 0.0932
0.0039 0.1145 0.0774
0.0369 0.1170 0.0632
0.0885 0.1205 0.0425
0.1240 0.1207 0.0392
0.1609 0.1195 0.0392
0.1963 0.1208 0.0392
0.2349 0.1238 0.0392
0.2755 0.1270 0.0392
0.3145 0.1287 0.0392
0.3548 0.1301 0.0392
0.3935 0.1313 0.0392
0.4297 0.1325 0.0392
0.4643 0.1346 0.0392
0.5039 0.1375 0.0392
0.5326 0.1395 0.0392
0.5633 0.1405 0.0392
0.5871 0.1417 0.0392
0.6104 0.1441 0.0392
0.6313 0.1464 0.0392
0.6508 0.1470 0.0392
0.6644 0.1474 0.0392
0.6756 0.1495 0.0392
0.6863 0.1516 0.0392
0.6956 0.1521 0.0392
0.7014 0.1523 0.0392
0.7033 0.1537 0.0392
0.7043 0.1555 0.0392
0.7019 0.1562 0.0392
0.6960 0.1560 0.0392
0.0039 0.1161 0.1214
0.0039 0.1170 0.1177
0.0039 0.1188 0.1102
0.0039 0.1214 0.0993
0.0039 0.1245 0.0851
0.0386 0.1277 0.0673
0.0931 0.1292 0.0445
0.1309 0.1298 0.0394
0.1693 0.1292 0.0392
0.2112 0.1289 0.0392
0.2522 0.1304 0.0392
0.2945 0.1327 0.0392
0.3393 0.1359 0.0392
0.3779 0.1383 0.0392
0.4183 0.1397 0.0392
0.4587 0.1415 0.0392
0.5000 0.1445 0.0392
0.5346 0.1471 0.0392
0.5681 0.1482 0.0392
0.5983 0.1491 0.0392
0.6231 0.1516 0.0392
0.6503 0.1542 0.0392
0.6717 0.1552 0.0392
0.6902 0.1558 0.0392
0.7067 0.1576 0.0392
0.7208 0.1598 0.0392
0.7311 0.1609 0.0392
0.7403 0.1611 0.0392
0.7447 0.1620 0.0392
0.7481 0.1639 0.0392
0.7508 0.1651 0.0392
0.7508 0.1651 0.0392
0.7466 0.1655 0.0392
0.0039 0.1220 0.1283
0.0039 0.1242 0.1219
0.0039 0.1269 0.1160
0.0039 0.1299 0.1055
0.0039 0.1334 0.0890
0.0430 0.1364 0.0694
0.1025 0.1396 0.0453
0.1418 0.1414 0.0397
0.1785 0.1402 0.0392
0.2216 0.1404 0.0392
0.2682 0.1388 0.0392
0.3132 0.1421 0.0392
0.3595 0.1452 0.0392
0.4042 0.1467 0.0392
0.4468 0.1481 0.0392
0.4871 0.1511 0.0392
0.5282 0.1542 0.0392
0.5672 0.1557 0.0392
0.6017 0.1569 0.0392
0.6328 0.1590 0.0392
0.6596 0.1616 0.0392
0.6853 0.1632 0.0392
0.7077 0.1639 0.0392
0.7291 0.1654 0.0392
0.7442 0.1676 0.0392
0.7588 0.1698 0.0392
0.7729 0.1719 0.0392
0.7816 0.1736 0.0392
0.7914 0.1739 0.0392
0.7948 0.1741 0.0392
0.7962 0.1759 0.0392
0.7967 0.1778 0.0392
0.7957 0.1795 0.0392
0.0039 0.1311 0.1369
0.0039 0.1326 0.1317
0.0039 0.1357 0.1218
0.0039 0.1391 0.1125
0.0039 0.1436 0.0953
0.0439 0.1477 0.0742
0.1052 0.1512 0.0494
0.1486 0.1528 0.0402
0.1893 0.1543 0.0392
0.2313 0.1528 0.0392
0.2811 0.1507 0.0392
0.3344 0.1516 0.0392
0.3787 0.1534 0.0392
0.4254 0.1550 0.0392
0.4701 0.1578 0.0392
0.5180 0.1610 0.0392
0.5603 0.1640 0.0392
0.5968 0.1669 0.0392
0.6323 0.1690 0.0392
0.6654 0.1700 0.0392
0.6956 0.1716 0.0392
0.7218 0.1741 0.0392
0.7422 0.1766 0.0392
0.7636 0.1789 0.0392
0.7816 0.1812 0.0392
0.7962 0.1834 0.0392
0.8094 0.1856 0.0392
0.8201 0.1861 0.0392
0.8269 0.1863 0.0392
0.8322 0.1880 0.0392
0.8347 0.1898 0.0392
0.8361 0.1916 0.0392
0.8356 0.1933 0.0392
0.0039 0.1403 0.1453
0.0039 0.1423 0.1385
0.0039 0.1465 0.1318
0.0039 0.1516 0.1191
0.0039 0.1562 0.1056
0.0327 0.1611 0.0853
0.1012 0.1661 0.0579
0.1598 0.1685 0.0408
0.1992 0.1680 0.0395
0.2455 0.1676 0.0392
0.2918 0.1693 0.0392
0.3444 0.1672 0.0392
0.4015 0.1645 0.0392
0.4497 0.1679 0.0392
0.4980 0.1711 0.0392
0.5443 0.1744 0.0392
0.5851 0.1774 0.0392
0.6247 0.1801 0.0392
0.6620 0.1813 0.0392
0.6970 0.1824 0.0392
0.7257 0.1851 0.0392
0.7524 0.1877 0.0392
0.7773 0.1903 0.0392
0.7953 0.1926 0.0392
0.8133 0.1949 0.0392
0.8288 0.1970 0.0392
0.8415 0.1992 0.0392
0.8517 0.2011 0.0392
0.8575 0.2032 0.0392
0.8682 0.2039 0.0392
0.8716 0.2039 0.0392
0.8746 0.2039 0.0392
0.8752 0.2039 0.0392
0.0039 0.1491 0.1561
0.0039 0.1543 0.1522
0.0039 0.1598 0.1441
0.0039 0.1638 0.1298
0.0039 0.1687 0.1124
0.0303 0.1744 0.0925
0.0982 0.1803 0.0657
0.1677 0.1843 0.0416
0.2088 0.1850 0.0403
0.2551 0.1867 0.0392
0.3055 0.1875 0.0392
0.3577 0.1860 0.0392
0.4105 0.1837 0.0392
0.4691 0.1811 0.0392
0.5210 0.1843 0.0392
0.5672 0.1877 0.0392
0.6104 0.1908 0.0392
0.6523 0.1939 0.0392
0.6912 0.1967 0.0392
0.7238 0.1997 0.0392
0.7524 0.2021 0.0392
0.7836 0.2038 0.0392
0.8055 0.2039 0.0392
0.8259 0.2039 0.0392
0.8439 0.2044 0.0392
0.8561 0.2066 0.0392
0.8711 0.2086 0.0392
0.8809 0.2108 0.0392
0.8891 0.2129 0.0392
0.8994 0.2148 0.0392
0.9042 0.2169 0.0392
0.9076 0.2187 0.0392
0.9091 0.2207 0.0392
0.0039 0.1582 0.1625
0.0039 0.1635 0.1596
0.0039 0.1696 0.1523
0.0039 0.1768 0.1384
0.0039 0.1837 0.1220
0.0296 0.1910 0.1006
0.0975 0.1988 0.0746
0.1745 0.2039 0.0448
0.2190 0.2039 0.0414
0.2646 0.2039 0.0400
0.3154 0.2039 0.0392
0.3680 0.2039 0.0392
0.4244 0.2028 0.0392
0.4823 0.2005 0.0392
0.5457 0.1977 0.0392
0.5934 0.2010 0.0392
0.6391 0.2039 0.0392
0.6780 0.2039 0.0392
0.7184 0.2063 0.0392
0.7497 0.2092 0.0392
0.7836 0.2119 0.0392
0.8074 0.2145 0.0392
0.8298 0.2168 0.0392
0.8497 0.2193 0.0392
0.8692 0.2216 0.0392
0.8823 0.2258 0.0392
0.8984 0.2296 0.0392
0.9081 0.2319 0.0392
0.9169 0.2337 0.0392
0.9241 0.2359 0.0392
0.9300 0.2377 0.0392
0.9339 0.2398 0.0392
0.9363 0.2415 0.0392
0.0039 0.1683 0.1751
0.0039 0.1780 0.1729
0.0039 0.1845 0.1665
0.0039 0.1927 0.1526
0.0039 0.2012 0.1345
0.0229 0.2055 0.1124
0.0890 0.2134 0.0869
0.1721 0.2209 0.0550
0.2287 0.2242 0.0428
0.2777 0.2253 0.0414
0.3291 0.2259 0.0400
0.3806 0.2255 0.0392
0.4372 0.2247 0.0392
0.4970 0.2234 0.0392
0.5574 0.2210 0.0392
0.6143 0.2146 0.0392
0.6610 0.2200 0.0392
0.7024 0.2242 0.0392
0.7408 0.2272 0.0392
0.7768 0.2300 0.0392
0.8040 0.2327 0.0392
0.8303 0.2353 0.0392
0.8531 0.2378 0.0392
0.8731 0.2400 0.0392
0.8935 0.2424 0.0392
0.9071 0.2448 0.0392
0.9203 0.2468 0.0392
0.9310 0.2491 0.0392
0.9407 0.2519 0.0392
0.9485 0.2560 0.0392
0.9519 0.2586 0.0392
0.9553 0.2606 0.0392
0.9582 0.2623 0.0392
0.0039 0.1815 0.1874
0.0039 0.1885 0.1839
0.0039 0.1974 0.1746
0.0039 0.2039 0.1666
0.0039 0.2129 0.1496
0.0136 0.2231 0.1250
0.0878 0.2330 0.0968
0.1673 0.2413 0.0665
0.2427 0.2476 0.0442
0.2879 0.2492 0.0431
0.3388 0.2497 0.0416
0.3940 0.2503 0.0401
0.4485 0.2501 0.0392
0.5088 0.2491 0.0392
0.5662 0.2475 0.0392
0.6264 0.2427 0.0392
0.6839 0.2382 0.0392
0.7257 0.2413 0.0392
0.7646 0.2444 0.0392
0.7972 0.2484 0.0392
0.8244 0.2531 0.0392
0.8522 0.2561 0.0392
0.8731 0.2586 0.0392
0.8960 0.2609 0.0392
0.9125 0.2632 0.0392
0.9276 0.2653 0.0392
0.9407 0.2677 0.0392
0.9494 0.2701 0.0392
0.9582 0.2741 0.0392
0.9669 0.2773 0.0392
0.9752 0.2795 0.0392
0.9767 0.2810 0.0392
0.9811 0.2832 0.0392
0.0039 0.1922 0.2013
0.0039 0.2014 0.1971
0.0039 0.2065 0.1880
0.0039 0.2187 0.1780
0.0039 0.2289 0.1612
0.0039 0.2409 0.1380
0.0754 0.2540 0.1122
0.1591 0.2640 0.0808
0.2526 0.2726 0.0460
0.3013 0.2756 0.0449
0.3519 0.2773 0.0437
0.4027 0.2778 0.0423
0.4594 0.2783 0.0408
0.5200 0.2778 0.0393
0.5783 0.2743 0.0392
0.6348 0.2717 0.0392
0.6907 0.2692 0.0392
0.7427 0.2621 0.0392
0.7816 0.2659 0.0392
0.8152 0.2707 0.0392
0.8429 0.2741 0.0392
0.8692 0.2769 0.0392
0.8940 0.2791 0.0392
0.9135 0.2815 0.0392
0.9300 0.2844 0.0392
0.9456 0.2880 0.0392
0.9553 0.2919 0.0392
0.9689 0.2939 0.0392
0.9757 0.2961 0.0392
0.9850 0.2995 0.0392
0.9884 0.3034 0.0392
1.0000 0.3056 0.0392
1.0000 0.3075 0.0392
0.0039 0.2025 0.2100
0.0039 0.2096 0.2095
0.0039 0.2216 0.1997
0.0039 0.2334 0.1884
0.0039 0.2476 0.1736
0.0039 0.2610 0.1507
0.0694 0.2747 0.1249
0.1524 0.2859 0.0941
0.2421 0.2975 0.0620
0.3114 0.3043 0.0472
0.3624 0.3068 0.0461
0.4161 0.3087 0.0448
0.4720 0.3094 0.0434
0.5331 0.3082 0.0418
0.5885 0.3063 0.0402
0.6455 0.3051 0.0392
0.7024 0.2997 0.0392
0.7549 0.2968 0.0392
0.8026 0.2895 0.0392
0.8327 0.2927 0.0392
0.8614 0.2968 0.0392
0.8886 0.3012 0.0392
0.9096 0.3036 0.0392
0.9290 0.3060 0.0392
0.9422 0.3094 0.0392
0.9592 0.3141 0.0392
0.9699 0.3163 0.0392
0.9830 0.3187 0.0392
0.9913 0.3214 0.0392
1.0000 0.3253 0.0392
1.0000 0.3284 0.0392
1.0000 0.3301 0.0392
1.0000 0.3328 0.0392
0.0039 0.2099 0.2205
0.0039 0.2215 0.2207
0.0039 0.2353 0.2134
0.0039 0.2501 0.2015
0.0039 0.2653 0.1855
0.0039 0.2791 0.1639
0.0632 0.2946 0.1375
0.1456 0.3080 0.1077
0.2411 0.3223 0.0740
0.3254 0.3299 0.0492
0.3749 0.3330 0.0482
0.4292 0.3357 0.0471
0.4854 0.3372 0.0459
0.5457 0.3384 0.0446
0.5988 0.3386 0.0433
0.6528 0.3369 0.0418
0.7087 0.3330 0.0400
0.7612 0.3308 0.0392
0.8060 0.3243 0.0392
0.8492 0.3182 0.0392
0.8789 0.3228 0.0392
0.9023 0.3255 0.0392
0.9241 0.3279 0.0392
0.9402 0.3316 0.0392
0.9597 0.3355 0.0392
0.9718 0.3386 0.0392
0.9835 0.3406 0.0392
0.9960 0.3435 0.0392
1.0000 0.3469 0.0392
1.0000 0.3505 0.0392
1.0000 0.3522 0.0392
1.0000 0.3544 0.0392
1.0000 0.3581 0.0392
0.0039 0.2224 0.2363
0.0039 0.2359 0.2328
0.0039 0.2496 0.2278
0.0039 0.2646 0.2169
0.0039 0.2810 0.1979
0.0039 0.2973 0.1736
0.0563 0.3150 0.1506
0.1440 0.3316 0.1199
0.2331 0.3450 0.0885
0.3312 0.3578 0.0546
0.3886 0.3622 0.0508
0.4414 0.3654 0.0499
0.4975 0.3678 0.0488
0.5535 0.3693 0.0477
0.6109 0.3705 0.0465
0.6659 0.3705 0.0452
0.7155 0.3685 0.0438
0.7651 0.3644 0.0422
0.8113 0.3615 0.0408
0.8517 0.3537 0.0392
0.8911 0.3474 0.0392
0.9154 0.3498 0.0392
0.9334 0.3527 0.0392
0.9553 0.3569 0.0392
0.9704 0.3612 0.0392
0.9840 0.3649 0.0392
1.0000 0.3688 0.0392
1.0000 0.3707 0.0392
1.0000 0.3727 0.0392
1.0000 0.3768 0.0392
1.0000 0.3802 0.0392
1.0000 0.3826 0.0392
1.0000 0.3844 0.0392
0.0039 0.2321 0.2465
0.0039 0.2466 0.2442
0.0039 0.2620 0.2379
0.0039 0.2778 0.2271
0.0039 0.2978 0.2115
0.0039 0.3163 0.1892
0.0519 0.3333 0.1619
0.1364 0.3525 0.1336
0.2321 0.3685 0.1004
0.3305 0.3822 0.0664
0.3984 0.3912 0.0537
0.4523 0.3967 0.0530
0.5107 0.4006 0.0521
0.5662 0.4033 0.0512
0.6197 0.4048 0.0502
0.6737 0.4048 0.0490
0.7223 0.4026 0.0476
0.7729 0.3994 0.0462
0.8157 0.3958 0.0448
0.8536 0.3919 0.0435
0.8925 0.3841 0.0417
0.9276 0.3780 0.0402
0.9470 0.3805 0.0401
0.9650 0.3826 0.0400
0.9811 0.3868 0.0401
0.9918 0.3904 0.0403
1.0000 0.3946 0.0406
1.0000 0.3980 0.0409
1.0000 0.4009 0.0410
1.0000 0.4026 0.0411
1.0000 0.4057 0.0414
1.0000 0.4091 0.0418
1.0000 0.4128 0.0422
0.0039 0.2427 0.2573
0.0039 0.2597 0.2540
0.0039 0.2761 0.2490
0.0039 0.2936 0.2379
0.0039 0.3128 0.2199
0.0039 0.3340 0.1996
0.0458 0.3532 0.1748
0.1294 0.3727 0.1469
0.2251 0.3904 0.1142
0.3227 0.4075 0.0821
0.4120 0.4189 0.0564
0.4657 0.4235 0.0557
0.5244 0.4291 0.0552
0.5779 0.4327 0.0544
0.6313 0.4357 0.0536
0.6853 0.4365 0.0526
0.7350 0.4362 0.0515
0.7807 0.4340 0.0503
0.8191 0.4323 0.0493
0.8604 0.4291 0.0480
0.8950 0.4223 0.0464
0.9241 0.4164 0.0451
0.9553 0.4075 0.0433
0.9738 0.4118 0.0434
0.9869 0.4155 0.0436
1.0000 0.4186 0.0438
1.0000 0.4208 0.0438
1.0000 0.4237 0.0441
1.0000 0.4276 0.0444
1.0000 0.4310 0.0448
1.0000 0.4349 0.0452
1.0000 0.4383 0.0456
1.0000 0.4403 0.0457
0.0039 0.2531 0.2673
0.0039 0.2704 0.2657
0.0039 0.2888 0.2582
0.0039 0.3085 0.2467
0.0039 0.3287 0.2308
0.0039 0.3503 0.2097
0.0423 0.3722 0.1860
0.1344 0.3926 0.1546
0.2251 0.4133 0.1256
0.3205 0.4296 0.0939
0.4246 0.4449 0.0597
0.4793 0.4529 0.0589
0.5375 0.4561 0.0586
0.5881 0.4612 0.0582
0.6396 0.4648 0.0576
0.6926 0.4673 0.0568
0.7418 0.4682 0.0560
0.7850 0.4673 0.0550
0.8254 0.4648 0.0539
0.8629 0.4609 0.0526
0.8969 0.4553 0.0512
0.9266 0.4546 0.0500
0.9563 0.4476 0.0485
0.9825 0.4388 0.0468
1.0000 0.4415 0.0469
1.0000 0.4454 0.0472
1.0000 0.4490 0.0475
1.0000 0.4529 0.0479
1.0000 0.4548 0.0482
1.0000 0.4548 0.0484
1.0000 0.4566 0.0485
1.0000 0.4600 0.0490
1.0000 0.4634 0.0494
0.0039 0.2632 0.2750
0.0039 0.2807 0.2752
0.0039 0.3002 0.2699
0.0039 0.3219 0.2570
0.0039 0.3442 0.2385
0.0039 0.3661 0.2190
0.0450 0.3912 0.1946
0.1285 0.4113 0.1670
0.2196 0.4337 0.1384
0.3196 0.4539 0.1063
0.4207 0.4660 0.0736
0.4910 0.4775 0.0621
0.5462 0.4836 0.0619
0.6012 0.4882 0.0614
0.6537 0.4933 0.0610
0.7009 0.4967 0.0606
0.7481 0.4989 0.0600
0.7919 0.4995 0.0592
0.8298 0.4982 0.0584
0.8663 0.4960 0.0574
0.8994 0.4942 0.0565
0.9290 0.4892 0.0553
0.9538 0.4821 0.0538
0.9786 0.4767 0.0526
1.0000 0.4665 0.0508
1.0000 0.4702 0.0510
1.0000 0.4741 0.0515
1.0000 0.4785 0.0519
1.0000 0.4804 0.0521
1.0000 0.4826 0.0523
1.0000 0.4853 0.0526
1.0000 0.4892 0.0531
1.0000 0.4926 0.0535
0.0039 0.2716 0.2838
0.0039 0.2907 0.2832
0.0039 0.3110 0.2781
0.0039 0.3342 0.2660
0.0039 0.3576 0.2486
0.0039 0.3819 0.2279
0.0422 0.4075 0.2046
0.1315 0.4310 0.1759
0.2209 0.4546 0.1484
0.3162 0.4695 0.1176
0.4149 0.4892 0.0874
0.5063 0.5020 0.0650
0.5599 0.5103 0.0650
0.6119 0.5181 0.0651
0.6630 0.5239 0.0650
0.7092 0.5268 0.0646
0.7573 0.5298 0.0641
0.7977 0.5312 0.0636
0.8337 0.5317 0.0630
0.8692 0.5317 0.0624
0.9023 0.5293 0.0615
0.9310 0.5254 0.0604
0.9563 0.5191 0.0591
0.9781 0.5154 0.0581
1.0000 0.5064 0.0565
1.0000 0.4982 0.0551
1.0000 0.5008 0.0552
1.0000 0.5033 0.0554
1.0000 0.5074 0.0559
1.0000 0.5108 0.0563
1.0000 0.5147 0.0568
1.0000 0.5176 0.0572
1.0000 0.5198 0.0574
0.0039 0.2807 0.2861
0.0039 0.3007 0.2861
0.0039 0.3226 0.2840
0.0039 0.3464 0.2717
0.0039 0.3715 0.2543
0.0039 0.3987 0.2376
0.0405 0.4235 0.2137
0.1298 0.4483 0.1854
0.2209 0.4699 0.1584
0.3174 0.4906 0.1279
0.4166 0.5110 0.0978
0.5205 0.5268 0.0680
0.5725 0.5346 0.0681
0.6231 0.5429 0.0683
0.6751 0.5502 0.0685
0.7228 0.5560 0.0685
0.7661 0.5589 0.0682
0.8026 0.5609 0.0679
0.8419 0.5623 0.0674
0.8736 0.5628 0.0670
0.9013 0.5623 0.0665
0.9300 0.5594 0.0656
0.9543 0.5546 0.0645
0.9772 0.5487 0.0632
1.0000 0.5448 0.0623
1.0000 0.5370 0.0608
1.0000 0.5288 0.0593
1.0000 0.5322 0.0597
1.0000 0.5361 0.0602
1.0000 0.5380 0.0603
1.0000 0.5400 0.0606
1.0000 0.5434 0.0610
1.0000 0.5468 0.0615
0.0039 0.2893 0.2932
0.0039 0.3110 0.2905
0.0039 0.3342 0.2861
0.0039 0.3586 0.2774
0.0039 0.3865 0.2643
0.0039 0.4130 0.2437
0.0492 0.4403 0.2186
0.1369 0.4617 0.1914
0.2229 0.4874 0.1666
