70 CGC LUTs/Film Emulation/Fuji Sensia 100.cube
#Created by: Denver Riddle
#Copyright: (C) Copyright Color Grading Central LLC
DOMAIN_MIN 0.0 0.0 0.0
DOMAIN_MAX 1.0 1.0 1.0
LUT_3D_SIZE 9
0.0000 0.0000 0.0000
0.0559 0.0000 0.0000
0.1364 0.0000 0.0000
0.2214 0.0000 0.0000
0.2570 0.0000 0.0000
0.2565 0.0000 0.0000
0.2393 0.0000 0.0000
0.2102 0.0000 0.0000
0.1712 0.0000 0.0000
0.0081 0.1010 0.0000
0.0706 0.1070 0.0013
0.1688 0.0982 0.0000
0.2796 0.0746 0.0000
0.3394 0.0525 0.0000
0.3560 0.0368 0.0000
0.3533 0.0235 0.0000
0.3375 0.0114 0.0000
0.3109 0.0000 0.0000
0.0171 0.2030 0.0000
0.0796 0.2143 0.0000
0.1875 0.2279 0.0220
0.3283 0.2105 0.0083
0.4149 0.1884 0.0000
0.4507 0.1726 0.0000
0.4641 0.1594 0.0000
0.4630 0.1473 0.0000
0.4503 0.1359 0.0000
0.0281 0.3128 0.0000
0.0906 0.3308 0.0000
0.1986 0.3558 0.0234
0.3648 0.3767 0.0783
0.4843 0.3546 0.0602
0.5434 0.3389 0.0473
0.5766 0.3256 0.0365
0.5935 0.3135 0.0266
0.5977 0.3021 0.0173
0.0411 0.4212 0.0000
0.1036 0.4471 0.0000
0.2116 0.4857 0.0249
0.3789 0.5302 0.1000
0.5336 0.5508 0.1690
0.6203 0.5351 0.1610
0.6767 0.5218 0.1542
0.7149 0.5097 0.1480
0.7392 0.4983 0.1422
0.0531 0.5011 0.0000
0.1156 0.5342 0.0000
0.2236 0.5852 0.0264
0.3909 0.6492 0.1146
0.5475 0.6924 0.2065
0.6589 0.7133 0.2773
0.7379 0.7030 0.2815
0.7957 0.6909 0.2787
0.8385 0.6795 0.2761
0.0621 0.5481 0.0000
0.1246 0.5867 0.0000
0.2326 0.6471 0.0274
0.3999 0.7257 0.1256
0.5565 0.7825 0.2268
0.6679 0.8130 0.3042
0.7620 0.8324 0.3730
0.8365 0.8268 0.3885
0.8932 0.8154 0.3884
0.0693 0.5779 0.0000
0.1318 0.6208 0.0000
0.2398 0.6888 0.0283
0.4071 0.7789 0.1344
0.5637 0.8466 0.2430
0.6751 0.8850 0.3256
0.7692 0.9109 0.3989
0.8550 0.9295 0.4686
0.9248 0.9241 0.4854
0.0752 0.5970 0.0000
0.1377 0.6434 0.0000
0.2457 0.7175 0.0290
0.4130 0.8172 0.1416
0.5696 0.8939 0.2562
0.6810 0.9385 0.3432
0.7750 0.9698 0.4201
0.8609 0.9933 0.4931
0.9418 1.0000 0.5644
0.0347 0.0000 0.0927
0.0752 0.0000 0.0838
0.1609 0.0000 0.0616
0.2580 0.0000 0.0267
0.3049 0.0000 0.0000
0.3124 0.0000 0.0000
0.3021 0.0000 0.0000
0.2792 0.0000 0.0000
0.2460 0.0000 0.0000
0.0075 0.1047 0.0802
0.0723 0.1052 0.0802
0.1720 0.0955 0.0668
0.2839 0.0719 0.0328
0.3447 0.0498 0.0010
0.3621 0.0341 0.0000
0.3600 0.0208 0.0000
0.3448 0.0087 0.0000
0.3187 0.0000 0.0000
0.0216 0.2114 0.0712
0.0820 0.2144 0.0712
0.1902 0.2255 0.0882
0.3319 0.2078 0.0696
0.4196 0.1857 0.0425
0.4560 0.1700 0.0233
0.4701 0.1567 0.0070
0.4696 0.1446 0.0000
0.4574 0.1332 0.0000
0.0388 0.3271 0.0602
0.0939 0.3330 0.0602
0.2012 0.3550 0.0843
0.3676 0.3740 0.1284
0.4881 0.3519 0.1070
0.5479 0.3362 0.0918
0.5817 0.3229 0.0790
0.5992 0.3108 0.0673
0.6040 0.2994 0.0563
0.0590 0.4425 0.0472
0.1079 0.4520 0.0472
0.2143 0.4868 0.0796
0.3815 0.5293 0.1433
0.5364 0.5481 0.2025
0.6238 0.5324 0.1921
0.6809 0.5192 0.1834
0.7196 0.5071 0.1754
0.7445 0.4956 0.1679
0.0778 0.5287 0.0352
0.1209 0.5415 0.0352
0.2263 0.5882 0.0753
0.3936 0.6500 0.1522
0.5502 0.6912 0.2334
0.6616 0.7107 0.2967
0.7411 0.7003 0.2984
0.7995 0.6882 0.2938
0.8428 0.6768 0.2895
0.0918 0.5805 0.0262
0.1306 0.5958 0.0262
0.2353 0.6514 0.0720
0.4026 0.7278 0.1589
0.5592 0.7826 0.2494
0.6706 0.8118 0.3192
0.7646 0.8300 0.3816
0.8396 0.8241 0.3944
0.8968 0.8127 0.3925
0.1031 0.6141 0.0190
0.1384 0.6314 0.0190
0.2425 0.6941 0.0694
0.4098 0.7821 0.1642
0.5664 0.8479 0.2621
0.6778 0.8848 0.3372
0.7719 0.9095 0.4041
0.8577 0.9271 0.4679
0.9279 0.9214 0.4822
0.1122 0.6364 0.0131
0.1448 0.6552 0.0131
0.2484 0.7237 0.0673
0.4156 0.8213 0.1686
0.5723 0.8959 0.2725
0.6837 0.9392 0.3520
0.7777 0.9693 0.4225
0.8636 0.9917 0.4896
0.9445 1.0000 0.5554
0.0910 0.0000 0.2172
0.1315 0.0000 0.2199
0.2014 0.0000 0.2166
0.3144 0.0000 0.1843
0.3797 0.0000 0.1515
0.4003 0.0000 0.1282
0.4010 0.0000 0.1086
0.3882 0.0000 0.0907
0.3645 0.0000 0.0737
0.0522 0.1037 0.2231
0.1168 0.1037 0.2253
0.2014 0.1051 0.2180
0.3246 0.0848 0.1843
0.4008 0.0627 0.1515
0.4291 0.0470 0.1282
0.4363 0.0338 0.1086
0.4295 0.0217 0.0907
0.4114 0.0103 0.0737
0.0339 0.2223 0.2143
0.0861 0.2224 0.2143
0.1925 0.2227 0.2143
0.3377 0.2034 0.1861
0.4271 0.1813 0.1536
0.4648 0.1656 0.1306
0.4798 0.1523 0.1111
0.4802 0.1402 0.0934
0.4689 0.1288 0.0766
0.0610 0.3474 0.2032
0.1080 0.3506 0.2032
0.2053 0.3561 0.2032
0.3720 0.3696 0.2265
0.4942 0.3475 0.1998
0.5553 0.3318 0.1808
0.5901 0.3185 0.1648
0.6085 0.3064 0.1502
0.6141 0.2950 0.1364
0.0931 0.4740 0.1902
0.1338 0.4808 0.1902
0.2204 0.4924 0.1902
0.3859 0.5278 0.2305
0.5409 0.5438 0.2737
0.6296 0.5281 0.2596
0.6877 0.5148 0.2476
0.7273 0.5027 0.2367
0.7530 0.4913 0.2265
0.1228 0.5706 0.1782
0.1577 0.5806 0.1782
0.2343 0.5979 0.1782
0.3979 0.6514 0.2300
0.5546 0.6894 0.2940
0.6660 0.7065 0.3450
0.7464 0.6960 0.3427
0.8057 0.6838 0.3352
0.8499 0.6724 0.3282
0.1450 0.6302 0.1692
0.1756 0.6427 0.1692
0.2447 0.6643 0.1692
0.4069 0.7313 0.2297
0.5636 0.7829 0.3029
0.6750 0.8098 0.3605
0.7690 0.8261 0.4126
0.8447 0.8197 0.4209
0.9028 0.8083 0.4163
0.1628 0.6701 0.1620
0.1899 0.6845 0.1620
0.2531 0.7095 0.1620
0.4141 0.7873 0.2294
0.5708 0.8499 0.3101
0.6822 0.8845 0.3729
0.7762 0.9073 0.4295
0.8620 0.9231 0.4839
0.9329 0.9171 0.4940
0.1773 0.6974 0.1561
0.2016 0.7134 0.1561
0.2599 0.7412 0.1561
0.4200 0.8279 0.2292
0.5767 0.8993 0.3159
0.6881 0.9403 0.3831
0.7821 0.9685 0.4432
0.8679 0.9891 0.5010
0.9489 1.0000 0.5579
0.1619 0.0000 0.3288
0.2024 0.0000 0.3461
0.2722 0.0000 0.3680
0.3805 0.0000 0.3821
0.4689 0.0000 0.3499
0.5059 0.0000 0.3266
0.5205 0.0000 0.3070
0.5204 0.0000 0.2891
0.5086 0.0000 0.2721
0.1201 0.1011 0.3615
0.1867 0.1011 0.3670
0.2722 0.1024 0.3792
0.3805 0.1054 0.3823
0.4796 0.0837 0.3499
0.5244 0.0680 0.3266
0.5455 0.0548 0.3070
0.5514 0.0427 0.2891
0.5452 0.0313 0.2721
0.0963 0.2202 0.3817
0.1499 0.2202 0.3849
0.2588 0.2202 0.3904
0.3805 0.2227 0.3825
0.4915 0.2011 0.3499
0.5449 0.1853 0.3266
0.5733 0.1721 0.3070
0.5858 0.1600 0.2891
0.5859 0.1486 0.2721
0.0998 0.3660 0.3835
0.1376 0.3660 0.3838
0.2191 0.3660 0.3844
0.3805 0.3662 0.3827
0.5061 0.3445 0.3499
0.5700 0.3288 0.3266
0.6073 0.3156 0.3070
0.6279 0.3035 0.2891
0.6357 0.2920 0.2721
0.1449 0.5087 0.3704
0.1753 0.5120 0.3704
0.2441 0.5175 0.3704
0.3913 0.5262 0.3704
0.5467 0.5383 0.3932
0.6368 0.5226 0.3743
0.6961 0.5093 0.3583
0.7369 0.4972 0.3437
0.7637 0.4858 0.3300
0.1883 0.6184 0.3584
0.2129 0.6249 0.3584
0.2717 0.6361 0.3584
0.4036 0.6535 0.3584
0.5600 0.6870 0.4001
0.6715 0.7013 0.4356
0.7530 0.6905 0.4283
0.8134 0.6784 0.4172
0.8587 0.6669 0.4067
0.2208 0.6878 0.3494
0.2411 0.6967 0.3494
0.2924 0.7122 0.3494
0.4127 0.7362 0.3494
0.5690 0.7833 0.4002
0.6805 0.8072 0.4423
0.7745 0.8211 0.4813
0.8510 0.8142 0.4840
0.9102 0.8028 0.4759
0.2468 0.7354 0.3421
0.2637 0.7464 0.3421
0.3090 0.7653 0.3421
0.4201 0.7945 0.3421
0.5763 0.8524 0.4003
0.6877 0.8841 0.4477
0.7817 0.9045 0.4912
0.8675 0.9181 0.5337
0.9393 0.9116 0.5386
0.2681 0.7691 0.3363
0.2821 0.7817 0.3363
0.3226 0.8034 0.3363
0.4261 0.8369 0.3363
0.5821 0.9036 0.4003
0.6936 0.9417 0.4520
0.7876 0.9675 0.4992
0.8734 0.9859 0.5450
0.9544 0.9988 0.5907
0.2303 0.0000 0.3887
0.2708 0.0000 0.4201
0.3406 0.0000 0.4664
0.4489 0.0000 0.5181
0.5496 0.0000 0.5413
0.6025 0.0000 0.5180
0.6305 0.0000 0.4984
0.6426 0.0000 0.4805
0.6424 0.0000 0.4635
0.1856 0.0985 0.4472
0.2541 0.0985 0.4559
0.3406 0.0999 0.4870
0.4489 0.1029 0.5277
0.5503 0.1040 0.5413
0.6110 0.0883 0.5180
0.6455 0.0750 0.4984
0.6636 0.0629 0.4805
0.6690 0.0515 0.4635
0.1586 0.2177 0.4962
0.2141 0.2177 0.5026
0.3263 0.2177 0.5136
0.4489 0.2202 0.5385
0.5511 0.2213 0.5413
0.6204 0.2056 0.5180
0.6622 0.1923 0.4984
0.6869 0.1802 0.4805
0.6986 0.1688 0.4635
0.1582 0.3634 0.5330
0.1979 0.3634 0.5365
0.2827 0.3634 0.5426
0.4489 0.3636 0.5516
0.5521 0.3648 0.5413
0.6319 0.3491 0.5180
0.6826 0.3358 0.4984
0.7154 0.3237 0.4805
0.7348 0.3123 0.4635
0.2038 0.5356 0.5439
0.2248 0.5356 0.5440
0.2774 0.5356 0.5443
0.3996 0.5356 0.5447
0.5532 0.5342 0.5413
0.6455 0.5185 0.5180
0.7067 0.5052 0.4984
0.7491 0.4931 0.4805
0.7775 0.4817 0.4635
0.2608 0.6591 0.5321
0.2755 0.6622 0.5321
0.3172 0.6676 0.5321
0.4224 0.6760 0.5321
0.5653 0.6848 0.5338
0.6768 0.6963 0.5544
0.7594 0.6852 0.5423
0.8209 0.6731 0.5276
0.8673 0.6616 0.5138
0.3033 0.7380 0.5231
0.3136 0.7436 0.5231
0.3478 0.7532 0.5231
0.4415 0.7681 0.5231
0.5743 0.7836 0.5254
0.6858 0.8048 0.5526
0.7798 0.8163 0.5791
0.8572 0.8090 0.5763
0.9174 0.7975 0.5649
0.3372 0.7932 0.5159
0.3442 0.8007 0.5159
0.3724 0.8138 0.5159
0.4568 0.8340 0.5159
0.5815 0.8548 0.5187
0.6930 0.8838 0.5512
0.7870 0.9018 0.5821
0.8728 0.9132 0.6132
0.9454 0.9063 0.6130
0.3650 0.8331 0.5100
0.3691 0.8422 0.5100
0.3924 0.8581 0.5100
0.4693 0.8826 0.5100
0.5874 0.9077 0.5132
0.6989 0.9430 0.5500
0.7929 0.9665 0.5846
0.8787 0.9828 0.6190
0.9597 0.9937 0.6539
0.2866 0.0000 0.4030
0.3271 0.0000 0.4460
0.3970 0.0000 0.5122
0.5052 0.0000 0.5950
0.6066 0.0000 0.6505
0.6782 0.0000 0.6757
0.7172 0.0000 0.6561
0.7394 0.0000 0.6381
0.7487 0.0000 0.6212
0.2396 0.0964 0.4827
0.3096 0.0964 0.4941
0.3970 0.0977 0.5407
0.5052 0.1007 0.6124
0.6066 0.1035 0.6576
0.6784 0.1050 0.6757
0.7240 0.0917 0.6561
0.7521 0.0796 0.6381
0.7670 0.0682 0.6212
0.2099 0.2155 0.5553
0.2671 0.2155 0.5643
0.3819 0.2155 0.5799
0.5052 0.2180 0.6318
0.6066 0.2209 0.6656
0.6787 0.2223 0.6757
0.7315 0.2090 0.6561
0.7663 0.1969 0.6381
0.7875 0.1855 0.6212
0.2063 0.3613 0.6210
0.2476 0.3613 0.6272
0.3351 0.3613 0.6378
0.5052 0.3615 0.6555
0.6066 0.3643 0.6752
0.6790 0.3658 0.6757
0.7407 0.3525 0.6561
0.7837 0.3404 0.6381
0.8125 0.3290 0.6212
0.2481 0.5334 0.6660
0.2707 0.5334 0.6688
0.3260 0.5334 0.6736
0.4524 0.5334 0.6811
0.6066 0.5338 0.6866
0.6794 0.5352 0.6757
0.7516 0.5219 0.6561
0.8041 0.5098 0.6381
0.8420 0.4984 0.6212
0.3275 0.6888 0.6753
0.3340 0.6891 0.6753
0.3615 0.6897 0.6753
0.4448 0.6906 0.6753
0.5677 0.6914 0.6753
0.6811 0.6921 0.6756
0.7647 0.6808 0.6595
0.8271 0.6687 0.6419
0.8743 0.6573 0.6253
0.3781 0.7755 0.6662
0.3803 0.7782 0.6662
0.4004 0.7831 0.6662
0.4721 0.7905 0.6662
0.5842 0.7975 0.6662
0.6901 0.8028 0.6668
0.7842 0.8124 0.6829
0.8622 0.8046 0.6756
0.9233 0.7932 0.6614
0.4186 0.8369 0.6590
0.4174 0.8416 0.6590
0.4314 0.8499 0.6590
0.4940 0.8626 0.6590
0.5974 0.8745 0.6590
0.6973 0.8835 0.6597
0.7914 0.8996 0.6803
0.8772 0.9093 0.7019
0.9504 0.9019 0.6976
0.4517 0.8818 0.6532
0.4476 0.8882 0.6532
0.4568 0.8992 0.6532
0.5118 0.9163 0.6532
0.6081 0.9322 0.6532
0.7032 0.9441 0.6540
0.7972 0.9656 0.6782
0.8831 0.9802 0.7031
0.9640 0.9894 0.7291
0.3330 0.0000 0.3908
0.3735 0.0000 0.4434
0.4434 0.0000 0.5261
0.5516 0.0000 0.6345
0.6530 0.0000 0.7139
0.7251 0.0000 0.7575
0.7859 0.0000 0.7859
0.8165 0.0000 0.7680
0.8336 0.0000 0.7511
0.2840 0.0946 0.4881
0.3554 0.0946 0.5016
0.4434 0.0960 0.5610
0.5516 0.0990 0.6583
0.6530 0.1018 0.7274
0.7251 0.1038 0.7637
0.7859 0.1055 0.7859
0.8224 0.0934 0.7680
0.8452 0.0820 0.7511
0.2522 0.2138 0.5801
0.3106 0.2138 0.5913
0.4278 0.2138 0.6106
0.5516 0.2163 0.6848
0.6530 0.2191 0.7425
0.7251 0.2211 0.7706
0.7859 0.2228 0.7859
0.8291 0.2107 0.7680
0.8581 0.1993 0.7511
0.2459 0.3596 0.6696
0.2885 0.3596 0.6780
0.3783 0.3596 0.6924
0.5516 0.3598 0.7172
0.6530 0.3626 0.7609
0.7251 0.3646 0.7790
0.7859 0.3663 0.7859
0.8372 0.3542 0.7680
0.8738 0.3428 0.7511
0.2845 0.5317 0.7427
0.3084 0.5317 0.7477
0.3660 0.5317 0.7563
0.4959 0.5317 0.7696
0.6530 0.5320 0.7826
0.7251 0.5340 0.7890
0.7859 0.5357 0.7859
0.8468 0.5236 0.7680
0.8925 0.5122 0.7511
0.3645 0.6906 0.7788
0.3712 0.6906 0.7806
0.3990 0.6906 0.7839
0.4827 0.6906 0.7889
0.6060 0.6906 0.7935
0.7200 0.6906 0.7969
0.7859 0.6921 0.7859
0.8556 0.6800 0.7680
0.9096 0.6686 0.7511
0.4445 0.8037 0.7842
0.4399 0.8042 0.7842
0.4483 0.8050 0.7842
0.5020 0.8063 0.7842
0.5972 0.8076 0.7842
0.6913 0.8084 0.7842
0.7877 0.8092 0.7842
0.8664 0.8010 0.7731
0.9282 0.7896 0.7567
0.4904 0.8702 0.7769
0.4824 0.8727 0.7769
0.4848 0.8769 0.7769
0.5292 0.8835 0.7769
0.6157 0.8897 0.7769
0.7037 0.8941 0.7769
0.7950 0.8978 0.7769
0.8808 0.9060 0.7908
0.9545 0.8983 0.7830
0.5279 0.9194 0.7711
0.5170 0.9234 0.7711
0.5146 0.9305 0.7711
0.5515 0.9414 0.7711
0.6309 0.9516 0.7711
0.7138 0.9588 0.7711
0.8008 0.9650 0.7711
0.8867 0.9780 0.7882
0.9676 0.9859 0.8068
0.3745 0.0000 0.3618
0.4149 0.0000 0.4228
0.4848 0.0000 0.5203
0.5931 0.0000 0.6515
0.6944 0.0000 0.7523
0.7665 0.0000 0.8111
0.8274 0.0000 0.8524
0.8829 0.0000 0.8833
0.9074 0.0000 0.8671
0.3237 0.0931 0.4746
0.3962 0.0931 0.4901
0.4848 0.0944 0.5609
0.5931 0.0974 0.6810
0.6944 0.1002 0.7716
0.7665 0.1022 0.8230
0.8274 0.1039 0.8581
0.8829 0.1055 0.8834
0.9129 0.0942 0.8671
0.2900 0.2122 0.5841
0.3495 0.2122 0.5972
0.4687 0.2122 0.6199
0.5931 0.2147 0.7139
0.6944 0.2175 0.7930
0.7665 0.2195 0.8363
0.8274 0.2212 0.8645
0.8829 0.2228 0.8835
0.9191 0.2116 0.8671
0.2813 0.3580 0.6948
0.3250 0.3580 0.7051
0.4168 0.3580 0.7229
0.5931 0.3582 0.7542
0.6944 0.3610 0.8192
0.7665 0.3630 0.8525
0.8274 0.3647 0.8723
0.8829 0.3662 0.8836
0.9266 0.3550 0.8671
0.3171 0.5301 0.7930
0.3422 0.5301 0.7999
0.4017 0.5301 0.8119
0.5347 0.5301 0.8304
0.6944 0.5304 0.8501
0.7665 0.5324 0.8717
0.8274 0.5341 0.8815
0.8829 0.5357 0.8838
0.9355 0.5245 0.8671
0.3945 0.6890 0.8522
0.4024 0.6890 0.8560
0.4321 0.6890 0.8626
0.5190 0.6890 0.8728
0.6451 0.6890 0.8824
0.7613 0.6890 0.8892
0.8274 0.6905 0.8900
0.8829 0.6921 0.8839
0.9437 0.6808 0.8671
0.4806 0.8082 0.8769
0.4754 0.8082 0.8784
0.4829 0.8082 0.8809
0.5351 0.8082 0.8849
0.6288 0.8082 0.8886
0.7219 0.8082 0.8912
0.8175 0.8082 0.8934
0.8829 0.8094 0.8840
0.9499 0.7981 0.8671
0.5580 0.8980 0.8822
0.5440 0.8984 0.8822
0.5360 0.8991 0.8822
0.5643 0.9002 0.8822
0.6357 0.9012 0.8822
0.7129 0.9019 0.8822
0.7952 0.9026 0.8822
0.8838 0.9031 0.8822
0.9582 0.8951 0.8713
0.5995 0.9509 0.8764
0.5826 0.9529 0.8764
0.5697 0.9564 0.8764
0.5905 0.9618 0.8764
0.6548 0.9668 0.8764
0.7270 0.9704 0.8764
0.8050 0.9735 0.8764
0.8898 0.9762 0.8764
0.9708 0.9828 0.8882
0.4136 0.0000 0.3186
0.4541 0.0000 0.3877
0.5239 0.0000 0.4990
0.6322 0.0000 0.6517
0.7336 0.0000 0.7728
0.8057 0.0000 0.8459
0.8665 0.0000 0.8993
0.9221 0.0000 0.9413
0.9744 0.0000 0.9751
0.3612 0.0916 0.4462
0.4348 0.0916 0.4635
0.5239 0.0930 0.5451
0.6322 0.0960 0.6867
0.7336 0.0988 0.7974
0.8057 0.1008 0.8632
0.8665 0.1024 0.9104
0.9221 0.1040 0.9468
0.9744 0.1054 0.9753
0.3256 0.2108 0.5720
0.3863 0.2108 0.5870
0.5073 0.2108 0.6128
0.6322 0.2133 0.7256
0.7336 0.2161 0.8249
0.8057 0.2181 0.8825
0.8665 0.2198 0.9228
0.9221 0.2213 0.9529
0.9744 0.2227 0.9755
0.3147 0.3565 0.7028
0.3595 0.3565 0.7150
0.4532 0.3565 0.7359
0.6322 0.3567 0.7732
0.7336 0.3596 0.8584
0.8057 0.3615 0.9061
0.8665 0.3632 0.9380
0.9221 0.3648 0.9604
0.9744 0.3662 0.9757
0.3479 0.5287 0.8247
0.3740 0.5287 0.8335
0.4355 0.5287 0.8486
0.5714 0.5287 0.8720
0.7336 0.5290 0.8981
0.8057 0.5310 0.9340
0.8665 0.5327 0.9559
0.9221 0.5342 0.9692
0.9744 0.5356 0.9760
0.4229 0.6875 0.9058
0.4318 0.6875 0.9115
0.4634 0.6875 0.9212
0.5532 0.6875 0.9363
0.6821 0.6875 0.9505
0.8002 0.6875 0.9605
0.8665 0.6890 0.9724
0.9221 0.6906 0.9774
0.9744 0.6920 0.9762
0.5070 0.8067 0.9469
0.5030 0.8067 0.9502
0.5123 0.8067 0.9559
0.5675 0.8067 0.9648
0.6640 0.8067 0.9731
0.7590 0.8067 0.9790
0.8563 0.8067 0.9840
0.9221 0.8079 0.9835
0.9744 0.8093 0.9764
0.5917 0.9021 0.9675
0.5773 0.9021 0.9690
0.5687 0.9021 0.9715
0.5962 0.9021 0.9754
0.6667 0.9021 0.9790
0.7433 0.9021 0.9816
0.8250 0.9021 0.9837
0.9132 0.9021 0.9857
0.9744 0.9032 0.9765
0.6702 0.9788 0.9758
0.6476 0.9789 0.9758
0.6249 0.9791 0.9758
0.6305 0.9793 0.9758
0.6805 0.9795 0.9758
0.7426 0.9796 0.9758
0.8120 0.9798 0.9758
0.8890 0.9799 0.9758
0.9735 0.9800 0.9758
