70 CGC LUTs/Film Emulation/Fuji Astia 100F.cube
#Created by: Denver Riddle
#Copyright: (C) Copyright Color Grading Central LLC
DOMAIN_MIN 0.0 0.0 0.0
DOMAIN_MAX 1.0 1.0 1.0
LUT_3D_SIZE 5
0.0016 0.0170 0.0148
0.1304 0.0330 0.0128
0.3391 0.0535 0.0087
0.6209 0.0759 0.0031
0.7599 0.0941 0.0084
0.0493 0.1178 0.0248
0.1553 0.1255 0.0351
0.4147 0.1507 0.0340
0.6876 0.1812 0.0343
0.8355 0.2045 0.0373
0.1217 0.3554 0.0386
0.2285 0.3993 0.0645
0.4906 0.4365 0.1181
0.7717 0.4846 0.1374
0.9608 0.5262 0.1580
0.2018 0.5989 0.0496
0.3184 0.6521 0.0926
0.5920 0.7210 0.2023
0.8208 0.7482 0.2788
1.0000 0.7790 0.3044
0.2564 0.7164 0.0649
0.4013 0.7950 0.1307
0.6769 0.8927 0.2650
0.8744 0.9297 0.3746
1.0000 0.9510 0.4288
0.0051 0.0166 0.0806
0.1333 0.0313 0.0843
0.3513 0.0496 0.0851
0.6393 0.0675 0.0901
0.7896 0.0835 0.1033
0.0521 0.1167 0.1086
0.1575 0.1318 0.1153
0.4233 0.1614 0.1196
0.6921 0.1884 0.1269
0.8438 0.2159 0.1467
0.1301 0.3726 0.1396
0.2324 0.4157 0.1531
0.5025 0.4542 0.2121
0.7740 0.5038 0.2384
0.9604 0.5459 0.2681
0.2224 0.6244 0.1820
0.3262 0.6706 0.2014
0.6004 0.7362 0.3014
0.8213 0.7609 0.3729
1.0000 0.7925 0.4036
0.2943 0.7584 0.2383
0.4092 0.8175 0.2565
0.6837 0.9109 0.3727
0.8787 0.9454 0.4675
1.0000 0.9647 0.5211
0.0134 0.0211 0.2633
0.1364 0.0247 0.2925
0.3628 0.0105 0.3207
0.6728 0.0122 0.3385
0.8532 0.0122 0.3636
0.0566 0.1188 0.3344
0.1644 0.1334 0.3536
0.4351 0.1252 0.3822
0.7210 0.1421 0.3987
0.9033 0.1636 0.4190
0.1595 0.3815 0.4324
0.2468 0.4256 0.4483
0.5058 0.4730 0.4396
0.7755 0.5228 0.4552
0.9575 0.5650 0.4735
0.2906 0.6671 0.4893
0.3683 0.7040 0.4979
0.6072 0.7558 0.4959
0.8238 0.7756 0.5463
0.9936 0.8069 0.5675
0.3871 0.8227 0.5411
0.4671 0.8680 0.5432
0.6878 0.9324 0.5483
0.8823 0.9624 0.6133
1.0000 0.9775 0.6582
0.0215 0.0256 0.5181
0.1426 0.0258 0.5409
0.3737 0.0000 0.5649
0.6842 0.0000 0.5881
0.8901 0.0000 0.6033
0.0661 0.1232 0.5754
0.1685 0.1368 0.5918
0.4452 0.1159 0.6155
0.7328 0.0801 0.6371
0.9299 0.0951 0.6541
0.1787 0.3963 0.6680
0.2630 0.4361 0.6796
0.5186 0.4830 0.6662
0.7791 0.5083 0.6885
0.9673 0.5485 0.7039
0.3667 0.6903 0.7542
0.4253 0.7204 0.7615
0.6149 0.7611 0.7377
0.8242 0.7893 0.7400
0.9885 0.8205 0.7561
0.4835 0.8620 0.8066
0.5356 0.8979 0.8034
0.7028 0.9455 0.7806
0.8855 0.9752 0.7909
1.0000 0.9875 0.8218
0.0258 0.0298 0.7406
0.1466 0.0274 0.7636
0.3858 0.0000 0.7855
0.6889 0.0000 0.8075
0.9064 0.0000 0.8199
0.0720 0.1273 0.7960
0.1766 0.1407 0.8070
0.4616 0.1104 0.8233
0.7387 0.0477 0.8400
0.9407 0.0235 0.8510
0.1948 0.4086 0.8767
0.2791 0.4509 0.8795
0.5335 0.4960 0.8551
0.7846 0.5031 0.8667
0.9689 0.5203 0.8715
0.4040 0.6999 0.9545
0.4535 0.7283 0.9444
0.6261 0.7653 0.9048
0.8303 0.7959 0.8859
0.9892 0.8175 0.8876
0.5630 0.8856 0.9933
0.5900 0.9145 0.9733
0.7240 0.9522 0.9308
0.8902 0.9843 0.9038
1.0000 0.9976 0.9089
