70 CGC LUTs/Film Emulation/Fuji Vivid 8543.cube
#Created by: Denver Riddle
#Copyright: (C) Copyright Color Grading Central LLC
DOMAIN_MIN 0.0 0.0 0.0
DOMAIN_MAX 1.0 1.0 1.0
LUT_3D_SIZE 9
0.0097 0.0274 0.0003
0.0607 0.0215 0.0000
0.1496 0.0236 0.0000
0.2821 0.0266 0.0000
0.4239 0.0302 0.0000
0.5353 0.0336 0.0000
0.6220 0.0364 0.0000
0.6933 0.0385 0.0000
0.7210 0.0393 0.0000
0.0345 0.0951 0.0012
0.0752 0.0790 0.0006
0.1611 0.0757 0.0000
0.2964 0.0789 0.0000
0.4392 0.0826 0.0000
0.5518 0.0861 0.0000
0.6410 0.0891 0.0000
0.7172 0.0914 0.0000
0.7471 0.0923 0.0000
0.0648 0.1740 0.0020
0.1059 0.1624 0.0029
0.1738 0.1403 0.0061
0.3124 0.1438 0.0000
0.4563 0.1477 0.0000
0.5709 0.1513 0.0000
0.6644 0.1544 0.0000
0.7461 0.1571 0.0000
0.7781 0.1580 0.0000
0.1097 0.2820 0.0028
0.1513 0.2773 0.0058
0.2182 0.2628 0.0103
0.3331 0.2420 0.0150
0.4792 0.2462 0.0000
0.5971 0.2502 0.0000
0.6984 0.2537 0.0000
0.7879 0.2564 0.0000
0.8232 0.2574 0.0000
0.1823 0.4217 0.0030
0.2252 0.4260 0.0094
0.2923 0.4277 0.0194
0.3896 0.4165 0.0343
0.5093 0.3988 0.0493
0.6351 0.4028 0.0370
0.7497 0.4061 0.0256
0.8526 0.4088 0.0154
0.8931 0.4097 0.0113
0.2788 0.5480 0.0006
0.3211 0.5594 0.0117
0.3842 0.5743 0.0292
0.4715 0.5882 0.0558
0.5692 0.5869 0.0886
0.6775 0.5717 0.1272
0.8108 0.5747 0.1208
0.9305 0.5772 0.1150
0.9776 0.5785 0.1127
0.3594 0.6309 0.0000
0.3983 0.6487 0.0106
0.4558 0.6741 0.0349
0.5362 0.7072 0.0722
0.6330 0.7340 0.1189
0.7399 0.7377 0.1666
0.8577 0.7266 0.2173
0.9883 0.7270 0.2231
1.0000 0.7283 0.2224
0.3988 0.6690 0.0000
0.4362 0.6899 0.0085
0.4910 0.7215 0.0366
0.5696 0.7656 0.0797
0.6682 0.8077 0.1340
0.7798 0.8293 0.1901
0.8945 0.8259 0.2433
1.0000 0.8181 0.2885
1.0000 0.8196 0.2888
0.4195 0.6882 0.0000
0.4556 0.7112 0.0069
0.5095 0.7461 0.0370
0.5873 0.7957 0.0834
0.6878 0.8458 0.1420
0.8020 0.8774 0.2026
0.9159 0.8813 0.2581
1.0000 0.8750 0.3133
1.0000 0.8721 0.3265
0.0048 0.0172 0.0790
0.0450 0.0130 0.0829
0.1281 0.0132 0.0742
0.2687 0.0200 0.0569
0.4214 0.0286 0.0349
0.5413 0.0376 0.0119
0.6304 0.0412 0.0000
0.7048 0.0434 0.0000
0.7340 0.0442 0.0000
0.0000 0.0719 0.0721
0.0573 0.0798 0.0798
0.1524 0.0843 0.0743
0.2888 0.0875 0.0574
0.4341 0.0912 0.0361
0.5480 0.0947 0.0140
0.6383 0.0977 0.0000
0.7151 0.1000 0.0000
0.7447 0.1008 0.0000
0.0264 0.1577 0.0762
0.0903 0.1672 0.0833
0.1647 0.1489 0.0839
0.3046 0.1522 0.0682
0.4510 0.1562 0.0484
0.5666 0.1600 0.0279
0.6614 0.1630 0.0088
0.7433 0.1655 0.0000
0.7758 0.1665 0.0000
0.0774 0.2740 0.0817
0.1364 0.2830 0.0842
0.2104 0.2737 0.0867
0.3252 0.2505 0.0876
0.4734 0.2547 0.0701
0.5928 0.2586 0.0520
0.6946 0.2619 0.0351
0.7849 0.2646 0.0199
0.8205 0.2657 0.0137
0.1541 0.4193 0.0815
0.2114 0.4316 0.0847
0.2850 0.4366 0.0918
0.3830 0.4253 0.1034
0.5033 0.4061 0.1142
0.6301 0.4097 0.0998
0.7452 0.4129 0.0866
0.8487 0.4156 0.0747
0.8896 0.4165 0.0699
0.2566 0.5506 0.0781
0.3093 0.5653 0.0827
0.3783 0.5823 0.0962
0.4662 0.5958 0.1197
0.5643 0.5941 0.1486
0.6712 0.5772 0.1827
0.8055 0.5802 0.1744
0.9256 0.5830 0.1669
0.9728 0.5837 0.1639
0.3432 0.6376 0.0722
0.3894 0.6560 0.0780
0.4503 0.6822 0.0972
0.5315 0.7151 0.1315
0.6282 0.7420 0.1744
0.7345 0.7452 0.2183
0.8512 0.7321 0.2641
0.9825 0.7326 0.2681
1.0000 0.7340 0.2668
0.3863 0.6780 0.0676
0.4284 0.6984 0.0741
0.4858 0.7300 0.0964
0.5646 0.7738 0.1365
0.6631 0.8162 0.1873
0.7743 0.8379 0.2392
0.8881 0.8327 0.2870
1.0000 0.8241 0.3282
1.0000 0.8254 0.3279
0.4088 0.6988 0.0646
0.4485 0.7197 0.0714
0.5046 0.7549 0.0954
0.5830 0.8040 0.1389
0.6827 0.8541 0.1938
0.7965 0.8857 0.2503
0.9105 0.8896 0.3009
1.0000 0.8813 0.3506
1.0000 0.8784 0.3622
0.0148 0.0121 0.1595
0.0497 0.0050 0.1677
0.0991 0.0000 0.1748
0.2347 0.0000 0.1601
0.3964 0.0023 0.1377
0.5234 0.0107 0.1145
0.6207 0.0187 0.0927
0.7027 0.0259 0.0729
0.7354 0.0289 0.0648
0.0036 0.0675 0.1597
0.0690 0.0754 0.1690
0.1253 0.0648 0.1753
0.2622 0.0680 0.1600
0.4214 0.0764 0.1375
0.5459 0.0853 0.1143
0.6448 0.0937 0.0924
0.7304 0.1013 0.0725
0.7643 0.1043 0.0644
0.0000 0.1352 0.1547
0.0535 0.1432 0.1629
0.1577 0.1551 0.1758
0.2960 0.1590 0.1598
0.4474 0.1646 0.1376
0.5650 0.1684 0.1151
0.6609 0.1715 0.0941
0.7442 0.1740 0.0751
0.7776 0.1750 0.0674
0.0341 0.2550 0.1575
0.0941 0.2657 0.1655
0.1953 0.2809 0.1763
0.3159 0.2599 0.1733
0.4670 0.2641 0.1532
0.5882 0.2680 0.1327
0.6903 0.2714 0.1137
0.7811 0.2740 0.0964
0.8171 0.2750 0.0894
0.1215 0.4151 0.1655
0.1792 0.4275 0.1733
0.2713 0.4435 0.1775
0.3757 0.4353 0.1851
0.4965 0.4139 0.1910
0.6245 0.4174 0.1743
0.7403 0.4204 0.1588
0.8444 0.4231 0.1450
0.8857 0.4241 0.1393
0.2338 0.5531 0.1656
0.2845 0.5670 0.1700
0.3669 0.5889 0.1767
0.4599 0.6042 0.1955
0.5587 0.6021 0.2199
0.6644 0.5834 0.2485
0.7987 0.5865 0.2382
0.9197 0.5889 0.2290
0.9674 0.5897 0.2252
0.3271 0.6444 0.1590
0.3718 0.6618 0.1645
0.4417 0.6903 0.1733
0.5260 0.7243 0.2021
0.6228 0.7510 0.2405
0.7287 0.7544 0.2789
0.8439 0.7390 0.3183
0.9757 0.7394 0.3203
1.0000 0.7407 0.3186
0.3741 0.6882 0.1540
0.4146 0.7077 0.1603
0.4781 0.7394 0.1700
0.5594 0.7836 0.2042
0.6575 0.8254 0.2503
0.7685 0.8468 0.2967
0.8808 0.8400 0.3375
1.0000 0.8312 0.3739
1.0000 0.8327 0.3731
0.3983 0.7104 0.1508
0.4366 0.7304 0.1574
0.4973 0.7643 0.1677
0.5776 0.8137 0.2050
0.6771 0.8638 0.2554
0.7904 0.8949 0.3060
0.9042 0.8983 0.3506
1.0000 0.8886 0.3932
1.0000 0.8852 0.4031
0.0209 0.0018 0.2456
0.0558 0.0000 0.2590
0.1052 0.0000 0.2782
0.1889 0.0000 0.2953
0.3615 0.0000 0.2732
0.4993 0.0000 0.2498
0.6012 0.0000 0.2277
0.6865 0.0000 0.2075
0.7202 0.0000 0.1992
0.0187 0.0619 0.2550
0.0778 0.0665 0.2659
0.1314 0.0541 0.2823
0.2155 0.0344 0.2951
0.3868 0.0420 0.2730
0.5213 0.0501 0.2495
0.6245 0.0578 0.2274
0.7125 0.0649 0.2072
0.7480 0.0678 0.1989
0.0068 0.1295 0.2615
0.0687 0.1374 0.2713
0.1637 0.1448 0.2870
0.2482 0.1257 0.2950
0.4170 0.1340 0.2727
0.5484 0.1427 0.2493
0.6534 0.1508 0.2271
0.7457 0.1584 0.2067
0.7826 0.1614 0.1984
0.0000 0.2323 0.2606
0.0534 0.2402 0.2688
0.1506 0.2528 0.2820
0.2964 0.2632 0.2949
0.4592 0.2721 0.2724
0.5852 0.2786 0.2492
0.6895 0.2820 0.2277
0.7821 0.2847 0.2081
0.8191 0.2856 0.2000
0.0746 0.4049 0.2658
0.1283 0.4151 0.2737
0.2212 0.4312 0.2866
0.3656 0.4481 0.2982
0.4872 0.4239 0.2973
0.6174 0.4275 0.2781
0.7330 0.4305 0.2602
0.8383 0.4331 0.2438
0.8799 0.4341 0.2372
0.2008 0.5568 0.2739
0.2519 0.5687 0.2824
0.3334 0.5886 0.2914
0.4512 0.6157 0.3003
0.5514 0.6131 0.3175
0.6556 0.5911 0.3375
0.7904 0.5945 0.3252
0.9124 0.5971 0.3142
0.9606 0.5983 0.3096
0.3088 0.6538 0.2736
0.3512 0.6695 0.2788
0.4181 0.6958 0.2869
0.5183 0.7369 0.2995
0.6157 0.7635 0.3304
0.7206 0.7661 0.3604
0.8342 0.7480 0.3904
0.9669 0.7484 0.3899
1.0000 0.7497 0.3873
0.3607 0.7005 0.2682
0.3986 0.7189 0.2742
0.4592 0.7489 0.2833
0.5523 0.7965 0.2982
0.6504 0.8383 0.3361
0.7607 0.8590 0.3733
0.8721 0.8517 0.4054
0.9912 0.8400 0.4333
1.0000 0.8414 0.4316
0.3876 0.7252 0.2648
0.4231 0.7442 0.2711
0.4805 0.7763 0.2808
0.5704 0.8269 0.2967
0.6699 0.8770 0.3388
0.7826 0.9076 0.3801
0.8954 0.9105 0.4153
1.0000 0.8974 0.4487
1.0000 0.8940 0.4567
0.0297 0.0000 0.3276
0.0646 0.0000 0.3479
0.1141 0.0000 0.3813
0.1924 0.0000 0.4217
0.3060 0.0000 0.4483
0.4617 0.0000 0.4293
0.5725 0.0000 0.4112
0.6618 0.0000 0.3939
0.6971 0.0000 0.3865
0.0407 0.0536 0.3493
0.0866 0.0514 0.3620
0.1402 0.0386 0.3894
0.2188 0.0158 0.4258
0.3315 0.0000 0.4483
0.4835 0.0000 0.4293
0.5941 0.0045 0.4110
0.6861 0.0107 0.3937
0.7228 0.0133 0.3863
0.0287 0.1212 0.3704
0.0907 0.1291 0.3815
0.1727 0.1295 0.3990
0.2512 0.1075 0.4305
0.3620 0.0837 0.4481
0.5099 0.0911 0.4291
0.6207 0.0982 0.4107
0.7168 0.1049 0.3934
0.7557 0.1077 0.3860
0.0186 0.2238 0.3917
0.0754 0.2319 0.4008
0.1728 0.2446 0.4158
0.2992 0.2456 0.4376
0.4054 0.2234 0.4478
0.5476 0.2317 0.4289
0.6618 0.2397 0.4102
0.7643 0.2469 0.3930
0.8055 0.2499 0.3855
0.0227 0.3858 0.4018
0.0710 0.3927 0.4088
0.1544 0.4036 0.4195
0.3003 0.4200 0.4360
0.4706 0.4341 0.4476
0.6084 0.4410 0.4286
0.7262 0.4439 0.4105
0.8332 0.4465 0.3934
0.8755 0.4474 0.3863
0.1522 0.5599 0.4090
0.1974 0.5692 0.4161
0.2752 0.5844 0.4268
0.4021 0.6091 0.4433
0.5402 0.6293 0.4540
0.6427 0.6034 0.4615
0.7776 0.6068 0.4483
0.9008 0.6091 0.4362
0.9499 0.6102 0.4312
0.2760 0.6712 0.4131
0.3170 0.6835 0.4202
0.3840 0.7044 0.4316
0.4845 0.7403 0.4449
0.6051 0.7816 0.4560
0.7095 0.7836 0.4734
0.8201 0.7617 0.4912
0.9538 0.7617 0.4877
1.0000 0.7630 0.4843
0.3402 0.7228 0.4141
0.3772 0.7377 0.4214
0.4362 0.7617 0.4326
0.5234 0.8055 0.4426
0.6394 0.8573 0.4565
0.7489 0.8779 0.4803
0.8594 0.8697 0.5010
0.9771 0.8536 0.5192
1.0000 0.8551 0.5166
0.3739 0.7493 0.4141
0.4081 0.7647 0.4214
0.4608 0.7923 0.4303
0.5441 0.8388 0.4412
0.6588 0.8959 0.4563
0.7708 0.9261 0.4835
0.8838 0.9285 0.5073
0.9942 0.9115 0.5306
1.0000 0.9081 0.5359
0.0413 0.0000 0.3641
0.0762 0.0000 0.3922
0.1258 0.0000 0.4421
0.2042 0.0000 0.5061
0.3043 0.0000 0.5696
0.4061 0.0000 0.6174
0.5322 0.0000 0.6012
0.6282 0.0000 0.5873
0.6656 0.0000 0.5814
0.0580 0.0366 0.3998
0.0983 0.0312 0.4146
0.1519 0.0180 0.4547
0.2306 0.0000 0.5141
0.3296 0.0000 0.5736
0.4280 0.0000 0.6174
0.5523 0.0000 0.6012
0.6499 0.0000 0.5873
0.6890 0.0000 0.5814
0.0578 0.1103 0.4371
0.1192 0.1177 0.4499
0.1845 0.1091 0.4701
0.2629 0.0863 0.5247
0.3597 0.0547 0.5789
0.4538 0.0207 0.6174
0.5768 0.0262 0.6012
0.6771 0.0315 0.5869
0.7180 0.0338 0.5810
0.0478 0.2127 0.4816
0.1046 0.2208 0.4922
0.2025 0.2335 0.5093
0.3104 0.2250 0.5400
0.4026 0.1949 0.5861
0.4910 0.1624 0.6169
0.6135 0.1687 0.6009
0.7193 0.1748 0.5865
0.7630 0.1773 0.5810
0.0520 0.3762 0.5300
0.1002 0.3830 0.5383
0.1841 0.3942 0.5514
0.3285 0.4110 0.5717
0.4672 0.4124 0.5983
0.5489 0.3878 0.6169
0.6758 0.3944 0.6005
0.7928 0.4003 0.5861
0.8405 0.4028 0.5802
0.1019 0.5565 0.5544
0.1386 0.5620 0.5599
0.2039 0.5709 0.5683
0.3194 0.5848 0.5823
0.4708 0.6030 0.5998
0.6254 0.6203 0.6169
0.7607 0.6233 0.6009
0.8862 0.6258 0.5869
0.9358 0.6271 0.5814
0.2411 0.6907 0.5594
0.2749 0.7001 0.5650
0.3331 0.7155 0.5743
0.4291 0.7407 0.5889
0.5535 0.7763 0.6076
0.6937 0.8082 0.6196
0.8001 0.7798 0.6254
0.9358 0.7798 0.6181
0.9912 0.7807 0.6135
0.3150 0.7557 0.5611
0.3454 0.7670 0.5670
0.3971 0.7858 0.5763
0.4811 0.8171 0.5911
0.5962 0.8604 0.6102
0.7326 0.9032 0.6200
0.8429 0.8940 0.6309
0.9577 0.8721 0.6406
1.0000 0.8735 0.6368
0.3537 0.7884 0.5620
0.3823 0.8006 0.5675
0.4296 0.8215 0.5772
0.5084 0.8555 0.5919
0.6192 0.9027 0.6106
0.7549 0.9518 0.6203
0.8667 0.9538 0.6343
0.9747 0.9309 0.6478
1.0000 0.9266 0.6516
0.0540 0.0000 0.3167
0.0889 0.0000 0.3569
0.1384 0.0000 0.4307
0.2170 0.0000 0.5243
0.3167 0.0000 0.6233
0.4134 0.0000 0.7155
0.4937 0.0000 0.7933
0.5900 0.0000 0.7938
0.6301 0.0000 0.7871
0.0706 0.0149 0.3726
0.1110 0.0094 0.3912
0.1647 0.0000 0.4494
0.2434 0.0000 0.5379
0.3416 0.0000 0.6326
0.4348 0.0000 0.7210
0.5126 0.0000 0.7943
0.6095 0.0000 0.7938
0.6508 0.0000 0.7866
0.0894 0.0983 0.4309
0.1318 0.0959 0.4471
0.1974 0.0870 0.4722
0.2756 0.0635 0.5544
0.3712 0.0307 0.6440
0.4604 0.0000 0.7275
0.5357 0.0000 0.7952
0.6334 0.0000 0.7938
0.6763 0.0000 0.7866
0.0793 0.2008 0.5024
0.1363 0.2088 0.5154
0.2289 0.2186 0.5364
0.3227 0.2025 0.5789
0.4134 0.1712 0.6614
0.4969 0.1350 0.7377
0.5700 0.0979 0.7970
0.6703 0.0938 0.7933
0.7155 0.0956 0.7862
0.0836 0.3653 0.5908
0.1320 0.3726 0.6017
0.2162 0.3837 0.6192
0.3583 0.4008 0.6465
0.4770 0.3934 0.6912
0.5544 0.3646 0.7544
0.6258 0.3334 0.7991
0.7340 0.3309 0.7933
0.7841 0.3331 0.7862
0.1324 0.5480 0.6733
0.1693 0.5535 0.6818
0.2344 0.5624 0.6954
0.3473 0.5759 0.7172
0.4927 0.5941 0.7461
0.6317 0.6051 0.7776
0.7063 0.5848 0.8030
0.8278 0.5844 0.7923
0.8833 0.5865 0.7854
0.2225 0.7005 0.7091
0.2483 0.7068 0.7151
0.2949 0.7159 0.7247
0.3777 0.7313 0.7403
0.4912 0.7510 0.7602
0.6196 0.7725 0.7821
0.7729 0.7933 0.8030
0.9168 0.7996 0.7923
0.9737 0.8006 0.7854
0.3037 0.7811 0.7125
0.3265 0.7889 0.7180
0.3672 0.8020 0.7283
0.4383 0.8232 0.7433
0.5381 0.8512 0.7639
0.6609 0.8828 0.7858
0.8137 0.9129 0.8064
0.9358 0.8931 0.8064
0.9956 0.8945 0.8001
0.3479 0.8228 0.7134
0.3688 0.8317 0.7193
0.4059 0.8463 0.7296
0.4708 0.8701 0.7452
0.5650 0.9027 0.7661
0.6869 0.9392 0.7879
0.8383 0.9737 0.8069
0.9533 0.9538 0.8103
1.0000 0.9480 0.8108
0.0617 0.0000 0.2391
0.0966 0.0000 0.2882
0.1464 0.0000 0.3830
0.2249 0.0000 0.5014
0.3241 0.0000 0.6228
0.4197 0.0000 0.7407
0.4995 0.0000 0.8458
0.5670 0.0000 0.9309
0.6076 0.0000 0.9275
0.0783 0.0016 0.3099
0.1188 0.0000 0.3323
0.1727 0.0000 0.4073
0.2512 0.0000 0.5181
0.3490 0.0000 0.6351
0.4410 0.0000 0.7497
0.5183 0.0000 0.8507
0.5852 0.0000 0.9314
0.6267 0.0000 0.9275
0.1011 0.0871 0.3868
0.1396 0.0826 0.4063
0.2053 0.0735 0.4360
0.2834 0.0497 0.5389
0.3783 0.0162 0.6508
0.4664 0.0000 0.7612
0.5413 0.0000 0.8565
0.6080 0.0000 0.9314
0.6499 0.0000 0.9275
0.0988 0.1934 0.4799
0.1559 0.2013 0.4952
0.2367 0.2051 0.5190
0.3301 0.1886 0.5696
0.4197 0.1568 0.6746
0.5027 0.1199 0.7781
0.5751 0.0818 0.8648
0.6414 0.0444 0.9314
0.6861 0.0440 0.9275
0.1031 0.3589 0.5949
0.1516 0.3659 0.6076
0.2360 0.3772 0.6275
0.3759 0.3947 0.6588
0.4828 0.3813 0.7151
0.5594 0.3514 0.8064
0.6313 0.3189 0.8794
0.7001 0.2853 0.9319
0.7489 0.2856 0.9270
0.1521 0.5430 0.7151
0.1890 0.5484 0.7257
0.2539 0.5576 0.7429
0.3653 0.5713 0.7703
0.5071 0.5889 0.8064
0.6372 0.5958 0.8458
0.7121 0.5747 0.8988
0.7862 0.5544 0.9324
0.8400 0.5548 0.9266
0.2423 0.6950 0.7884
0.2678 0.7010 0.7970
0.3139 0.7108 0.8103
0.3949 0.7257 0.8312
0.5054 0.7452 0.8586
0.6334 0.7666 0.8881
0.7879 0.7871 0.9163
0.8692 0.7675 0.9324
0.9275 0.7690 0.9261
0.3091 0.7871 0.8113
0.3279 0.7938 0.8181
0.3628 0.8035 0.8288
0.4258 0.8201 0.8458
0.5175 0.8405 0.8682
0.6304 0.8628 0.8919
0.7695 0.8847 0.9149
0.9163 0.8974 0.9329
0.9767 0.8993 0.9261
0.3524 0.8371 0.8157
0.3685 0.8439 0.8220
0.3983 0.8555 0.8322
0.4538 0.8731 0.8483
0.5379 0.8959 0.8692
0.6453 0.9217 0.8919
0.7802 0.9465 0.9134
0.9392 0.9694 0.9329
0.9932 0.9611 0.9300
0.0640 0.0000 0.2078
0.0990 0.0000 0.2597
0.1486 0.0000 0.3615
0.2272 0.0000 0.4888
0.3263 0.0000 0.6178
0.4217 0.0000 0.7429
0.5012 0.0000 0.8565
0.5687 0.0000 0.9489
0.6005 0.0000 0.9713
0.0807 0.0000 0.2833
0.1211 0.0000 0.3069
0.1750 0.0000 0.3878
0.2535 0.0000 0.5073
0.3512 0.0000 0.6309
0.4428 0.0000 0.7529
0.5200 0.0000 0.8619
0.5869 0.0000 0.9504
0.6192 0.0000 0.9708
0.1034 0.0831 0.3664
0.1421 0.0786 0.3871
0.2076 0.0695 0.4186
0.2856 0.0456 0.5294
0.3803 0.0119 0.6478
0.4681 0.0000 0.7656
0.5430 0.0000 0.8692
0.6095 0.0000 0.9518
0.6419 0.0000 0.9708
0.1047 0.1913 0.4675
0.1619 0.1992 0.4835
0.2391 0.2011 0.5088
0.3323 0.1845 0.5620
0.4217 0.1524 0.6733
0.5044 0.1154 0.7845
0.5768 0.0770 0.8799
0.6436 0.0393 0.9543
0.6771 0.0283 0.9708
0.1090 0.3567 0.5911
0.1575 0.3638 0.6042
0.2418 0.3754 0.6250
0.3813 0.3927 0.6575
0.4845 0.3777 0.7168
0.5616 0.3473 0.8162
0.6330 0.3144 0.8974
0.7018 0.2807 0.9582
0.7382 0.2707 0.9703
0.1581 0.5413 0.7223
0.1950 0.5467 0.7335
0.2599 0.5561 0.7520
0.3707 0.5696 0.7807
0.5112 0.5873 0.8191
0.6387 0.5928 0.8609
0.7138 0.5721 0.9222
0.7879 0.5510 0.9635
0.8273 0.5448 0.9698
0.2482 0.6937 0.8077
0.2737 0.6992 0.8167
0.3197 0.7091 0.8312
0.3998 0.7238 0.8541
0.5099 0.7433 0.8833
0.6376 0.7647 0.9149
0.7899 0.7841 0.9455
0.8711 0.7643 0.9684
0.9124 0.7588 0.9698
0.3150 0.7854 0.8371
0.3337 0.7918 0.8439
0.3680 0.8020 0.8560
0.4305 0.8181 0.8750
0.5220 0.8388 0.8988
0.6347 0.8609 0.9251
0.7738 0.8828 0.9504
0.9183 0.8940 0.9708
0.9606 0.8891 0.9694
0.3558 0.8392 0.8468
0.3707 0.8458 0.8536
0.3986 0.8560 0.8638
0.4512 0.8726 0.8804
0.5326 0.8936 0.9017
0.6372 0.9163 0.9246
0.7680 0.9382 0.9465
0.9232 0.9586 0.9669
0.9874 0.9630 0.9694
