70 CGC LUTs/Film Emulation/Fuji Astia 100F.cube
#Created by: Denver Riddle
#Copyright: (C) Copyright Color Grading Central LLC
DOMAIN_MIN 0.0 0.0 0.0
DOMAIN_MAX 1.0 1.0 1.0
LUT_3D_SIZE 9
0.0016 0.0170 0.0148
0.0787 0.0241 0.0110
0.1304 0.0330 0.0128
0.2032 0.0416 0.0122
0.3391 0.0535 0.0087
0.5023 0.0666 0.0050
0.6209 0.0759 0.0031
0.7008 0.0850 0.0048
0.7599 0.0941 0.0084
0.0259 0.0678 0.0188
0.0888 0.0718 0.0228
0.1418 0.0780 0.0233
0.2251 0.0892 0.0229
0.3748 0.1011 0.0194
0.5396 0.1147 0.0171
0.6537 0.1243 0.0183
0.7334 0.1319 0.0180
0.7940 0.1387 0.0210
0.0493 0.1178 0.0248
0.1044 0.1182 0.0320
0.1553 0.1255 0.0351
0.2512 0.1367 0.0350
0.4147 0.1507 0.0340
0.5763 0.1668 0.0315
0.6876 0.1812 0.0343
0.7720 0.1914 0.0350
0.8355 0.2045 0.0373
0.0785 0.1993 0.0312
0.1281 0.2106 0.0396
0.1780 0.2216 0.0507
0.2816 0.2358 0.0587
0.4535 0.2617 0.0623
0.6166 0.2870 0.0650
0.7308 0.3069 0.0687
0.8291 0.3293 0.0768
0.9056 0.3497 0.0830
0.1217 0.3554 0.0386
0.1699 0.3762 0.0485
0.2285 0.3993 0.0645
0.3330 0.4185 0.0899
0.4906 0.4365 0.1181
0.6492 0.4639 0.1294
0.7717 0.4846 0.1374
0.8785 0.5079 0.1475
0.9608 0.5262 0.1580
0.1656 0.5012 0.0448
0.2113 0.5230 0.0577
0.2750 0.5481 0.0766
0.3930 0.5787 0.1163
0.5407 0.5998 0.1683
0.6779 0.6163 0.1998
0.7998 0.6375 0.2136
0.9081 0.6536 0.2249
0.9891 0.6721 0.2369
0.2018 0.5989 0.0496
0.2476 0.6222 0.0676
0.3184 0.6521 0.0926
0.4453 0.6918 0.1406
0.5920 0.7210 0.2023
0.7059 0.7345 0.2549
0.8208 0.7482 0.2788
0.9308 0.7648 0.2924
1.0000 0.7790 0.3044
0.2294 0.6650 0.0564
0.2777 0.6904 0.0761
0.3596 0.7298 0.1101
0.4956 0.7801 0.1693
0.6352 0.8134 0.2336
0.7452 0.8335 0.2887
0.8415 0.8451 0.3405
0.9470 0.8566 0.3548
1.0000 0.8706 0.3677
0.2564 0.7164 0.0649
0.3057 0.7459 0.0881
0.4013 0.7950 0.1307
0.5409 0.8524 0.1959
0.6769 0.8927 0.2650
0.7825 0.9169 0.3224
0.8744 0.9297 0.3746
0.9583 0.9414 0.4170
1.0000 0.9510 0.4288
0.0012 0.0164 0.0467
0.0792 0.0232 0.0475
0.1318 0.0318 0.0465
0.2070 0.0394 0.0443
0.3470 0.0530 0.0426
0.5110 0.0678 0.0368
0.6281 0.0761 0.0343
0.7087 0.0848 0.0363
0.7681 0.0911 0.0394
0.0271 0.0677 0.0558
0.0915 0.0732 0.0528
0.1448 0.0809 0.0550
0.2296 0.0904 0.0526
0.3816 0.1033 0.0480
0.5455 0.1175 0.0457
0.6560 0.1255 0.0465
0.7366 0.1356 0.0473
0.7966 0.1409 0.0494
0.0512 0.1186 0.0609
0.1046 0.1229 0.0616
0.1584 0.1274 0.0642
0.2564 0.1396 0.0642
0.4203 0.1558 0.0628
0.5792 0.1705 0.0608
0.6906 0.1851 0.0619
0.7756 0.1965 0.0654
0.8396 0.2097 0.0703
0.0818 0.2039 0.0628
0.1315 0.2185 0.0689
0.1814 0.2272 0.0793
0.2875 0.2435 0.0884
0.4582 0.2692 0.0896
0.6201 0.2922 0.0936
0.7374 0.3142 0.0997
0.8322 0.3351 0.1071
0.9074 0.3561 0.1178
0.1249 0.3642 0.0683
0.1717 0.3843 0.0778
0.2294 0.4069 0.0908
0.3381 0.4278 0.1179
0.4975 0.4440 0.1468
0.6545 0.4700 0.1570
0.7740 0.4934 0.1693
0.8807 0.5152 0.1821
0.9613 0.5354 0.1926
0.1684 0.5070 0.0718
0.2132 0.5288 0.0860
0.2789 0.5561 0.1068
0.3965 0.5852 0.1446
0.5448 0.6054 0.1971
0.6799 0.6217 0.2303
0.8015 0.6429 0.2431
0.9094 0.6592 0.2575
0.9902 0.6779 0.2714
0.2025 0.6047 0.0799
0.2487 0.6282 0.0978
0.3239 0.6597 0.1267
0.4513 0.6992 0.1757
0.5956 0.7272 0.2324
0.7088 0.7405 0.2849
0.8221 0.7539 0.3105
0.9315 0.7707 0.3257
1.0000 0.7849 0.3393
0.2335 0.6732 0.0930
0.2783 0.6975 0.1131
0.3642 0.7381 0.1470
0.4996 0.7879 0.2061
0.6413 0.8210 0.2693
0.7479 0.8402 0.3215
0.8436 0.8487 0.3711
0.9472 0.8628 0.3890
1.0000 0.8736 0.4018
0.2592 0.7242 0.1071
0.3086 0.7548 0.1301
0.4049 0.8034 0.1733
0.5476 0.8621 0.2380
0.6820 0.9004 0.3039
0.7850 0.9245 0.3585
0.8770 0.9368 0.4090
0.9587 0.9478 0.4508
1.0000 0.9573 0.4635
0.0051 0.0166 0.0806
0.0820 0.0229 0.0821
0.1333 0.0313 0.0843
0.2104 0.0386 0.0858
0.3513 0.0496 0.0851
0.5187 0.0599 0.0856
0.6393 0.0675 0.0901
0.7237 0.0760 0.0925
0.7896 0.0835 0.1033
0.0289 0.0670 0.0941
0.0912 0.0722 0.0928
0.1453 0.0815 0.0968
0.2353 0.0889 0.0999
0.3884 0.1034 0.1014
0.5512 0.1160 0.0993
0.6652 0.1234 0.1078
0.7490 0.1298 0.1141
0.8151 0.1348 0.1230
0.0521 0.1167 0.1086
0.1067 0.1243 0.1079
0.1575 0.1318 0.1153
0.2604 0.1436 0.1152
0.4233 0.1614 0.1196
0.5845 0.1766 0.1214
0.6921 0.1884 0.1269
0.7785 0.2030 0.1357
0.8438 0.2159 0.1467
0.0823 0.2049 0.1241
0.1315 0.2237 0.1219
0.1851 0.2375 0.1354
0.2906 0.2504 0.1476
0.4641 0.2767 0.1522
0.6245 0.3022 0.1602
0.7391 0.3245 0.1709
0.8349 0.3457 0.1825
0.9104 0.3664 0.1951
0.1301 0.3726 0.1396
0.1749 0.3946 0.1425
0.2324 0.4157 0.1531
0.3444 0.4389 0.1820
0.5025 0.4542 0.2121
0.6546 0.4795 0.2244
0.7740 0.5038 0.2384
0.8808 0.5240 0.2520
0.9604 0.5459 0.2681
0.1791 0.5196 0.1562
0.2188 0.5416 0.1634
0.2817 0.5666 0.1768
0.4028 0.5970 0.2141
0.5505 0.6171 0.2624
0.6822 0.6304 0.2942
0.8007 0.6498 0.3098
0.9085 0.6695 0.3249
0.9862 0.6849 0.3384
0.2224 0.6244 0.1820
0.2582 0.6428 0.1878
0.3262 0.6706 0.2014
0.4540 0.7090 0.2464
0.6004 0.7362 0.3014
0.7107 0.7483 0.3471
0.8213 0.7609 0.3729
0.9300 0.7779 0.3896
1.0000 0.7925 0.4036
0.2580 0.6972 0.2092
0.2938 0.7176 0.2156
0.3663 0.7501 0.2281
0.5043 0.7971 0.2813
0.6437 0.8306 0.3370
0.7496 0.8490 0.3857
0.8450 0.8553 0.4296
0.9458 0.8701 0.4493
1.0000 0.8804 0.4624
0.2943 0.7584 0.2383
0.3306 0.7811 0.2463
0.4092 0.8175 0.2565
0.5527 0.8748 0.3165
0.6837 0.9109 0.3727
0.7865 0.9329 0.4215
0.8787 0.9454 0.4675
0.9564 0.9530 0.5069
1.0000 0.9647 0.5211
0.0094 0.0209 0.1464
0.0830 0.0240 0.1537
0.1344 0.0252 0.1671
0.2123 0.0266 0.1782
0.3585 0.0360 0.1833
0.5303 0.0405 0.1890
0.6569 0.0483 0.1974
0.7485 0.0526 0.2097
0.8220 0.0551 0.2216
0.0302 0.0699 0.1741
0.0949 0.0758 0.1798
0.1473 0.0785 0.1921
0.2372 0.0801 0.2043
0.3924 0.0881 0.2097
0.5638 0.0949 0.2173
0.6816 0.0995 0.2271
0.7735 0.1034 0.2370
0.8490 0.1069 0.2516
0.0541 0.1170 0.2036
0.1055 0.1256 0.2097
0.1602 0.1304 0.2192
0.2622 0.1344 0.2328
0.4305 0.1465 0.2388
0.5941 0.1622 0.2446
0.7089 0.1701 0.2570
0.8034 0.1828 0.2672
0.8766 0.1941 0.2804
0.0837 0.2053 0.2435
0.1296 0.2190 0.2514
0.1832 0.2367 0.2593
0.2939 0.2597 0.2605
0.4677 0.2861 0.2679
0.6239 0.3092 0.2739
0.7391 0.3337 0.2844
0.8361 0.3570 0.2970
0.9115 0.3782 0.3105
0.1405 0.3774 0.2737
0.1823 0.4020 0.2808
0.2369 0.4239 0.2898
0.3466 0.4482 0.2922
0.5038 0.4632 0.3167
0.6545 0.4882 0.3280
0.7728 0.5118 0.3411
0.8797 0.5335 0.3547
0.9597 0.5543 0.3692
0.2020 0.5368 0.3034
0.2369 0.5558 0.3111
0.2925 0.5785 0.3155
0.4079 0.6079 0.3217
0.5556 0.6264 0.3612
0.6831 0.6397 0.3896
0.7995 0.6574 0.4028
0.9066 0.6781 0.4175
0.9833 0.6926 0.4309
0.2523 0.6473 0.3318
0.2853 0.6651 0.3419
0.3431 0.6887 0.3452
0.4592 0.7213 0.3526
0.6025 0.7462 0.3964
0.7144 0.7570 0.4359
0.8216 0.7685 0.4603
0.9274 0.7854 0.4734
0.9946 0.8000 0.4862
0.2978 0.7276 0.3640
0.3298 0.7469 0.3736
0.3896 0.7739 0.3754
0.5091 0.8097 0.3845
0.6455 0.8415 0.4308
0.7511 0.8582 0.4700
0.8466 0.8636 0.5072
0.9444 0.8764 0.5251
1.0000 0.8877 0.5372
0.3399 0.7940 0.3968
0.3714 0.8135 0.4050
0.4347 0.8446 0.4052
0.5554 0.8855 0.4154
0.6853 0.9221 0.4615
0.7875 0.9404 0.5018
0.8803 0.9542 0.5405
0.9549 0.9589 0.5740
1.0000 0.9716 0.5885
0.0134 0.0211 0.2633
0.0861 0.0259 0.2789
0.1364 0.0247 0.2925
0.2153 0.0232 0.3072
0.3628 0.0105 0.3207
0.5403 0.0116 0.3281
0.6728 0.0122 0.3385
0.7712 0.0144 0.3506
0.8532 0.0122 0.3636
0.0344 0.0702 0.2991
0.0953 0.0759 0.3067
0.1487 0.0775 0.3228
0.2406 0.0738 0.3381
0.3970 0.0643 0.3515
0.5703 0.0643 0.3589
0.6973 0.0687 0.3693
0.7966 0.0672 0.3817
0.8782 0.0700 0.3925
0.0566 0.1188 0.3344
0.1095 0.1265 0.3404
0.1644 0.1334 0.3536
0.2677 0.1331 0.3694
0.4351 0.1252 0.3822
0.6000 0.1330 0.3899
0.7210 0.1421 0.3987
0.8230 0.1529 0.4082
0.9033 0.1636 0.4190
0.0903 0.2099 0.3774
0.1331 0.2248 0.3866
0.1887 0.2444 0.3949
0.2988 0.2619 0.4005
0.4711 0.2735 0.4113
0.6284 0.2962 0.4166
0.7486 0.3175 0.4247
0.8510 0.3389 0.4340
0.9293 0.3641 0.4445
0.1595 0.3815 0.4324
0.1960 0.4021 0.4425
0.2468 0.4256 0.4483
0.3489 0.4500 0.4426
0.5058 0.4730 0.4396
0.6565 0.4995 0.4461
0.7755 0.5228 0.4552
0.8792 0.5448 0.4651
0.9575 0.5650 0.4735
0.2305 0.5489 0.4628
0.2628 0.5692 0.4702
0.3119 0.5886 0.4730
0.4132 0.6150 0.4654
0.5581 0.6355 0.4713
0.6827 0.6469 0.4924
0.7991 0.6651 0.4991
0.9057 0.6853 0.5102
0.9796 0.7010 0.5219
0.2906 0.6671 0.4893
0.3184 0.6833 0.4968
0.3683 0.7040 0.4979
0.4703 0.7320 0.4884
0.6072 0.7558 0.4959
0.7175 0.7652 0.5261
0.8238 0.7756 0.5463
0.9233 0.7922 0.5570
0.9936 0.8069 0.5675
0.3407 0.7523 0.5173
0.3675 0.7698 0.5240
0.4189 0.7931 0.5181
0.5204 0.8229 0.5081
0.6504 0.8517 0.5242
0.7523 0.8634 0.5549
0.8485 0.8714 0.5848
0.9428 0.8805 0.6009
1.0000 0.8943 0.6110
0.3871 0.8227 0.5411
0.4130 0.8400 0.5466
0.4671 0.8680 0.5432
0.5664 0.9001 0.5302
0.6878 0.9324 0.5483
0.7895 0.9496 0.5819
0.8823 0.9624 0.6133
0.9569 0.9664 0.6429
1.0000 0.9775 0.6582
0.0177 0.0254 0.4001
0.0871 0.0266 0.4141
0.1385 0.0264 0.4276
0.2194 0.0205 0.4412
0.3656 0.0000 0.4547
0.5429 0.0000 0.4645
0.6809 0.0000 0.4719
0.7863 0.0000 0.4773
0.8750 0.0000 0.4877
0.0388 0.0715 0.4335
0.0990 0.0794 0.4407
0.1513 0.0786 0.4543
0.2447 0.0752 0.4681
0.4033 0.0509 0.4817
0.5754 0.0316 0.4870
0.7059 0.0300 0.4947
0.8121 0.0286 0.5041
0.8955 0.0294 0.5134
0.0615 0.1212 0.4658
0.1104 0.1298 0.4713
0.1652 0.1338 0.4812
0.2737 0.1333 0.4911
0.4399 0.1156 0.5051
0.6054 0.1039 0.5140
0.7273 0.1128 0.5209
0.8350 0.1223 0.5273
0.9200 0.1317 0.5374
0.0952 0.2140 0.5060
0.1386 0.2310 0.5097
0.1937 0.2489 0.5154
0.3057 0.2685 0.5183
0.4752 0.2701 0.5303
0.6307 0.2826 0.5366
0.7535 0.3028 0.5436
0.8602 0.3232 0.5495
0.9425 0.3433 0.5599
0.1697 0.3889 0.5564
0.2048 0.4080 0.5647
0.2555 0.4307 0.5678
0.3573 0.4556 0.5608
0.5131 0.4767 0.5538
0.6581 0.4992 0.5590
0.7776 0.5191 0.5666
0.8828 0.5427 0.5760
0.9610 0.5614 0.5840
0.2608 0.5577 0.5972
0.2891 0.5749 0.6032
0.3331 0.5942 0.6040
0.4253 0.6184 0.5941
0.5615 0.6435 0.5823
0.6830 0.6537 0.5925
0.7989 0.6756 0.5981
0.9052 0.6922 0.6066
0.9782 0.7103 0.6179
0.3261 0.6800 0.6216
0.3509 0.6954 0.6261
0.3946 0.7139 0.6269
0.4856 0.7382 0.6178
0.6094 0.7629 0.6029
0.7195 0.7733 0.6204
0.8239 0.7824 0.6379
0.9233 0.7995 0.6477
0.9890 0.8137 0.6580
0.3823 0.7705 0.6466
0.4053 0.7868 0.6541
0.4483 0.8053 0.6479
0.5374 0.8332 0.6375
0.6533 0.8603 0.6278
0.7568 0.8721 0.6469
0.8505 0.8793 0.6725
0.9397 0.8872 0.6864
1.0000 0.9013 0.6984
0.4327 0.8443 0.6711
0.4541 0.8606 0.6773
0.4997 0.8848 0.6733
0.5879 0.9144 0.6606
0.6932 0.9403 0.6508
0.7915 0.9588 0.6719
0.8835 0.9672 0.6999
0.9575 0.9743 0.7255
1.0000 0.9812 0.7373
0.0215 0.0256 0.5181
0.0902 0.0256 0.5284
0.1426 0.0258 0.5409
0.2245 0.0218 0.5529
0.3737 0.0000 0.5649
0.5466 0.0000 0.5786
0.6842 0.0000 0.5881
0.7953 0.0000 0.5937
0.8901 0.0000 0.6033
0.0432 0.0746 0.5470
0.0995 0.0796 0.5529
0.1555 0.0796 0.5644
0.2504 0.0731 0.5781
0.4108 0.0451 0.5923
0.5764 0.0036 0.6022
0.7090 0.0000 0.6111
0.8206 0.0000 0.6202
0.9100 0.0000 0.6299
0.0661 0.1232 0.5754
0.1141 0.1308 0.5809
0.1685 0.1368 0.5918
0.2799 0.1329 0.6017
0.4452 0.1159 0.6155
0.6060 0.0806 0.6292
0.7328 0.0801 0.6371
0.8425 0.0871 0.6456
0.9299 0.0951 0.6541
0.0996 0.2180 0.6165
0.1421 0.2368 0.6208
0.1963 0.2564 0.6274
0.3110 0.2735 0.6292
0.4833 0.2728 0.6419
0.6344 0.2648 0.6542
0.7551 0.2803 0.6617
0.8656 0.3015 0.6704
0.9502 0.3195 0.6807
0.1787 0.3963 0.6680
0.2134 0.4159 0.6764
0.2630 0.4361 0.6796
0.3633 0.4601 0.6727
0.5186 0.4830 0.6662
0.6596 0.4907 0.6799
0.7791 0.5083 0.6885
0.8866 0.5295 0.6931
0.9673 0.5485 0.7039
0.2819 0.5627 0.7193
0.3080 0.5782 0.7252
0.3514 0.5972 0.7272
0.4373 0.6189 0.7194
0.5632 0.6417 0.7081
0.6848 0.6569 0.7037
0.7995 0.6765 0.7127
0.9060 0.6919 0.7207
0.9766 0.7100 0.7277
0.3667 0.6903 0.7542
0.3875 0.7039 0.7617
0.4253 0.7204 0.7615
0.5021 0.7405 0.7480
0.6149 0.7611 0.7377
0.7199 0.7788 0.7327
0.8242 0.7893 0.7400
0.9231 0.8064 0.7488
0.9885 0.8205 0.7561
0.4285 0.7855 0.7816
0.4468 0.8004 0.7843
0.4828 0.8165 0.7829
0.5596 0.8402 0.7708
0.6624 0.8616 0.7583
0.7590 0.8789 0.7547
0.8520 0.8843 0.7677
0.9400 0.8939 0.7783
0.9969 0.9077 0.7890
0.4835 0.8620 0.8066
0.5007 0.8786 0.8101
0.5356 0.8979 0.8034
0.6120 0.9250 0.7908
0.7028 0.9455 0.7806
0.7935 0.9666 0.7735
0.8855 0.9752 0.7909
0.9579 0.9819 0.8099
1.0000 0.9875 0.8218
0.0257 0.0298 0.6285
0.0912 0.0277 0.6400
0.1446 0.0278 0.6523
0.2317 0.0187 0.6657
0.3817 0.0000 0.6794
0.5517 0.0000 0.6930
0.6848 0.0000 0.7032
0.7999 0.0000 0.7139
0.9008 0.0000 0.7234
0.0473 0.0759 0.6571
0.1031 0.0791 0.6652
0.1569 0.0810 0.6794
0.2568 0.0742 0.6930
0.4154 0.0441 0.7032
0.5839 0.0000 0.7175
0.7095 0.0000 0.7304
0.8249 0.0000 0.7371
0.9194 0.0000 0.7472
0.0698 0.1256 0.6903
0.1151 0.1340 0.6957
0.1725 0.1405 0.7027
0.2859 0.1350 0.7170
0.4533 0.1103 0.7295
0.6137 0.0782 0.7408
0.7342 0.0489 0.7541
0.8459 0.0479 0.7605
0.9377 0.0550 0.7666
0.1055 0.2254 0.7283
0.1478 0.2430 0.7365
0.2013 0.2608 0.7405
0.3178 0.2800 0.7403
0.4914 0.2788 0.7532
0.6385 0.2705 0.7646
0.7553 0.2614 0.7746
0.8675 0.2768 0.7831
0.9532 0.2957 0.7904
0.1860 0.4007 0.7820
0.2216 0.4237 0.7891
0.2716 0.4441 0.7925
0.3725 0.4685 0.7837
0.5253 0.4909 0.7741
0.6648 0.4963 0.7865
0.7801 0.4999 0.7980
0.8880 0.5138 0.8034
0.9681 0.5311 0.8055
0.2937 0.5693 0.8322
0.3194 0.5858 0.8375
0.3614 0.6039 0.8356
0.4448 0.6241 0.8256
0.5707 0.6459 0.8122
0.6889 0.6631 0.8075
0.8017 0.6700 0.8137
0.9080 0.6860 0.8185
0.9782 0.6998 0.8261
0.3944 0.6959 0.8728
0.4123 0.7089 0.8770
0.4453 0.7242 0.8750
0.5172 0.7427 0.8612
0.6209 0.7613 0.8428
0.7205 0.7778 0.8345
0.8263 0.7917 0.8343
0.9247 0.8077 0.8350
0.9862 0.8217 0.8387
0.4751 0.7967 0.9049
0.4879 0.8082 0.9069
0.5148 0.8236 0.8955
0.5810 0.8439 0.8801
0.6704 0.8594 0.8675
0.7604 0.8771 0.8552
0.8542 0.8898 0.8467
0.9402 0.8998 0.8533
0.9980 0.9103 0.8578
0.5304 0.8763 0.9201
0.5426 0.8915 0.9207
0.5688 0.9081 0.9123
0.6329 0.9312 0.8919
0.7138 0.9491 0.8776
0.7970 0.9669 0.8679
0.8882 0.9822 0.8598
0.9603 0.9860 0.8704
1.0000 0.9930 0.8768
0.0258 0.0298 0.7406
0.0943 0.0284 0.7523
0.1466 0.0274 0.7636
0.2358 0.0156 0.7736
0.3858 0.0000 0.7855
0.5587 0.0000 0.7975
0.6889 0.0000 0.8075
0.8017 0.0000 0.8137
0.9064 0.0000 0.8199
0.0512 0.0789 0.7687
0.1036 0.0829 0.7732
0.1596 0.0821 0.7846
0.2609 0.0715 0.7970
0.4235 0.0394 0.8075
0.5885 0.0000 0.8137
0.7136 0.0000 0.8237
0.8263 0.0000 0.8343
0.9244 0.0000 0.8365
0.0720 0.1273 0.7960
0.1188 0.1350 0.8002
0.1766 0.1407 0.8070
0.2925 0.1373 0.8132
0.4616 0.1104 0.8233
0.6178 0.0779 0.8338
0.7387 0.0477 0.8400
0.8469 0.0167 0.8475
0.9407 0.0235 0.8510
0.1102 0.2300 0.8331
0.1513 0.2487 0.8336
0.2069 0.2687 0.8354
0.3232 0.2850 0.8333
0.4976 0.2842 0.8398
0.6432 0.2768 0.8475
0.7594 0.2675 0.8551
0.8684 0.2569 0.8616
0.9561 0.2821 0.8620
0.1948 0.4086 0.8767
0.2286 0.4288 0.8820
0.2791 0.4509 0.8795
0.3807 0.4728 0.8664
0.5335 0.4960 0.8551
0.6717 0.4999 0.8619
0.7846 0.5031 0.8667
0.8896 0.5056 0.8694
0.9689 0.5203 0.8715
0.3017 0.5733 0.9202
0.3275 0.5905 0.9218
0.3697 0.6092 0.9173
0.4545 0.6312 0.9013
0.5763 0.6500 0.8812
0.6949 0.6692 0.8705
0.8068 0.6731 0.8762
0.9103 0.6817 0.8803
0.9780 0.6950 0.8804
0.4040 0.6999 0.9545
0.4211 0.7129 0.9534
0.4535 0.7283 0.9444
0.5258 0.7470 0.9235
0.6261 0.7653 0.9048
0.7250 0.7819 0.8928
0.8303 0.7959 0.8859
0.9278 0.8063 0.8873
0.9892 0.8175 0.8876
0.4983 0.8025 0.9822
0.5070 0.8120 0.9768
0.5329 0.8282 0.9649
0.5944 0.8470 0.9457
0.6773 0.8612 0.9262
0.7636 0.8773 0.9124
0.8542 0.8893 0.9000
0.9399 0.9046 0.8949
0.9966 0.9146 0.8956
0.5630 0.8856 0.9933
0.5689 0.8967 0.9894
0.5900 0.9145 0.9733
0.6459 0.9322 0.9500
0.7240 0.9522 0.9308
0.8037 0.9666 0.9166
0.8902 0.9843 0.9038
0.9617 0.9895 0.9045
1.0000 0.9976 0.9089
