70 CGC LUTs/Film Emulation/Fuji Eterna 8563.cube
#Created by: Denver Riddle
#Copyright: (C) Copyright Color Grading Central LLC
DOMAIN_MIN 0.0 0.0 0.0
DOMAIN_MAX 1.0 1.0 1.0
LUT_3D_SIZE 33
0.0000 0.0000 0.0000
0.0232 0.0000 0.0000
0.0461 0.0000 0.0000
0.0759 0.0000 0.0000
0.0981 0.0000 0.0000
0.1232 0.0000 0.0000
0.1486 0.0000 0.0000
0.1729 0.0000 0.0000
0.1969 0.0000 0.0000
0.2205 0.0000 0.0000
0.2504 0.0000 0.0000
0.2731 0.0000 0.0000
0.2980 0.0000 0.0000
0.3201 0.0000 0.0000
0.3473 0.0000 0.0000
0.3719 0.0000 0.0000
0.3969 0.0000 0.0000
0.4205 0.0000 0.0000
0.4429 0.0000 0.0000
0.4672 0.0000 0.0000
0.4886 0.0000 0.0000
0.5120 0.0000 0.0000
0.5322 0.0000 0.0000
0.5482 0.0000 0.0000
0.5677 0.0000 0.0000
0.5871 0.0000 0.0000
0.6036 0.0000 0.0000
0.6197 0.0000 0.0000
0.6343 0.0000 0.0000
0.6479 0.0000 0.0000
0.6591 0.0000 0.0000
0.6683 0.0000 0.0000
0.6771 0.0000 0.0000
0.0063 0.0242 0.0000
0.0278 0.0156 0.0000
0.0509 0.0139 0.0000
0.0809 0.0119 0.0000
0.1033 0.0102 0.0000
0.1285 0.0082 0.0000
0.1541 0.0065 0.0000
0.1786 0.0045 0.0000
0.2027 0.0025 0.0000
0.2296 0.0005 0.0000
0.2566 0.0000 0.0000
0.2795 0.0000 0.0000
0.3045 0.0000 0.0000
0.3269 0.0000 0.0000
0.3551 0.0000 0.0000
0.3792 0.0000 0.0000
0.4042 0.0000 0.0000
0.4281 0.0000 0.0000
0.4507 0.0000 0.0000
0.4750 0.0000 0.0000
0.4967 0.0000 0.0000
0.5200 0.0000 0.0000
0.5371 0.0000 0.0000
0.5569 0.0000 0.0000
0.5769 0.0000 0.0000
0.5959 0.0000 0.0000
0.6124 0.0000 0.0000
0.6294 0.0000 0.0000
0.6435 0.0000 0.0000
0.6572 0.0000 0.0000
0.6688 0.0000 0.0000
0.6781 0.0000 0.0000
0.6876 0.0000 0.0000
0.0139 0.0520 0.0000
0.0349 0.0469 0.0000
0.0566 0.0388 0.0000
0.0868 0.0368 0.0000
0.1094 0.0351 0.0000
0.1349 0.0332 0.0000
0.1607 0.0314 0.0000
0.1854 0.0294 0.0000
0.2097 0.0275 0.0000
0.2376 0.0255 0.0000
0.2639 0.0229 0.0000
0.2870 0.0190 0.0000
0.3127 0.0151 0.0000
0.3349 0.0131 0.0000
0.3634 0.0109 0.0000
0.3877 0.0086 0.0000
0.4130 0.0062 0.0000
0.4372 0.0039 0.0000
0.4599 0.0017 0.0000
0.4845 0.0000 0.0000
0.5066 0.0000 0.0000
0.5302 0.0000 0.0000
0.5467 0.0000 0.0000
0.5672 0.0000 0.0000
0.5871 0.0000 0.0000
0.6066 0.0000 0.0000
0.6236 0.0000 0.0000
0.6406 0.0000 0.0000
0.6547 0.0000 0.0000
0.6688 0.0000 0.0000
0.6805 0.0000 0.0000
0.6934 0.0000 0.0000
0.7024 0.0000 0.0000
0.0213 0.0785 0.0000
0.0423 0.0742 0.0000
0.0631 0.0672 0.0000
0.0924 0.0611 0.0000
0.1152 0.0594 0.0000
0.1444 0.0574 0.0000
0.1669 0.0557 0.0000
0.1919 0.0537 0.0000
0.2164 0.0517 0.0000
0.2444 0.0497 0.0000
0.2712 0.0475 0.0000
0.2943 0.0440 0.0000
0.3203 0.0396 0.0000
0.3443 0.0374 0.0000
0.3714 0.0351 0.0000
0.3960 0.0329 0.0000
0.4215 0.0305 0.0000
0.4461 0.0282 0.0000
0.4687 0.0259 0.0000
0.4937 0.0234 0.0000
0.5161 0.0188 0.0000
0.5371 0.0148 0.0000
0.5565 0.0125 0.0000
0.5769 0.0103 0.0000
0.5973 0.0080 0.0000
0.6168 0.0058 0.0000
0.6343 0.0038 0.0000
0.6513 0.0019 0.0000
0.6654 0.0001 0.0000
0.6795 0.0000 0.0000
0.6951 0.0000 0.0000
0.7048 0.0000 0.0000
0.7136 0.0000 0.0000
0.0280 0.1023 0.0000
0.0490 0.0987 0.0000
0.0732 0.0942 0.0000
0.0974 0.0834 0.0015
0.1203 0.0816 0.0000
0.1501 0.0797 0.0000
0.1723 0.0780 0.0000
0.1976 0.0760 0.0000
0.2223 0.0740 0.0000
0.2506 0.0720 0.0000
0.2773 0.0690 0.0000
0.3009 0.0650 0.0000
0.3269 0.0616 0.0000
0.3534 0.0597 0.0000
0.3787 0.0574 0.0000
0.4033 0.0552 0.0000
0.4290 0.0527 0.0000
0.4539 0.0504 0.0000
0.4767 0.0482 0.0000
0.5020 0.0444 0.0000
0.5244 0.0399 0.0000
0.5443 0.0370 0.0000
0.5652 0.0348 0.0000
0.5861 0.0326 0.0000
0.6066 0.0303 0.0000
0.6264 0.0281 0.0000
0.6440 0.0261 0.0000
0.6606 0.0241 0.0000
0.6751 0.0212 0.0000
0.6924 0.0178 0.0000
0.7053 0.0153 0.0000
0.7150 0.0141 0.0000
0.7238 0.0129 0.0000
0.0355 0.1281 0.0000
0.0565 0.1252 0.0000
0.0814 0.1214 0.0000
0.1053 0.1138 0.0000
0.1261 0.1062 0.0019
0.1560 0.1043 0.0000
0.1784 0.1026 0.0000
0.2038 0.1006 0.0000
0.2328 0.0986 0.0000
0.2573 0.0966 0.0000
0.2843 0.0944 0.0000
0.3082 0.0907 0.0000
0.3344 0.0862 0.0000
0.3612 0.0842 0.0000
0.3865 0.0820 0.0000
0.4113 0.0798 0.0000
0.4375 0.0774 0.0000
0.4624 0.0750 0.0000
0.4855 0.0728 0.0000
0.5110 0.0700 0.0000
0.5336 0.0655 0.0000
0.5535 0.0616 0.0000
0.5750 0.0594 0.0000
0.5959 0.0572 0.0000
0.6168 0.0549 0.0000
0.6372 0.0527 0.0000
0.6542 0.0507 0.0000
0.6712 0.0487 0.0000
0.6866 0.0469 0.0000
0.7043 0.0434 0.0000
0.7165 0.0405 0.0000
0.7262 0.0386 0.0000
0.7389 0.0375 0.0000
0.0432 0.1536 0.0000
0.0641 0.1514 0.0000
0.0890 0.1484 0.0000
0.1132 0.1425 0.0000
0.1337 0.1344 0.0014
0.1620 0.1293 0.0020
0.1845 0.1276 0.0000
0.2101 0.1256 0.0000
0.2393 0.1236 0.0000
0.2641 0.1216 0.0000
0.2914 0.1193 0.0000
0.3155 0.1171 0.0000
0.3429 0.1126 0.0000
0.3687 0.1092 0.0000
0.3945 0.1070 0.0000
0.4196 0.1047 0.0000
0.4458 0.1023 0.0000
0.4709 0.1000 0.0000
0.4945 0.0978 0.0000
0.5200 0.0953 0.0000
0.5390 0.0919 0.0000
0.5633 0.0869 0.0000
0.5847 0.0844 0.0000
0.6061 0.0821 0.0000
0.6275 0.0799 0.0000
0.6474 0.0776 0.0000
0.6649 0.0756 0.0000
0.6819 0.0737 0.0000
0.7009 0.0719 0.0000
0.7155 0.0699 0.0000
0.7277 0.0669 0.0000
0.7413 0.0645 0.0000
0.7508 0.0625 0.0000
0.0509 0.1786 0.0000
0.0757 0.1770 0.0000
0.0967 0.1730 0.0000
0.1208 0.1670 0.0000
0.1456 0.1628 0.0000
0.1687 0.1558 0.0040
0.1906 0.1523 0.0030
0.2164 0.1503 0.0000
0.2457 0.1484 0.0000
0.2707 0.1464 0.0000
0.2982 0.1433 0.0000
0.3225 0.1393 0.0000
0.3532 0.1361 0.0000
0.3765 0.1341 0.0000
0.4023 0.1318 0.0000
0.4276 0.1296 0.0000
0.4541 0.1272 0.0000
0.4794 0.1249 0.0000
0.5032 0.1226 0.0000
0.5292 0.1201 0.0000
0.5482 0.1178 0.0000
0.5730 0.1132 0.0000
0.5944 0.1092 0.0000
0.6158 0.1070 0.0000
0.6372 0.1047 0.0000
0.6576 0.1025 0.0000
0.6756 0.1005 0.0000
0.6966 0.0986 0.0000
0.7116 0.0968 0.0000
0.7262 0.0951 0.0000
0.7423 0.0931 0.0000
0.7530 0.0907 0.0000
0.7622 0.0884 0.0000
0.0600 0.2027 0.0000
0.0848 0.2020 0.0000
0.1057 0.2005 0.0000
0.1298 0.1977 0.0000
0.1546 0.1943 0.0000
0.1783 0.1889 0.0020
0.1985 0.1826 0.0060
0.2235 0.1790 0.0046
0.2532 0.1770 0.0003
0.2783 0.1735 0.0000
0.3062 0.1692 0.0000
0.3308 0.1669 0.0000
0.3614 0.1647 0.0000
0.3853 0.1627 0.0000
0.4113 0.1605 0.0000
0.4369 0.1582 0.0000
0.4638 0.1558 0.0000
0.4894 0.1534 0.0000
0.5134 0.1511 0.0000
0.5371 0.1487 0.0000
0.5589 0.1464 0.0000
0.5837 0.1430 0.0000
0.6056 0.1385 0.0000
0.6275 0.1356 0.0000
0.6489 0.1333 0.0000
0.6698 0.1311 0.0000
0.6895 0.1292 0.0000
0.7092 0.1272 0.0000
0.7243 0.1254 0.0000
0.7433 0.1237 0.0000
0.7559 0.1222 0.0000
0.7676 0.1210 0.0000
0.7793 0.1199 0.0000
0.0714 0.2301 0.0000
0.0938 0.2301 0.0000
0.1147 0.2293 0.0000
0.1403 0.2275 0.0000
0.1636 0.2249 0.0000
0.1876 0.2209 0.0000
0.2081 0.2120 0.0042
0.2350 0.2048 0.0090
0.2604 0.2017 0.0065
0.2858 0.1998 0.0023
0.3143 0.1976 0.0000
0.3388 0.1955 0.0000
0.3699 0.1933 0.0000
0.3940 0.1914 0.0000
0.4200 0.1892 0.0000
0.4463 0.1868 0.0000
0.4733 0.1845 0.0000
0.4992 0.1820 0.0000
0.5234 0.1798 0.0000
0.5458 0.1774 0.0000
0.5696 0.1738 0.0000
0.5949 0.1689 0.0000
0.6168 0.1664 0.0000
0.6391 0.1642 0.0000
0.6606 0.1621 0.0000
0.6815 0.1597 0.0000
0.7039 0.1578 0.0000
0.7214 0.1558 0.0000
0.7408 0.1541 0.0000
0.7564 0.1522 0.0000
0.7725 0.1507 0.0000
0.7832 0.1497 0.0000
0.7924 0.1484 0.0000
0.0846 0.2594 0.0000
0.1056 0.2603 0.0000
0.1265 0.2606 0.0000
0.1544 0.2599 0.0000
0.1752 0.2584 0.0000
0.1993 0.2557 0.0000
0.2204 0.2523 0.0015
0.2476 0.2464 0.0069
0.2705 0.2394 0.0120
0.2953 0.2358 0.0108
0.3240 0.2335 0.0062
0.3529 0.2315 0.0021
0.3807 0.2293 0.0000
0.4047 0.2273 0.0000
0.4315 0.2251 0.0000
0.4580 0.2229 0.0000
0.4852 0.2205 0.0000
0.5117 0.2166 0.0000
0.5361 0.2122 0.0000
0.5589 0.2094 0.0000
0.5827 0.2072 0.0000
0.6085 0.2046 0.0000
0.6314 0.2024 0.0000
0.6537 0.2003 0.0000
0.6756 0.1979 0.0000
0.7005 0.1958 0.0000
0.7189 0.1938 0.0000
0.7408 0.1917 0.0000
0.7574 0.1900 0.0000
0.7764 0.1883 0.0000
0.7890 0.1868 0.0000
0.7997 0.1856 0.0000
0.8094 0.1845 0.0000
0.0952 0.2842 0.0000
0.1160 0.2861 0.0000
0.1368 0.2871 0.0000
0.1648 0.2873 0.0000
0.1856 0.2868 0.0000
0.2097 0.2851 0.0000
0.2346 0.2827 0.0000
0.2587 0.2791 0.0050
0.2817 0.2727 0.0103
0.3043 0.2658 0.0156
0.3325 0.2619 0.0141
0.3617 0.2599 0.0100
0.3899 0.2577 0.0056
0.4142 0.2557 0.0015
0.4415 0.2535 0.0000
0.4680 0.2512 0.0000
0.4957 0.2488 0.0000
0.5224 0.2464 0.0000
0.5433 0.2442 0.0000
0.5706 0.2417 0.0000
0.5944 0.2394 0.0000
0.6207 0.2370 0.0000
0.6440 0.2347 0.0000
0.6664 0.2325 0.0000
0.6915 0.2303 0.0000
0.7141 0.2280 0.0000
0.7361 0.2260 0.0000
0.7554 0.2241 0.0000
0.7754 0.2224 0.0000
0.7905 0.2206 0.0000
0.8036 0.2186 0.0000
0.8143 0.2164 0.0000
0.8279 0.2139 0.0000
0.1083 0.3146 0.0000
0.1290 0.3172 0.0000
0.1538 0.3194 0.0000
0.1778 0.3209 0.0000
0.1987 0.3214 0.0000
0.2228 0.3209 0.0000
0.2475 0.3197 0.0000
0.2715 0.3172 0.0019
0.2955 0.3136 0.0082
0.3186 0.3073 0.0138
0.3473 0.2997 0.0201
0.3724 0.2953 0.0204
0.4011 0.2932 0.0161
0.4259 0.2910 0.0122
0.4534 0.2888 0.0078
0.4804 0.2866 0.0034
0.5088 0.2842 0.0000
0.5356 0.2820 0.0000
0.5569 0.2798 0.0000
0.5847 0.2772 0.0000
0.6090 0.2751 0.0000
0.6362 0.2725 0.0000
0.6591 0.2703 0.0000
0.6819 0.2681 0.0000
0.7087 0.2658 0.0000
0.7312 0.2636 0.0000
0.7535 0.2617 0.0000
0.7764 0.2596 0.0000
0.7924 0.2579 0.0000
0.8080 0.2562 0.0000
0.8229 0.2547 0.0000
0.8362 0.2535 0.0000
0.8428 0.2524 0.0000
0.1214 0.3435 0.0000
0.1462 0.3472 0.0000
0.1670 0.3503 0.0000
0.1911 0.3530 0.0000
0.2119 0.3544 0.0000
0.2397 0.3552 0.0000
0.2607 0.3552 0.0000
0.2846 0.3540 0.0000
0.3084 0.3518 0.0054
0.3327 0.3484 0.0120
0.3622 0.3416 0.0186
0.3853 0.3350 0.0245
0.4118 0.3289 0.0270
0.4372 0.3270 0.0233
0.4650 0.3248 0.0190
0.4925 0.3226 0.0148
0.5215 0.3202 0.0102
0.5448 0.3177 0.0058
0.5706 0.3155 0.0016
0.5983 0.3131 0.0000
0.6236 0.3107 0.0000
0.6508 0.3082 0.0000
0.6742 0.3058 0.0000
0.7014 0.3036 0.0000
0.7243 0.3014 0.0000
0.7508 0.2992 0.0000
0.7739 0.2973 0.0000
0.7929 0.2953 0.0000
0.8094 0.2934 0.0000
0.8294 0.2917 0.0000
0.8428 0.2903 0.0000
0.8498 0.2890 0.0000
0.8600 0.2881 0.0000
0.1347 0.3712 0.0000
0.1594 0.3761 0.0000
0.1802 0.3800 0.0000
0.2042 0.3839 0.0000
0.2267 0.3863 0.0000
0.2530 0.3883 0.0000
0.2736 0.3892 0.0000
0.2977 0.3895 0.0000
0.3218 0.3885 0.0026
0.3498 0.3866 0.0096
0.3765 0.3824 0.0171
0.3996 0.3766 0.0233
0.4249 0.3690 0.0302
0.4483 0.3627 0.0347
0.4765 0.3605 0.0307
0.5044 0.3583 0.0266
0.5336 0.3559 0.0222
0.5574 0.3535 0.0179
0.5837 0.3513 0.0138
0.6119 0.3489 0.0093
0.6377 0.3464 0.0051
0.6649 0.3440 0.0006
0.6924 0.3418 0.0000
0.7165 0.3396 0.0000
0.7437 0.3374 0.0000
0.7696 0.3352 0.0000
0.7905 0.3331 0.0000
0.8099 0.3311 0.0000
0.8304 0.3294 0.0000
0.8428 0.3277 0.0000
0.8561 0.3262 0.0000
0.8673 0.3250 0.0000
0.8784 0.3241 0.0000
0.1518 0.3980 0.0000
0.1726 0.4033 0.0000
0.1935 0.4082 0.0000
0.2174 0.4131 0.0000
0.2420 0.4165 0.0000
0.2659 0.4196 0.0000
0.2868 0.4216 0.0000
0.3107 0.4228 0.0000
0.3349 0.4233 0.0000
0.3627 0.4225 0.0071
0.3899 0.4206 0.0152
0.4135 0.4167 0.0221
0.4393 0.4101 0.0293
0.4621 0.4038 0.0358
0.4874 0.3960 0.0426
0.5156 0.3938 0.0387
0.5414 0.3914 0.0344
0.5696 0.3892 0.0303
0.5963 0.3870 0.0263
0.6253 0.3846 0.0219
0.6513 0.3822 0.0179
0.6790 0.3797 0.0135
0.7073 0.3775 0.0096
0.7332 0.3753 0.0056
0.7593 0.3727 0.0016
0.7866 0.3705 0.0000
0.8065 0.3686 0.0000
0.8299 0.3666 0.0000
0.8430 0.3649 0.0000
0.8595 0.3632 0.0000
0.8731 0.3617 0.0000
0.8814 0.3605 0.0000
0.8916 0.3593 0.0000
0.1665 0.4259 0.0000
0.1873 0.4323 0.0000
0.2081 0.4380 0.0000
0.2358 0.4442 0.0000
0.2567 0.4486 0.0000
0.2804 0.4509 0.0000
0.3014 0.4520 0.0000
0.3254 0.4546 0.0000
0.3532 0.4563 0.0000
0.3772 0.4571 0.0043
0.4042 0.4566 0.0128
0.4283 0.4549 0.0203
0.4548 0.4509 0.0283
0.4777 0.4493 0.0351
0.5035 0.4425 0.0427
0.5288 0.4345 0.0503
0.5540 0.4308 0.0485
0.5827 0.4286 0.0445
0.6100 0.4262 0.0407
0.6396 0.4238 0.0365
0.6659 0.4216 0.0326
0.6980 0.4191 0.0284
0.7228 0.4169 0.0246
0.7514 0.4145 0.0208
0.7798 0.4123 0.0169
0.8031 0.4101 0.0131
0.8274 0.4082 0.0098
0.8435 0.4062 0.0064
0.8610 0.4045 0.0034
0.8780 0.4028 0.0005
0.8882 0.4014 0.0000
0.8979 0.4002 0.0000
0.9067 0.3990 0.0000
0.1797 0.4503 0.0000
0.2005 0.4534 0.0000
0.2213 0.4600 0.0000
0.2491 0.4670 0.0000
0.2697 0.4721 0.0000
0.2936 0.4775 0.0000
0.3147 0.4816 0.0000
0.3386 0.4853 0.0000
0.3663 0.4879 0.0000
0.3904 0.4899 0.0019
0.4174 0.4909 0.0106
0.4415 0.4906 0.0184
0.4684 0.4889 0.0272
0.4918 0.4850 0.0345
0.5176 0.4792 0.0424
0.5390 0.4724 0.0503
0.5662 0.4641 0.0588
0.5944 0.4605 0.0577
0.6221 0.4583 0.0541
0.6523 0.4556 0.0500
0.6790 0.4534 0.0463
0.7116 0.4510 0.0422
0.7408 0.4509 0.0385
0.7666 0.4505 0.0349
0.7944 0.4481 0.0312
0.8182 0.4459 0.0275
0.8425 0.4439 0.0243
0.8590 0.4420 0.0210
0.8774 0.4403 0.0182
0.8906 0.4386 0.0154
0.9008 0.4370 0.0130
0.9097 0.4357 0.0110
0.9198 0.4345 0.0091
0.1946 0.4719 0.0000
0.2153 0.4799 0.0000
0.2400 0.4872 0.0000
0.2637 0.4950 0.0000
0.2843 0.5015 0.0000
0.3082 0.5079 0.0000
0.3291 0.5130 0.0000
0.3568 0.5179 0.0000
0.3809 0.5217 0.0000
0.4047 0.5249 0.0000
0.4317 0.5273 0.0083
0.4560 0.5283 0.0164
0.4828 0.5283 0.0255
0.5071 0.5271 0.0336
0.5331 0.5230 0.0421
0.5550 0.5171 0.0504
0.5822 0.5101 0.0592
0.6085 0.5023 0.0679
0.6353 0.4974 0.0693
0.6659 0.4950 0.0654
0.6966 0.4926 0.0619
0.7257 0.4901 0.0580
0.7559 0.4879 0.0545
0.7851 0.4858 0.0509
0.8099 0.4836 0.0474
0.8381 0.4811 0.0439
0.8551 0.4792 0.0408
0.8763 0.4772 0.0376
0.8906 0.4755 0.0349
0.9042 0.4738 0.0322
0.9149 0.4724 0.0299
0.9227 0.4712 0.0280
0.9331 0.4700 0.0262
0.2078 0.4940 0.0000
0.2325 0.5028 0.0000
0.2532 0.5110 0.0000
0.2770 0.5198 0.0000
0.2977 0.5266 0.0000
0.3215 0.5302 0.0000
0.3434 0.5356 0.0000
0.3699 0.5414 0.0000
0.3940 0.5468 0.0000
0.4179 0.5507 0.0000
0.4451 0.5546 0.0062
0.4689 0.5565 0.0146
0.4959 0.5580 0.0240
0.5200 0.5580 0.0324
0.5428 0.5570 0.0418
0.5691 0.5521 0.0505
0.5963 0.5463 0.0596
0.6226 0.5395 0.0686
0.6484 0.5322 0.0771
0.6776 0.5293 0.0798
0.7087 0.5283 0.0763
0.7423 0.5259 0.0726
0.7729 0.5237 0.0692
0.7987 0.5215 0.0658
0.8279 0.5191 0.0625
0.8488 0.5169 0.0591
0.8697 0.5149 0.0561
0.8877 0.5130 0.0531
0.9018 0.5113 0.0505
0.9159 0.5096 0.0479
0.9266 0.5081 0.0456
0.9348 0.5069 0.0438
0.9448 0.5057 0.0421
0.2213 0.5154 0.0000
0.2458 0.5247 0.0000
0.2666 0.5298 0.0000
0.2902 0.5390 0.0000
0.3109 0.5468 0.0000
0.3349 0.5551 0.0000
0.3595 0.5614 0.0000
0.3833 0.5682 0.0000
0.4072 0.5745 0.0000
0.4310 0.5794 0.0000
0.4580 0.5842 0.0042
0.4821 0.5876 0.0128
0.5091 0.5906 0.0225
0.5331 0.5915 0.0312
0.5560 0.5920 0.0409
0.5827 0.5906 0.0505
0.6105 0.5857 0.0600
0.6377 0.5794 0.0693
0.6630 0.5730 0.0782
0.6946 0.5653 0.0880
0.7209 0.5599 0.0912
0.7554 0.5575 0.0876
0.7856 0.5551 0.0844
0.8119 0.5526 0.0812
0.8416 0.5507 0.0779
0.8624 0.5482 0.0746
0.8809 0.5463 0.0718
0.8984 0.5444 0.0689
0.9130 0.5429 0.0664
0.9271 0.5410 0.0639
0.9382 0.5395 0.0618
0.9470 0.5385 0.0601
0.9543 0.5370 0.0584
0.2387 0.5322 0.0000
0.2594 0.5419 0.0000
0.2800 0.5517 0.0000
0.3035 0.5619 0.0000
0.3245 0.5701 0.0000
0.3522 0.5794 0.0000
0.3729 0.5867 0.0000
0.3967 0.5945 0.0000
0.4205 0.6013 0.0000
0.4446 0.6037 0.0000
0.4714 0.6095 0.0022
0.4952 0.6139 0.0111
0.5224 0.6178 0.0210
0.5424 0.6202 0.0299
0.5691 0.6222 0.0399
0.5963 0.6222 0.0500
0.6247 0.6202 0.0604
0.6518 0.6153 0.0700
0.6771 0.6100 0.0792
0.7092 0.6035 0.0894
0.7384 0.5993 0.0987
0.7705 0.5930 0.1033
0.7982 0.5910 0.1002
0.8284 0.5886 0.0971
0.8508 0.5867 0.0940
0.8769 0.5842 0.0908
0.8950 0.5823 0.0881
0.9097 0.5803 0.0854
0.9241 0.5784 0.0829
0.9382 0.5769 0.0806
0.9499 0.5755 0.0786
0.9586 0.5740 0.0768
0.9664 0.5730 0.0753
0.2522 0.5517 0.0000
0.2727 0.5619 0.0000
0.2933 0.5721 0.0000
0.3172 0.5833 0.0000
0.3378 0.5925 0.0000
0.3653 0.6022 0.0000
0.3862 0.6066 0.0000
0.4101 0.6149 0.0000
0.4337 0.6227 0.0000
0.4577 0.6304 0.0000
0.4845 0.6377 0.0002
0.5086 0.6431 0.0093
0.5356 0.6479 0.0196
0.5555 0.6518 0.0288
0.5822 0.6547 0.0391
0.6095 0.6562 0.0495
0.6387 0.6567 0.0605
0.6659 0.6538 0.0708
0.6956 0.6494 0.0803
0.7238 0.6431 0.0908
0.7535 0.6367 0.1004
0.7851 0.6290 0.1110
0.8104 0.6227 0.1162
0.8411 0.6202 0.1132
0.8639 0.6183 0.1102
0.8863 0.6158 0.1073
0.9047 0.6139 0.1046
0.9214 0.6119 0.1020
0.9344 0.6100 0.0997
0.9489 0.6085 0.0974
0.9604 0.6071 0.0955
0.9698 0.6056 0.0939
0.9722 0.6046 0.0924
0.2641 0.5682 0.0000
0.2846 0.5794 0.0000
0.3053 0.5901 0.0000
0.3291 0.6017 0.0000
0.3537 0.6076 0.0000
0.3775 0.6183 0.0000
0.3982 0.6275 0.0000
0.4220 0.6367 0.0000
0.4458 0.6455 0.0000
0.4697 0.6533 0.0000
0.4964 0.6611 0.0000
0.5205 0.6674 0.0078
0.5433 0.6737 0.0184
0.5672 0.6743 0.0278
0.5939 0.6781 0.0383
0.6212 0.6810 0.0490
0.6503 0.6829 0.0603
0.6785 0.6829 0.0714
0.7082 0.6790 0.0812
0.7403 0.6743 0.0921
0.7686 0.6727 0.1020
0.7982 0.6655 0.1129
0.8258 0.6586 0.1226
0.8483 0.6528 0.1280
0.8752 0.6504 0.1251
0.8979 0.6479 0.1223
0.9130 0.6460 0.1198
0.9315 0.6440 0.1173
0.9448 0.6426 0.1151
0.9582 0.6406 0.1129
0.9703 0.6392 0.1110
0.9722 0.6382 0.1095
0.9722 0.6367 0.1080
0.2763 0.5847 0.0000
0.2970 0.5964 0.0000
0.3177 0.6037 0.0000
0.3414 0.6158 0.0000
0.3658 0.6264 0.0000
0.3896 0.6377 0.0000
0.4103 0.6474 0.0000
0.4339 0.6572 0.0000
0.4580 0.6669 0.0000
0.4816 0.6743 0.0000
0.5086 0.6805 0.0000
0.5322 0.6878 0.0063
0.5550 0.6946 0.0171
0.5793 0.7000 0.0268
0.6061 0.7053 0.0376
0.6333 0.7092 0.0485
0.6620 0.7121 0.0602
0.6941 0.7136 0.0715
0.7209 0.7131 0.0822
0.7540 0.7087 0.0934
0.7832 0.7039 0.1036
0.8114 0.6980 0.1148
0.8401 0.6917 0.1248
0.8610 0.6849 0.1348
0.8829 0.6786 0.1406
0.9057 0.6766 0.1379
0.9214 0.6747 0.1355
0.9397 0.6743 0.1330
0.9526 0.6743 0.1310
0.9669 0.6727 0.1289
0.9722 0.6713 0.1271
0.9722 0.6703 0.1256
0.9722 0.6693 0.1242
0.2870 0.5983 0.0000
0.3077 0.6066 0.0000
0.3284 0.6183 0.0000
0.3559 0.6314 0.0000
0.3768 0.6426 0.0000
0.4004 0.6543 0.0000
0.4208 0.6640 0.0000
0.4449 0.6743 0.0000
0.4684 0.6810 0.0000
0.4923 0.6902 0.0000
0.5190 0.7000 0.0000
0.5390 0.7077 0.0050
0.5657 0.7155 0.0161
0.5895 0.7218 0.0259
0.6163 0.7277 0.0370
0.6440 0.7330 0.0482
0.6727 0.7369 0.0601
0.7048 0.7394 0.0716
0.7342 0.7403 0.0827
0.7657 0.7384 0.0945
0.7948 0.7345 0.1050
0.8268 0.7291 0.1165
0.8479 0.7233 0.1267
0.8727 0.7170 0.1369
0.8940 0.7097 0.1474
0.9115 0.7048 0.1516
0.9310 0.7029 0.1494
0.9465 0.7005 0.1471
0.9604 0.6990 0.1451
0.9722 0.6971 0.1431
0.9722 0.6956 0.1414
0.9722 0.6946 0.1400
0.9722 0.6936 0.1386
0.2977 0.6080 0.0000
0.3184 0.6202 0.0000
0.3391 0.6329 0.0000
0.3665 0.6465 0.0000
0.3872 0.6577 0.0000
0.4108 0.6698 0.0000
0.4315 0.6766 0.0000
0.4553 0.6878 0.0000
0.4791 0.6985 0.0000
0.5030 0.7082 0.0000
0.5297 0.7189 0.0000
0.5497 0.7272 0.0037
0.5764 0.7360 0.0150
0.6002 0.7407 0.0251
0.6275 0.7462 0.0364
0.6542 0.7524 0.0478
0.6829 0.7573 0.0599
0.7150 0.7607 0.0717
0.7457 0.7632 0.0831
0.7798 0.7637 0.0957
0.8060 0.7603 0.1063
0.8381 0.7559 0.1181
0.8595 0.7508 0.1286
0.8809 0.7452 0.1391
0.9018 0.7407 0.1498
0.9214 0.7350 0.1604
0.9373 0.7306 0.1637
0.9528 0.7287 0.1615
0.9693 0.7272 0.1595
0.9722 0.7253 0.1576
0.9722 0.7238 0.1560
0.9722 0.7228 0.1546
0.9722 0.7214 0.1532
0.3069 0.6192 0.0000
0.3279 0.6324 0.0000
0.3522 0.6450 0.0000
0.3760 0.6586 0.0000
0.3967 0.6703 0.0000
0.4200 0.6795 0.0000
0.4410 0.6902 0.0000
0.4646 0.7019 0.0000
0.4884 0.7131 0.0000
