70 CGC LUTs/Film Emulation/Fuji Eterna 3513.cube
#Created by: Denver Riddle
#Copyright: (C) Copyright Color Grading Central LLC
DOMAIN_MIN 0.0 0.0 0.0
DOMAIN_MAX 1.0 1.0 1.0
LUT_3D_SIZE 5
0.0039 0.0870 0.0975
0.0670 0.0973 0.0413
0.2166 0.1028 0.0392
0.2872 0.1052 0.0392
0.2289 0.1032 0.0392
0.0039 0.1079 0.1160
0.1609 0.1195 0.0392
0.4643 0.1346 0.0392
0.6644 0.1474 0.0392
0.6960 0.1560 0.0392
0.0039 0.1815 0.1874
0.2427 0.2476 0.0442
0.6839 0.2382 0.0392
0.9125 0.2632 0.0392
0.9811 0.2832 0.0392
0.0039 0.2632 0.2750
0.2196 0.4337 0.1384
0.7481 0.4989 0.0600
1.0000 0.4665 0.0508
1.0000 0.4926 0.0535
0.0039 0.3248 0.3065
0.2653 0.5643 0.1891
0.8108 0.7049 0.0901
0.9960 0.7355 0.0935
1.0000 0.6976 0.0861
0.0039 0.0866 0.1074
0.1232 0.0997 0.1104
0.3734 0.1085 0.0887
0.5569 0.1142 0.0627
0.5735 0.1147 0.0507
0.0039 0.1388 0.1555
0.0822 0.1635 0.1446
0.4356 0.1916 0.0914
0.6849 0.2058 0.0653
0.7651 0.2260 0.0536
0.0039 0.2506 0.3153
0.0039 0.3357 0.1959
0.5885 0.3620 0.1038
0.8721 0.3953 0.0844
0.9660 0.4201 0.0727
0.0039 0.3311 0.4597
0.0039 0.4857 0.3007
0.6776 0.6290 0.0801
0.9504 0.6071 0.1182
1.0000 0.6339 0.1094
0.0039 0.3745 0.5259
0.0039 0.5920 0.3338
0.7233 0.7949 0.1281
0.9655 0.8255 0.1115
1.0000 0.8046 0.1492
0.0039 0.2043 0.3151
0.0039 0.2069 0.3472
0.7870 0.2110 0.2871
1.0000 0.2289 0.2482
1.0000 0.2174 0.2224
0.0039 0.2383 0.3501
0.0039 0.2637 0.3827
0.7393 0.2493 0.3301
1.0000 0.2783 0.2949
1.0000 0.2773 0.2789
0.0039 0.4075 0.4617
0.0545 0.4327 0.4770
0.5056 0.5110 0.5307
0.8283 0.5390 0.4841
0.9485 0.5662 0.4318
0.0039 0.4288 0.6037
0.0039 0.4955 0.6494
0.4618 0.7185 0.3404
0.9023 0.7379 0.5042
1.0000 0.7589 0.4615
0.0039 0.3659 0.7024
0.0039 0.5721 0.5283
0.5166 0.8240 0.2446
0.9388 0.8902 0.2539
1.0000 0.8804 0.4938
0.0039 0.2812 0.2946
0.0039 0.2817 0.3542
0.6367 0.2666 0.4729
1.0000 0.4157 0.3781
1.0000 0.4233 0.3681
0.0039 0.3153 0.3528
0.0039 0.3406 0.3961
0.5890 0.3082 0.5084
1.0000 0.4303 0.4174
1.0000 0.4451 0.4160
0.0039 0.4806 0.5662
0.0039 0.5062 0.5920
0.3514 0.5862 0.6873
1.0000 0.5745 0.6152
1.0000 0.5979 0.6153
0.0039 0.6441 0.6863
0.0881 0.6728 0.7038
0.4577 0.7642 0.7632
0.8595 0.8337 0.7996
0.9840 0.8483 0.7787
0.0039 0.6596 0.7632
0.0039 0.7146 0.7938
0.3001 0.8445 0.8701
0.8809 0.9271 0.6800
1.0000 0.9266 0.7865
0.0039 0.3046 0.2689
0.0039 0.3043 0.3331
0.5910 0.2834 0.5059
1.0000 0.4512 0.4284
1.0000 0.4995 0.4043
0.0039 0.3384 0.3297
0.0039 0.3639 0.3764
0.5443 0.3260 0.5424
1.0000 0.4595 0.4673
1.0000 0.5069 0.4478
0.0039 0.5040 0.5779
0.0039 0.5293 0.6071
0.3062 0.6090 0.7121
1.0000 0.5954 0.6591
1.0000 0.6183 0.6421
0.0039 0.6694 0.7218
0.0657 0.6947 0.7427
0.4290 0.7851 0.8123
0.8711 0.8430 0.8531
1.0000 0.8435 0.8341
0.0039 0.7438 0.7977
0.0622 0.7715 0.8152
0.4047 0.8644 0.8779
0.7841 0.9412 0.9348
1.0000 0.9572 0.8852
