70 CGC LUTs/Film Emulation/Fuji Vivid 8543.cube
#Created by: Denver Riddle
#Copyright: (C) Copyright Color Grading Central LLC
DOMAIN_MIN 0.0 0.0 0.0
DOMAIN_MAX 1.0 1.0 1.0
LUT_3D_SIZE 33
0.0097 0.0274 0.0003
0.0182 0.0234 0.0000
0.0300 0.0208 0.0000
0.0440 0.0211 0.0000
0.0607 0.0215 0.0000
0.0807 0.0219 0.0000
0.1011 0.0224 0.0000
0.1251 0.0230 0.0000
0.1496 0.0236 0.0000
0.1778 0.0242 0.0000
0.2097 0.0250 0.0000
0.2450 0.0258 0.0000
0.2821 0.0266 0.0000
0.3172 0.0275 0.0000
0.3543 0.0284 0.0000
0.3917 0.0293 0.0000
0.4239 0.0302 0.0000
0.4544 0.0311 0.0000
0.4839 0.0320 0.0000
0.5110 0.0328 0.0000
0.5353 0.0336 0.0000
0.5583 0.0343 0.0000
0.5802 0.0350 0.0000
0.6012 0.0357 0.0000
0.6220 0.0364 0.0000
0.6398 0.0369 0.0000
0.6592 0.0375 0.0000
0.6784 0.0381 0.0000
0.6933 0.0385 0.0000
0.7063 0.0389 0.0000
0.7146 0.0391 0.0000
0.7189 0.0392 0.0000
0.7210 0.0393 0.0000
0.0150 0.0420 0.0005
0.0235 0.0383 0.0002
0.0337 0.0336 0.0000
0.0460 0.0321 0.0000
0.0627 0.0325 0.0000
0.0829 0.0330 0.0000
0.1033 0.0334 0.0000
0.1275 0.0340 0.0000
0.1521 0.0346 0.0000
0.1804 0.0352 0.0000
0.2126 0.0360 0.0000
0.2480 0.0368 0.0000
0.2852 0.0377 0.0000
0.3205 0.0385 0.0000
0.3575 0.0394 0.0000
0.3952 0.0404 0.0000
0.4273 0.0413 0.0000
0.4578 0.0422 0.0000
0.4874 0.0431 0.0000
0.5143 0.0439 0.0000
0.5389 0.0447 0.0000
0.5620 0.0454 0.0000
0.5841 0.0461 0.0000
0.6051 0.0468 0.0000
0.6262 0.0475 0.0000
0.6444 0.0481 0.0000
0.6635 0.0487 0.0000
0.6831 0.0492 0.0000
0.6984 0.0497 0.0000
0.7116 0.0501 0.0000
0.7197 0.0503 0.0000
0.7243 0.0504 0.0000
0.7270 0.0505 0.0000
0.0212 0.0594 0.0007
0.0298 0.0558 0.0005
0.0400 0.0514 0.0002
0.0499 0.0468 0.0000
0.0651 0.0457 0.0000
0.0854 0.0462 0.0000
0.1059 0.0467 0.0000
0.1303 0.0472 0.0000
0.1550 0.0478 0.0000
0.1836 0.0485 0.0000
0.2159 0.0492 0.0000
0.2515 0.0500 0.0000
0.2888 0.0509 0.0000
0.3241 0.0518 0.0000
0.3615 0.0527 0.0000
0.3988 0.0537 0.0000
0.4312 0.0546 0.0000
0.4620 0.0555 0.0000
0.4914 0.0564 0.0000
0.5183 0.0572 0.0000
0.5433 0.0580 0.0000
0.5662 0.0587 0.0000
0.5886 0.0595 0.0000
0.6099 0.0601 0.0000
0.6309 0.0608 0.0000
0.6499 0.0615 0.0000
0.6695 0.0620 0.0000
0.6890 0.0626 0.0000
0.7044 0.0631 0.0000
0.7176 0.0635 0.0000
0.7262 0.0637 0.0000
0.7309 0.0639 0.0000
0.7330 0.0639 0.0000
0.0274 0.0760 0.0009
0.0359 0.0727 0.0008
0.0462 0.0685 0.0006
0.0561 0.0642 0.0003
0.0685 0.0595 0.0005
0.0878 0.0590 0.0000
0.1084 0.0595 0.0000
0.1329 0.0601 0.0000
0.1580 0.0607 0.0000
0.1865 0.0613 0.0000
0.2191 0.0621 0.0000
0.2548 0.0630 0.0000
0.2923 0.0638 0.0000
0.3279 0.0647 0.0000
0.3651 0.0656 0.0000
0.4026 0.0667 0.0000
0.4350 0.0675 0.0000
0.4657 0.0684 0.0000
0.4952 0.0694 0.0000
0.5224 0.0702 0.0000
0.5472 0.0710 0.0000
0.5704 0.0717 0.0000
0.5928 0.0725 0.0000
0.6144 0.0732 0.0000
0.6360 0.0738 0.0000
0.6549 0.0744 0.0000
0.6746 0.0751 0.0000
0.6946 0.0757 0.0000
0.7104 0.0761 0.0000
0.7238 0.0765 0.0000
0.7321 0.0767 0.0000
0.7373 0.0769 0.0000
0.7394 0.0769 0.0000
0.0345 0.0951 0.0012
0.0431 0.0921 0.0011
0.0533 0.0881 0.0009
0.0633 0.0841 0.0008
0.0752 0.0790 0.0006
0.0907 0.0743 0.0015
0.1114 0.0745 0.0000
0.1359 0.0751 0.0000
0.1611 0.0757 0.0000
0.1901 0.0764 0.0000
0.2227 0.0772 0.0000
0.2587 0.0780 0.0000
0.2964 0.0789 0.0000
0.3320 0.0798 0.0000
0.3693 0.0807 0.0000
0.4071 0.0817 0.0000
0.4392 0.0826 0.0000
0.4699 0.0835 0.0000
0.4997 0.0845 0.0000
0.5271 0.0853 0.0000
0.5518 0.0861 0.0000
0.5751 0.0869 0.0000
0.5979 0.0877 0.0000
0.6196 0.0884 0.0000
0.6410 0.0891 0.0000
0.6605 0.0897 0.0000
0.6809 0.0903 0.0000
0.7010 0.0909 0.0000
0.7172 0.0914 0.0000
0.7309 0.0918 0.0000
0.7394 0.0920 0.0000
0.7442 0.0922 0.0000
0.7471 0.0923 0.0000
0.0417 0.1141 0.0014
0.0502 0.1113 0.0013
0.0605 0.1077 0.0013
0.0705 0.1038 0.0012
0.0824 0.0990 0.0012
0.0969 0.0927 0.0011
0.1141 0.0897 0.0020
0.1388 0.0902 0.0000
0.1642 0.0908 0.0000
0.1933 0.0915 0.0000
0.2262 0.0923 0.0000
0.2625 0.0931 0.0000
0.3003 0.0941 0.0000
0.3361 0.0949 0.0000
0.3736 0.0959 0.0000
0.4112 0.0969 0.0000
0.4433 0.0978 0.0000
0.4743 0.0988 0.0000
0.5039 0.0997 0.0000
0.5315 0.1005 0.0000
0.5565 0.1014 0.0000
0.5802 0.1021 0.0000
0.6030 0.1029 0.0000
0.6250 0.1037 0.0000
0.6470 0.1044 0.0000
0.6665 0.1050 0.0000
0.6869 0.1056 0.0000
0.7077 0.1063 0.0000
0.7238 0.1068 0.0000
0.7382 0.1071 0.0000
0.7466 0.1074 0.0000
0.7515 0.1076 0.0000
0.7544 0.1077 0.0000
0.0487 0.1327 0.0016
0.0574 0.1301 0.0016
0.0677 0.1268 0.0016
0.0776 0.1233 0.0017
0.0897 0.1188 0.0017
0.1042 0.1129 0.0017
0.1195 0.1072 0.0022
0.1418 0.1053 0.0021
0.1672 0.1060 0.0000
0.1965 0.1066 0.0000
0.2297 0.1074 0.0000
0.2661 0.1083 0.0000
0.3040 0.1092 0.0000
0.3399 0.1101 0.0000
0.3777 0.1111 0.0000
0.4151 0.1122 0.0000
0.4474 0.1131 0.0000
0.4783 0.1140 0.0000
0.5082 0.1150 0.0000
0.5357 0.1158 0.0000
0.5607 0.1167 0.0000
0.5848 0.1175 0.0000
0.6080 0.1182 0.0000
0.6301 0.1190 0.0000
0.6525 0.1197 0.0000
0.6724 0.1203 0.0000
0.6929 0.1210 0.0000
0.7142 0.1216 0.0000
0.7309 0.1221 0.0000
0.7452 0.1226 0.0000
0.7539 0.1228 0.0000
0.7588 0.1229 0.0000
0.7617 0.1230 0.0000
0.0558 0.1511 0.0017
0.0644 0.1486 0.0019
0.0747 0.1456 0.0020
0.0847 0.1424 0.0021
0.0968 0.1382 0.0022
0.1114 0.1327 0.0023
0.1263 0.1265 0.0025
0.1455 0.1214 0.0040
0.1702 0.1211 0.0023
0.1997 0.1218 0.0000
0.2330 0.1226 0.0000
0.2697 0.1235 0.0000
0.3077 0.1244 0.0000
0.3438 0.1253 0.0000
0.3815 0.1263 0.0000
0.4191 0.1273 0.0000
0.4515 0.1283 0.0000
0.4824 0.1292 0.0000
0.5121 0.1301 0.0000
0.5402 0.1311 0.0000
0.5650 0.1319 0.0000
0.5893 0.1327 0.0000
0.6127 0.1335 0.0000
0.6355 0.1343 0.0000
0.6575 0.1350 0.0000
0.6780 0.1356 0.0000
0.6992 0.1363 0.0000
0.7206 0.1369 0.0000
0.7377 0.1374 0.0000
0.7520 0.1379 0.0000
0.7612 0.1382 0.0000
0.7661 0.1383 0.0000
0.7690 0.1384 0.0000
0.0648 0.1740 0.0020
0.0734 0.1718 0.0022
0.0837 0.1691 0.0024
0.0938 0.1662 0.0026
0.1059 0.1624 0.0029
0.1205 0.1575 0.0031
0.1354 0.1518 0.0034
0.1532 0.1445 0.0037
0.1738 0.1403 0.0061
0.2035 0.1410 0.0031
0.2372 0.1418 0.0000
0.2740 0.1428 0.0000
0.3124 0.1438 0.0000
0.3487 0.1446 0.0000
0.3863 0.1456 0.0000
0.4239 0.1467 0.0000
0.4563 0.1477 0.0000
0.4874 0.1486 0.0000
0.5171 0.1496 0.0000
0.5452 0.1505 0.0000
0.5709 0.1513 0.0000
0.5954 0.1522 0.0000
0.6189 0.1529 0.0000
0.6414 0.1537 0.0000
0.6644 0.1544 0.0000
0.6852 0.1551 0.0000
0.7068 0.1559 0.0000
0.7287 0.1565 0.0000
0.7461 0.1571 0.0000
0.7607 0.1575 0.0000
0.7703 0.1578 0.0000
0.7753 0.1580 0.0000
0.7781 0.1580 0.0000
0.0745 0.1984 0.0022
0.0832 0.1966 0.0025
0.0936 0.1943 0.0028
0.1037 0.1918 0.0032
0.1158 0.1885 0.0035
0.1304 0.1841 0.0040
0.1454 0.1789 0.0044
0.1633 0.1722 0.0049
0.1823 0.1655 0.0059
0.2076 0.1622 0.0075
0.2415 0.1630 0.0042
0.2788 0.1639 0.0006
0.3172 0.1647 0.0000
0.3537 0.1658 0.0000
0.3914 0.1668 0.0000
0.4291 0.1678 0.0000
0.4617 0.1688 0.0000
0.4929 0.1699 0.0000
0.5228 0.1709 0.0000
0.5510 0.1718 0.0000
0.5768 0.1727 0.0000
0.6012 0.1735 0.0000
0.6254 0.1743 0.0000
0.6487 0.1751 0.0000
0.6720 0.1758 0.0000
0.6929 0.1766 0.0000
0.7151 0.1772 0.0000
0.7377 0.1779 0.0000
0.7553 0.1785 0.0000
0.7703 0.1789 0.0000
0.7798 0.1792 0.0000
0.7849 0.1794 0.0000
0.7879 0.1794 0.0000
0.0845 0.2228 0.0024
0.0931 0.2214 0.0028
0.1036 0.2195 0.0032
0.1137 0.2173 0.0037
0.1258 0.2145 0.0042
0.1406 0.2106 0.0048
0.1556 0.2062 0.0054
0.1735 0.2002 0.0061
0.1921 0.1931 0.0068
0.2149 0.1868 0.0089
0.2457 0.1846 0.0090
0.2833 0.1856 0.0054
0.3219 0.1865 0.0016
0.3586 0.1876 0.0000
0.3964 0.1886 0.0000
0.4341 0.1896 0.0000
0.4668 0.1907 0.0000
0.4980 0.1917 0.0000
0.5283 0.1927 0.0000
0.5568 0.1937 0.0000
0.5826 0.1946 0.0000
0.6080 0.1955 0.0000
0.6317 0.1962 0.0000
0.6556 0.1971 0.0000
0.6797 0.1978 0.0000
0.7010 0.1986 0.0000
0.7238 0.1993 0.0000
0.7466 0.2000 0.0000
0.7647 0.2005 0.0000
0.7802 0.2009 0.0000
0.7894 0.2012 0.0000
0.7952 0.2013 0.0000
0.7978 0.2015 0.0000
0.0971 0.2529 0.0026
0.1058 0.2519 0.0031
0.1163 0.2505 0.0037
0.1265 0.2489 0.0043
0.1386 0.2466 0.0050
0.1534 0.2434 0.0058
0.1686 0.2398 0.0067
0.1865 0.2347 0.0076
0.2051 0.2287 0.0085
0.2266 0.2206 0.0096
0.2532 0.2145 0.0129
0.2887 0.2133 0.0119
0.3276 0.2143 0.0081
0.3646 0.2152 0.0045
0.4023 0.2164 0.0004
0.4403 0.2174 0.0000
0.4730 0.2185 0.0000
0.5046 0.2195 0.0000
0.5347 0.2205 0.0000
0.5635 0.2215 0.0000
0.5900 0.2224 0.0000
0.6157 0.2232 0.0000
0.6398 0.2241 0.0000
0.6644 0.2250 0.0000
0.6890 0.2258 0.0000
0.7112 0.2265 0.0000
0.7340 0.2272 0.0000
0.7579 0.2280 0.0000
0.7763 0.2286 0.0000
0.7923 0.2290 0.0000
0.8020 0.2293 0.0000
0.8077 0.2294 0.0000
0.8103 0.2296 0.0000
0.1097 0.2820 0.0028
0.1184 0.2812 0.0034
0.1289 0.2802 0.0042
0.1391 0.2791 0.0049
0.1513 0.2773 0.0058
0.1662 0.2749 0.0068
0.1815 0.2719 0.0078
0.1996 0.2678 0.0091
0.2182 0.2628 0.0103
0.2397 0.2560 0.0116
0.2642 0.2472 0.0133
0.2946 0.2415 0.0179
0.3331 0.2420 0.0150
0.3701 0.2430 0.0115
0.4083 0.2440 0.0076
0.4462 0.2451 0.0034
0.4792 0.2462 0.0000
0.5106 0.2473 0.0000
0.5413 0.2483 0.0000
0.5704 0.2493 0.0000
0.5971 0.2502 0.0000
0.6233 0.2511 0.0000
0.6482 0.2519 0.0000
0.6733 0.2528 0.0000
0.6984 0.2537 0.0000
0.7206 0.2542 0.0000
0.7447 0.2551 0.0000
0.7690 0.2558 0.0000
0.7879 0.2564 0.0000
0.8045 0.2568 0.0000
0.8147 0.2571 0.0000
0.8205 0.2573 0.0000
0.8232 0.2574 0.0000
0.1248 0.3150 0.0030
0.1336 0.3147 0.0038
0.1442 0.3144 0.0047
0.1544 0.3139 0.0056
0.1668 0.3127 0.0067
0.1818 0.3110 0.0080
0.1971 0.3091 0.0092
0.2152 0.3060 0.0108
0.2339 0.3020 0.0123
0.2553 0.2967 0.0140
0.2797 0.2892 0.0160
0.3074 0.2808 0.0189
0.3394 0.2753 0.0238
0.3767 0.2763 0.0204
0.4149 0.2773 0.0167
0.4528 0.2785 0.0127
0.4861 0.2795 0.0089
0.5177 0.2807 0.0051
0.5489 0.2817 0.0012
0.5785 0.2827 0.0000
0.6055 0.2837 0.0000
0.6321 0.2845 0.0000
0.6575 0.2853 0.0000
0.6835 0.2862 0.0000
0.7095 0.2870 0.0000
0.7326 0.2877 0.0000
0.7574 0.2884 0.0000
0.7821 0.2891 0.0000
0.8020 0.2897 0.0000
0.8191 0.2902 0.0000
0.8293 0.2905 0.0000
0.8351 0.2907 0.0000
0.8383 0.2908 0.0000
0.1419 0.3501 0.0031
0.1508 0.3503 0.0040
0.1614 0.3503 0.0052
0.1718 0.3503 0.0063
0.1841 0.3498 0.0076
0.1992 0.3493 0.0091
0.2145 0.3479 0.0107
0.2328 0.3460 0.0126
0.2514 0.3432 0.0145
0.2729 0.3394 0.0166
0.2970 0.3339 0.0191
0.3235 0.3260 0.0217
0.3530 0.3183 0.0259
0.3835 0.3130 0.0310
0.4217 0.3142 0.0275
0.4601 0.3153 0.0237
0.4935 0.3164 0.0202
0.5256 0.3175 0.0166
0.5572 0.3183 0.0129
0.5869 0.3194 0.0092
0.6148 0.3203 0.0058
0.6419 0.3213 0.0024
0.6686 0.3222 0.0000
0.6950 0.3230 0.0000
0.7215 0.3238 0.0000
0.7457 0.3246 0.0000
0.7712 0.3252 0.0000
0.7970 0.3260 0.0000
0.8171 0.3265 0.0000
0.8351 0.3271 0.0000
0.8453 0.3274 0.0000
0.8517 0.3276 0.0000
0.8551 0.3276 0.0000
0.1614 0.3865 0.0031
0.1703 0.3871 0.0042
0.1812 0.3878 0.0056
0.1915 0.3883 0.0069
0.2039 0.3886 0.0085
0.2192 0.3889 0.0104
0.2345 0.3886 0.0124
0.2527 0.3878 0.0146
0.2713 0.3865 0.0169
0.2926 0.3842 0.0196
0.3164 0.3808 0.0225
0.3427 0.3752 0.0258
0.3704 0.3674 0.0293
0.3978 0.3607 0.0342
0.4291 0.3550 0.0406
0.4677 0.3564 0.0371
0.5014 0.3572 0.0339
0.5336 0.3583 0.0305
0.5653 0.3594 0.0270
0.5962 0.3604 0.0237
0.6250 0.3612 0.0204
0.6529 0.3622 0.0173
0.6805 0.3630 0.0142
0.7082 0.3638 0.0111
0.7354 0.3646 0.0080
0.7607 0.3653 0.0052
0.7866 0.3661 0.0023
0.8137 0.3669 0.0000
0.8346 0.3674 0.0000
0.8526 0.3680 0.0000
0.8638 0.3682 0.0000
0.8701 0.3682 0.0000
0.8735 0.3685 0.0000
0.1823 0.4217 0.0030
0.1914 0.4226 0.0043
0.2022 0.4239 0.0060
0.2126 0.4248 0.0075
0.2252 0.4260 0.0094
0.2404 0.4270 0.0117
0.2557 0.4275 0.0139
0.2739 0.4280 0.0166
0.2923 0.4277 0.0194
0.3133 0.4268 0.0226
0.3369 0.4248 0.0261
0.3628 0.4217 0.0301
0.3896 0.4165 0.0343
0.4151 0.4097 0.0384
0.4435 0.4034 0.0446
0.4752 0.3978 0.0524
0.5093 0.3988 0.0493
0.5421 0.3998 0.0462
0.5743 0.4008 0.0431
0.6059 0.4018 0.0400
0.6351 0.4028 0.0370
0.6639 0.4036 0.0341
0.6929 0.4046 0.0313
0.7210 0.4054 0.0285
0.7497 0.4061 0.0256
0.7758 0.4068 0.0231
0.8030 0.4076 0.0204
0.8307 0.4083 0.0176
0.8526 0.4088 0.0154
0.8716 0.4093 0.0135
0.8833 0.4095 0.0123
0.8901 0.4097 0.0116
0.8931 0.4097 0.0113
0.2048 0.4556 0.0027
0.2137 0.4569 0.0043
0.2247 0.4585 0.0062
0.2351 0.4601 0.0080
0.2478 0.4617 0.0102
0.2628 0.4633 0.0129
0.2781 0.4649 0.0155
0.2962 0.4662 0.0187
0.3144 0.4670 0.0219
0.3350 0.4675 0.0256
0.3583 0.4670 0.0298
0.3835 0.4657 0.0345
0.4095 0.4629 0.0395
0.4343 0.4588 0.0444
0.4606 0.4522 0.0496
0.4901 0.4462 0.0574
0.5173 0.4414 0.0659
0.5506 0.4419 0.0642
0.5837 0.4428 0.0613
0.6157 0.4437 0.0585
0.6457 0.4446 0.0559
0.6758 0.4453 0.0532
0.7053 0.4462 0.0507
0.7350 0.4469 0.0481
0.7647 0.4476 0.0456
0.7918 0.4483 0.0433
0.8205 0.4490 0.0408
0.8492 0.4497 0.0384
0.8716 0.4503 0.0364
0.8914 0.4508 0.0347
0.9032 0.4510 0.0336
0.9100 0.4512 0.0330
0.9134 0.4512 0.0326
0.2289 0.4883 0.0022
0.2379 0.4903 0.0041
0.2487 0.4922 0.0063
0.2591 0.4941 0.0084
0.2717 0.4963 0.0109
0.2867 0.4986 0.0139
0.3017 0.5007 0.0170
0.3197 0.5031 0.0207
0.3375 0.5050 0.0245
0.3580 0.5065 0.0288
0.3806 0.5078 0.0337
0.4051 0.5082 0.0391
0.4303 0.5073 0.0449
0.4542 0.5052 0.0506
0.4799 0.5014 0.0569
0.5069 0.4952 0.0636
0.5327 0.4905 0.0717
0.5603 0.4861 0.0811
0.5924 0.4852 0.0821
0.6254 0.4861 0.0797
0.6563 0.4870 0.0773
0.6878 0.4879 0.0750
0.7185 0.4888 0.0728
0.7493 0.4895 0.0706
0.7802 0.4903 0.0683
0.8086 0.4910 0.0663
0.8379 0.4916 0.0641
0.8677 0.4922 0.0620
0.8914 0.4929 0.0602
0.9115 0.4933 0.0587
0.9241 0.4935 0.0577
0.9309 0.4937 0.0572
0.9348 0.4937 0.0569
0.2541 0.5196 0.0015
0.2632 0.5220 0.0036
0.2740 0.5245 0.0061
0.2844 0.5268 0.0085
0.2967 0.5296 0.0114
0.3116 0.5324 0.0149
0.3265 0.5353 0.0184
0.3441 0.5385 0.0226
0.3617 0.5413 0.0270
0.3815 0.5441 0.0319
0.4034 0.5463 0.0375
0.4270 0.5484 0.0438
0.4512 0.5493 0.0505
0.4747 0.5493 0.0571
0.4999 0.5480 0.0644
0.5264 0.5444 0.0721
0.5506 0.5398 0.0793
0.5763 0.5351 0.0883
0.6047 0.5315 0.0988
0.6351 0.5294 0.1037
0.6673 0.5302 0.1017
0.6997 0.5309 0.0997
0.7317 0.5317 0.0977
0.7639 0.5322 0.0959
0.7961 0.5330 0.0939
0.8254 0.5336 0.0922
0.8560 0.5345 0.0903
0.8872 0.5351 0.0884
0.9115 0.5355 0.0870
0.9324 0.5362 0.0857
0.9455 0.5364 0.0849
0.9528 0.5366 0.0844
0.9567 0.5366 0.0842
0.2788 0.5480 0.0006
0.2877 0.5506 0.0029
0.2984 0.5535 0.0057
0.3088 0.5565 0.0084
0.3211 0.5594 0.0117
0.3356 0.5632 0.0156
0.3503 0.5666 0.0196
0.3672 0.5709 0.0243
0.3842 0.5743 0.0292
0.4036 0.5780 0.0347
0.4248 0.5823 0.0411
0.4476 0.5852 0.0482
0.4715 0.5882 0.0558
0.4946 0.5897 0.0633
0.5190 0.5904 0.0716
0.5452 0.5893 0.0804
0.5692 0.5869 0.0886
0.5937 0.5826 0.0969
0.6207 0.5780 0.1070
0.6491 0.5747 0.1182
0.6775 0.5717 0.1272
0.7108 0.5725 0.1256
0.7437 0.5732 0.1239
0.7776 0.5740 0.1223
0.8108 0.5747 0.1208
0.8410 0.5751 0.1193
0.8731 0.5759 0.1178
0.9052 0.5768 0.1162
0.9305 0.5772 0.1150
0.9523 0.5776 0.1139
0.9660 0.5780 0.1132
0.9733 0.5780 0.1129
0.9776 0.5785 0.1127
0.3029 0.5743 0.0000
0.3119 0.5772 0.0019
0.3224 0.5806 0.0050
0.3326 0.5837 0.0081
0.3446 0.5873 0.0117
0.3589 0.5915 0.0161
0.3731 0.5958 0.0205
0.3896 0.6005 0.0257
0.4063 0.6051 0.0311
0.4248 0.6099 0.0374
0.4453 0.6152 0.0445
0.4677 0.6200 0.0524
0.4912 0.6245 0.0609
0.5132 0.6279 0.0693
0.5379 0.6304 0.0785
0.5639 0.6317 0.0885
0.5882 0.6309 0.0977
0.6127 0.6290 0.1071
0.6383 0.6250 0.1167
0.6656 0.6211 0.1274
0.6937 0.6185 0.1389
0.7219 0.6148 0.1502
0.7557 0.6148 0.1516
0.7899 0.6157 0.1503
0.8245 0.6165 0.1490
0.8565 0.6169 0.1479
0.8891 0.6178 0.1467
0.9222 0.6185 0.1455
0.9484 0.6192 0.1445
0.9713 0.6196 0.1436
0.9849 0.6196 0.1431
0.9927 0.6200 0.1428
0.9973 0.6200 0.1427
0.3246 0.5966 0.0000
0.3331 0.5998 0.0008
0.3438 0.6038 0.0042
0.3537 0.6072 0.0075
0.3653 0.6114 0.0115
0.3795 0.6165 0.0162
0.3932 0.6211 0.0211
0.4095 0.6267 0.0268
0.4256 0.6317 0.0327
0.4435 0.6380 0.0395
0.4638 0.6440 0.0473
0.4854 0.6504 0.0560
0.5086 0.6563 0.0653
0.5306 0.6614 0.0745
0.5548 0.6656 0.0847
0.5806 0.6690 0.0956
0.6051 0.6703 0.1058
0.6297 0.6703 0.1163
0.6560 0.6686 0.1268
0.6827 0.6648 0.1371
0.7100 0.6614 0.1483
0.7386 0.6588 0.1604
0.7680 0.6556 0.1724
0.8006 0.6545 0.1775
0.8366 0.6552 0.1764
0.8687 0.6560 0.1756
0.9027 0.6567 0.1745
0.9373 0.6571 0.1737
0.9645 0.6580 0.1730
0.9874 0.6584 0.1722
1.0000 0.6588 0.1718
1.0000 0.6588 0.1717
1.0000 0.6592 0.1715
0.3430 0.6152 0.0000
0.3517 0.6189 0.0000
0.3617 0.6228 0.0033
0.3715 0.6267 0.0069
0.3830 0.6313 0.0111
0.3966 0.6368 0.0162
0.4102 0.6419 0.0214
0.4258 0.6482 0.0276
0.4417 0.6545 0.0339
0.4594 0.6609 0.0413
0.4790 0.6682 0.0496
0.5007 0.6758 0.0590
0.5232 0.6835 0.0690
0.5452 0.6899 0.0789
0.5692 0.6958 0.0899
0.5954 0.7005 0.1017
0.6196 0.7039 0.1128
0.6448 0.7058 0.1240
0.6716 0.7058 0.1354
0.6984 0.7039 0.1468
0.7247 0.7005 0.1574
0.7534 0.6980 0.1693
0.7826 0.6954 0.1820
0.8127 0.6924 0.1946
0.8463 0.6907 0.2013
0.8794 0.6912 0.2008
0.9144 0.6920 0.2000
0.9494 0.6929 0.1994
0.9771 0.6937 0.1989
1.0000 0.6941 0.1984
1.0000 0.6946 0.1981
1.0000 0.6946 0.1978
1.0000 0.6950 0.1978
0.3594 0.6309 0.0000
0.3677 0.6347 0.0000
0.3777 0.6391 0.0023
0.3871 0.6436 0.0061
0.3983 0.6487 0.0106
0.4117 0.6545 0.0160
0.4251 0.6601 0.0215
0.4403 0.6673 0.0281
0.4558 0.6741 0.0349
0.4732 0.6818 0.0427
0.4927 0.6899 0.0516
0.5137 0.6984 0.0615
0.5362 0.7072 0.0722
0.5583 0.7151 0.0828
0.5826 0.7219 0.0945
0.6088 0.7292 0.1071
0.6330 0.7340 0.1189
0.6588 0.7377 0.1309
0.6861 0.7394 0.1432
0.7134 0.7394 0.1553
0.7399 0.7377 0.1666
0.7670 0.7340 0.1778
0.7965 0.7317 0.1908
0.8269 0.7296 0.2039
0.8577 0.7266 0.2173
0.8886 0.7247 0.2243
0.9241 0.7257 0.2238
0.9601 0.7266 0.2234
0.9883 0.7270 0.2231
1.0000 0.7279 0.2228
1.0000 0.7279 0.2227
1.0000 0.7283 0.2225
1.0000 0.7283 0.2224
0.3721 0.6431 0.0000
0.3803 0.6474 0.0000
0.3901 0.6521 0.0014
0.3993 0.6563 0.0054
0.4105 0.6618 0.0101
0.4236 0.6682 0.0158
0.4366 0.6746 0.0216
0.4517 0.6822 0.0284
0.4670 0.6895 0.0355
0.4841 0.6975 0.0437
0.5035 0.7068 0.0530
0.5245 0.7163 0.0634
0.5467 0.7262 0.0746
0.5687 0.7345 0.0857
0.5928 0.7433 0.0980
0.6192 0.7515 0.1114
0.6440 0.7574 0.1238
0.6699 0.7626 0.1363
0.6975 0.7656 0.1493
0.7252 0.7670 0.1620
0.7525 0.7670 0.1741
0.7798 0.7647 0.1859
0.8077 0.7617 0.1980
0.8379 0.7602 0.2116
0.8692 0.7574 0.2253
0.8979 0.7544 0.2379
0.9314 0.7529 0.2437
0.9684 0.7544 0.2434
0.9973 0.7549 0.2433
1.0000 0.7553 0.2431
1.0000 0.7557 0.2430
1.0000 0.7562 0.2430
1.0000 0.7562 0.2428
0.3830 0.6541 0.0000
0.3912 0.6580 0.0000
0.4008 0.6631 0.0005
0.4102 0.6678 0.0046
0.4209 0.6733 0.0095
0.4338 0.6801 0.0154
0.4467 0.6869 0.0215
0.4617 0.6946 0.0286
0.4767 0.7027 0.0360
0.4939 0.7116 0.0445
0.5126 0.7210 0.0542
0.5336 0.7313 0.0651
0.5561 0.7420 0.0767
0.5776 0.7515 0.0884
0.6021 0.7617 0.1011
0.6286 0.7708 0.1151
0.6538 0.7781 0.1280
0.6801 0.7841 0.1412
0.7077 0.7884 0.1547
0.7359 0.7914 0.1680
0.7635 0.7923 0.1806
0.7909 0.7914 0.1930
0.8186 0.7884 0.2050
0.8483 0.7866 0.2183
0.8794 0.7849 0.2325
0.9081 0.7826 0.2453
0.9387 0.7789 0.2589
0.9752 0.7789 0.2613
1.0000 0.7798 0.2612
1.0000 0.7802 0.2612
1.0000 0.7807 0.2612
1.0000 0.7811 0.2612
1.0000 0.7811 0.2612
0.3917 0.6622 0.0000
0.3995 0.6665 0.0000
0.4093 0.6716 0.0000
0.4184 0.6767 0.0040
0.4291 0.6827 0.0090
0.4419 0.6895 0.0151
0.4544 0.6963 0.0213
0.4695 0.7044 0.0288
0.4843 0.7129 0.0363
