70 CGC LUTs/Film Emulation/Fuji Vivid 8543.cube
#Created by: Denver Riddle
#Copyright: (C) Copyright Color Grading Central LLC
DOMAIN_MIN 0.0 0.0 0.0
DOMAIN_MAX 1.0 1.0 1.0
LUT_3D_SIZE 5
0.0097 0.0274 0.0003
0.1496 0.0236 0.0000
0.4239 0.0302 0.0000
0.6220 0.0364 0.0000
0.7210 0.0393 0.0000
0.0648 0.1740 0.0020
0.1738 0.1403 0.0061
0.4563 0.1477 0.0000
0.6644 0.1544 0.0000
0.7781 0.1580 0.0000
0.1823 0.4217 0.0030
0.2923 0.4277 0.0194
0.5093 0.3988 0.0493
0.7497 0.4061 0.0256
0.8931 0.4097 0.0113
0.3594 0.6309 0.0000
0.4558 0.6741 0.0349
0.6330 0.7340 0.1189
0.8577 0.7266 0.2173
1.0000 0.7283 0.2224
0.4195 0.6882 0.0000
0.5095 0.7461 0.0370
0.6878 0.8458 0.1420
0.9159 0.8813 0.2581
1.0000 0.8721 0.3265
0.0148 0.0121 0.1595
0.0991 0.0000 0.1748
0.3964 0.0023 0.1377
0.6207 0.0187 0.0927
0.7354 0.0289 0.0648
0.0000 0.1352 0.1547
0.1577 0.1551 0.1758
0.4474 0.1646 0.1376
0.6609 0.1715 0.0941
0.7776 0.1750 0.0674
0.1215 0.4151 0.1655
0.2713 0.4435 0.1775
0.4965 0.4139 0.1910
0.7403 0.4204 0.1588
0.8857 0.4241 0.1393
0.3271 0.6444 0.1590
0.4417 0.6903 0.1733
0.6228 0.7510 0.2405
0.8439 0.7390 0.3183
1.0000 0.7407 0.3186
0.3983 0.7104 0.1508
0.4973 0.7643 0.1677
0.6771 0.8638 0.2554
0.9042 0.8983 0.3506
1.0000 0.8852 0.4031
0.0297 0.0000 0.3276
0.1141 0.0000 0.3813
0.3060 0.0000 0.4483
0.5725 0.0000 0.4112
0.6971 0.0000 0.3865
0.0287 0.1212 0.3704
0.1727 0.1295 0.3990
0.3620 0.0837 0.4481
0.6207 0.0982 0.4107
0.7557 0.1077 0.3860
0.0227 0.3858 0.4018
0.1544 0.4036 0.4195
0.4706 0.4341 0.4476
0.7262 0.4439 0.4105
0.8755 0.4474 0.3863
0.2760 0.6712 0.4131
0.3840 0.7044 0.4316
0.6051 0.7816 0.4560
0.8201 0.7617 0.4912
1.0000 0.7630 0.4843
0.3739 0.7493 0.4141
0.4608 0.7923 0.4303
0.6588 0.8959 0.4563
0.8838 0.9285 0.5073
1.0000 0.9081 0.5359
0.0540 0.0000 0.3167
0.1384 0.0000 0.4307
0.3167 0.0000 0.6233
0.4937 0.0000 0.7933
0.6301 0.0000 0.7871
0.0894 0.0983 0.4309
0.1974 0.0870 0.4722
0.3712 0.0307 0.6440
0.5357 0.0000 0.7952
0.6763 0.0000 0.7866
0.0836 0.3653 0.5908
0.2162 0.3837 0.6192
0.4770 0.3934 0.6912
0.6258 0.3334 0.7991
0.7841 0.3331 0.7862
0.2225 0.7005 0.7091
0.2949 0.7159 0.7247
0.4912 0.7510 0.7602
0.7729 0.7933 0.8030
0.9737 0.8006 0.7854
0.3479 0.8228 0.7134
0.4059 0.8463 0.7296
0.5650 0.9027 0.7661
0.8383 0.9737 0.8069
1.0000 0.9480 0.8108
0.0640 0.0000 0.2078
0.1486 0.0000 0.3615
0.3263 0.0000 0.6178
0.5012 0.0000 0.8565
0.6005 0.0000 0.9713
0.1034 0.0831 0.3664
0.2076 0.0695 0.4186
0.3803 0.0119 0.6478
0.5430 0.0000 0.8692
0.6419 0.0000 0.9708
0.1090 0.3567 0.5911
0.2418 0.3754 0.6250
0.4845 0.3777 0.7168
0.6330 0.3144 0.8974
0.7382 0.2707 0.9703
0.2482 0.6937 0.8077
0.3197 0.7091 0.8312
0.5099 0.7433 0.8833
0.7899 0.7841 0.9455
0.9124 0.7588 0.9698
0.3558 0.8392 0.8468
0.3986 0.8560 0.8638
0.5326 0.8936 0.9017
0.7680 0.9382 0.9465
0.9874 0.9630 0.9694
