70 CGC LUTs/Film Emulation/Fuji Superia Xtra 400.cube
#Created by: Denver Riddle
#Copyright: (C) Copyright Color Grading Central LLC
DOMAIN_MIN 0.0 0.0 0.0
DOMAIN_MAX 1.0 1.0 1.0
LUT_3D_SIZE 5
0.0314 0.0314 0.0314
0.1155 0.0489 0.0314
0.3126 0.0775 0.0327
0.5880 0.1326 0.0415
0.6911 0.1652 0.0478
0.0314 0.1259 0.0314
0.1204 0.1222 0.0341
0.3353 0.1507 0.0402
0.6381 0.2067 0.0546
0.7485 0.2404 0.0641
0.1593 0.2717 0.0314
0.2290 0.2961 0.0314
0.3617 0.3024 0.0640
0.7208 0.3635 0.0906
0.8369 0.3999 0.1069
0.3277 0.4780 0.0314
0.4335 0.5514 0.0314
0.5850 0.6417 0.0816
0.7933 0.7095 0.2049
0.9507 0.7426 0.2353
0.3929 0.5415 0.0314
0.5122 0.6273 0.0314
0.6741 0.7474 0.0949
0.8767 0.9037 0.2547
0.9644 0.9319 0.3250
0.0314 0.0331 0.1197
0.0813 0.0358 0.1390
0.2917 0.0612 0.1372
0.5622 0.1132 0.1361
0.6716 0.1502 0.1416
0.0314 0.0994 0.1129
0.1126 0.1210 0.1218
0.3311 0.1496 0.1241
0.6376 0.2052 0.1306
0.7495 0.2387 0.1340
0.0882 0.2613 0.0750
0.2280 0.2996 0.0929
0.3586 0.3022 0.1339
0.7208 0.3627 0.1524
0.8380 0.3992 0.1644
0.3238 0.4906 0.0363
0.4367 0.5621 0.0693
0.5859 0.6487 0.1306
0.7913 0.7086 0.2467
0.9502 0.7421 0.2728
0.4126 0.5634 0.0399
0.5170 0.6404 0.0753
0.6775 0.7576 0.1376
0.8773 0.9075 0.2864
0.9644 0.9308 0.3529
0.0314 0.0365 0.2887
0.0744 0.0364 0.3284
0.2657 0.0429 0.3826
0.6211 0.0917 0.3768
0.7354 0.1214 0.3750
0.0314 0.1029 0.2898
0.1059 0.1207 0.3087
0.2892 0.1248 0.3569
0.6414 0.1737 0.3524
0.7573 0.2038 0.3508
0.0314 0.2349 0.2837
0.1070 0.2631 0.2967
0.3391 0.2977 0.3138
0.7086 0.3568 0.3170
0.8360 0.3927 0.3213
0.2688 0.5378 0.2339
0.3746 0.5821 0.2349
0.5880 0.6638 0.2595
0.7886 0.7082 0.3643
0.9478 0.7411 0.3845
0.4046 0.6331 0.2199
0.5077 0.6798 0.2200
0.6838 0.7805 0.2545
0.8767 0.9143 0.3823
0.9644 0.9284 0.4407
0.0314 0.0425 0.5605
0.0834 0.0437 0.6162
0.2635 0.0493 0.7035
0.5890 0.0711 0.8555
0.8093 0.0985 0.8494
0.0314 0.1090 0.5780
0.1151 0.1272 0.6062
0.2871 0.1302 0.6874
0.6172 0.1478 0.8284
0.8320 0.1753 0.8226
0.0314 0.2419 0.5994
0.1257 0.2699 0.6189
0.3372 0.3011 0.6579
0.6688 0.3112 0.7803
0.8680 0.3410 0.7764
0.2256 0.5544 0.6153
0.2630 0.5849 0.6286
0.3861 0.6310 0.6479
0.7690 0.7046 0.6811
0.9371 0.7362 0.6816
0.3873 0.7202 0.6111
0.4223 0.7557 0.6153
0.5432 0.8121 0.6213
0.8735 0.9284 0.6416
0.9600 0.9274 0.6932
0.0314 0.0456 0.6726
0.0895 0.0474 0.7424
0.2671 0.0540 0.8469
0.5880 0.0766 0.9189
0.7519 0.0950 0.9189
0.0314 0.1121 0.6996
0.1184 0.1305 0.7380
0.2908 0.1346 0.8362
0.6164 0.1530 0.9189
0.7782 0.1695 0.9189
0.0314 0.2453 0.7424
0.1351 0.2735 0.7665
0.3410 0.3049 0.8153
0.6678 0.3157 0.9189
0.8210 0.3292 0.9189
0.2446 0.5582 0.7900
0.2794 0.5884 0.8075
0.3982 0.6346 0.8348
0.7679 0.7065 0.8886
0.9067 0.7086 0.9189
0.4479 0.7173 0.7968
0.4393 0.7494 0.8114
0.5019 0.7985 0.8328
0.7690 0.8846 0.8703
0.9478 0.9242 0.8912
