70 CGC LUTs/Film Emulation/Fuji Eterna 8563.cube
#Created by: Denver Riddle
#Copyright: (C) Copyright Color Grading Central LLC
DOMAIN_MIN 0.0 0.0 0.0
DOMAIN_MAX 1.0 1.0 1.0
LUT_3D_SIZE 9
0.0000 0.0000 0.0000
0.0981 0.0000 0.0000
0.1969 0.0000 0.0000
0.2980 0.0000 0.0000
0.3969 0.0000 0.0000
0.4886 0.0000 0.0000
0.5677 0.0000 0.0000
0.6343 0.0000 0.0000
0.6771 0.0000 0.0000
0.0280 0.1023 0.0000
0.1203 0.0816 0.0000
0.2223 0.0740 0.0000
0.3269 0.0616 0.0000
0.4290 0.0527 0.0000
0.5244 0.0399 0.0000
0.6066 0.0303 0.0000
0.6751 0.0212 0.0000
0.7238 0.0129 0.0000
0.0600 0.2027 0.0000
0.1546 0.1943 0.0000
0.2532 0.1770 0.0003
0.3614 0.1647 0.0000
0.4638 0.1558 0.0000
0.5589 0.1464 0.0000
0.6489 0.1333 0.0000
0.7243 0.1254 0.0000
0.7793 0.1199 0.0000
0.1083 0.3146 0.0000
0.1987 0.3214 0.0000
0.2955 0.3136 0.0082
0.4011 0.2932 0.0161
0.5088 0.2842 0.0000
0.6090 0.2751 0.0000
0.7087 0.2658 0.0000
0.7924 0.2579 0.0000
0.8428 0.2524 0.0000
0.1665 0.4259 0.0000
0.2567 0.4486 0.0000
0.3532 0.4563 0.0000
0.4548 0.4509 0.0283
0.5540 0.4308 0.0485
0.6659 0.4216 0.0326
0.7798 0.4123 0.0169
0.8610 0.4045 0.0034
0.9067 0.3990 0.0000
0.2213 0.5154 0.0000
0.3109 0.5468 0.0000
0.4072 0.5745 0.0000
0.5091 0.5906 0.0225
0.6105 0.5857 0.0600
0.7209 0.5599 0.0912
0.8416 0.5507 0.0779
0.9130 0.5429 0.0664
0.9543 0.5370 0.0584
0.2763 0.5847 0.0000
0.3658 0.6264 0.0000
0.4580 0.6669 0.0000
0.5550 0.6946 0.0171
0.6620 0.7121 0.0602
0.7832 0.7039 0.1036
0.8829 0.6786 0.1406
0.9526 0.6743 0.1310
0.9722 0.6693 0.1242
0.3167 0.6304 0.0000
0.4059 0.6790 0.0000
0.4976 0.7277 0.0000
0.5944 0.7666 0.0132
0.7053 0.7972 0.0598
0.8294 0.8076 0.1088
0.9183 0.7943 0.1541
0.9722 0.7729 0.1852
0.9722 0.7675 0.1795
0.3554 0.6684 0.0000
0.4407 0.7223 0.0000
0.5322 0.7739 0.0000
0.6294 0.8206 0.0100
0.7428 0.8609 0.0596
0.8590 0.8838 0.1119
0.9448 0.8838 0.1620
0.9722 0.8701 0.2038
0.9722 0.8546 0.2302
0.0194 0.0000 0.1029
0.1057 0.0000 0.0977
0.2074 0.0000 0.0790
0.3114 0.0000 0.0583
0.4128 0.0000 0.0366
0.5069 0.0000 0.0138
0.5876 0.0000 0.0000
0.6552 0.0000 0.0000
0.7024 0.0000 0.0000
0.0053 0.0952 0.1006
0.1113 0.0963 0.1032
0.2149 0.0851 0.0844
0.3213 0.0771 0.0638
0.4249 0.0668 0.0421
0.5219 0.0560 0.0193
0.6056 0.0472 0.0000
0.6761 0.0358 0.0000
0.7257 0.0305 0.0000
0.0290 0.1981 0.0881
0.1363 0.2067 0.0968
0.2404 0.1906 0.0989
0.3505 0.1821 0.0792
0.4543 0.1701 0.0585
0.5511 0.1601 0.0367
0.6430 0.1507 0.0152
0.7194 0.1408 0.0000
0.7754 0.1335 0.0000
0.0810 0.3100 0.0700
0.1844 0.3328 0.0802
0.2812 0.3260 0.1020
0.3887 0.3065 0.1080
0.4979 0.2978 0.0891
0.6002 0.2885 0.0693
0.7009 0.2793 0.0498
0.7866 0.2714 0.0329
0.8406 0.2659 0.0212
0.1457 0.4276 0.0505
0.2423 0.4554 0.0605
0.3349 0.4675 0.0864
0.4412 0.4639 0.1152
0.5419 0.4447 0.1325
0.6557 0.4352 0.1152
0.7696 0.4259 0.0979
0.8532 0.4179 0.0831
0.8999 0.4126 0.0726
0.2069 0.5235 0.0315
0.2965 0.5565 0.0413
0.3928 0.5847 0.0714
0.4947 0.6013 0.1048
0.5973 0.5993 0.1396
0.7087 0.5735 0.1674
0.8313 0.5643 0.1525
0.9081 0.5560 0.1397
0.9504 0.5507 0.1307
0.2680 0.5983 0.0142
0.3515 0.6358 0.0239
0.4436 0.6743 0.0580
0.5409 0.7048 0.0956
0.6479 0.7228 0.1352
0.7686 0.7180 0.1758
0.8747 0.6922 0.2094
0.9455 0.6844 0.1984
0.9722 0.6786 0.1908
0.3133 0.6484 0.0011
0.3916 0.6878 0.0107
0.4833 0.7364 0.0478
0.5803 0.7758 0.0886
0.6876 0.8074 0.1318
0.8114 0.8181 0.1773
0.9097 0.8076 0.2198
0.9722 0.7865 0.2482
0.9722 0.7807 0.2416
0.3559 0.6863 0.0000
0.4261 0.7306 0.0000
0.5176 0.7822 0.0392
0.6143 0.8293 0.0829
0.7248 0.8701 0.1291
0.8449 0.8945 0.1778
0.9348 0.8979 0.2252
0.9722 0.8813 0.2639
0.9722 0.8682 0.2882
0.0388 0.0000 0.1855
0.1246 0.0000 0.1949
0.2177 0.0000 0.1942
0.3254 0.0000 0.1735
0.4303 0.0000 0.1517
0.5278 0.0000 0.1290
0.6124 0.0000 0.1065
0.6829 0.0000 0.0871
0.7351 0.0000 0.0735
0.0244 0.0884 0.1967
0.1301 0.0915 0.2054
0.2235 0.0905 0.1997
0.3332 0.0824 0.1790
0.4405 0.0761 0.1573
0.5371 0.0685 0.1345
0.6264 0.0591 0.1120
0.7019 0.0535 0.0926
0.7524 0.0495 0.0791
0.0203 0.1976 0.1988
0.1198 0.2001 0.2072
0.2340 0.2000 0.2060
0.3434 0.1922 0.1852
0.4517 0.1840 0.1637
0.5501 0.1745 0.1408
0.6435 0.1630 0.1183
0.7214 0.1558 0.0989
0.7783 0.1506 0.0853
0.0604 0.3202 0.1829
0.1542 0.3289 0.1904
0.2668 0.3382 0.2010
0.3763 0.3204 0.2052
0.4872 0.3115 0.1850
0.5910 0.3019 0.1635
0.6934 0.2929 0.1424
0.7802 0.2849 0.1242
0.8352 0.2794 0.1116
0.1293 0.4362 0.1611
0.2133 0.4534 0.1693
0.3206 0.4787 0.1814
0.4266 0.4758 0.2068
0.5336 0.4544 0.2222
0.6450 0.4488 0.2031
0.7579 0.4398 0.1842
0.8459 0.4315 0.1680
0.8974 0.4259 0.1567
0.1999 0.5293 0.1411
0.2778 0.5604 0.1499
0.3787 0.5949 0.1623
0.4804 0.6085 0.1925
0.5832 0.6080 0.2242
0.6966 0.5867 0.2492
0.8167 0.5779 0.2327
0.8989 0.5696 0.2185
0.9448 0.5643 0.2085
0.2671 0.6095 0.1239
0.3347 0.6450 0.1324
0.4290 0.6820 0.1449
0.5307 0.7150 0.1794
0.6338 0.7340 0.2156
0.7535 0.7316 0.2534
0.8624 0.7058 0.2836
0.9387 0.6980 0.2714
0.9722 0.6922 0.2626
0.3169 0.6684 0.1107
0.3831 0.7009 0.1191
0.4689 0.7418 0.1318
0.5657 0.7856 0.1695
0.6727 0.8138 0.2093
0.7968 0.8288 0.2512
0.8979 0.8181 0.2909
0.9640 0.8001 0.3166
0.9722 0.7943 0.3089
0.3636 0.7097 0.0996
0.4218 0.7437 0.1078
0.5035 0.7909 0.1207
0.6002 0.8385 0.1612
0.7107 0.8768 0.2040
0.8342 0.9047 0.2492
0.9256 0.9120 0.2935
0.9722 0.8950 0.3295
0.9722 0.8784 0.3517
0.0596 0.0000 0.2515
0.1492 0.0000 0.2763
0.2410 0.0000 0.2943
0.3395 0.0012 0.2972
0.4485 0.0000 0.2758
0.5462 0.0000 0.2529
0.6387 0.0000 0.2304
0.7155 0.0000 0.2110
0.7715 0.0000 0.1975
0.0450 0.0831 0.2772
0.1549 0.0850 0.2921
0.2465 0.0874 0.3045
0.3495 0.0937 0.3028
0.4568 0.0860 0.2811
0.5565 0.0818 0.2585
0.6508 0.0776 0.2359
0.7293 0.0740 0.2165
0.7861 0.0715 0.2029
0.0405 0.1933 0.2960
0.1437 0.1959 0.3076
0.2530 0.1971 0.3164
0.3563 0.1966 0.3091
0.4660 0.1908 0.2874
0.5681 0.1845 0.2646
0.6644 0.1784 0.2422
0.7486 0.1699 0.2229
0.8026 0.1656 0.2093
0.0556 0.3279 0.3030
0.1350 0.3304 0.3109
0.2426 0.3333 0.3195
0.3658 0.3326 0.3179
0.4789 0.3241 0.2960
0.5847 0.3153 0.2733
0.6854 0.3063 0.2507
0.7773 0.2988 0.2314
0.8333 0.2934 0.2178
0.1264 0.4539 0.2826
0.1968 0.4641 0.2899
0.2907 0.4758 0.2977
0.4113 0.4889 0.3116
0.5195 0.4687 0.3244
0.6333 0.4595 0.3035
0.7477 0.4509 0.2831
0.8411 0.4464 0.2656
0.8897 0.4408 0.2532
0.2024 0.5521 0.2609
0.2659 0.5682 0.2682
0.3541 0.5959 0.2775
0.4648 0.6202 0.2926
0.5681 0.6207 0.3208
0.6790 0.6013 0.3429
0.8051 0.5920 0.3249
0.8926 0.5842 0.3091
0.9368 0.5789 0.2982
0.2741 0.6285 0.2420
0.3286 0.6567 0.2502
0.4103 0.6878 0.2597
0.5151 0.7257 0.2755
0.6178 0.7418 0.3081
0.7384 0.7418 0.3427
0.8493 0.7204 0.3694
0.9310 0.7126 0.3558
0.9722 0.7068 0.3461
0.3288 0.6878 0.2288
0.3824 0.7175 0.2369
0.4546 0.7519 0.2461
0.5506 0.7958 0.2626
0.6572 0.8244 0.2984
0.7817 0.8410 0.3368
0.8877 0.8327 0.3734
0.9547 0.8108 0.3962
0.9722 0.8076 0.3876
0.3804 0.7374 0.2177
0.4252 0.7651 0.2257
0.4928 0.8040 0.2346
0.5847 0.8483 0.2515
0.6951 0.8872 0.2906
0.8153 0.9159 0.3320
0.9149 0.9251 0.3728
0.9722 0.9095 0.4059
0.9722 0.8925 0.4261
0.0915 0.0000 0.3028
0.1773 0.0000 0.3487
0.2690 0.0000 0.3891
0.3695 0.0044 0.4227
0.4716 0.0221 0.4424
0.5745 0.0236 0.4195
0.6727 0.0243 0.3969
0.7583 0.0249 0.3777
0.8128 0.0254 0.3638
0.0765 0.0774 0.3485
0.1828 0.0798 0.3718
0.2746 0.0835 0.4066
0.3750 0.0953 0.4341
0.4772 0.1062 0.4480
0.5827 0.1052 0.4249
0.6824 0.1042 0.4025
0.7734 0.1034 0.3833
0.8289 0.1028 0.3694
0.0688 0.1877 0.3896
0.1721 0.1903 0.4056
0.2807 0.1922 0.4266
0.3814 0.1960 0.4472
0.4838 0.2028 0.4543
0.5915 0.1998 0.4312
0.6975 0.1969 0.4088
0.7866 0.1944 0.3893
0.8428 0.1926 0.3759
0.0862 0.3221 0.4273
0.1661 0.3248 0.4399
0.2702 0.3275 0.4533
0.3899 0.3292 0.4650
0.4928 0.3304 0.4628
0.6041 0.3245 0.4402
0.7131 0.3189 0.4173
0.8046 0.3141 0.3981
0.8590 0.3107 0.3845
0.1367 0.4763 0.4445
0.1919 0.4794 0.4523
0.2695 0.4824 0.4608
0.3770 0.4853 0.4698
0.5040 0.4865 0.4733
0.6192 0.4775 0.4506
0.7369 0.4687 0.4278
0.8323 0.4610 0.4086
0.8824 0.4556 0.3949
0.2204 0.5920 0.4241
0.2668 0.6008 0.4314
0.3313 0.6076 0.4397
0.4288 0.6207 0.4482
0.5472 0.6382 0.4606
0.6606 0.6173 0.4791
0.7890 0.6080 0.4587
0.8790 0.6035 0.4411
0.9285 0.5983 0.4287
0.2999 0.6743 0.4042
0.3364 0.6868 0.4115
0.3979 0.7029 0.4193
0.4850 0.7287 0.4290
0.5968 0.7583 0.4426
0.7141 0.7593 0.4718
0.8352 0.7398 0.4949
0.9188 0.7321 0.4791
0.9645 0.7267 0.4681
0.3634 0.7306 0.3891
0.3948 0.7428 0.3962
0.4478 0.7675 0.4047
0.5297 0.8035 0.4149
0.6367 0.8395 0.4285
0.7569 0.8570 0.4616
0.8717 0.8527 0.4942
0.9448 0.8303 0.5131
0.9722 0.8244 0.5029
0.4157 0.7749 0.3770
0.4432 0.7962 0.3845
0.4918 0.8215 0.3930
0.5647 0.8604 0.4032
0.6703 0.9018 0.4168
0.7944 0.9310 0.4531
0.8979 0.9373 0.4891
0.9684 0.9295 0.5185
0.9722 0.9125 0.5360
0.1253 0.0000 0.3081
0.2111 0.0000 0.3791
0.3028 0.0000 0.4465
0.4033 0.0043 0.5097
0.5049 0.0272 0.5642
0.6071 0.0558 0.6089
0.7150 0.0667 0.5978
0.8060 0.0726 0.5783
0.8605 0.0753 0.5647
0.1099 0.0705 0.3777
0.2166 0.0734 0.4112
0.3082 0.0794 0.4730
0.4089 0.0931 0.5302
0.5103 0.1088 0.5783
0.6124 0.1333 0.6158
0.7218 0.1431 0.6031
0.8148 0.1465 0.5836
0.8702 0.1482 0.5705
0.1045 0.1807 0.4455
0.2055 0.1832 0.4669
0.3147 0.1862 0.5029
0.4149 0.1926 0.5530
0.5166 0.2033 0.5934
0.6187 0.2234 0.6236
0.7312 0.2278 0.6094
0.8284 0.2285 0.5900
0.8784 0.2291 0.5764
0.1184 0.3153 0.5204
0.1988 0.3180 0.5384
0.3035 0.3206 0.5574
0.4237 0.3231 0.5846
0.5249 0.3279 0.6148
0.6280 0.3377 0.6347
0.7452 0.3389 0.6182
0.8425 0.3372 0.5987
0.8936 0.3362 0.5851
0.1721 0.4702 0.5827
0.2243 0.4726 0.5958
0.3018 0.4753 0.6099
0.4103 0.4785 0.6258
0.5356 0.4807 0.6415
0.6382 0.4828 0.6474
0.7598 0.4799 0.6289
0.8561 0.4755 0.6089
0.9091 0.4724 0.5958
0.2620 0.6202 0.6128
0.2887 0.6227 0.6216
0.3366 0.6259 0.6313
0.4154 0.6290 0.6411
0.5200 0.6319 0.6517
0.6489 0.6348 0.6605
0.7773 0.6275 0.6396
0.8736 0.6197 0.6196
0.9214 0.6149 0.6060
0.3556 0.7291 0.6007
0.3712 0.7360 0.6080
0.4069 0.7407 0.6162
0.4689 0.7491 0.6247
0.5550 0.7603 0.6342
0.6790 0.7744 0.6445
0.8089 0.7603 0.6610
0.9028 0.7519 0.6430
0.9526 0.7462 0.6304
0.4230 0.7958 0.5851
0.4337 0.8050 0.5924
0.4641 0.8128 0.6002
0.5200 0.8269 0.6089
0.6002 0.8434 0.6182
0.7228 0.8701 0.6299
0.8469 0.8701 0.6537
0.9271 0.8536 0.6688
0.9722 0.8483 0.6576
0.4813 0.8439 0.5720
0.4879 0.8551 0.5793
0.5137 0.8692 0.5871
0.5604 0.8828 0.5958
0.6401 0.9076 0.6051
0.7617 0.9421 0.6172
0.8784 0.9572 0.6440
0.9526 0.9494 0.6697
0.9722 0.9358 0.6834
0.1554 0.0000 0.2695
0.2413 0.0000 0.3599
0.3291 0.0000 0.4482
0.4295 0.0043 0.5345
0.5307 0.0292 0.6133
0.6338 0.0599 0.6834
0.7467 0.0989 0.7388
0.8420 0.1122 0.7344
0.8921 0.1194 0.7208
0.1357 0.0613 0.3572
0.2468 0.0663 0.3991
0.3347 0.0761 0.4815
0.4349 0.0907 0.5613
0.5365 0.1096 0.6342
0.6391 0.1362 0.6970
0.7524 0.1674 0.7461
0.8449 0.1813 0.7398
0.8979 0.1848 0.7267
0.1301 0.1745 0.4463
0.2355 0.1780 0.4718
0.3408 0.1816 0.5195
0.4415 0.1899 0.5924
0.5390 0.2027 0.6576
0.6455 0.2248 0.7126
0.7588 0.2476 0.7544
0.8527 0.2555 0.7461
0.9052 0.2578 0.7325
0.1473 0.3097 0.5501
0.2253 0.3126 0.5720
0.3296 0.3153 0.5953
0.4500 0.3187 0.6352
0.5472 0.3255 0.6897
0.6542 0.3374 0.7339
0.7705 0.3537 0.7651
0.8634 0.3586 0.7554
0.9135 0.3593 0.7412
0.1965 0.4648 0.6474
0.2527 0.4673 0.6649
0.3274 0.4702 0.6834
0.4362 0.4731 0.7038
0.5579 0.4758 0.7286
0.6644 0.4802 0.7607
0.7817 0.4892 0.7782
0.8769 0.4901 0.7656
0.9251 0.4889 0.7524
0.2856 0.6149 0.7126
0.3130 0.6173 0.7252
0.3651 0.6202 0.7388
0.4410 0.6231 0.7544
0.5414 0.6270 0.7704
0.6751 0.6295 0.7865
0.7924 0.6309 0.7913
0.8863 0.6285 0.7763
0.9368 0.6248 0.7626
0.4011 0.7544 0.7446
0.4055 0.7569 0.7539
0.4288 0.7598 0.7626
0.4774 0.7627 0.7729
0.5497 0.7661 0.7836
0.6581 0.7695 0.7947
0.8021 0.7719 0.8035
0.8979 0.7661 0.7860
0.9480 0.7612 0.7724
0.4843 0.8371 0.7378
0.4789 0.8424 0.7451
0.4923 0.8483 0.7539
0.5292 0.8556 0.7626
0.5895 0.8638 0.7719
0.6858 0.8701 0.7811
0.8229 0.8799 0.7909
0.9135 0.8701 0.8016
0.9654 0.8668 0.7884
0.5438 0.8945 0.7247
0.5371 0.9018 0.7320
0.5428 0.9105 0.7398
0.5750 0.9212 0.7485
0.6343 0.9344 0.7583
0.7287 0.9455 0.7675
0.8556 0.9674 0.7787
0.9378 0.9664 0.7977
0.9722 0.9504 0.8093
0.1737 0.0000 0.2205
0.2597 0.0000 0.3244
0.3512 0.0000 0.4270
0.4480 0.0043 0.5297
0.5453 0.0306 0.6252
0.6518 0.0628 0.7130
0.7657 0.1032 0.7865
0.8595 0.1409 0.8390
0.9097 0.1504 0.8298
0.1577 0.0575 0.3210
0.2651 0.0611 0.3682
0.3568 0.0739 0.4655
0.4534 0.0889 0.5613
0.5506 0.1104 0.6508
0.6576 0.1392 0.7315
0.7749 0.1730 0.7982
0.8654 0.2033 0.8448
0.9144 0.2095 0.8351
0.1517 0.1678 0.4244
0.2536 0.1721 0.4531
0.3629 0.1785 0.5088
0.4597 0.1881 0.5978
0.5569 0.2022 0.6795
0.6640 0.2259 0.7529
0.7807 0.2501 0.8113
0.8712 0.2747 0.8517
0.9214 0.2797 0.8414
0.1647 0.3061 0.5486
0.2459 0.3087 0.5734
0.3515 0.3115 0.5997
0.4682 0.3155 0.6479
0.5657 0.3236 0.7194
0.6722 0.3369 0.7816
0.7895 0.3549 0.8298
0.8784 0.3743 0.8609
0.9280 0.3775 0.8502
0.2134 0.4612 0.6702
0.2697 0.4636 0.6907
0.3487 0.4663 0.7121
0.4541 0.4695 0.7359
0.5759 0.4726 0.7680
0.6829 0.4782 0.8166
0.8002 0.4887 0.8521
0.8872 0.5015 0.8721
0.9368 0.5025 0.8604
0.3021 0.6110 0.7602
0.3298 0.6134 0.7758
0.3824 0.6163 0.7928
0.4582 0.6192 0.8113
0.5594 0.6227 0.8302
0.6971 0.6259 0.8521
0.8104 0.6290 0.8746
0.8974 0.6353 0.8838
0.9455 0.6338 0.8711
0.4171 0.7508 0.8147
0.4218 0.7534 0.8264
0.4458 0.7559 0.8385
0.4945 0.7593 0.8521
0.5672 0.7622 0.8662
0.6761 0.7656 0.8818
0.8209 0.7685 0.8954
0.9033 0.7690 0.8940
0.9538 0.7656 0.8813
0.5249 0.8590 0.8380
0.5120 0.8624 0.8463
0.5166 0.8658 0.8551
0.5404 0.8697 0.8648
0.5949 0.8701 0.8751
0.6805 0.8721 0.8862
0.8051 0.8757 0.8969
0.9097 0.8779 0.9022
0.9604 0.8726 0.8886
0.5978 0.9276 0.8312
0.5774 0.9319 0.8385
0.5740 0.9370 0.8463
0.5929 0.9402 0.8551
0.6387 0.9480 0.8643
0.7184 0.9567 0.8740
0.8333 0.9660 0.8842
0.9266 0.9757 0.8930
0.9722 0.9630 0.9032
0.1876 0.0000 0.1701
0.2736 0.0000 0.2845
0.3653 0.0000 0.3986
0.4619 0.0042 0.5136
0.5594 0.0316 0.6216
0.6659 0.0672 0.7233
0.7832 0.1066 0.8103
0.8736 0.1473 0.8746
0.9217 0.1760 0.9139
0.1716 0.0547 0.2806
0.2792 0.0585 0.3322
0.3707 0.0723 0.4407
0.4675 0.0875 0.5491
0.5647 0.1111 0.6513
0.6717 0.1422 0.7451
0.7885 0.1774 0.8259
0.8784 0.2068 0.8842
0.9271 0.2335 0.9193
0.1655 0.1650 0.3954
0.2673 0.1675 0.4261
0.3772 0.1757 0.4881
0.4738 0.1866 0.5895
0.5711 0.2020 0.6843
0.6776 0.2267 0.7709
0.7948 0.2521 0.8429
0.8819 0.2776 0.8954
0.9331 0.2973 0.9256
0.1780 0.3031 0.5350
0.2597 0.3058 0.5618
0.3653 0.3085 0.5910
0.4823 0.3131 0.6454
0.5798 0.3224 0.7296
0.6866 0.3367 0.8059
0.8036 0.3559 0.8672
0.8906 0.3763 0.9105
0.9382 0.3924 0.9343
0.2296 0.4583 0.6756
0.2831 0.4607 0.6980
0.3624 0.4636 0.7223
0.4680 0.4666 0.7485
0.5900 0.4700 0.7855
0.7009 0.4768 0.8478
0.8143 0.4882 0.8969
0.8979 0.5023 0.9285
0.9448 0.5137 0.9445
0.3150 0.6080 0.7840
0.3443 0.6110 0.8020
0.3955 0.6134 0.8210
0.4718 0.6163 0.8424
0.5730 0.6197 0.8643
0.7112 0.6227 0.8906
0.8284 0.6275 0.9261
0.9077 0.6348 0.9465
0.9526 0.6416 0.9552
0.4295 0.7476 0.8560
0.4344 0.7502 0.8696
0.4587 0.7534 0.8852
0.5078 0.7564 0.9013
0.5808 0.7593 0.9178
0.6934 0.7627 0.9358
0.8381 0.7656 0.9533
0.9135 0.7671 0.9635
0.9604 0.7700 0.9650
0.5371 0.8580 0.8940
0.5244 0.8609 0.9042
0.5292 0.8634 0.9154
0.5531 0.8668 0.9275
0.6080 0.8697 0.9407
0.6980 0.8701 0.9538
0.8187 0.8726 0.9674
0.9208 0.8746 0.9767
0.9645 0.8740 0.9723
0.6411 0.9450 0.9115
0.6124 0.9480 0.9193
0.6007 0.9509 0.9275
0.6105 0.9552 0.9368
0.6465 0.9591 0.9460
0.7160 0.9635 0.9562
0.8177 0.9674 0.9660
0.9097 0.9703 0.9742
0.9713 0.9723 0.9791
