70 CGC LUTs/Film Emulation/Fuji Eterna 3513.cube
#Created by: Denver Riddle
#Copyright: (C) Copyright Color Grading Central LLC
DOMAIN_MIN 0.0 0.0 0.0
DOMAIN_MAX 1.0 1.0 1.0
LUT_3D_SIZE 9
0.0039 0.0870 0.0975
0.0039 0.0904 0.0812
0.0670 0.0973 0.0413
0.1439 0.1002 0.0392
0.2166 0.1028 0.0392
0.2666 0.1044 0.0392
0.2872 0.1052 0.0392
0.2748 0.1048 0.0392
0.2289 0.1032 0.0392
0.0039 0.0901 0.1007
0.0039 0.0956 0.0741
0.1139 0.1029 0.0392
0.2270 0.1069 0.0392
0.3415 0.1145 0.0392
0.4249 0.1173 0.0392
0.4754 0.1213 0.0392
0.4857 0.1231 0.0392
0.4575 0.1222 0.0392
0.0039 0.1079 0.1160
0.0039 0.1145 0.0774
0.1609 0.1195 0.0392
0.3145 0.1287 0.0392
0.4643 0.1346 0.0392
0.5871 0.1417 0.0392
0.6644 0.1474 0.0392
0.7014 0.1523 0.0392
0.6960 0.1560 0.0392
0.0039 0.1403 0.1453
0.0039 0.1562 0.1056
0.1992 0.1680 0.0395
0.4015 0.1645 0.0392
0.5851 0.1774 0.0392
0.7257 0.1851 0.0392
0.8133 0.1949 0.0392
0.8575 0.2032 0.0392
0.8752 0.2039 0.0392
0.0039 0.1815 0.1874
0.0039 0.2129 0.1496
0.2427 0.2476 0.0442
0.4485 0.2501 0.0392
0.6839 0.2382 0.0392
0.8244 0.2531 0.0392
0.9125 0.2632 0.0392
0.9582 0.2741 0.0392
0.9811 0.2832 0.0392
0.0039 0.2224 0.2363
0.0039 0.2810 0.1979
0.2331 0.3450 0.0885
0.4975 0.3678 0.0488
0.7155 0.3685 0.0438
0.8911 0.3474 0.0392
0.9704 0.3612 0.0392
1.0000 0.3727 0.0392
1.0000 0.3844 0.0392
0.0039 0.2632 0.2750
0.0039 0.3442 0.2385
0.2196 0.4337 0.1384
0.5462 0.4836 0.0619
0.7481 0.4989 0.0600
0.8994 0.4942 0.0565
1.0000 0.4665 0.0508
1.0000 0.4804 0.0521
1.0000 0.4926 0.0535
0.0039 0.2968 0.2978
0.0039 0.3987 0.2689
0.2337 0.5030 0.1700
0.5968 0.5828 0.0744
0.7802 0.6139 0.0763
0.9105 0.6243 0.0761
0.9980 0.6144 0.0733
1.0000 0.5872 0.0681
1.0000 0.5983 0.0698
0.0039 0.3248 0.3065
0.0039 0.4451 0.2765
0.2653 0.5643 0.1891
0.6348 0.6645 0.0921
0.8108 0.7049 0.0901
0.9227 0.7287 0.0930
0.9960 0.7355 0.0935
1.0000 0.7248 0.0911
1.0000 0.6976 0.0861
0.0039 0.0864 0.0971
0.0039 0.0913 0.0886
0.0906 0.0983 0.0468
0.1912 0.1019 0.0396
0.2918 0.1054 0.0392
0.3736 0.1081 0.0392
0.4159 0.1096 0.0392
0.4224 0.1097 0.0392
0.3903 0.1087 0.0392
0.0039 0.0958 0.1074
0.0039 0.1009 0.0989
0.0971 0.1099 0.0471
0.2170 0.1178 0.0396
0.3417 0.1241 0.0392
0.4412 0.1292 0.0392
0.5102 0.1350 0.0392
0.5316 0.1362 0.0392
0.5180 0.1391 0.0392
0.0039 0.1211 0.1360
0.0039 0.1310 0.1078
0.1327 0.1379 0.0474
0.2904 0.1467 0.0392
0.4531 0.1560 0.0392
0.5856 0.1667 0.0392
0.6741 0.1728 0.0392
0.7242 0.1813 0.0392
0.7316 0.1850 0.0392
0.0039 0.1637 0.1834
0.0039 0.1856 0.1534
0.1574 0.2039 0.0533
0.3609 0.1993 0.0421
0.5569 0.2090 0.0392
0.7077 0.2246 0.0392
0.8074 0.2348 0.0392
0.8629 0.2434 0.0392
0.8848 0.2540 0.0392
0.0039 0.2145 0.2492
0.0039 0.2472 0.2133
0.1248 0.2951 0.1106
0.4059 0.3097 0.0452
0.6352 0.2956 0.0416
0.7972 0.3118 0.0392
0.8930 0.3255 0.0392
0.9460 0.3379 0.0392
0.9762 0.3493 0.0392
0.0039 0.2630 0.3113
0.0039 0.3118 0.2751
0.0906 0.3875 0.1717
0.4553 0.4380 0.0576
0.6741 0.4375 0.0529
0.8527 0.4167 0.0501
0.9460 0.4332 0.0503
0.9991 0.4451 0.0474
1.0000 0.4548 0.0486
0.0039 0.3022 0.3700
0.0039 0.3685 0.3168
0.0760 0.4653 0.2216
0.4728 0.5444 0.0925
0.7116 0.5653 0.0700
0.8682 0.5623 0.0670
0.9742 0.5385 0.0650
1.0000 0.5502 0.0652
1.0000 0.5648 0.0646
0.0039 0.3345 0.4048
0.0039 0.4162 0.3406
0.0864 0.5302 0.2523
0.4767 0.6259 0.1333
0.7491 0.6762 0.0861
0.8857 0.6883 0.0863
0.9738 0.6810 0.0840
1.0000 0.6572 0.0825
1.0000 0.6694 0.0844
0.0039 0.3593 0.4238
0.0039 0.4549 0.3498
0.1180 0.5842 0.2678
0.5010 0.6951 0.1598
0.7841 0.7545 0.0990
0.9047 0.7778 0.1021
0.9767 0.7846 0.1027
1.0000 0.7783 0.1011
1.0000 0.7564 0.1001
0.0039 0.0866 0.1074
0.0112 0.0920 0.1113
0.1232 0.0997 0.1104
0.2427 0.1041 0.1006
0.3734 0.1085 0.0887
0.4813 0.1120 0.0728
0.5569 0.1142 0.0627
0.5837 0.1150 0.0565
0.5735 0.1147 0.0507
0.0039 0.0924 0.1075
0.0155 0.0978 0.1113
0.1151 0.1109 0.1177
0.2546 0.1158 0.1019
0.4086 0.1247 0.0883
0.5375 0.1307 0.0721
0.6253 0.1351 0.0618
0.6732 0.1404 0.0553
0.6766 0.1410 0.0492
0.0039 0.1388 0.1555
0.0039 0.1445 0.1593
0.0822 0.1635 0.1446
0.2658 0.1787 0.1047
0.4356 0.1916 0.0914
0.5827 0.1995 0.0753
0.6849 0.2058 0.0653
0.7432 0.2146 0.0592
0.7651 0.2260 0.0536
0.0039 0.1970 0.2308
0.0039 0.2086 0.2313
0.0417 0.2413 0.1438
0.3215 0.2458 0.1082
0.5224 0.2631 0.0958
0.6868 0.2756 0.0808
0.7987 0.2897 0.0715
0.8600 0.3024 0.0656
0.8925 0.3143 0.0602
0.0039 0.2506 0.3153
0.0039 0.2781 0.2861
0.0039 0.3357 0.1959
0.3675 0.3773 0.0710
0.5885 0.3620 0.1038
0.7636 0.3780 0.0918
0.8721 0.3953 0.0844
0.9329 0.4077 0.0777
0.9660 0.4201 0.0727
0.0039 0.2978 0.3965
0.0039 0.3396 0.3632
0.0039 0.4211 0.2596
0.3410 0.4894 0.1176
0.6328 0.5054 0.0769
0.8186 0.4879 0.1080
0.9188 0.5015 0.0986
0.9772 0.5164 0.0931
1.0000 0.5288 0.0904
0.0039 0.3311 0.4597
0.0039 0.3873 0.4167
0.0039 0.4857 0.3007
0.3247 0.5833 0.1733
0.6776 0.6290 0.0801
0.8395 0.6304 0.0914
0.9504 0.6071 0.1182
1.0000 0.6222 0.1145
1.0000 0.6339 0.1094
0.0039 0.3535 0.5038
0.0039 0.4291 0.4505
0.0039 0.5444 0.3277
0.3373 0.6596 0.2074
0.7199 0.7287 0.0952
0.8619 0.7399 0.0957
0.9553 0.7375 0.1069
1.0000 0.7200 0.1332
1.0000 0.7272 0.1297
0.0039 0.3745 0.5259
0.0039 0.4634 0.4626
0.0039 0.5920 0.3338
0.3665 0.7161 0.2264
0.7233 0.7949 0.1281
0.8833 0.8177 0.1105
0.9655 0.8255 0.1115
1.0000 0.8206 0.1226
1.0000 0.8046 0.1492
0.0039 0.1362 0.2298
0.0039 0.1417 0.2352
0.0588 0.1411 0.2369
0.4173 0.1257 0.1789
0.5710 0.1351 0.1640
0.6858 0.1395 0.1492
0.7622 0.1408 0.1376
0.8021 0.1395 0.1274
0.8006 0.1361 0.1194
0.0039 0.1420 0.2324
0.0039 0.1474 0.2377
0.0508 0.1523 0.2440
0.4091 0.1347 0.1861
0.5769 0.1449 0.1707
0.7087 0.1532 0.1579
0.8016 0.1567 0.1469
0.8507 0.1571 0.1376
0.8580 0.1571 0.1317
0.0039 0.1705 0.2436
0.0039 0.1758 0.2484
0.0403 0.1959 0.2661
0.3694 0.1809 0.2222
0.5477 0.1967 0.2108
0.6907 0.2039 0.1993
0.7933 0.2080 0.1890
0.8439 0.2129 0.1828
0.8682 0.2193 0.1698
0.0039 0.2434 0.2755
0.0039 0.2491 0.2792
0.0681 0.2694 0.2890
0.2824 0.3080 0.2976
0.4883 0.3260 0.2718
0.6654 0.3423 0.2425
0.7875 0.3581 0.2196
0.8546 0.3710 0.1992
0.8945 0.3824 0.1817
0.0039 0.3100 0.3827
0.0039 0.3253 0.3961
0.0039 0.3627 0.3995
0.2250 0.4308 0.2504
0.5453 0.4342 0.2785
0.7330 0.4515 0.2519
0.8517 0.4646 0.2309
0.9193 0.4789 0.2122
0.9597 0.4926 0.1967
0.0039 0.3347 0.4741
0.0039 0.3588 0.4860
0.0039 0.4367 0.3951
0.1876 0.5288 0.2433
0.5954 0.5730 0.1715
0.7807 0.5594 0.2663
0.8940 0.5745 0.2479
0.9592 0.5867 0.2307
0.9970 0.5983 0.2148
0.0039 0.3466 0.5449
0.0039 0.3941 0.5089
0.0039 0.4933 0.4038
0.1813 0.6081 0.2585
0.5992 0.6854 0.1490
0.8094 0.6927 0.1743
0.9237 0.6781 0.2656
0.9830 0.6908 0.2498
1.0000 0.6990 0.2345
0.0039 0.3610 0.5803
0.0039 0.4240 0.5405
0.0039 0.5439 0.4218
0.2064 0.6747 0.2755
0.5988 0.7598 0.1630
0.8385 0.7890 0.1340
0.9373 0.7890 0.1834
1.0000 0.7744 0.2720
1.0000 0.7837 0.2588
0.0039 0.3722 0.6119
0.0039 0.4548 0.5521
0.0039 0.5901 0.4286
0.2422 0.7253 0.2861
0.6231 0.8104 0.1767
0.8653 0.8532 0.1231
0.9504 0.8629 0.1456
1.0000 0.8600 0.1941
1.0000 0.8445 0.2799
0.0039 0.2043 0.3151
0.0039 0.2096 0.3226
0.0039 0.2069 0.3472
0.2972 0.1861 0.3562
0.7870 0.2110 0.2871
0.9499 0.2251 0.2619
1.0000 0.2289 0.2482
1.0000 0.2248 0.2343
1.0000 0.2174 0.2224
0.0039 0.2100 0.3212
0.0039 0.2155 0.3287
0.0039 0.2188 0.3537
0.2892 0.1954 0.3630
0.7792 0.2171 0.2944
0.9577 0.2328 0.2688
1.0000 0.2400 0.2571
1.0000 0.2376 0.2442
1.0000 0.2324 0.2332
0.0039 0.2383 0.3501
0.0039 0.2438 0.3571
0.0039 0.2637 0.3827
0.2501 0.2394 0.3965
0.7393 0.2493 0.3301
0.9290 0.2691 0.3046
1.0000 0.2783 0.2949
1.0000 0.2781 0.2861
1.0000 0.2773 0.2789
0.0039 0.3092 0.4067
0.0039 0.3148 0.4126
0.0039 0.3347 0.4335
0.1521 0.3745 0.4719
0.6411 0.3454 0.4155
0.8351 0.3637 0.3965
0.9397 0.3763 0.3890
0.9879 0.3844 0.3822
1.0000 0.3895 0.3768
0.0039 0.4075 0.4617
0.0039 0.4128 0.4626
0.0545 0.4327 0.4770
0.2332 0.4687 0.5059
0.5056 0.5110 0.5307
0.7009 0.5244 0.5089
0.8283 0.5390 0.4841
0.9057 0.5512 0.4581
0.9485 0.5662 0.4318
0.0039 0.4476 0.5307
0.0039 0.4575 0.5424
0.0039 0.4926 0.5604
0.0208 0.5546 0.5934
0.4764 0.6280 0.4342
0.7457 0.6295 0.5149
0.8716 0.6451 0.4923
0.9431 0.6582 0.4648
0.9816 0.6703 0.4461
0.0039 0.4288 0.6037
0.0039 0.4493 0.6178
0.0039 0.4955 0.6494
0.0086 0.6188 0.4969
0.4618 0.7185 0.3404
0.7812 0.7498 0.3710
0.9023 0.7379 0.5042
0.9674 0.7472 0.4789
1.0000 0.7589 0.4615
0.0039 0.3919 0.6596
0.0039 0.4177 0.6810
0.0039 0.5346 0.5745
0.0327 0.6781 0.4218
0.4772 0.7822 0.2782
0.8026 0.8289 0.2582
0.9207 0.8318 0.3620
0.9811 0.8206 0.4977
1.0000 0.8284 0.4748
0.0039 0.3659 0.7024
0.0039 0.4354 0.6528
0.0039 0.5721 0.5283
0.0854 0.7243 0.3798
0.5166 0.8240 0.2446
0.8079 0.8727 0.1977
0.9388 0.8902 0.2539
0.9908 0.8887 0.3608
1.0000 0.8804 0.4938
0.0039 0.2533 0.3160
0.0039 0.2587 0.3250
0.0039 0.2547 0.3654
0.2003 0.2245 0.4228
0.6907 0.2463 0.4201
1.0000 0.3282 0.3411
1.0000 0.3398 0.3328
1.0000 0.3418 0.3243
1.0000 0.3394 0.3177
0.0039 0.2591 0.3248
0.0039 0.2646 0.3336
0.0039 0.2669 0.3715
0.1924 0.2341 0.4291
0.6829 0.2529 0.4269
1.0000 0.3316 0.3484
1.0000 0.3450 0.3399
1.0000 0.3496 0.3333
1.0000 0.3491 0.3280
0.0039 0.2873 0.3656
0.0039 0.2927 0.3743
0.0039 0.3128 0.4011
0.1530 0.2837 0.4607
0.6435 0.2868 0.4610
1.0000 0.3510 0.3846
1.0000 0.3685 0.3800
1.0000 0.3748 0.3756
1.0000 0.3763 0.3705
0.0039 0.3583 0.4529
0.0039 0.3637 0.4602
0.0039 0.3839 0.4826
0.0552 0.4235 0.5312
0.5453 0.3875 0.5375
1.0000 0.4152 0.4666
1.0000 0.4342 0.4641
1.0000 0.4437 0.4626
1.0000 0.4510 0.4627
0.0039 0.4548 0.5419
0.0039 0.4580 0.5449
0.0039 0.4780 0.5638
0.1448 0.5178 0.6007
0.4057 0.5589 0.6425
0.8643 0.5366 0.5801
0.9816 0.5555 0.5801
1.0000 0.5667 0.5784
1.0000 0.5750 0.5779
0.0039 0.5439 0.5944
0.0039 0.5492 0.5983
0.0656 0.5692 0.6129
0.2291 0.6086 0.6391
0.4594 0.6640 0.6727
0.7374 0.6956 0.6863
0.8595 0.7092 0.6819
0.9305 0.7219 0.6703
0.9723 0.7307 0.6587
0.0039 0.5740 0.6465
0.0039 0.5862 0.6562
0.0039 0.6178 0.6727
0.1238 0.6772 0.7056
0.3480 0.7418 0.7422
0.7218 0.7959 0.6284
0.8773 0.7900 0.6922
0.9548 0.7959 0.6766
0.9918 0.8075 0.6625
0.0039 0.5521 0.7024
0.0039 0.5692 0.7101
0.0039 0.6149 0.7379
0.0039 0.6922 0.7748
0.3291 0.7959 0.6460
0.7160 0.8542 0.5149
0.9013 0.8662 0.5944
0.9684 0.8615 0.6849
1.0000 0.8662 0.6698
0.0039 0.4850 0.7398
0.0039 0.5098 0.7578
0.0039 0.5706 0.7860
0.0039 0.7190 0.6460
0.3826 0.8318 0.4931
0.7350 0.8911 0.3832
0.9222 0.9106 0.4593
0.9801 0.9140 0.5832
1.0000 0.9057 0.6776
0.0039 0.2812 0.2946
0.0039 0.2866 0.3046
0.0039 0.2817 0.3542
0.1459 0.2486 0.4418
0.6367 0.2666 0.4729
1.0000 0.3471 0.4259
1.0000 0.4157 0.3781
1.0000 0.4216 0.3727
1.0000 0.4233 0.3681
0.0039 0.2868 0.3049
0.0039 0.2924 0.3148
0.0039 0.2941 0.3601
0.1379 0.2585 0.4478
0.6289 0.2733 0.4794
1.0000 0.3508 0.4330
1.0000 0.4179 0.3853
1.0000 0.4257 0.3798
1.0000 0.4276 0.3778
0.0039 0.3153 0.3528
0.0039 0.3206 0.3620
0.0039 0.3406 0.3961
0.0988 0.3087 0.4741
0.5890 0.3082 0.5084
1.0000 0.3707 0.4641
1.0000 0.4303 0.4174
1.0000 0.4408 0.4162
1.0000 0.4451 0.4160
0.0039 0.3865 0.4573
0.0039 0.3919 0.4626
0.0039 0.4118 0.4909
0.0039 0.4515 0.5449
0.4871 0.4116 0.5818
0.9538 0.4365 0.5449
1.0000 0.4733 0.5035
1.0000 0.4860 0.5045
1.0000 0.4930 0.5059
0.0039 0.4806 0.5662
0.0039 0.4860 0.5725
0.0039 0.5062 0.5920
0.0940 0.5458 0.6353
0.3514 0.5862 0.6873
0.8181 0.5599 0.6562
1.0000 0.5745 0.6152
1.0000 0.5891 0.6152
1.0000 0.5979 0.6153
0.0039 0.5716 0.6411
0.0039 0.5769 0.6460
0.0228 0.5969 0.6600
0.1826 0.6368 0.6956
0.4079 0.6913 0.7374
0.6922 0.7200 0.7602
0.9533 0.7112 0.7189
1.0000 0.7229 0.7184
1.0000 0.7336 0.7203
0.0039 0.6441 0.6863
0.0167 0.6528 0.6902
0.0881 0.6728 0.7038
0.2410 0.7126 0.7276
0.4577 0.7642 0.7632
0.6902 0.8094 0.7928
0.8595 0.8337 0.7996
0.9431 0.8425 0.7879
0.9840 0.8483 0.7787
0.0039 0.6655 0.7286
0.0039 0.6772 0.7379
0.0075 0.7068 0.7573
0.1715 0.7589 0.7860
0.3850 0.8172 0.8249
0.6104 0.8673 0.8478
0.8823 0.8965 0.7437
0.9587 0.8906 0.7909
1.0000 0.8970 0.7821
0.0039 0.6596 0.7632
0.0039 0.6752 0.7725
0.0039 0.7146 0.7938
0.0887 0.7788 0.8307
0.3001 0.8445 0.8701
0.6367 0.9019 0.7680
0.8809 0.9271 0.6800
0.9704 0.9310 0.7349
1.0000 0.9266 0.7865
0.0039 0.2961 0.2809
0.0039 0.3014 0.2873
0.0039 0.2961 0.3421
0.1163 0.2614 0.4452
0.6066 0.2773 0.4967
1.0000 0.3559 0.4653
1.0000 0.4469 0.3999
1.0000 0.4673 0.3973
1.0000 0.4697 0.3946
0.0039 0.3019 0.2878
0.0039 0.3073 0.2980
0.0039 0.3087 0.3477
0.1083 0.2714 0.4512
0.5988 0.2841 0.5035
1.0000 0.3595 0.4721
1.0000 0.4483 0.4060
1.0000 0.4685 0.4007
1.0000 0.4714 0.3999
0.0039 0.3301 0.3391
0.0039 0.3355 0.3489
0.0039 0.3557 0.3849
0.0693 0.3223 0.4768
0.5599 0.3197 0.5312
1.0000 0.3802 0.5059
1.0000 0.4548 0.4420
1.0000 0.4772 0.4367
1.0000 0.4821 0.4383
0.0039 0.4011 0.4532
0.0039 0.4067 0.4617
0.0039 0.4267 0.4889
0.0039 0.4622 0.5449
0.4577 0.4240 0.6037
0.9246 0.4473 0.5803
1.0000 0.4957 0.5234
1.0000 0.5142 0.5188
1.0000 0.5220 0.5227
0.0039 0.4955 0.5750
0.0039 0.5010 0.5801
0.0039 0.5210 0.6032
0.0674 0.5604 0.6499
0.3218 0.6008 0.7056
0.7889 0.5726 0.6912
1.0000 0.5886 0.6357
1.0000 0.6017 0.6309
1.0000 0.6124 0.6357
0.0039 0.5862 0.6587
0.0039 0.5920 0.6635
0.0039 0.6115 0.6829
0.1579 0.6557 0.7179
0.3809 0.7063 0.7680
0.6625 0.7345 0.7933
0.9845 0.7175 0.7427
1.0000 0.7258 0.7383
1.0000 0.7350 0.7408
0.0039 0.6611 0.7072
0.0071 0.6664 0.7116
0.0776 0.6864 0.7267
0.2290 0.7258 0.7573
0.4434 0.7769 0.7923
0.6732 0.8216 0.8293
0.8872 0.8352 0.8278
0.9820 0.8391 0.8230
1.0000 0.8459 0.8234
0.0039 0.7097 0.7583
0.0039 0.7151 0.7622
0.0708 0.7360 0.7725
0.2162 0.7778 0.7996
0.4232 0.8274 0.8346
0.6469 0.8741 0.8682
0.8113 0.9062 0.8920
0.9490 0.9145 0.8536
0.9939 0.9198 0.8478
0.0039 0.7180 0.7792
0.0039 0.7277 0.7855
0.0410 0.7574 0.8055
0.2014 0.8026 0.8356
0.4110 0.8615 0.8726
0.6202 0.9072 0.9066
0.8167 0.9368 0.8740
0.9606 0.9448 0.8230
1.0000 0.9446 0.8497
0.0039 0.3046 0.2689
0.0039 0.3100 0.2794
0.0039 0.3043 0.3331
0.1006 0.2686 0.4454
0.5910 0.2834 0.5059
1.0000 0.3610 0.4875
1.0000 0.4512 0.4284
1.0000 0.4870 0.4062
1.0000 0.4995 0.4043
0.0039 0.3102 0.2802
0.0039 0.3160 0.2866
0.0039 0.3172 0.3387
0.0926 0.2786 0.4512
0.5832 0.2905 0.5110
1.0000 0.3649 0.4943
1.0000 0.4529 0.4357
1.0000 0.4879 0.4135
1.0000 0.5005 0.4116
0.0039 0.3384 0.3297
0.0039 0.3440 0.3396
0.0039 0.3639 0.3764
0.0537 0.3299 0.4765
0.5443 0.3260 0.5424
1.0000 0.3858 0.5244
1.0000 0.4595 0.4673
1.0000 0.4952 0.4495
1.0000 0.5069 0.4478
0.0039 0.4096 0.4488
0.0039 0.4150 0.4576
0.0039 0.4352 0.4858
0.0039 0.4704 0.5449
0.4424 0.4310 0.6139
0.9091 0.4534 0.6012
1.0000 0.5013 0.5482
1.0000 0.5288 0.5312
1.0000 0.5385 0.5298
0.0039 0.5040 0.5779
0.0039 0.5096 0.5808
0.0039 0.5293 0.6071
0.0519 0.5687 0.6557
0.3062 0.6090 0.7121
0.7734 0.5794 0.7072
1.0000 0.5954 0.6591
1.0000 0.6115 0.6435
1.0000 0.6183 0.6421
0.0039 0.5949 0.6673
0.0039 0.6003 0.6732
0.0039 0.6202 0.6936
0.1442 0.6640 0.7306
0.3651 0.7146 0.7792
0.6469 0.7423 0.8123
0.9689 0.7248 0.7695
1.0000 0.7302 0.7508
1.0000 0.7355 0.7491
0.0039 0.6694 0.7218
0.0039 0.6747 0.7262
0.0657 0.6947 0.7427
0.2157 0.7341 0.7725
0.4290 0.7851 0.8123
0.6571 0.8294 0.8517
0.8711 0.8430 0.8531
1.0000 0.8406 0.8356
1.0000 0.8435 0.8341
0.0142 0.7146 0.7573
0.0320 0.7200 0.7612
0.0997 0.7399 0.7725
0.2453 0.7807 0.7982
0.4526 0.8279 0.8336
0.6756 0.8731 0.8672
0.8400 0.9038 0.8906
0.9485 0.9149 0.8842
1.0000 0.9164 0.8828
0.0039 0.7438 0.7977
0.0039 0.7498 0.8016
0.0622 0.7715 0.8152
0.2033 0.8099 0.8424
0.4047 0.8644 0.8779
0.6226 0.9091 0.9120
0.7841 0.9412 0.9348
0.9397 0.9548 0.8930
1.0000 0.9572 0.8852
