70 CGC LUTs/Film Emulation/Kodak Professional Portra 400.cube
#Created by: Denver Riddle
#Copyright: (C) Copyright Color Grading Central LLC
DOMAIN_MIN 0.0 0.0 0.0
DOMAIN_MAX 1.0 1.0 1.0
LUT_3D_SIZE 5
0.0353 0.0000 0.0000
0.1027 0.0000 0.0000
0.2690 0.0000 0.0000
0.3993 0.0000 0.0000
0.4122 0.0000 0.0000
0.0392 0.1297 0.0000
0.1215 0.1156 0.0025
0.3191 0.1039 0.0000
0.4805 0.0833 0.0000
0.5229 0.0685 0.0000
0.0471 0.3138 0.0055
0.1377 0.3211 0.0186
0.3723 0.3100 0.0465
0.6100 0.2927 0.0485
0.7268 0.2783 0.0501
0.0667 0.5427 0.0188
0.1767 0.5840 0.0524
0.4127 0.6439 0.1225
0.7861 0.6662 0.2655
0.9523 0.6512 0.3074
0.0787 0.6171 0.0259
0.1955 0.6881 0.0707
0.4317 0.8093 0.1611
0.7973 0.9003 0.3380
1.0000 0.9076 0.5049
0.0471 0.0118 0.1269
0.1171 0.0000 0.1127
0.3045 0.0000 0.1010
0.4567 0.0000 0.0877
0.4912 0.0000 0.0733
0.0353 0.1294 0.1140
0.1172 0.1284 0.1127
0.3167 0.1128 0.1010
0.4859 0.0956 0.0877
0.5350 0.0773 0.0733
0.0425 0.3248 0.1186
0.1287 0.3316 0.1188
0.3680 0.3192 0.1307
0.6085 0.3017 0.1251
0.7324 0.2873 0.1204
0.0618 0.5768 0.1319
0.1676 0.5967 0.1329
0.4037 0.6560 0.1881
0.7774 0.6755 0.3027
0.9471 0.6599 0.3400
0.0728 0.6701 0.1391
0.1864 0.7076 0.1404
0.4227 0.8268 0.2158
0.7920 0.9110 0.3648
1.0000 0.9164 0.5083
0.0745 0.0383 0.3662
0.1652 0.0221 0.3638
0.3580 0.0000 0.3509
0.5632 0.0000 0.3337
0.6586 0.0000 0.3154
0.0620 0.1518 0.3670
0.1652 0.1506 0.3692
0.3582 0.1285 0.3509
0.5847 0.1073 0.3337
0.6981 0.0929 0.3154
0.0392 0.3372 0.3558
0.1227 0.3372 0.3563
0.3587 0.3352 0.3509
0.6222 0.3180 0.3337
0.7618 0.3034 0.3154
0.0510 0.6371 0.3631
0.1451 0.6517 0.3631
0.3867 0.6784 0.3636
0.7643 0.6970 0.4230
0.9357 0.6774 0.4392
0.0621 0.7782 0.3701
0.1679 0.8054 0.3701
0.4054 0.8547 0.3709
0.7788 0.9324 0.4589
1.0000 0.9339 0.5540
0.1443 0.0802 0.6653
0.2551 0.0679 0.6838
0.4361 0.0416 0.7086
0.7433 0.0044 0.7237
0.8428 0.0000 0.7120
0.1215 0.1956 0.6891
0.2551 0.1932 0.6979
0.4361 0.1702 0.7173
0.7433 0.1330 0.7251
0.8526 0.1126 0.7120
0.0872 0.3737 0.7178
0.2125 0.3737 0.7232
0.4361 0.3690 0.7329
0.7433 0.3372 0.7266
0.8696 0.3233 0.7120
0.0353 0.7222 0.7242
0.1177 0.7232 0.7242
0.3590 0.7232 0.7242
0.7314 0.7232 0.7242
0.9177 0.7100 0.7120
0.0431 0.9183 0.7315
0.1327 0.9276 0.7315
0.3741 0.9436 0.7315
0.7536 0.9635 0.7315
0.9938 0.9586 0.7538
0.1956 0.1061 0.8034
0.3062 0.0939 0.8380
0.4837 0.0675 0.8880
0.7876 0.0292 0.9372
0.9607 0.0000 0.9601
0.1718 0.2198 0.8448
0.3062 0.2186 0.8574
0.4837 0.1923 0.9032
0.7876 0.1569 0.9462
0.9616 0.1279 0.9601
0.1268 0.3919 0.9007
0.2639 0.3919 0.9095
0.4837 0.3872 0.9275
0.7876 0.3578 0.9582
0.9645 0.3347 0.9601
0.0587 0.7523 0.9621
0.1646 0.7523 0.9650
0.4020 0.7523 0.9703
0.7774 0.7523 0.9786
0.9693 0.7222 0.9601
0.0353 0.9737 0.9611
0.1185 0.9742 0.9611
0.3599 0.9752 0.9611
0.7333 0.9762 0.9611
0.9722 0.9757 0.9611
