70 CGC LUTs/Film Emulation/Kodak Vision 2383.cube
#Created by: Denver Riddle
#Copyright: (C) Copyright Color Grading Central LLC
DOMAIN_MIN 0.0 0.0 0.0
DOMAIN_MAX 1.0 1.0 1.0
LUT_3D_SIZE 9
0.0205 0.0379 0.0000
0.0127 0.0395 0.0000
0.0284 0.0362 0.0000
0.0762 0.0375 0.0000
0.1364 0.0422 0.0000
0.1811 0.0458 0.0000
0.1926 0.0467 0.0000
0.1645 0.0445 0.0000
0.1122 0.0403 0.0000
0.0204 0.0380 0.0017
0.0165 0.0434 0.0000
0.0442 0.0385 0.0000
0.1404 0.0444 0.0000
0.2626 0.0524 0.0000
0.3716 0.0614 0.0000
0.4321 0.0666 0.0000
0.4427 0.0675 0.0000
0.4023 0.0640 0.0000
0.0232 0.0468 0.0049
0.0237 0.0650 0.0000
0.0656 0.0843 0.0000
0.1979 0.0892 0.0000
0.3883 0.1027 0.0000
0.5483 0.1140 0.0000
0.6448 0.1202 0.0000
0.6883 0.1240 0.0000
0.6928 0.1233 0.0000
0.0287 0.0643 0.0074
0.0430 0.1069 0.0000
0.0620 0.1694 0.0000
0.2309 0.2286 0.0000
0.4856 0.2421 0.0000
0.6829 0.2541 0.0000
0.7868 0.2586 0.0000
0.8317 0.2580 0.0000
0.8499 0.2549 0.0000
0.0358 0.0895 0.0095
0.0632 0.1659 0.0000
0.0950 0.2749 0.0000
0.1980 0.3980 0.0000
0.5412 0.5046 0.0000
0.7768 0.5168 0.0000
0.8819 0.5210 0.0000
0.9258 0.5183 0.0000
0.9436 0.5132 0.0000
0.0405 0.1111 0.0161
0.0838 0.2270 0.0000
0.1453 0.3806 0.0000
0.2133 0.5198 0.0000
0.4456 0.6707 0.0000
0.8216 0.7731 0.0000
0.9344 0.7770 0.0000
0.9788 0.7762 0.0000
0.9971 0.7726 0.0000
0.0437 0.1276 0.0223
0.0996 0.2767 0.0008
0.1796 0.4624 0.0000
0.2389 0.5975 0.0000
0.3746 0.7174 0.0000
0.7271 0.8629 0.0000
0.9539 0.9040 0.0000
1.0000 0.9052 0.0000
1.0000 0.9046 0.0000
0.0420 0.1308 0.0311
0.1085 0.3063 0.0056
0.2003 0.5129 0.0000
0.2746 0.6495 0.0000
0.3380 0.7221 0.0000
0.5871 0.8634 0.0000
0.9103 0.9413 0.0000
1.0000 0.9533 0.0000
1.0000 0.9536 0.0000
0.0359 0.1204 0.0408
0.1070 0.3103 0.0143
0.2093 0.5370 0.0000
0.2918 0.6774 0.0000
0.3259 0.7290 0.0000
0.4621 0.8187 0.0000
0.8146 0.9519 0.0000
0.9890 0.9680 0.0000
1.0000 0.9711 0.0000
0.0118 0.0353 0.0353
0.0022 0.0360 0.0286
0.0142 0.0359 0.0295
0.0629 0.0373 0.0296
0.1377 0.0432 0.0267
0.2048 0.0485 0.0236
0.2460 0.0519 0.0216
0.2432 0.0516 0.0218
0.1978 0.0480 0.0239
0.0118 0.0353 0.0401
0.0035 0.0392 0.0427
0.0432 0.0392 0.0430
0.1440 0.0452 0.0384
0.2758 0.0538 0.0322
0.3878 0.0631 0.0268
0.4547 0.0688 0.0235
0.4690 0.0700 0.0236
0.4313 0.0667 0.0264
0.0127 0.0513 0.0483
0.0067 0.0597 0.0503
0.0646 0.0855 0.0401
0.1987 0.0904 0.0377
0.3971 0.1046 0.0280
0.5587 0.1160 0.0197
0.6596 0.1227 0.0143
0.7032 0.1265 0.0120
0.7097 0.1260 0.0124
0.0187 0.0821 0.0590
0.0256 0.1051 0.0592
0.0474 0.1695 0.0408
0.2298 0.2297 0.0402
0.4880 0.2434 0.0289
0.6884 0.2557 0.0180
0.7906 0.2601 0.0121
0.8377 0.2596 0.0093
0.8533 0.2563 0.0082
0.0305 0.1274 0.0657
0.0437 0.1676 0.0635
0.0781 0.2815 0.0431
0.1979 0.4032 0.0210
0.5401 0.5056 0.0326
0.7788 0.5182 0.0195
0.8839 0.5223 0.0133
0.9265 0.5195 0.0106
0.9465 0.5146 0.0093
0.0416 0.1748 0.0776
0.0626 0.2354 0.0731
0.1280 0.3928 0.0417
0.1997 0.5298 0.0162
0.4454 0.6761 0.0068
0.8205 0.7742 0.0185
0.9335 0.7780 0.0121
0.9781 0.7773 0.0093
0.9982 0.7738 0.0080
0.0510 0.2138 0.0875
0.0781 0.2912 0.0830
0.1591 0.4784 0.0481
0.2218 0.6154 0.0144
0.3750 0.7254 0.0000
0.7265 0.8666 0.0060
0.9528 0.9051 0.0096
1.0000 0.9063 0.0070
1.0000 0.9057 0.0058
0.0543 0.2389 0.1028
0.0853 0.3258 0.0974
0.1789 0.5335 0.0570
0.2534 0.6701 0.0228
0.3260 0.7357 0.0000
0.5866 0.8693 0.0000
0.9096 0.9445 0.0099
1.0000 0.9543 0.0055
1.0000 0.9546 0.0050
0.0488 0.2391 0.1205
0.0819 0.3321 0.1145
0.1860 0.5624 0.0713
0.2680 0.6996 0.0339
0.3024 0.7499 0.0091
0.4606 0.8247 0.0000
0.8132 0.9548 0.0119
0.9883 0.9705 0.0117
1.0000 0.9721 0.0042
0.0118 0.0353 0.0968
0.0020 0.0353 0.0951
0.0039 0.0353 0.0896
0.0484 0.0353 0.0902
0.1315 0.0384 0.0884
0.2230 0.0456 0.0851
0.2948 0.0514 0.0826
0.3245 0.0537 0.0821
0.3033 0.0519 0.0840
0.0118 0.0353 0.1209
0.0000 0.0392 0.1283
0.0196 0.0353 0.1151
0.1075 0.0353 0.1144
0.2505 0.0459 0.1090
0.3944 0.0577 0.1030
0.4954 0.0663 0.0989
0.5406 0.0701 0.0975
0.5367 0.0697 0.0985
0.0078 0.0588 0.1351
0.0006 0.0706 0.1377
0.0541 0.0823 0.1403
0.2007 0.0870 0.1373
0.4070 0.1014 0.1285
0.5748 0.1130 0.1210
0.6772 0.1194 0.1165
0.7231 0.1233 0.1150
0.7331 0.1229 0.1153
0.0118 0.1043 0.1534
0.0039 0.1302 0.1578
0.0090 0.1639 0.1602
0.2274 0.2323 0.1389
0.4906 0.2462 0.1283
0.6933 0.2587 0.1187
0.7956 0.2631 0.1138
0.8427 0.2627 0.1119
0.8596 0.2595 0.1116
0.0119 0.1720 0.1714
0.0283 0.2248 0.1714
0.0378 0.2840 0.1712
0.1706 0.4091 0.1378
0.5377 0.5081 0.1337
0.7807 0.5209 0.1213
0.8856 0.5250 0.1162
0.9287 0.5223 0.1145
0.9469 0.5173 0.1141
0.0343 0.2574 0.1857
0.0586 0.3301 0.1841
0.0852 0.4046 0.1818
0.1604 0.5477 0.1441
0.4437 0.6855 0.1195
0.8181 0.7766 0.1218
0.9320 0.7805 0.1160
0.9787 0.7800 0.1142
0.9980 0.7764 0.1139
0.0532 0.3340 0.2049
0.0837 0.4170 0.1995
0.1151 0.4983 0.1954
0.1784 0.6410 0.1547
0.3540 0.7425 0.1209
0.7242 0.8735 0.1212
0.9504 0.9075 0.1140
0.9989 0.9088 0.1120
1.0000 0.9082 0.1118
0.0639 0.3858 0.2261
0.0989 0.4779 0.2198
0.1332 0.5609 0.2133
0.2072 0.6999 0.1705
0.2810 0.7673 0.1372
0.5846 0.8803 0.1221
0.9074 0.9498 0.1265
1.0000 0.9568 0.1104
1.0000 0.9571 0.1103
0.0652 0.4093 0.2467
0.1019 0.5071 0.2426
0.1379 0.5953 0.2387
0.2194 0.7343 0.1910
0.2543 0.7850 0.1574
0.4503 0.8418 0.1300
0.8103 0.9610 0.1367
0.9855 0.9737 0.1291
1.0000 0.9746 0.1092
0.0118 0.0353 0.1707
0.0039 0.0353 0.1846
0.0039 0.0353 0.1908
0.0315 0.0353 0.1943
0.1169 0.0354 0.1946
0.2319 0.0380 0.1929
0.3366 0.0464 0.1900
0.4020 0.0518 0.1878
0.4120 0.0525 0.1883
0.0118 0.0353 0.2235
0.0000 0.0392 0.2413
0.0196 0.0353 0.2396
0.0710 0.0353 0.2296
0.2125 0.0356 0.2277
0.3862 0.0479 0.2217
0.5223 0.0593 0.2171
0.6008 0.0661 0.2146
0.6290 0.0684 0.2152
0.0078 0.0588 0.2659
0.0000 0.0706 0.2772
0.0482 0.0826 0.2884
0.1340 0.0628 0.2669
0.3477 0.0694 0.2626
0.5537 0.0884 0.2542
0.6900 0.1020 0.2494
0.7587 0.1100 0.2470
0.7854 0.1142 0.2466
0.0039 0.1309 0.2956
0.0039 0.1578 0.3004
0.0513 0.1914 0.3057
0.2211 0.2329 0.3084
0.4973 0.2426 0.2988
0.7047 0.2547 0.2901
0.8096 0.2585 0.2867
0.8578 0.2574 0.2856
0.8774 0.2537 0.2865
0.0096 0.2348 0.3240
0.0000 0.2865 0.3274
0.0170 0.3466 0.3294
0.1090 0.4109 0.3289
0.5336 0.5123 0.3060
0.7804 0.5253 0.2940
0.8862 0.5295 0.2897
0.9282 0.5267 0.2893
0.9469 0.5217 0.2896
0.0127 0.3554 0.3524
0.0341 0.4283 0.3484
0.0520 0.4992 0.3455
0.0963 0.5668 0.3445
0.4262 0.6983 0.3013
0.8139 0.7808 0.2980
0.9303 0.7849 0.2922
0.9765 0.7843 0.2911
0.9947 0.7807 0.2921
0.0420 0.4644 0.3733
0.0707 0.5435 0.3712
0.0929 0.6110 0.3693
0.1105 0.6729 0.3681
0.2898 0.7748 0.3214
0.7204 0.8838 0.3036
0.9462 0.9117 0.2921
0.9950 0.9130 0.2900
1.0000 0.9124 0.2905
0.0600 0.5421 0.4007
0.0896 0.6197 0.3985
0.1167 0.6865 0.3968
0.1370 0.7416 0.3949
0.2120 0.8101 0.3510
0.5800 0.8948 0.3119
0.9031 0.9563 0.3114
1.0000 0.9610 0.2892
1.0000 0.9613 0.2890
0.0650 0.5861 0.4323
0.0971 0.6674 0.4289
0.1246 0.7331 0.4271
0.1450 0.7801 0.4272
0.1818 0.8345 0.3823
0.3800 0.8808 0.3441
0.8059 0.9711 0.3292
0.9811 0.9787 0.3149
1.0000 0.9788 0.2883
0.0118 0.0353 0.2413
0.0039 0.0353 0.2746
0.0039 0.0353 0.3019
0.0295 0.0353 0.3259
0.0955 0.0354 0.3417
0.2235 0.0357 0.3406
0.3672 0.0375 0.3392
0.4684 0.0458 0.3359
0.5154 0.0497 0.3357
0.0118 0.0353 0.3264
0.0000 0.0392 0.3547
0.0157 0.0353 0.3721
0.0648 0.0353 0.3844
0.1670 0.0355 0.3872
0.3633 0.0364 0.3847
0.5393 0.0483 0.3793
0.6489 0.0578 0.3754
0.7017 0.0623 0.3747
0.0078 0.0588 0.4069
0.0000 0.0706 0.4290
0.0431 0.0836 0.4543
0.1248 0.0636 0.4502
0.2694 0.0555 0.4351
0.5197 0.0661 0.4304
0.6945 0.0835 0.4244
0.7855 0.0932 0.4213
0.8282 0.1000 0.4212
0.0039 0.1319 0.4738
0.0039 0.1602 0.4884
0.0475 0.1934 0.5031
0.2094 0.2348 0.5178
0.3969 0.1768 0.4868
0.6644 0.1950 0.4784
0.8093 0.2093 0.4733
0.8747 0.2168 0.4715
0.9032 0.2225 0.4721
0.0000 0.2938 0.5207
0.0118 0.3471 0.5284
0.0637 0.4006 0.5353
0.2152 0.4576 0.5407
0.5285 0.5165 0.5453
0.7822 0.5277 0.5358
0.8880 0.5311 0.5321
0.9337 0.5276 0.5316
0.9524 0.5216 0.5325
0.0000 0.4527 0.5572
0.0039 0.5195 0.5626
0.0283 0.5837 0.5658
0.1241 0.6440 0.5659
0.3395 0.7062 0.5662
0.8081 0.7867 0.5425
0.9266 0.7910 0.5383
0.9717 0.7903 0.5373
0.9915 0.7868 0.5381
0.0039 0.5887 0.5893
0.0225 0.6561 0.5922
0.0469 0.7119 0.5923
0.0935 0.7628 0.5922
0.2011 0.8092 0.5941
0.7149 0.8976 0.5519
0.9403 0.9176 0.5392
0.9894 0.9189 0.5386
1.0000 0.9183 0.5390
0.0297 0.6821 0.6203
0.0519 0.7437 0.6195
0.0637 0.7910 0.6196
0.0818 0.8282 0.6217
0.1233 0.8568 0.6240
0.4953 0.9207 0.5838
0.8971 0.9651 0.5630
0.9947 0.9669 0.5373
1.0000 0.9672 0.5385
0.0438 0.7389 0.6501
0.0649 0.7936 0.6495
0.0768 0.8345 0.6513
0.0841 0.8631 0.6532
0.0923 0.8850 0.6559
0.2912 0.9246 0.6171
0.8007 0.9869 0.5860
0.9751 0.9857 0.5679
1.0000 0.9847 0.5368
0.0118 0.0353 0.2884
0.0039 0.0353 0.3449
0.0039 0.0353 0.3996
0.0235 0.0353 0.4509
0.0876 0.0354 0.4931
0.2040 0.0357 0.5314
0.3791 0.0367 0.5293
0.5231 0.0378 0.5283
0.6035 0.0426 0.5267
0.0118 0.0353 0.4122
0.0000 0.0392 0.4548
0.0132 0.0353 0.4971
0.0593 0.0353 0.5363
0.1587 0.0356 0.5620
0.3193 0.0363 0.5792
0.5370 0.0379 0.5767
0.6853 0.0460 0.5722
0.7614 0.0526 0.5714
0.0078 0.0589 0.5327
0.0000 0.0706 0.5659
0.0402 0.0845 0.6024
0.1177 0.0660 0.6209
0.2575 0.0567 0.6310
0.4541 0.0530 0.6317
0.6863 0.0614 0.6281
0.8068 0.0780 0.6233
0.8616 0.0858 0.6226
0.0039 0.1329 0.6331
0.0039 0.1622 0.6564
0.0437 0.1953 0.6808
0.1986 0.2360 0.7041
0.3821 0.1813 0.6971
0.5909 0.1520 0.6815
0.7973 0.1676 0.6768
0.8880 0.1857 0.6735
0.9256 0.1951 0.6738
0.0000 0.2957 0.7090
0.0118 0.3490 0.7236
0.0622 0.4035 0.7355
0.2079 0.4599 0.7491
0.5143 0.5202 0.7600
0.7117 0.4354 0.7315
0.8737 0.4497 0.7268
0.9371 0.4603 0.7249
0.9645 0.4676 0.7256
0.0157 0.5367 0.7581
0.0419 0.5946 0.7629
0.1037 0.6494 0.7688
0.2524 0.7012 0.7730
0.5207 0.7502 0.7755
0.8023 0.7926 0.7800
0.9235 0.7970 0.7751
0.9679 0.7960 0.7748
0.9898 0.7919 0.7751
0.0078 0.6905 0.7852
0.0201 0.7460 0.7877
0.0566 0.7940 0.7930
0.1510 0.8311 0.7935
0.3460 0.8638 0.7937
0.6457 0.8962 0.7965
0.9345 0.9235 0.7793
0.9840 0.9248 0.7778
1.0000 0.9242 0.7787
0.0039 0.7902 0.8091
0.0163 0.8332 0.8103
0.0427 0.8639 0.8124
0.0911 0.8904 0.8134
0.1984 0.9116 0.8146
0.4194 0.9360 0.8154
0.8914 0.9733 0.7936
0.9889 0.9728 0.7785
1.0000 0.9731 0.7786
0.0081 0.8439 0.8296
0.0208 0.8764 0.8315
0.0350 0.9028 0.8313
0.0548 0.9214 0.8325
0.1032 0.9371 0.8345
0.2181 0.9517 0.8386
0.7513 0.9895 0.8114
0.9694 0.9923 0.7998
1.0000 0.9906 0.7783
0.0118 0.0353 0.3084
0.0039 0.0353 0.3889
0.0000 0.0353 0.4704
0.0214 0.0353 0.5480
0.0792 0.0354 0.6171
0.1956 0.0358 0.6746
0.3723 0.0368 0.7226
0.5534 0.0383 0.7208
0.6702 0.0396 0.7202
0.0118 0.0353 0.4660
0.0000 0.0392 0.5178
0.0118 0.0353 0.5869
0.0567 0.0353 0.6492
0.1468 0.0356 0.6980
0.3043 0.0364 0.7346
0.5112 0.0380 0.7629
0.7024 0.0400 0.7600
0.8057 0.0445 0.7585
0.0078 0.0600 0.6200
0.0000 0.0708 0.6623
0.0353 0.0856 0.7041
0.1087 0.0684 0.7422
0.2449 0.0594 0.7698
0.4386 0.0568 0.7872
0.6461 0.0576 0.7976
0.8162 0.0647 0.7952
0.8906 0.0764 0.7929
0.0039 0.1339 0.7420
0.0039 0.1641 0.7707
0.0431 0.1978 0.7959
0.1895 0.2370 0.8203
0.3640 0.1837 0.8292
0.5752 0.1557 0.8317
0.7599 0.1412 0.8300
0.8909 0.1596 0.8286
0.9417 0.1785 0.8284
0.0000 0.2982 0.8237
0.0118 0.3510 0.8393
0.0608 0.4064 0.8553
0.2001 0.4628 0.8670
0.4970 0.5226 0.8792
0.6997 0.4399 0.8723
0.8414 0.3841 0.8626
0.9363 0.4049 0.8605
0.9728 0.4244 0.8600
0.0196 0.5396 0.8743
0.0431 0.5966 0.8821
0.1044 0.6524 0.8901
0.2495 0.7031 0.8962
0.5125 0.7522 0.9035
0.7916 0.7941 0.9108
0.8953 0.7289 0.8943
0.9633 0.7397 0.8924
0.9901 0.7455 0.8922
0.0820 0.7669 0.9074
0.1167 0.8057 0.9098
0.1928 0.8398 0.9122
0.3372 0.8666 0.9152
0.5652 0.8894 0.9176
0.7980 0.9123 0.9205
0.9310 0.9270 0.9212
0.9822 0.9284 0.9188
1.0000 0.9276 0.9178
0.0759 0.8578 0.9214
0.0930 0.8841 0.9220
0.1333 0.9099 0.9249
0.2267 0.9278 0.9273
0.4055 0.9415 0.9286
0.6507 0.9568 0.9305
0.8598 0.9674 0.9302
0.9854 0.9763 0.9209
1.0000 0.9766 0.9201
0.0700 0.9045 0.9331
0.0693 0.9259 0.9346
0.0940 0.9426 0.9364
0.1480 0.9546 0.9379
0.2598 0.9660 0.9384
0.4557 0.9751 0.9376
0.7091 0.9857 0.9395
0.9662 0.9960 0.9293
1.0000 0.9941 0.9209
0.0118 0.0353 0.2970
0.0039 0.0353 0.3972
0.0000 0.0353 0.5021
0.0196 0.0353 0.6064
0.0732 0.0354 0.6955
0.1836 0.0358 0.7687
0.3555 0.0368 0.8182
0.5642 0.0386 0.8558
0.7150 0.0403 0.8532
0.0118 0.0353 0.4811
0.0000 0.0392 0.5460
0.0091 0.0353 0.6389
0.0506 0.0353 0.7194
0.1383 0.0356 0.7803
0.2907 0.0363 0.8248
0.4952 0.0379 0.8562
0.6951 0.0401 0.8789
0.8246 0.0457 0.8769
0.0078 0.0610 0.6642
0.0000 0.0717 0.7158
0.0321 0.0866 0.7600
0.1014 0.0706 0.8099
0.2300 0.0603 0.8480
0.4215 0.0568 0.8702
0.6313 0.0588 0.8874
0.8014 0.0647 0.9020
0.9010 0.0752 0.9012
0.0039 0.1348 0.7998
0.0039 0.1654 0.8309
0.0402 0.1997 0.8578
0.1772 0.2382 0.8797
0.3494 0.1875 0.8973
0.5585 0.1603 0.9104
0.7473 0.1472 0.9160
0.8722 0.1451 0.9197
0.9462 0.1671 0.9196
0.0000 0.3001 0.8848
0.0121 0.3534 0.9001
0.0591 0.4094 0.9166
0.1964 0.4657 0.9292
0.4824 0.5245 0.9409
0.6837 0.4471 0.9429
0.8327 0.3952 0.9407
0.9198 0.3625 0.9407
0.9718 0.3918 0.9406
0.0196 0.5425 0.9331
0.0438 0.5985 0.9409
0.1049 0.6553 0.9491
0.2460 0.7051 0.9565
0.5015 0.7542 0.9608
0.7834 0.7960 0.9683
0.8892 0.7362 0.9640
0.9482 0.6873 0.9590
0.9891 0.7016 0.9580
0.0932 0.7687 0.9608
0.1221 0.8067 0.9644
0.1974 0.8408 0.9683
0.3394 0.8675 0.9709
0.5608 0.8904 0.9722
0.7911 0.9133 0.9761
0.9288 0.9278 0.9767
0.9696 0.9026 0.9708
1.0000 0.9067 0.9697
0.2775 0.8972 0.9761
0.2923 0.9162 0.9761
0.3610 0.9307 0.9761
0.4858 0.9448 0.9787
0.6573 0.9564 0.9800
0.8233 0.9644 0.9800
0.9292 0.9722 0.9800
0.9840 0.9774 0.9809
1.0000 0.9775 0.9811
0.2933 0.9375 0.9800
0.2806 0.9516 0.9816
0.3105 0.9617 0.9839
0.3953 0.9719 0.9839
0.5348 0.9781 0.9839
0.7119 0.9839 0.9839
0.8617 0.9882 0.9835
0.9540 0.9926 0.9832
1.0000 0.9956 0.9809
0.0118 0.0353 0.2553
0.0064 0.0353 0.3672
0.0000 0.0353 0.4952
0.0173 0.0353 0.6229
0.0670 0.0353 0.7334
0.1712 0.0357 0.8146
0.3397 0.0367 0.8693
0.5504 0.0386 0.9105
0.7398 0.0408 0.9344
0.0118 0.0353 0.4577
0.0000 0.0392 0.5313
0.0078 0.0353 0.6477
0.0446 0.0353 0.7479
0.1299 0.0356 0.8203
0.2757 0.0363 0.8700
0.4784 0.0379 0.9076
0.6832 0.0401 0.9292
0.8355 0.0477 0.9443
0.0078 0.0619 0.6700
0.0000 0.0728 0.7314
0.0301 0.0876 0.7804
0.0955 0.0706 0.8417
0.2164 0.0633 0.8870
0.4060 0.0604 0.9143
0.6157 0.0625 0.9345
0.7894 0.0686 0.9457
0.8985 0.0778 0.9554
0.0039 0.1358 0.8251
0.0039 0.1663 0.8587
0.0364 0.2008 0.8877
0.1655 0.2392 0.9108
0.3334 0.1919 0.9332
0.5425 0.1670 0.9459
0.7345 0.1550 0.9552
0.8660 0.1554 0.9588
0.9403 0.1647 0.9641
0.0000 0.3021 0.9156
0.0128 0.3553 0.9331
0.0588 0.4120 0.9462
0.1895 0.4687 0.9565
0.4651 0.5265 0.9683
0.6705 0.4534 0.9704
0.8241 0.4027 0.9714
0.9130 0.3765 0.9729
0.9672 0.3703 0.9732
0.0228 0.5455 0.9604
0.0468 0.6008 0.9683
0.1057 0.6582 0.9738
0.2431 0.7070 0.9800
0.4897 0.7571 0.9839
0.7718 0.7980 0.9878
0.8831 0.7413 0.9849
0.9460 0.6941 0.9866
0.9825 0.6653 0.9852
0.1006 0.7697 0.9839
0.1309 0.8077 0.9839
0.2006 0.8422 0.9878
0.3416 0.8685 0.9916
0.5564 0.8914 0.9917
0.7864 0.9136 0.9917
0.9230 0.9288 0.9956
0.9656 0.9050 0.9944
0.9915 0.8822 0.9908
0.2981 0.8987 0.9917
0.3115 0.9171 0.9917
0.3766 0.9317 0.9949
0.4926 0.9448 0.9956
0.6588 0.9565 0.9956
0.8213 0.9644 0.9956
0.9279 0.9722 0.9956
0.9840 0.9781 0.9955
1.0000 0.9686 0.9948
0.6257 0.9565 0.9956
0.5941 0.9675 0.9956
0.6132 0.9743 0.9956
0.6789 0.9800 0.9956
0.7757 0.9839 0.9956
0.8669 0.9878 0.9956
0.9405 0.9917 0.9956
0.9839 0.9917 0.9956
1.0000 0.9960 0.9954
