70 CGC LUTs/Film Emulation/Kodak Vision 2383.cube
#Created by: Denver Riddle
#Copyright: (C) Copyright Color Grading Central LLC
DOMAIN_MIN 0.0 0.0 0.0
DOMAIN_MAX 1.0 1.0 1.0
LUT_3D_SIZE 33
0.0205 0.0379 0.0000
0.0166 0.0387 0.0000
0.0153 0.0390 0.0000
0.0127 0.0395 0.0000
0.0127 0.0395 0.0000
0.0153 0.0390 0.0000
0.0179 0.0385 0.0000
0.0231 0.0373 0.0000
0.0284 0.0362 0.0000
0.0362 0.0344 0.0000
0.0485 0.0354 0.0000
0.0610 0.0363 0.0000
0.0762 0.0375 0.0000
0.0941 0.0389 0.0000
0.1065 0.0399 0.0000
0.1216 0.0411 0.0000
0.1364 0.0422 0.0000
0.1494 0.0433 0.0000
0.1628 0.0443 0.0000
0.1720 0.0451 0.0000
0.1811 0.0458 0.0000
0.1879 0.0463 0.0000
0.1922 0.0467 0.0000
0.1936 0.0468 0.0000
0.1926 0.0467 0.0000
0.1893 0.0465 0.0000
0.1830 0.0459 0.0000
0.1744 0.0453 0.0000
0.1645 0.0445 0.0000
0.1533 0.0436 0.0000
0.1413 0.0426 0.0000
0.1258 0.0414 0.0000
0.1122 0.0403 0.0000
0.0205 0.0379 0.0000
0.0161 0.0388 0.0000
0.0153 0.0390 0.0000
0.0127 0.0395 0.0000
0.0127 0.0395 0.0000
0.0153 0.0390 0.0000
0.0199 0.0380 0.0000
0.0258 0.0368 0.0000
0.0336 0.0350 0.0000
0.0441 0.0350 0.0000
0.0600 0.0362 0.0000
0.0740 0.0373 0.0000
0.0944 0.0389 0.0000
0.1112 0.0403 0.0000
0.1307 0.0418 0.0000
0.1475 0.0431 0.0000
0.1658 0.0446 0.0000
0.1850 0.0461 0.0000
0.1990 0.0472 0.0000
0.2116 0.0482 0.0000
0.2238 0.0492 0.0000
0.2362 0.0502 0.0000
0.2424 0.0507 0.0000
0.2462 0.0510 0.0000
0.2476 0.0512 0.0000
0.2466 0.0511 0.0000
0.2428 0.0508 0.0000
0.2367 0.0503 0.0000
0.2252 0.0493 0.0000
0.2130 0.0484 0.0000
0.1997 0.0473 0.0000
0.1869 0.0463 0.0000
0.1677 0.0447 0.0000
0.0205 0.0379 0.0000
0.0179 0.0385 0.0000
0.0153 0.0390 0.0000
0.0127 0.0395 0.0000
0.0127 0.0395 0.0000
0.0153 0.0390 0.0000
0.0205 0.0379 0.0000
0.0267 0.0366 0.0000
0.0362 0.0344 0.0000
0.0506 0.0355 0.0000
0.0669 0.0368 0.0000
0.0879 0.0384 0.0000
0.1074 0.0399 0.0000
0.1311 0.0418 0.0000
0.1533 0.0436 0.0000
0.1763 0.0454 0.0000
0.1982 0.0472 0.0000
0.2182 0.0488 0.0000
0.2405 0.0506 0.0000
0.2570 0.0519 0.0000
0.2735 0.0533 0.0000
0.2854 0.0543 0.0000
0.2953 0.0551 0.0000
0.3035 0.0557 0.0000
0.3073 0.0561 0.0000
0.3087 0.0562 0.0000
0.3073 0.0561 0.0000
0.3035 0.0557 0.0000
0.2946 0.0550 0.0000
0.2844 0.0542 0.0000
0.2721 0.0532 0.0000
0.2560 0.0519 0.0000
0.2395 0.0505 0.0000
0.0205 0.0379 0.0000
0.0205 0.0379 0.0000
0.0153 0.0390 0.0000
0.0127 0.0395 0.0000
0.0143 0.0392 0.0000
0.0171 0.0386 0.0000
0.0217 0.0376 0.0000
0.0284 0.0362 0.0000
0.0400 0.0347 0.0000
0.0589 0.0362 0.0000
0.0764 0.0375 0.0000
0.1005 0.0394 0.0000
0.1229 0.0412 0.0000
0.1499 0.0433 0.0000
0.1778 0.0455 0.0000
0.2026 0.0475 0.0000
0.2323 0.0499 0.0000
0.2565 0.0519 0.0000
0.2807 0.0539 0.0000
0.3030 0.0557 0.0000
0.3226 0.0573 0.0000
0.3391 0.0587 0.0000
0.3519 0.0598 0.0000
0.3643 0.0608 0.0000
0.3712 0.0614 0.0000
0.3748 0.0617 0.0000
0.3757 0.0618 0.0000
0.3744 0.0617 0.0000
0.3703 0.0613 0.0000
0.3615 0.0606 0.0000
0.3485 0.0595 0.0000
0.3350 0.0584 0.0000
0.3188 0.0570 0.0000
0.0204 0.0380 0.0017
0.0205 0.0379 0.0000
0.0179 0.0385 0.0000
0.0127 0.0395 0.0000
0.0165 0.0434 0.0000
0.0194 0.0428 0.0000
0.0246 0.0417 0.0000
0.0326 0.0400 0.0000
0.0442 0.0385 0.0000
0.0623 0.0399 0.0000
0.0860 0.0413 0.0000
0.1128 0.0428 0.0000
0.1404 0.0444 0.0000
0.1697 0.0461 0.0000
0.1997 0.0479 0.0000
0.2344 0.0501 0.0000
0.2626 0.0524 0.0000
0.2925 0.0548 0.0000
0.3226 0.0573 0.0000
0.3465 0.0593 0.0000
0.3716 0.0614 0.0000
0.3920 0.0632 0.0000
0.4079 0.0645 0.0000
0.4235 0.0658 0.0000
0.4321 0.0666 0.0000
0.4400 0.0673 0.0000
0.4447 0.0677 0.0000
0.4453 0.0677 0.0000
0.4427 0.0675 0.0000
0.4367 0.0670 0.0000
0.4294 0.0663 0.0000
0.4173 0.0653 0.0000
0.4023 0.0640 0.0000
0.0204 0.0380 0.0017
0.0204 0.0380 0.0017
0.0220 0.0423 0.0000
0.0168 0.0434 0.0000
0.0156 0.0482 0.0000
0.0208 0.0472 0.0000
0.0260 0.0461 0.0000
0.0364 0.0438 0.0000
0.0471 0.0423 0.0000
0.0685 0.0439 0.0000
0.0963 0.0461 0.0000
0.1223 0.0481 0.0000
0.1559 0.0508 0.0000
0.1911 0.0536 0.0000
0.2235 0.0562 0.0000
0.2602 0.0592 0.0000
0.2958 0.0621 0.0000
0.3301 0.0649 0.0000
0.3643 0.0678 0.0000
0.3940 0.0703 0.0000
0.4201 0.0725 0.0000
0.4421 0.0739 0.0000
0.4640 0.0753 0.0000
0.4790 0.0759 0.0000
0.4942 0.0767 0.0000
0.5017 0.0767 0.0000
0.5095 0.0768 0.0000
0.5134 0.0771 0.0000
0.5140 0.0772 0.0000
0.5114 0.0769 0.0000
0.5055 0.0764 0.0000
0.4976 0.0757 0.0000
0.4861 0.0747 0.0000
0.0204 0.0380 0.0017
0.0219 0.0424 0.0014
0.0223 0.0437 0.0012
0.0208 0.0472 0.0000
0.0170 0.0525 0.0000
0.0207 0.0556 0.0000
0.0302 0.0561 0.0000
0.0395 0.0533 0.0000
0.0515 0.0499 0.0000
0.0735 0.0513 0.0000
0.1025 0.0536 0.0000
0.1340 0.0561 0.0000
0.1693 0.0589 0.0000
0.2066 0.0619 0.0000
0.2489 0.0653 0.0000
0.2878 0.0684 0.0000
0.3278 0.0717 0.0000
0.3684 0.0751 0.0000
0.4028 0.0780 0.0000
0.4345 0.0807 0.0000
0.4669 0.0833 0.0000
0.4919 0.0848 0.0000
0.5133 0.0862 0.0000
0.5312 0.0871 0.0000
0.5487 0.0881 0.0000
0.5593 0.0884 0.0000
0.5695 0.0890 0.0000
0.5773 0.0897 0.0000
0.5803 0.0900 0.0000
0.5811 0.0901 0.0000
0.5785 0.0898 0.0000
0.5721 0.0893 0.0000
0.5631 0.0885 0.0000
0.0218 0.0424 0.0023
0.0233 0.0467 0.0010
0.0233 0.0467 0.0010
0.0233 0.0514 0.0004
0.0210 0.0563 0.0000
0.0198 0.0611 0.0000
0.0272 0.0666 0.0000
0.0438 0.0660 0.0000
0.0575 0.0627 0.0000
0.0776 0.0622 0.0000
0.1080 0.0646 0.0000
0.1443 0.0674 0.0000
0.1846 0.0706 0.0000
0.2244 0.0738 0.0000
0.2695 0.0774 0.0000
0.3144 0.0811 0.0000
0.3589 0.0848 0.0000
0.4021 0.0884 0.0000
0.4393 0.0916 0.0000
0.4753 0.0947 0.0000
0.5075 0.0970 0.0000
0.5353 0.0987 0.0000
0.5597 0.1002 0.0000
0.5829 0.1018 0.0000
0.6003 0.1027 0.0000
0.6145 0.1035 0.0000
0.6251 0.1044 0.0000
0.6341 0.1052 0.0000
0.6391 0.1057 0.0000
0.6417 0.1059 0.0000
0.6417 0.1059 0.0000
0.6391 0.1055 0.0000
0.6348 0.1045 0.0000
0.0232 0.0468 0.0049
0.0240 0.0491 0.0017
0.0261 0.0554 0.0003
0.0275 0.0598 0.0000
0.0237 0.0650 0.0000
0.0225 0.0696 0.0000
0.0281 0.0777 0.0000
0.0402 0.0811 0.0000
0.0656 0.0843 0.0000
0.0821 0.0808 0.0000
0.1162 0.0827 0.0000
0.1528 0.0856 0.0000
0.1979 0.0892 0.0000
0.2438 0.0927 0.0000
0.2900 0.0958 0.0000
0.3404 0.0994 0.0000
0.3883 0.1027 0.0000
0.4340 0.1060 0.0000
0.4756 0.1089 0.0000
0.5139 0.1117 0.0000
0.5483 0.1140 0.0000
0.5785 0.1161 0.0000
0.6042 0.1177 0.0000
0.6274 0.1193 0.0000
0.6448 0.1202 0.0000
0.6616 0.1215 0.0000
0.6725 0.1225 0.0000
0.6816 0.1234 0.0000
0.6883 0.1240 0.0000
0.6930 0.1244 0.0000
0.6968 0.1248 0.0000
0.6967 0.1243 0.0000
0.6928 0.1233 0.0000
0.0241 0.0496 0.0047
0.0260 0.0555 0.0042
0.0275 0.0598 0.0008
0.0298 0.0668 0.0000
0.0292 0.0731 0.0000
0.0294 0.0821 0.0000
0.0296 0.0908 0.0000
0.0403 0.0980 0.0000
0.0590 0.1035 0.0000
0.0924 0.1091 0.0000
0.1195 0.1053 0.0000
0.1617 0.1079 0.0000
0.2054 0.1107 0.0000
0.2573 0.1144 0.0000
0.3102 0.1180 0.0000
0.3639 0.1218 0.0000
0.4145 0.1253 0.0000
0.4653 0.1292 0.0000
0.5079 0.1322 0.0000
0.5497 0.1352 0.0000
0.5862 0.1377 0.0000
0.6175 0.1401 0.0000
0.6448 0.1419 0.0000
0.6676 0.1433 0.0000
0.6851 0.1442 0.0000
0.7040 0.1453 0.0000
0.7145 0.1459 0.0000
0.7252 0.1462 0.0000
0.7333 0.1463 0.0000
0.7398 0.1463 0.0000
0.7425 0.1461 0.0000
0.7432 0.1455 0.0000
0.7430 0.1448 0.0000
0.0260 0.0555 0.0042
0.0274 0.0599 0.0038
0.0302 0.0684 0.0031
0.0327 0.0756 0.0000
0.0349 0.0820 0.0000
0.0330 0.0931 0.0000
0.0323 0.1022 0.0000
0.0408 0.1151 0.0000
0.0578 0.1255 0.0000
0.0852 0.1336 0.0000
0.1287 0.1375 0.0000
0.1663 0.1360 0.0000
0.2145 0.1392 0.0000
0.2690 0.1428 0.0000
0.3285 0.1472 0.0000
0.3847 0.1511 0.0000
0.4400 0.1551 0.0000
0.4930 0.1589 0.0000
0.5386 0.1624 0.0000
0.5825 0.1655 0.0000
0.6202 0.1682 0.0000
0.6525 0.1704 0.0000
0.6805 0.1725 0.0000
0.7038 0.1740 0.0000
0.7219 0.1750 0.0000
0.7393 0.1759 0.0000
0.7508 0.1766 0.0000
0.7606 0.1768 0.0000
0.7712 0.1772 0.0000
0.7759 0.1770 0.0000
0.7791 0.1768 0.0000
0.7823 0.1765 0.0000
0.7846 0.1760 0.0000
0.0274 0.0599 0.0052
0.0297 0.0668 0.0032
0.0326 0.0756 0.0025
0.0352 0.0835 0.0018
0.0392 0.0950 0.0000
0.0402 0.1061 0.0000
0.0385 0.1206 0.0000
0.0470 0.1340 0.0000
0.0588 0.1457 0.0000
0.0831 0.1595 0.0000
0.1213 0.1707 0.0000
0.1743 0.1778 0.0000
0.2219 0.1772 0.0000
0.2831 0.1808 0.0000
0.3432 0.1847 0.0000
0.4061 0.1885 0.0000
0.4645 0.1921 0.0000
0.5179 0.1955 0.0000
0.5688 0.1994 0.0000
0.6141 0.2027 0.0000
0.6523 0.2054 0.0000
0.6849 0.2077 0.0000
0.7154 0.2100 0.0000
0.7361 0.2112 0.0000
0.7552 0.2123 0.0000
0.7702 0.2130 0.0000
0.7833 0.2136 0.0000
0.7940 0.2141 0.0000
0.8012 0.2142 0.0000
0.8085 0.2137 0.0000
0.8123 0.2128 0.0000
0.8150 0.2122 0.0000
0.8168 0.2111 0.0000
0.0287 0.0643 0.0074
0.0315 0.0724 0.0042
0.0346 0.0818 0.0019
0.0390 0.0947 0.0008
0.0430 0.1069 0.0000
0.0484 0.1224 0.0000
0.0483 0.1379 0.0000
0.0492 0.1516 0.0000
0.0620 0.1694 0.0000
0.0825 0.1847 0.0000
0.1140 0.2024 0.0000
0.1632 0.2160 0.0000
0.2309 0.2286 0.0000
0.2910 0.2298 0.0000
0.3557 0.2337 0.0000
0.4217 0.2381 0.0000
0.4856 0.2421 0.0000
0.5438 0.2456 0.0000
0.5963 0.2488 0.0000
0.6419 0.2519 0.0000
0.6829 0.2541 0.0000
0.7162 0.2558 0.0000
0.7432 0.2569 0.0000
0.7660 0.2581 0.0000
0.7868 0.2586 0.0000
0.8004 0.2586 0.0000
0.8135 0.2585 0.0000
0.8217 0.2584 0.0000
0.8317 0.2580 0.0000
0.8386 0.2573 0.0000
0.8433 0.2565 0.0000
0.8472 0.2560 0.0000
0.8499 0.2549 0.0000
0.0302 0.0686 0.0070
0.0344 0.0814 0.0059
0.0378 0.0914 0.0025
0.0424 0.1051 0.0000
0.0482 0.1219 0.0000
0.0537 0.1381 0.0000
0.0571 0.1553 0.0000
0.0580 0.1763 0.0000
0.0681 0.1940 0.0000
0.0857 0.2141 0.0000
0.1137 0.2366 0.0000
0.1555 0.2537 0.0000
0.2178 0.2744 0.0000
0.2980 0.2865 0.0000
0.3669 0.2899 0.0000
0.4384 0.2947 0.0000
0.5044 0.2988 0.0000
0.5654 0.3025 0.0000
0.6217 0.3059 0.0000
0.6688 0.3091 0.0000
0.7092 0.3113 0.0000
0.7435 0.3130 0.0000
0.7713 0.3142 0.0000
0.7956 0.3155 0.0000
0.8120 0.3157 0.0000
0.8271 0.3157 0.0000
0.8398 0.3156 0.0000
0.8510 0.3153 0.0000
0.8592 0.3148 0.0000
0.8626 0.3131 0.0000
0.8685 0.3117 0.0000
0.8731 0.3102 0.0000
0.8770 0.3093 0.0000
0.0323 0.0769 0.0083
0.0371 0.0896 0.0052
0.0407 0.1002 0.0043
0.0470 0.1186 0.0002
0.0530 0.1361 0.0000
0.0591 0.1536 0.0000
0.0646 0.1770 0.0000
0.0685 0.1959 0.0000
0.0738 0.2200 0.0000
0.0905 0.2463 0.0000
0.1153 0.2677 0.0000
0.1528 0.2948 0.0000
0.2073 0.3182 0.0000
0.2823 0.3399 0.0000
0.3752 0.3535 0.0000
0.4503 0.3576 0.0000
0.5214 0.3624 0.0000
0.5845 0.3663 0.0000
0.6431 0.3699 0.0000
0.6943 0.3729 0.0000
0.7368 0.3756 0.0000
0.7699 0.3772 0.0000
0.7968 0.3783 0.0000
0.8196 0.3790 0.0000
0.8372 0.3797 0.0000
0.8538 0.3799 0.0000
0.8658 0.3797 0.0000
0.8730 0.3787 0.0000
0.8823 0.3782 0.0000
0.8895 0.3769 0.0000
0.8939 0.3754 0.0000
0.8989 0.3739 0.0000
0.9013 0.3728 0.0000
0.0330 0.0810 0.0102
0.0388 0.0965 0.0066
0.0447 0.1122 0.0032
0.0512 0.1313 0.0016
0.0575 0.1494 0.0000
0.0659 0.1732 0.0000
0.0737 0.1950 0.0000
0.0765 0.2206 0.0000
0.0838 0.2479 0.0000
0.0978 0.2737 0.0000
0.1194 0.3031 0.0000
0.1547 0.3321 0.0000
0.2018 0.3596 0.0000
0.2687 0.3869 0.0000
0.3544 0.4116 0.0000
0.4569 0.4277 0.0000
0.5316 0.4327 0.0000
0.6013 0.4370 0.0000
0.6631 0.4407 0.0000
0.7146 0.4436 0.0000
0.7566 0.4463 0.0000
0.7922 0.4476 0.0000
0.8190 0.4479 0.0000
0.8425 0.4480 0.0000
0.8610 0.4483 0.0000
0.8761 0.4477 0.0000
0.8853 0.4466 0.0000
0.8972 0.4464 0.0000
0.9043 0.4457 0.0000
0.9106 0.4454 0.0000
0.9167 0.4447 0.0000
0.9199 0.4437 0.0000
0.9248 0.4426 0.0000
0.0358 0.0895 0.0095
0.0402 0.1027 0.0083
0.0478 0.1232 0.0043
0.0553 0.1431 0.0005
0.0632 0.1659 0.0000
0.0720 0.1906 0.0000
0.0814 0.2164 0.0000
0.0902 0.2474 0.0000
0.0950 0.2749 0.0000
0.1058 0.3051 0.0000
0.1271 0.3355 0.0000
0.1562 0.3659 0.0000
0.1980 0.3980 0.0000
0.2587 0.4304 0.0000
0.3361 0.4586 0.0000
0.4330 0.4851 0.0000
0.5412 0.5046 0.0000
0.6151 0.5091 0.0000
0.6794 0.5123 0.0000
0.7314 0.5146 0.0000
0.7768 0.5168 0.0000
0.8112 0.5189 0.0000
0.8394 0.5200 0.0000
0.8607 0.5205 0.0000
0.8819 0.5210 0.0000
0.8937 0.5211 0.0000
0.9080 0.5207 0.0000
0.9174 0.5196 0.0000
0.9258 0.5183 0.0000
0.9304 0.5174 0.0000
0.9371 0.5160 0.0000
0.9403 0.5143 0.0000
0.9436 0.5132 0.0000
0.0367 0.0942 0.0114
0.0434 0.1121 0.0075
0.0506 0.1333 0.0056
0.0588 0.1551 0.0014
0.0686 0.1811 0.0000
0.0790 0.2103 0.0000
0.0904 0.2409 0.0000
0.1011 0.2694 0.0000
0.1078 0.3032 0.0000
0.1168 0.3352 0.0000
0.1368 0.3678 0.0000
0.1611 0.3996 0.0000
0.1980 0.4322 0.0000
0.2509 0.4678 0.0000
0.3213 0.5018 0.0000
0.4125 0.5337 0.0000
0.5161 0.5597 0.0000
0.6251 0.5810 0.0000
0.6909 0.5845 0.0000
0.7460 0.5880 0.0000
0.7937 0.5893 0.0000
0.8295 0.5910 0.0000
0.8577 0.5920 0.0000
0.8809 0.5914 0.0000
0.8994 0.5916 0.0000
0.9127 0.5915 0.0000
0.9246 0.5908 0.0000
0.9356 0.5909 0.0000
0.9416 0.5897 0.0000
0.9498 0.5895 0.0000
0.9537 0.5890 0.0000
0.9566 0.5871 0.0000
0.9607 0.5861 0.0000
0.0373 0.0978 0.0130
0.0456 0.1208 0.0091
0.0539 0.1428 0.0048
0.0625 0.1676 0.0026
0.0730 0.1953 0.0000
0.0855 0.2281 0.0000
0.0973 0.2598 0.0000
0.1115 0.2965 0.0000
0.1227 0.3311 0.0000
0.1283 0.3634 0.0000
0.1466 0.3979 0.0000
0.1694 0.4302 0.0000
0.2021 0.4659 0.0000
0.2487 0.5004 0.0000
0.3109 0.5386 0.0000
0.3935 0.5727 0.0000
0.4933 0.6067 0.0000
0.5967 0.6314 0.0000
0.6997 0.6517 0.0000
0.7606 0.6548 0.0000
0.8056 0.6576 0.0000
0.8411 0.6587 0.0000
0.8703 0.6603 0.0000
0.8956 0.6615 0.0000
0.9114 0.6610 0.0000
0.9259 0.6609 0.0000
0.9394 0.6607 0.0000
0.9477 0.6588 0.0000
0.9575 0.6583 0.0000
0.9644 0.6563 0.0000
0.9679 0.6554 0.0000
0.9714 0.6549 0.0000
0.9755 0.6535 0.0000
0.0389 0.1050 0.0150
0.0477 0.1286 0.0103
0.0560 0.1510 0.0064
0.0671 0.1806 0.0014
0.0785 0.2126 0.0000
0.0920 0.2473 0.0000
0.1067 0.2843 0.0000
0.1209 0.3208 0.0000
0.1354 0.3565 0.0000
0.1441 0.3920 0.0000
0.1550 0.4255 0.0000
0.1783 0.4607 0.0000
0.2078 0.4939 0.0000
0.2461 0.5288 0.0000
0.3017 0.5667 0.0000
0.3746 0.6036 0.0000
0.4691 0.6438 0.0000
0.5730 0.6759 0.0000
0.6744 0.6967 0.0000
0.7660 0.7172 0.0000
0.8156 0.7185 0.0000
0.8529 0.7202 0.0000
0.8806 0.7211 0.0000
0.9071 0.7207 0.0000
0.9246 0.7211 0.0000
0.9406 0.7207 0.0000
0.9516 0.7207 0.0000
0.9615 0.7207 0.0000
0.9696 0.7196 0.0000
0.9742 0.7191 0.0000
0.9793 0.7178 0.0000
0.9849 0.7174 0.0000
0.9885 0.7169 0.0000
0.0405 0.1111 0.0161
0.0492 0.1354 0.0124
0.0594 0.1625 0.0073
0.0706 0.1926 0.0027
0.0838 0.2270 0.0000
0.0970 0.2625 0.0000
0.1132 0.3029 0.0000
0.1297 0.3427 0.0000
0.1453 0.3806 0.0000
0.1578 0.4181 0.0000
0.1673 0.4527 0.0000
0.1864 0.4857 0.0000
0.2133 0.5198 0.0000
0.2472 0.5532 0.0000
0.2947 0.5888 0.0000
0.3621 0.6301 0.0000
0.4456 0.6707 0.0000
0.5466 0.7055 0.0000
0.6514 0.7381 0.0000
0.7446 0.7564 0.0000
0.8216 0.7731 0.0000
0.8600 0.7744 0.0000
0.8929 0.7762 0.0000
0.9157 0.7772 0.0000
0.9344 0.7770 0.0000
0.9495 0.7773 0.0000
0.9619 0.7766 0.0000
0.9716 0.7765 0.0000
0.9788 0.7762 0.0000
0.9837 0.7749 0.0000
0.9899 0.7746 0.0000
0.9935 0.7740 0.0000
0.9971 0.7726 0.0000
0.0424 0.1169 0.0156
0.0508 0.1414 0.0134
0.0614 0.1707 0.0092
0.0741 0.2040 0.0035
0.0888 0.2427 0.0000
0.1043 0.2817 0.0000
0.1206 0.3235 0.0000
0.1370 0.3623 0.0000
0.1555 0.4045 0.0000
0.1679 0.4414 0.0000
0.1820 0.4779 0.0000
0.1947 0.5105 0.0000
0.2198 0.5429 0.0000
0.2491 0.5734 0.0000
0.2906 0.6095 0.0000
0.3481 0.6482 0.0000
0.4255 0.6893 0.0000
0.5214 0.7325 0.0000
0.6235 0.7646 0.0000
0.7225 0.7906 0.0000
0.8035 0.8055 0.0000
0.8656 0.8192 0.0000
0.8998 0.8210 0.0000
0.9212 0.8219 0.0000
0.9411 0.8226 0.0000
0.9560 0.8221 0.0000
0.9696 0.8223 0.0000
0.9785 0.8221 0.0000
0.9859 0.8210 0.0000
0.9934 0.8212 0.0000
0.9971 0.8206 0.0000
1.0000 0.8205 0.0000
1.0000 0.8204 0.0000
0.0430 0.1213 0.0183
0.0526 0.1468 0.0130
0.0639 0.1791 0.0101
0.0769 0.2140 0.0052
0.0918 0.2525 0.0000
0.1094 0.2970 0.0000
0.1269 0.3395 0.0000
0.1449 0.3832 0.0000
0.1636 0.4249 0.0000
0.1824 0.4651 0.0000
0.1909 0.4985 0.0000
0.2048 0.5318 0.0000
0.2247 0.5621 0.0000
0.2525 0.5937 0.0000
0.2900 0.6269 0.0000
0.3393 0.6626 0.0000
0.4069 0.7048 0.0000
0.4926 0.7456 0.0000
0.5925 0.7842 0.0000
0.6931 0.8126 0.0000
0.7828 0.8308 0.0000
0.8529 0.8441 0.0000
0.9039 0.8527 0.0000
0.9265 0.8536 0.0000
0.9479 0.8549 0.0000
0.9617 0.8555 0.0000
0.9753 0.8558 0.0000
0.9844 0.8561 0.0000
0.9919 0.8562 0.0000
0.9994 0.8560 0.0000
1.0000 0.8559 0.0000
1.0000 0.8553 0.0000
1.0000 0.8552 0.0000
0.0439 0.1251 0.0191
0.0532 0.1511 0.0157
0.0658 0.1845 0.0096
0.0799 0.2237 0.0059
0.0956 0.2647 0.0004
0.1138 0.3100 0.0000
0.1330 0.3563 0.0000
0.1527 0.4016 0.0000
0.1710 0.4433 0.0000
0.1903 0.4835 0.0000
0.2051 0.5201 0.0000
0.2141 0.5518 0.0000
0.2319 0.5806 0.0000
0.2567 0.6100 0.0000
0.2873 0.6387 0.0000
0.3318 0.6754 0.0000
0.3906 0.7126 0.0000
0.4672 0.7548 0.0000
0.5622 0.7953 0.0000
0.6635 0.8301 0.0000
0.7582 0.8505 0.0000
0.8357 0.8638 0.0000
0.8903 0.8729 0.0000
0.9310 0.8822 0.0000
0.9515 0.8834 0.0000
0.9673 0.8838 0.0000
0.9797 0.8844 0.0000
0.9897 0.8843 0.0000
0.9973 0.8845 0.0000
1.0000 0.8847 0.0000
1.0000 0.8841 0.0000
1.0000 0.8839 0.0000
1.0000 0.8834 0.0000
0.0437 0.1276 0.0223
0.0552 0.1581 0.0162
0.0676 0.1923 0.0119
0.0836 0.2339 0.0050
0.0996 0.2767 0.0008
0.1190 0.3254 0.0000
0.1388 0.3720 0.0000
0.1587 0.4173 0.0000
0.1796 0.4624 0.0000
0.1976 0.5007 0.0000
0.2171 0.5385 0.0000
0.2264 0.5684 0.0000
0.2389 0.5975 0.0000
0.2620 0.6236 0.0000
0.2885 0.6524 0.0000
0.3237 0.6817 0.0000
0.3746 0.7174 0.0000
0.4424 0.7569 0.0000
0.5308 0.8002 0.0000
0.6301 0.8358 0.0000
0.7271 0.8629 0.0000
0.8122 0.8802 0.0000
0.8770 0.8921 0.0000
0.9227 0.8979 0.0000
0.9539 0.9040 0.0000
0.9716 0.9050 0.0000
0.9831 0.9050 0.0000
0.9908 0.9052 0.0000
1.0000 0.9052 0.0000
1.0000 0.9051 0.0000
1.0000 0.9052 0.0000
1.0000 0.9047 0.0000
1.0000 0.9046 0.0000
0.0442 0.1299 0.0230
0.0553 0.1612 0.0193
0.0686 0.1961 0.0128
0.0856 0.2419 0.0073
0.1040 0.2882 0.0000
0.1225 0.3355 0.0000
0.1431 0.3846 0.0000
0.1641 0.4312 0.0000
0.1857 0.4773 0.0000
0.2062 0.5183 0.0000
0.2244 0.5544 0.0000
0.2388 0.5863 0.0000
0.2476 0.6128 0.0000
0.2666 0.6390 0.0000
0.2889 0.6607 0.0000
0.3197 0.6888 0.0000
0.3634 0.7203 0.0000
0.4226 0.7584 0.0000
0.5009 0.7980 0.0000
0.5945 0.8376 0.0000
0.6934 0.8704 0.0000
0.7871 0.8930 0.0000
0.8582 0.9028 0.0000
0.9089 0.9094 0.0000
0.9468 0.9154 0.0000
0.9728 0.9216 0.0000
0.9839 0.9224 0.0000
0.9954 0.9225 0.0000
1.0000 0.9226 0.0000
1.0000 0.9228 0.0000
1.0000 0.9223 0.0000
1.0000 0.9225 0.0000
1.0000 0.9220 0.0000
0.0435 0.1309 0.0266
0.0557 0.1632 0.0200
0.0694 0.2014 0.0157
0.0871 0.2470 0.0080
0.1060 0.2960 0.0020
0.1270 0.3468 0.0000
0.1474 0.3959 0.0000
0.1687 0.4437 0.0000
0.1910 0.4902 0.0000
0.2121 0.5320 0.0000
0.2312 0.5674 0.0000
0.2488 0.5998 0.0000
0.2579 0.6259 0.0000
0.2703 0.6503 0.0000
0.2900 0.6707 0.0000
0.3176 0.6943 0.0000
0.3519 0.7206 0.0000
0.4029 0.7545 0.0000
0.4732 0.7943 0.0000
0.5602 0.8359 0.0000
0.6591 0.8727 0.0000
0.7540 0.8974 0.0000
0.8354 0.9134 0.0000
0.8956 0.9215 0.0000
0.9383 0.9267 0.0000
0.9661 0.9298 0.0000
0.9875 0.9332 0.0000
0.9985 0.9341 0.0000
1.0000 0.9348 0.0000
1.0000 0.9351 0.0000
1.0000 0.9357 0.0000
1.0000 0.9361 0.0000
1.0000 0.9361 0.0000
0.0434 0.1314 0.0271
0.0549 0.1642 0.0236
0.0704 0.2048 0.0162
0.0869 0.2495 0.0111
0.1078 0.3018 0.0026
0.1292 0.3547 0.0000
0.1521 0.4070 0.0000
0.1736 0.4560 0.0000
0.1953 0.5013 0.0000
