70 CGC LUTs/Film Emulation/Kodak Professional Portra 400.cube
#Created by: Denver Riddle
#Copyright: (C) Copyright Color Grading Central LLC
DOMAIN_MIN 0.0 0.0 0.0
DOMAIN_MAX 1.0 1.0 1.0
LUT_3D_SIZE 33
0.0353 0.0000 0.0000
0.0392 0.0000 0.0000
0.0471 0.0000 0.0000
0.0527 0.0000 0.0000
0.0619 0.0000 0.0000
0.0682 0.0000 0.0000
0.0790 0.0000 0.0000
0.0908 0.0000 0.0000
0.1027 0.0000 0.0000
0.1200 0.0000 0.0000
0.1366 0.0000 0.0000
0.1599 0.0000 0.0000
0.1793 0.0000 0.0000
0.2005 0.0000 0.0000
0.2240 0.0000 0.0000
0.2492 0.0000 0.0000
0.2690 0.0000 0.0000
0.2923 0.0000 0.0000
0.3111 0.0000 0.0000
0.3307 0.0000 0.0000
0.3483 0.0000 0.0000
0.3641 0.0000 0.0000
0.3752 0.0000 0.0000
0.3881 0.0000 0.0000
0.3993 0.0000 0.0000
0.4078 0.0000 0.0000
0.4137 0.0000 0.0000
0.4166 0.0000 0.0000
0.4176 0.0000 0.0000
0.4171 0.0000 0.0000
0.4159 0.0000 0.0000
0.4142 0.0000 0.0000
0.4122 0.0000 0.0000
0.0353 0.0124 0.0000
0.0401 0.0109 0.0000
0.0471 0.0102 0.0000
0.0546 0.0095 0.0000
0.0627 0.0087 0.0000
0.0704 0.0079 0.0000
0.0814 0.0070 0.0000
0.0934 0.0061 0.0000
0.1055 0.0051 0.0000
0.1215 0.0040 0.0000
0.1399 0.0027 0.0000
0.1639 0.0013 0.0000
0.1831 0.0000 0.0000
0.2083 0.0000 0.0000
0.2285 0.0000 0.0000
0.2541 0.0000 0.0000
0.2743 0.0000 0.0000
0.2979 0.0000 0.0000
0.3174 0.0000 0.0000
0.3371 0.0000 0.0000
0.3553 0.0000 0.0000
0.3714 0.0000 0.0000
0.3830 0.0000 0.0000
0.3964 0.0000 0.0000
0.4081 0.0000 0.0000
0.4173 0.0000 0.0000
0.4236 0.0000 0.0000
0.4270 0.0000 0.0000
0.4285 0.0000 0.0000
0.4283 0.0000 0.0000
0.4273 0.0000 0.0000
0.4258 0.0000 0.0000
0.4241 0.0000 0.0000
0.0353 0.0294 0.0000
0.0412 0.0267 0.0000
0.0471 0.0234 0.0000
0.0549 0.0227 0.0000
0.0627 0.0219 0.0000
0.0727 0.0211 0.0000
0.0823 0.0203 0.0000
0.0962 0.0193 0.0000
0.1086 0.0183 0.0000
0.1225 0.0172 0.0000
0.1436 0.0159 0.0000
0.1679 0.0146 0.0000
0.1876 0.0132 0.0000
0.2129 0.0117 0.0000
0.2334 0.0102 0.0000
0.2595 0.0084 0.0000
0.2841 0.0067 0.0000
0.3042 0.0049 0.0000
0.3242 0.0030 0.0000
0.3444 0.0009 0.0000
0.3631 0.0000 0.0000
0.3759 0.0000 0.0000
0.3920 0.0000 0.0000
0.4059 0.0000 0.0000
0.4183 0.0000 0.0000
0.4280 0.0000 0.0000
0.4348 0.0000 0.0000
0.4392 0.0000 0.0000
0.4409 0.0000 0.0000
0.4411 0.0000 0.0000
0.4407 0.0000 0.0000
0.4395 0.0000 0.0000
0.4379 0.0000 0.0000
0.0353 0.0454 0.0000
0.0423 0.0442 0.0000
0.0480 0.0426 0.0000
0.0549 0.0408 0.0000
0.0644 0.0401 0.0000
0.0745 0.0393 0.0000
0.0827 0.0384 0.0000
0.0980 0.0375 0.0000
0.1118 0.0365 0.0000
0.1261 0.0354 0.0000
0.1473 0.0341 0.0000
0.1720 0.0328 0.0000
0.1920 0.0314 0.0000
0.2180 0.0284 0.0000
0.2424 0.0253 0.0000
0.2653 0.0227 0.0000
0.2904 0.0210 0.0000
0.3111 0.0192 0.0000
0.3312 0.0173 0.0000
0.3522 0.0152 0.0000
0.3714 0.0131 0.0000
0.3850 0.0109 0.0000
0.4015 0.0086 0.0000
0.4161 0.0063 0.0000
0.4290 0.0037 0.0000
0.4397 0.0012 0.0000
0.4472 0.0000 0.0000
0.4518 0.0000 0.0000
0.4543 0.0000 0.0000
0.4548 0.0000 0.0000
0.4545 0.0000 0.0000
0.4538 0.0000 0.0000
0.4526 0.0000 0.0000
0.0358 0.0642 0.0000
0.0431 0.0631 0.0000
0.0491 0.0607 0.0000
0.0558 0.0574 0.0000
0.0665 0.0544 0.0000
0.0745 0.0536 0.0000
0.0852 0.0527 0.0000
0.0980 0.0518 0.0000
0.1148 0.0508 0.0000
0.1292 0.0497 0.0000
0.1510 0.0484 0.0000
0.1760 0.0470 0.0000
0.1964 0.0457 0.0000
0.2227 0.0441 0.0000
0.2478 0.0426 0.0000
0.2709 0.0409 0.0000
0.2962 0.0391 0.0000
0.3179 0.0373 0.0000
0.3383 0.0355 0.0000
0.3597 0.0333 0.0000
0.3759 0.0311 0.0000
0.3935 0.0268 0.0000
0.4108 0.0229 0.0000
0.4258 0.0205 0.0000
0.4399 0.0180 0.0000
0.4509 0.0154 0.0000
0.4591 0.0130 0.0000
0.4645 0.0107 0.0000
0.4674 0.0087 0.0000
0.4684 0.0072 0.0000
0.4684 0.0058 0.0000
0.4679 0.0047 0.0000
0.4669 0.0036 0.0000
0.0369 0.0788 0.0000
0.0431 0.0778 0.0000
0.0503 0.0766 0.0000
0.0570 0.0751 0.0000
0.0667 0.0735 0.0000
0.0756 0.0717 0.0000
0.0875 0.0708 0.0000
0.1004 0.0699 0.0000
0.1175 0.0689 0.0000
0.1324 0.0678 0.0000
0.1562 0.0665 0.0000
0.1798 0.0652 0.0000
0.2010 0.0638 0.0000
0.2272 0.0618 0.0000
0.2529 0.0588 0.0000
0.2781 0.0553 0.0000
0.3023 0.0534 0.0000
0.3242 0.0515 0.0000
0.3451 0.0497 0.0000
0.3672 0.0476 0.0000
0.3838 0.0454 0.0000
0.4020 0.0433 0.0000
0.4200 0.0410 0.0000
0.4356 0.0387 0.0000
0.4501 0.0361 0.0000
0.4621 0.0336 0.0000
0.4708 0.0309 0.0000
0.4767 0.0263 0.0000
0.4801 0.0229 0.0000
0.4815 0.0214 0.0000
0.4820 0.0201 0.0000
0.4818 0.0189 0.0000
0.4810 0.0178 0.0000
0.0380 0.0959 0.0000
0.0431 0.0950 0.0000
0.0510 0.0939 0.0000
0.0581 0.0926 0.0000
0.0667 0.0911 0.0000
0.0767 0.0884 0.0000
0.0895 0.0851 0.0000
0.1026 0.0832 0.0000
0.1199 0.0818 0.0000
0.1350 0.0807 0.0000
0.1615 0.0794 0.0000
0.1831 0.0780 0.0000
0.2080 0.0767 0.0000
0.2313 0.0751 0.0000
0.2573 0.0736 0.0000
0.2850 0.0718 0.0000
0.3074 0.0702 0.0000
0.3298 0.0684 0.0000
0.3512 0.0665 0.0000
0.3723 0.0644 0.0000
0.3908 0.0618 0.0000
0.4098 0.0575 0.0000
0.4280 0.0539 0.0000
0.4445 0.0515 0.0000
0.4594 0.0490 0.0000
0.4720 0.0465 0.0000
0.4815 0.0440 0.0000
0.4878 0.0417 0.0000
0.4917 0.0397 0.0000
0.4934 0.0382 0.0000
0.4942 0.0368 0.0000
0.4942 0.0357 0.0000
0.4939 0.0346 0.0000
0.0392 0.1113 0.0000
0.0431 0.1106 0.0000
0.0510 0.1096 0.0000
0.0593 0.1085 0.0000
0.0667 0.1071 0.0000
0.0780 0.1055 0.0003
0.0911 0.1036 0.0008
0.1050 0.1020 0.0009
0.1215 0.1010 0.0003
0.1381 0.0999 0.0000
0.1649 0.0986 0.0000
0.1869 0.0973 0.0000
0.2122 0.0959 0.0000
0.2363 0.0944 0.0000
0.2622 0.0929 0.0000
0.2904 0.0911 0.0000
0.3135 0.0886 0.0000
0.3363 0.0849 0.0000
0.3582 0.0818 0.0000
0.3777 0.0797 0.0000
0.3991 0.0775 0.0000
0.4185 0.0754 0.0000
0.4377 0.0730 0.0000
0.4548 0.0707 0.0000
0.4703 0.0683 0.0000
0.4835 0.0657 0.0000
0.4937 0.0632 0.0000
0.5009 0.0591 0.0000
0.5054 0.0551 0.0000
0.5073 0.0535 0.0000
0.5088 0.0521 0.0000
0.5092 0.0510 0.0000
0.5088 0.0499 0.0000
0.0392 0.1297 0.0000
0.0443 0.1291 0.0000
0.0510 0.1283 0.0000
0.0606 0.1274 0.0003
0.0672 0.1262 0.0006
0.0792 0.1241 0.0011
0.0923 0.1207 0.0017
0.1067 0.1171 0.0025
0.1215 0.1156 0.0025
0.1408 0.1145 0.0018
0.1679 0.1132 0.0010
0.1904 0.1118 0.0002
0.2160 0.1105 0.0000
0.2439 0.1090 0.0000
0.2668 0.1074 0.0000
0.2955 0.1057 0.0000
0.3191 0.1039 0.0000
0.3422 0.1022 0.0000
0.3648 0.1003 0.0000
0.3847 0.0982 0.0000
0.4069 0.0960 0.0000
0.4268 0.0940 0.0000
0.4467 0.0916 0.0000
0.4642 0.0883 0.0000
0.4805 0.0833 0.0000
0.4944 0.0803 0.0000
0.5054 0.0778 0.0000
0.5131 0.0755 0.0000
0.5180 0.0735 0.0000
0.5204 0.0720 0.0000
0.5219 0.0706 0.0000
0.5229 0.0695 0.0000
0.5229 0.0685 0.0000
0.0392 0.1452 0.0000
0.0456 0.1449 0.0003
0.0512 0.1443 0.0006
0.0619 0.1434 0.0010
0.0685 0.1425 0.0015
0.0806 0.1412 0.0021
0.0936 0.1398 0.0028
0.1081 0.1380 0.0037
0.1233 0.1358 0.0047
0.1434 0.1344 0.0044
0.1711 0.1331 0.0037
0.1939 0.1317 0.0030
0.2201 0.1305 0.0023
0.2483 0.1289 0.0015
0.2716 0.1274 0.0007
0.3008 0.1257 0.0000
0.3249 0.1224 0.0000
0.3488 0.1188 0.0000
0.3719 0.1163 0.0000
0.3925 0.1142 0.0000
0.4151 0.1121 0.0000
0.4356 0.1100 0.0000
0.4562 0.1076 0.0000
0.4745 0.1052 0.0000
0.4915 0.1027 0.0000
0.5063 0.1002 0.0000
0.5180 0.0977 0.0000
0.5263 0.0954 0.0000
0.5316 0.0934 0.0000
0.5350 0.0919 0.0000
0.5365 0.0906 0.0000
0.5379 0.0887 0.0000
0.5384 0.0865 0.0000
0.0394 0.1676 0.0006
0.0471 0.1674 0.0009
0.0528 0.1670 0.0014
0.0627 0.1664 0.0019
0.0701 0.1657 0.0025
0.0821 0.1647 0.0032
0.0952 0.1634 0.0040
0.1097 0.1619 0.0051
0.1249 0.1592 0.0062
0.1464 0.1542 0.0077
0.1746 0.1521 0.0072
0.1979 0.1507 0.0066
0.2245 0.1494 0.0060
0.2534 0.1479 0.0053
0.2801 0.1463 0.0046
0.3069 0.1446 0.0038
0.3317 0.1429 0.0030
0.3560 0.1411 0.0021
0.3762 0.1393 0.0013
0.4013 0.1372 0.0003
0.4246 0.1350 0.0000
0.4460 0.1329 0.0000
0.4672 0.1306 0.0000
0.4864 0.1283 0.0000
0.5044 0.1257 0.0000
0.5199 0.1209 0.0000
0.5326 0.1168 0.0000
0.5417 0.1145 0.0000
0.5516 0.1125 0.0000
0.5555 0.1110 0.0000
0.5579 0.1097 0.0000
0.5594 0.1085 0.0000
0.5598 0.1074 0.0000
0.0410 0.1858 0.0012
0.0471 0.1857 0.0016
0.0544 0.1856 0.0022
0.0627 0.1852 0.0028
0.0717 0.1846 0.0035
0.0823 0.1838 0.0043
0.0968 0.1828 0.0053
0.1113 0.1816 0.0064
0.1265 0.1799 0.0078
0.1479 0.1778 0.0094
0.1777 0.1752 0.0110
0.2032 0.1738 0.0105
0.2286 0.1725 0.0100
0.2580 0.1710 0.0094
0.2863 0.1695 0.0088
0.3132 0.1678 0.0081
0.3383 0.1660 0.0074
0.3631 0.1642 0.0067
0.3840 0.1624 0.0060
0.4098 0.1597 0.0051
0.4339 0.1555 0.0043
0.4562 0.1519 0.0035
0.4781 0.1496 0.0026
0.4981 0.1473 0.0016
0.5170 0.1449 0.0007
0.5336 0.1423 0.0000
0.5506 0.1398 0.0000
0.5608 0.1376 0.0000
0.5676 0.1356 0.0000
0.5720 0.1341 0.0000
0.5766 0.1327 0.0000
0.5803 0.1316 0.0000
0.5817 0.1305 0.0000
0.0428 0.2102 0.0019
0.0471 0.2103 0.0024
0.0549 0.2103 0.0031
0.0629 0.2102 0.0038
0.0735 0.2098 0.0046
0.0823 0.2095 0.0056
0.0980 0.2088 0.0067
0.1131 0.2078 0.0080
0.1284 0.2064 0.0095
0.1498 0.2047 0.0113
0.1799 0.2022 0.0137
0.2094 0.1996 0.0152
0.2331 0.1969 0.0148
0.2631 0.1937 0.0143
0.2921 0.1915 0.0139
0.3196 0.1898 0.0133
0.3454 0.1881 0.0128
0.3711 0.1862 0.0122
0.3925 0.1842 0.0117
0.4190 0.1821 0.0110
0.4443 0.1800 0.0103
0.4674 0.1778 0.0097
0.4903 0.1755 0.0090
0.5112 0.1732 0.0082
0.5311 0.1707 0.0075
0.5526 0.1681 0.0067
0.5667 0.1657 0.0059
0.5817 0.1635 0.0052
0.5895 0.1614 0.0046
0.5944 0.1589 0.0041
0.5989 0.1564 0.0037
0.6036 0.1540 0.0033
0.6056 0.1523 0.0030
0.0431 0.2301 0.0026
0.0485 0.2304 0.0032
0.0549 0.2306 0.0040
0.0647 0.2308 0.0048
0.0745 0.2308 0.0058
0.0834 0.2305 0.0069
0.0980 0.2301 0.0081
0.1149 0.2295 0.0096
0.1301 0.2286 0.0113
0.1516 0.2271 0.0132
0.1817 0.2250 0.0158
0.2119 0.2225 0.0186
0.2390 0.2203 0.0200
0.2677 0.2187 0.0197
0.2972 0.2172 0.0193
0.3254 0.2154 0.0189
0.3519 0.2136 0.0185
0.3746 0.2119 0.0181
0.4005 0.2100 0.0177
0.4280 0.2079 0.0172
0.4543 0.2057 0.0167
0.4781 0.2036 0.0162
0.5020 0.2013 0.0157
0.5238 0.1981 0.0151
0.5485 0.1930 0.0146
0.5671 0.1900 0.0140
0.5861 0.1876 0.0134
0.6009 0.1852 0.0129
0.6105 0.1832 0.0124
0.6164 0.1816 0.0121
0.6242 0.1803 0.0118
0.6270 0.1792 0.0115
0.6294 0.1781 0.0113
0.0431 0.2531 0.0034
0.0506 0.2537 0.0041
0.0562 0.2542 0.0050
0.0667 0.2546 0.0060
0.0745 0.2548 0.0071
0.0855 0.2550 0.0084
0.0986 0.2550 0.0098
0.1170 0.2546 0.0115
0.1322 0.2541 0.0133
0.1545 0.2531 0.0155
0.1838 0.2516 0.0184
0.2140 0.2494 0.0214
0.2442 0.2468 0.0247
0.2726 0.2444 0.0264
0.3030 0.2429 0.0262
0.3320 0.2412 0.0259
0.3592 0.2395 0.0257
0.3830 0.2377 0.0254
0.4098 0.2357 0.0252
0.4384 0.2337 0.0249
0.4655 0.2316 0.0246
0.4903 0.2294 0.0244
0.5151 0.2271 0.0240
0.5384 0.2248 0.0237
0.5642 0.2222 0.0234
0.5876 0.2197 0.0231
0.6080 0.2172 0.0227
0.6253 0.2150 0.0224
0.6353 0.2129 0.0221
0.6450 0.2113 0.0219
0.6494 0.2101 0.0218
0.6547 0.2089 0.0216
0.6596 0.2078 0.0215
0.0453 0.2825 0.0043
0.0510 0.2834 0.0052
0.0587 0.2841 0.0062
0.0667 0.2849 0.0074
0.0760 0.2856 0.0087
0.0879 0.2861 0.0101
0.1010 0.2863 0.0117
0.1194 0.2866 0.0136
0.1347 0.2863 0.0157
0.1594 0.2859 0.0181
0.1863 0.2849 0.0213
0.2165 0.2834 0.0246
0.2466 0.2815 0.0282
0.2791 0.2786 0.0326
0.3089 0.2764 0.0346
0.3388 0.2747 0.0346
0.3672 0.2730 0.0345
0.3918 0.2711 0.0345
0.4195 0.2693 0.0344
0.4494 0.2671 0.0344
0.4774 0.2651 0.0343
0.5034 0.2629 0.0343
0.5297 0.2584 0.0342
0.5579 0.2543 0.0342
0.5851 0.2519 0.0341
0.6105 0.2493 0.0340
0.6328 0.2467 0.0340
0.6504 0.2445 0.0339
0.6650 0.2424 0.0339
0.6741 0.2410 0.0338
0.6815 0.2396 0.0338
0.6854 0.2385 0.0338
0.6906 0.2374 0.0338
0.0471 0.3138 0.0055
0.0522 0.3150 0.0065
0.0617 0.3163 0.0078
0.0684 0.3172 0.0092
0.0790 0.3185 0.0106
0.0910 0.3194 0.0123
0.1040 0.3201 0.0142
0.1215 0.3209 0.0163
0.1377 0.3211 0.0186
0.1631 0.3214 0.0214
0.1894 0.3211 0.0249
0.2196 0.3204 0.0287
0.2497 0.3192 0.0326
0.2836 0.3172 0.0374
0.3137 0.3145 0.0425
0.3466 0.3118 0.0463
0.3723 0.3100 0.0465
0.4017 0.3080 0.0467
0.4309 0.3060 0.0470
0.4623 0.3041 0.0472
0.4917 0.3019 0.0474
0.5195 0.2997 0.0477
0.5511 0.2975 0.0479
0.5808 0.2951 0.0482
0.6100 0.2927 0.0485
0.6392 0.2900 0.0488
0.6645 0.2876 0.0490
0.6840 0.2854 0.0493
0.7000 0.2834 0.0495
0.7101 0.2817 0.0497
0.7180 0.2805 0.0498
0.7229 0.2793 0.0500
0.7268 0.2783 0.0501
0.0481 0.3459 0.0069
0.0549 0.3474 0.0081
0.0627 0.3491 0.0096
0.0721 0.3508 0.0113
0.0823 0.3525 0.0130
0.0947 0.3539 0.0149
0.1078 0.3551 0.0171
0.1222 0.3566 0.0195
0.1414 0.3576 0.0222
0.1669 0.3586 0.0254
0.1932 0.3593 0.0293
0.2234 0.3595 0.0335
0.2534 0.3593 0.0380
0.2875 0.3583 0.0433
0.3176 0.3566 0.0489
0.3514 0.3542 0.0556
0.3816 0.3510 0.0624
0.4124 0.3491 0.0629
0.4433 0.3474 0.0634
0.4762 0.3452 0.0640
0.5078 0.3430 0.0646
0.5370 0.3408 0.0652
0.5705 0.3386 0.0658
0.6061 0.3372 0.0665
0.6402 0.3372 0.0672
0.6712 0.3352 0.0679
0.7000 0.3326 0.0686
0.7214 0.3304 0.0692
0.7390 0.3284 0.0698
0.7482 0.3270 0.0702
0.7560 0.3255 0.0706
0.7618 0.3243 0.0709
0.7667 0.3233 0.0712
0.0510 0.3853 0.0087
0.0567 0.3872 0.0102
0.0662 0.3897 0.0119
0.0745 0.3919 0.0139
0.0835 0.3940 0.0159
0.0980 0.3962 0.0182
0.1125 0.3984 0.0208
0.1269 0.4006 0.0237
0.1461 0.4026 0.0267
0.1715 0.4043 0.0303
0.1978 0.4062 0.0349
0.2280 0.4074 0.0397
0.2580 0.4077 0.0447
0.2921 0.4077 0.0507
0.3222 0.4077 0.0569
0.3563 0.4077 0.0644
0.3862 0.4057 0.0722
0.4217 0.4030 0.0807
0.4567 0.4001 0.0863
0.4917 0.3979 0.0873
0.5253 0.3958 0.0883
0.5608 0.3938 0.0894
0.5979 0.3914 0.0905
0.6353 0.3892 0.0917
0.6761 0.3865 0.0929
0.7110 0.3843 0.0941
0.7404 0.3843 0.0941
0.7608 0.3831 0.0941
0.7764 0.3812 0.0941
0.7837 0.3797 0.0943
0.7885 0.3783 0.0950
0.7920 0.3773 0.0956
0.7973 0.3760 0.0960
0.0541 0.4259 0.0107
0.0618 0.4272 0.0124
0.0674 0.4276 0.0145
0.0781 0.4305 0.0169
0.0886 0.4334 0.0192
0.1006 0.4364 0.0219
0.1176 0.4397 0.0249
0.1321 0.4427 0.0282
0.1512 0.4431 0.0318
0.1768 0.4446 0.0359
0.2061 0.4477 0.0411
0.2332 0.4502 0.0466
0.2634 0.4524 0.0522
0.2972 0.4543 0.0589
0.3273 0.4555 0.0659
0.3614 0.4563 0.0742
0.3915 0.4560 0.0827
0.4268 0.4550 0.0921
0.4638 0.4529 0.0983
0.5054 0.4494 0.1103
0.5426 0.4470 0.1136
0.5837 0.4451 0.1151
0.6270 0.4431 0.1168
0.6679 0.4431 0.1185
0.7110 0.4417 0.1203
0.7467 0.4393 0.1221
0.7745 0.4367 0.1240
0.7890 0.4341 0.1256
0.7998 0.4322 0.1270
0.8076 0.4307 0.1281
0.8115 0.4293 0.1291
0.8154 0.4283 0.1298
0.8193 0.4272 0.1307
0.0557 0.4587 0.0127
0.0634 0.4611 0.0148
0.0729 0.4648 0.0173
0.0823 0.4686 0.0200
0.0942 0.4720 0.0227
0.1061 0.4744 0.0258
0.1215 0.4759 0.0293
0.1376 0.4798 0.0330
0.1607 0.4837 0.0371
0.1822 0.4878 0.0417
0.2124 0.4900 0.0477
0.2421 0.4924 0.0538
0.2687 0.4958 0.0601
0.3028 0.4993 0.0676
0.3329 0.5024 0.0754
0.3667 0.5049 0.0845
0.3969 0.5059 0.0940
0.4324 0.5059 0.1004
0.4691 0.5059 0.1115
0.5107 0.5058 0.1245
0.5564 0.5034 0.1380
0.6046 0.4999 0.1497
0.6504 0.4973 0.1518
0.6981 0.4951 0.1542
0.7419 0.4927 0.1567
0.7759 0.4900 0.1591
0.7949 0.4900 0.1616
0.8084 0.4893 0.1638
0.8193 0.4874 0.1657
0.8271 0.4857 0.1672
0.8317 0.4844 0.1684
0.8389 0.4832 0.1695
0.8428 0.4822 0.1706
0.0605 0.4893 0.0146
0.0667 0.4900 0.0169
0.0745 0.4934 0.0197
0.0845 0.4978 0.0227
0.0980 0.5019 0.0258
0.1111 0.5059 0.0293
0.1241 0.5073 0.0331
0.1425 0.5121 0.0373
0.1656 0.5170 0.0418
0.1872 0.5215 0.0470
0.2173 0.5238 0.0535
0.2475 0.5291 0.0602
0.2736 0.5335 0.0671
0.3076 0.5371 0.0753
0.3376 0.5388 0.0838
0.3716 0.5427 0.0937
0.4017 0.5457 0.1000
0.4374 0.5481 0.1112
0.4740 0.5500 0.1230
0.5156 0.5505 0.1369
0.5613 0.5500 0.1515
0.6105 0.5481 0.1665
0.6679 0.5447 0.1836
0.7190 0.5423 0.1884
0.7623 0.5398 0.1914
0.7910 0.5374 0.1944
0.8079 0.5371 0.1973
0.8232 0.5364 0.2000
0.8356 0.5345 0.2024
0.8438 0.5330 0.2043
0.8545 0.5316 0.2058
0.8642 0.5306 0.2072
0.8739 0.5291 0.2084
0.0627 0.5102 0.0162
0.0686 0.5141 0.0188
0.0782 0.5189 0.0218
0.0887 0.5215 0.0252
0.0994 0.5252 0.0286
0.1153 0.5301 0.0323
0.1284 0.5355 0.0364
0.1467 0.5374 0.0410
0.1698 0.5427 0.0459
0.1915 0.5486 0.0515
0.2216 0.5554 0.0586
0.2517 0.5605 0.0658
0.2815 0.5636 0.0732
0.3119 0.5695 0.0821
0.3419 0.5748 0.0911
0.3723 0.5802 0.0979
0.4061 0.5840 0.1088
0.4416 0.5845 0.1205
0.4784 0.5875 0.1331
0.5199 0.5899 0.1479
0.5652 0.5909 0.1634
0.6148 0.5909 0.1792
0.6741 0.5894 0.1973
0.7304 0.5865 0.2161
0.7764 0.5840 0.2241
0.8007 0.5840 0.2275
0.8193 0.5821 0.2310
0.8346 0.5802 0.2340
0.8516 0.5782 0.2368
0.8652 0.5768 0.2389
0.8803 0.5753 0.2407
0.8924 0.5743 0.2423
0.9031 0.5729 0.2438
0.0646 0.5287 0.0176
0.0723 0.5335 0.0204
0.0818 0.5371 0.0237
0.0925 0.5403 0.0272
0.1031 0.5457 0.0309
0.1190 0.5515 0.0349
0.1320 0.5573 0.0394
0.1504 0.5605 0.0443
0.1735 0.5661 0.0495
0.1951 0.5724 0.0555
0.2253 0.5802 0.0630
0.2554 0.5840 0.0706
0.2855 0.5899 0.0785
0.3157 0.5972 0.0879
0.3456 0.6035 0.0941
0.3759 0.6103 0.1048
0.4098 0.6157 0.1163
0.4453 0.6210 0.1287
0.4820 0.6257 0.1419
0.5233 0.6293 0.1576
0.5691 0.6322 0.1736
0.6212 0.6332 0.1903
0.6801 0.6332 0.2090
0.7375 0.6317 0.2287
0.7832 0.6288 0.2538
0.8076 0.6257 0.2617
0.8271 0.6230 0.2653
0.8443 0.6205 0.2690
0.8667 0.6186 0.2719
0.8861 0.6171 0.2743
0.9017 0.6157 0.2762
0.9148 0.6147 0.2782
0.9304 0.6137 0.2796
0.0667 0.5427 0.0188
0.0745 0.5476 0.0217
0.0823 0.5529 0.0252
0.0956 0.5593 0.0290
0.1061 0.5612 0.0328
0.1215 0.5670 0.0371
0.1350 0.5734 0.0418
0.1540 0.5802 0.0470
0.1767 0.5840 0.0524
0.1982 0.5904 0.0587
0.2283 0.5986 0.0666
0.2585 0.6069 0.0746
0.2884 0.6142 0.0830
0.3188 0.6220 0.0927
0.3488 0.6298 0.0988
0.3789 0.6376 0.1106
0.4127 0.6439 0.1225
0.4484 0.6502 0.1354
0.4849 0.6555 0.1492
0.5263 0.6604 0.1653
0.5720 0.6643 0.1821
0.6259 0.6667 0.1994
0.6830 0.6682 0.2188
0.7404 0.6682 0.2390
0.7861 0.6662 0.2655
0.8123 0.6628 0.2877
0.8317 0.6604 0.2918
0.8545 0.6580 0.2955
0.8817 0.6560 0.2989
0.9017 0.6546 0.3015
0.9182 0.6531 0.3037
0.9357 0.6521 0.3057
0.9523 0.6512 0.3074
0.0668 0.5593 0.0200
0.0745 0.5607 0.0231
0.0841 0.5666 0.0267
0.0980 0.5729 0.0307
0.1093 0.5792 0.0348
0.1215 0.5840 0.0393
0.1382 0.5889 0.0442
0.1604 0.5962 0.0497
0.1797 0.6035 0.0555
0.2025 0.6113 0.0621
0.2314 0.6205 0.0703
0.2614 0.6298 0.0788
0.2916 0.6380 0.0874
0.3218 0.6468 0.0941
0.3517 0.6546 0.1041
0.3820 0.6633 0.1164
0.4159 0.6711 0.1289
0.4516 0.6779 0.1422
0.4881 0.6847 0.1567
0.5297 0.6912 0.1734
0.5786 0.6993 0.1908
0.6290 0.7032 0.2085
0.6859 0.7061 0.2287
0.7438 0.7071 0.2523
0.7881 0.7071 0.2767
0.8154 0.7047 0.3011
0.8389 0.7018 0.3198
0.8657 0.6993 0.3258
0.8954 0.6970 0.3315
0.9167 0.6941 0.3341
0.9382 0.6912 0.3366
0.9562 0.6896 0.3385
0.9732 0.6886 0.3405
0.0695 0.5690 0.0210
0.0773 0.5748 0.0243
0.0868 0.5811 0.0281
0.0980 0.5840 0.0323
0.1120 0.5904 0.0365
0.1240 0.5977 0.0413
0.1409 0.6050 0.0464
0.1633 0.6127 0.0521
0.1824 0.6205 0.0581
0.2079 0.6293 0.0650
0.2342 0.6390 0.0735
0.2643 0.6483 0.0824
0.2943 0.6575 0.0914
0.3247 0.6667 0.0980
0.3546 0.6760 0.1089
0.3847 0.6852 0.1215
0.4185 0.6979 0.1345
0.4543 0.7057 0.1483
0.4908 0.7130 0.1631
0.5321 0.7202 0.1804
0.5817 0.7305 0.1984
0.6319 0.7354 0.2167
0.6916 0.7392 0.2374
0.7463 0.7426 0.2629
0.7881 0.7446 0.2867
0.8154 0.7426 0.3116
0.8428 0.7392 0.3407
0.8761 0.7363 0.3534
0.9065 0.7344 0.3572
0.9328 0.7329 0.3602
0.9547 0.7315 0.3628
0.9737 0.7305 0.3650
0.9917 0.7295 0.3672
0.0722 0.5816 0.0220
0.0801 0.5840 0.0255
0.0895 0.5904 0.0295
0.1002 0.5977 0.0338
0.1148 0.6045 0.0383
0.1268 0.6123 0.0432
0.1437 0.6200 0.0486
0.1661 0.6283 0.0545
0.1852 0.6366 0.0608
