70 CGC LUTs/Film Emulation/Kodak Professional Portra 400.cube
#Created by: Denver Riddle
#Copyright: (C) Copyright Color Grading Central LLC
DOMAIN_MIN 0.0 0.0 0.0
DOMAIN_MAX 1.0 1.0 1.0
LUT_3D_SIZE 9
0.0353 0.0000 0.0000
0.0619 0.0000 0.0000
0.1027 0.0000 0.0000
0.1793 0.0000 0.0000
0.2690 0.0000 0.0000
0.3483 0.0000 0.0000
0.3993 0.0000 0.0000
0.4176 0.0000 0.0000
0.4122 0.0000 0.0000
0.0358 0.0642 0.0000
0.0665 0.0544 0.0000
0.1148 0.0508 0.0000
0.1964 0.0457 0.0000
0.2962 0.0391 0.0000
0.3759 0.0311 0.0000
0.4399 0.0180 0.0000
0.4674 0.0087 0.0000
0.4669 0.0036 0.0000
0.0392 0.1297 0.0000
0.0672 0.1262 0.0006
0.1215 0.1156 0.0025
0.2160 0.1105 0.0000
0.3191 0.1039 0.0000
0.4069 0.0960 0.0000
0.4805 0.0833 0.0000
0.5180 0.0735 0.0000
0.5229 0.0685 0.0000
0.0428 0.2102 0.0019
0.0735 0.2098 0.0046
0.1284 0.2064 0.0095
0.2331 0.1969 0.0148
0.3454 0.1881 0.0128
0.4443 0.1800 0.0103
0.5311 0.1707 0.0075
0.5895 0.1614 0.0046
0.6056 0.1523 0.0030
0.0471 0.3138 0.0055
0.0790 0.3185 0.0106
0.1377 0.3211 0.0186
0.2497 0.3192 0.0326
0.3723 0.3100 0.0465
0.4917 0.3019 0.0474
0.6100 0.2927 0.0485
0.7000 0.2834 0.0495
0.7268 0.2783 0.0501
0.0557 0.4587 0.0127
0.0942 0.4720 0.0227
0.1607 0.4837 0.0371
0.2687 0.4958 0.0601
0.3969 0.5059 0.0940
0.5564 0.5034 0.1380
0.7419 0.4927 0.1567
0.8193 0.4874 0.1657
0.8428 0.4822 0.1706
0.0667 0.5427 0.0188
0.1061 0.5612 0.0328
0.1767 0.5840 0.0524
0.2884 0.6142 0.0830
0.4127 0.6439 0.1225
0.5720 0.6643 0.1821
0.7861 0.6662 0.2655
0.8817 0.6560 0.2989
0.9523 0.6512 0.3074
0.0745 0.5899 0.0231
0.1175 0.6181 0.0401
0.1881 0.6521 0.0635
0.2999 0.6979 0.0954
0.4241 0.7484 0.1456
0.5876 0.7916 0.2136
0.7920 0.8188 0.3066
0.9299 0.8159 0.4105
1.0000 0.8083 0.4269
0.0787 0.6171 0.0259
0.1215 0.6497 0.0448
0.1955 0.6881 0.0707
0.3074 0.7490 0.1062
0.4317 0.8093 0.1611
0.5949 0.8653 0.2346
0.7973 0.9003 0.3380
0.9372 0.9110 0.4443
1.0000 0.9076 0.5049
0.0392 0.0050 0.0541
0.0627 0.0000 0.0469
0.1091 0.0000 0.0432
0.1889 0.0000 0.0381
0.2865 0.0000 0.0316
0.3670 0.0000 0.0237
0.4236 0.0000 0.0144
0.4482 0.0000 0.0051
0.4460 0.0000 0.0000
0.0353 0.0623 0.0471
0.0627 0.0615 0.0470
0.1115 0.0546 0.0435
0.1939 0.0495 0.0384
0.2950 0.0429 0.0320
0.3757 0.0350 0.0242
0.4414 0.0218 0.0150
0.4703 0.0125 0.0058
0.4708 0.0074 0.0008
0.0364 0.1296 0.0489
0.0667 0.1302 0.0489
0.1214 0.1212 0.0486
0.2131 0.1143 0.0446
0.3174 0.1078 0.0395
0.4064 0.0999 0.0334
0.4815 0.0905 0.0262
0.5204 0.0773 0.0189
0.5263 0.0722 0.0150
0.0392 0.2120 0.0513
0.0697 0.2141 0.0514
0.1245 0.2104 0.0538
0.2296 0.2022 0.0565
0.3429 0.1918 0.0533
0.4431 0.1838 0.0494
0.5316 0.1746 0.0448
0.5915 0.1652 0.0402
0.6080 0.1597 0.0377
0.0442 0.3189 0.0549
0.0752 0.3231 0.0551
0.1340 0.3255 0.0606
0.2459 0.3233 0.0712
0.3723 0.3138 0.0818
0.4895 0.3058 0.0812
0.6090 0.2966 0.0805
0.7010 0.2871 0.0799
0.7282 0.2822 0.0796
0.0549 0.4691 0.0621
0.0903 0.4744 0.0627
0.1530 0.4888 0.0745
0.2651 0.5009 0.0941
0.3932 0.5068 0.1196
0.5526 0.5059 0.1622
0.7395 0.4963 0.1781
0.8193 0.4900 0.1854
0.8428 0.4859 0.1895
0.0635 0.5588 0.0681
0.1024 0.5670 0.0690
0.1728 0.5889 0.0861
0.2848 0.6196 0.1093
0.4090 0.6492 0.1482
0.5686 0.6687 0.2024
0.7827 0.6701 0.2794
0.8793 0.6599 0.3098
0.9503 0.6551 0.3176
0.0710 0.6098 0.0724
0.1137 0.6246 0.0734
0.1842 0.6580 0.0941
0.2960 0.7037 0.1229
0.4202 0.7543 0.1687
0.5837 0.7986 0.2314
0.7900 0.8234 0.3181
0.9228 0.8210 0.4151
1.0000 0.8130 0.4310
0.0745 0.6405 0.0753
0.1211 0.6565 0.0764
0.1917 0.6989 0.0960
0.3035 0.7553 0.1319
0.4278 0.8188 0.1822
0.5910 0.8701 0.2538
0.7934 0.9047 0.3475
0.9333 0.9154 0.4475
1.0000 0.9115 0.5044
0.0471 0.0118 0.1269
0.0724 0.0065 0.1209
0.1171 0.0000 0.1127
0.2027 0.0000 0.1075
0.3045 0.0000 0.1010
0.3881 0.0000 0.0941
0.4567 0.0000 0.0877
0.4891 0.0000 0.0784
0.4912 0.0000 0.0733
0.0414 0.0688 0.1213
0.0724 0.0688 0.1218
0.1171 0.0615 0.1127
0.2078 0.0531 0.1075
0.3104 0.0466 0.1010
0.3976 0.0386 0.0941
0.4708 0.0273 0.0877
0.5078 0.0161 0.0784
0.5122 0.0110 0.0733
0.0353 0.1294 0.1140
0.0640 0.1294 0.1140
0.1172 0.1284 0.1127
0.2106 0.1211 0.1075
0.3167 0.1128 0.1010
0.4081 0.1049 0.0941
0.4859 0.0956 0.0877
0.5277 0.0824 0.0784
0.5350 0.0773 0.0733
0.0370 0.2137 0.1151
0.0667 0.2150 0.1151
0.1215 0.2159 0.1151
0.2247 0.2074 0.1142
0.3395 0.2010 0.1093
0.4416 0.1892 0.1034
0.5321 0.1797 0.0965
0.5939 0.1704 0.0934
0.6119 0.1653 0.0896
0.0425 0.3248 0.1186
0.0735 0.3277 0.1186
0.1287 0.3316 0.1188
0.2382 0.3289 0.1246
0.3680 0.3192 0.1307
0.4866 0.3110 0.1281
0.6085 0.3017 0.1251
0.7020 0.2924 0.1220
0.7324 0.2873 0.1204
0.0510 0.4796 0.1258
0.0847 0.4866 0.1258
0.1477 0.4920 0.1264
0.2597 0.5059 0.1411
0.3879 0.5126 0.1645
0.5456 0.5087 0.1996
0.7343 0.5019 0.2122
0.8186 0.4924 0.2171
0.8428 0.4900 0.2199
0.0618 0.5768 0.1319
0.0980 0.5840 0.1319
0.1676 0.5967 0.1329
0.2766 0.6273 0.1551
0.4037 0.6560 0.1881
0.5632 0.6750 0.2348
0.7774 0.6755 0.3027
0.8750 0.6653 0.3337
0.9471 0.6599 0.3400
0.0667 0.6371 0.1362
0.1081 0.6492 0.1362
0.1790 0.6667 0.1374
0.2909 0.7115 0.1650
0.4151 0.7621 0.2047
0.5766 0.8054 0.2638
0.7881 0.8298 0.3417
0.9167 0.8264 0.4302
1.0000 0.8215 0.4392
0.0728 0.6701 0.1391
0.1156 0.6842 0.1391
0.1864 0.7076 0.1404
0.2984 0.7641 0.1715
0.4227 0.8268 0.2158
0.5861 0.8779 0.2804
0.7920 0.9110 0.3648
0.9277 0.9207 0.4560
1.0000 0.9164 0.5083
0.0562 0.0206 0.2211
0.0835 0.0153 0.2173
0.1316 0.0083 0.2113
0.2200 0.0000 0.2018
0.3266 0.0000 0.1954
0.4188 0.0000 0.1874
0.4978 0.0000 0.1781
0.5404 0.0000 0.1687
0.5521 0.0000 0.1638
0.0510 0.0776 0.2182
0.0835 0.0776 0.2191
0.1316 0.0707 0.2122
0.2203 0.0604 0.2018
0.3303 0.0511 0.1954
0.4261 0.0432 0.1874
0.5097 0.0339 0.1781
0.5608 0.0206 0.1687
0.5710 0.0156 0.1638
0.0441 0.1381 0.2135
0.0750 0.1381 0.2141
0.1316 0.1369 0.2132
0.2207 0.1279 0.2018
0.3339 0.1174 0.1954
0.4341 0.1095 0.1874
0.5224 0.1001 0.1781
0.5822 0.0908 0.1687
0.5949 0.0818 0.1638
0.0355 0.2163 0.2051
0.0665 0.2163 0.2052
0.1215 0.2163 0.2053
0.2213 0.2136 0.2018
0.3390 0.2072 0.1954
0.4448 0.1986 0.1874
0.5394 0.1860 0.1781
0.6095 0.1766 0.1687
0.6304 0.1716 0.1638
0.0392 0.3308 0.2056
0.0667 0.3323 0.2056
0.1215 0.3345 0.2056
0.2300 0.3360 0.2057
0.3619 0.3257 0.2061
0.4830 0.3180 0.2010
0.6075 0.3082 0.1950
0.7039 0.2990 0.1889
0.7380 0.2939 0.1856
0.0471 0.4927 0.2129
0.0815 0.4983 0.2129
0.1405 0.5053 0.2129
0.2532 0.5116 0.2143
0.3813 0.5204 0.2299
0.5370 0.5155 0.2592
0.7273 0.5059 0.2673
0.8167 0.4988 0.2692
0.8428 0.4939 0.2702
0.0549 0.5986 0.2189
0.0934 0.6074 0.2189
0.1599 0.6186 0.2189
0.2690 0.6371 0.2216
0.3971 0.6648 0.2464
0.5564 0.6828 0.2877
0.7745 0.6828 0.3446
0.8705 0.6716 0.3662
0.9406 0.6667 0.3709
0.0627 0.6696 0.2232
0.1009 0.6808 0.2232
0.1718 0.6989 0.2232
0.2841 0.7222 0.2267
0.4083 0.7753 0.2626
0.5676 0.8168 0.3079
0.7818 0.8376 0.3749
0.9104 0.8332 0.4482
1.0000 0.8278 0.4570
0.0667 0.7115 0.2261
0.1084 0.7261 0.2261
0.1792 0.7475 0.2261
0.2916 0.7787 0.2301
0.4159 0.8371 0.2704
0.5786 0.8872 0.3215
0.7881 0.9193 0.3949
0.9177 0.9280 0.4747
1.0000 0.9232 0.5176
0.0745 0.0383 0.3662
0.1093 0.0329 0.3658
0.1652 0.0221 0.3638
0.2527 0.0122 0.3597
0.3580 0.0000 0.3509
0.4642 0.0000 0.3429
0.5632 0.0000 0.3337
0.6338 0.0000 0.3205
0.6586 0.0000 0.3154
0.0667 0.0953 0.3672
0.1093 0.0953 0.3689
0.1652 0.0865 0.3665
0.2527 0.0746 0.3609
0.3582 0.0616 0.3509
0.4681 0.0503 0.3429
0.5715 0.0410 0.3337
0.6508 0.0317 0.3205
0.6771 0.0227 0.3154
0.0620 0.1518 0.3670
0.0980 0.1518 0.3684
0.1652 0.1506 0.3692
0.2527 0.1407 0.3626
0.3582 0.1285 0.3509
0.4723 0.1166 0.3429
0.5847 0.1073 0.3337
0.6689 0.0979 0.3205
0.6981 0.0929 0.3154
0.0510 0.2301 0.3645
0.0844 0.2301 0.3653
0.1473 0.2301 0.3665
0.2527 0.2267 0.3645
0.3585 0.2142 0.3509
0.4779 0.2063 0.3429
0.5970 0.1942 0.3337
0.6952 0.1838 0.3205
0.7244 0.1787 0.3154
0.0392 0.3372 0.3558
0.0676 0.3372 0.3560
0.1227 0.3372 0.3563
0.2314 0.3372 0.3568
0.3587 0.3352 0.3509
0.4864 0.3272 0.3429
0.6222 0.3180 0.3337
0.7268 0.3085 0.3205
0.7618 0.3034 0.3154
0.0431 0.5121 0.3570
0.0740 0.5155 0.3570
0.1292 0.5194 0.3570
0.2407 0.5215 0.3570
0.3723 0.5287 0.3572
0.5263 0.5223 0.3677
0.7205 0.5150 0.3687
0.8154 0.5059 0.3658
0.8428 0.5044 0.3643
0.0510 0.6371 0.3631
0.0823 0.6434 0.3631
0.1451 0.6517 0.3631
0.2578 0.6633 0.3631
0.3867 0.6784 0.3636
0.5436 0.6993 0.3859
0.7643 0.6970 0.4230
0.8628 0.6823 0.4390
0.9357 0.6774 0.4392
0.0549 0.7213 0.3672
0.0935 0.7339 0.3672
0.1602 0.7490 0.3672
0.2690 0.7664 0.3672
0.3979 0.7926 0.3680
0.5574 0.8317 0.3986
0.7755 0.8492 0.4441
0.8997 0.8439 0.4996
1.0000 0.8385 0.5054
0.0621 0.7782 0.3701
0.0980 0.7887 0.3701
0.1679 0.8054 0.3701
0.2786 0.8278 0.3701
0.4054 0.8547 0.3709
0.5647 0.9018 0.4071
0.7788 0.9324 0.4589
0.9070 0.9397 0.5176
1.0000 0.9339 0.5540
0.1112 0.0631 0.5467
0.1502 0.0538 0.5511
0.2141 0.0469 0.5559
0.3013 0.0370 0.5569
0.3993 0.0205 0.5598
0.5229 0.0052 0.5583
0.6694 0.0000 0.5540
0.7691 0.0000 0.5447
0.7910 0.0000 0.5394
0.0997 0.1162 0.5540
0.1502 0.1162 0.5566
0.2141 0.1092 0.5569
0.3013 0.0994 0.5608
0.3993 0.0833 0.5617
0.5229 0.0676 0.5588
0.6751 0.0518 0.5540
0.7764 0.0425 0.5447
0.7973 0.0374 0.5394
0.0913 0.1766 0.5566
0.1380 0.1766 0.5588
0.2141 0.1754 0.5622
0.3013 0.1656 0.5647
0.3993 0.1490 0.5647
0.5229 0.1338 0.5593
0.6801 0.1185 0.5540
0.7808 0.1087 0.5447
0.8037 0.1036 0.5394
0.0788 0.2511 0.5627
0.1215 0.2511 0.5647
0.1964 0.2511 0.5676
0.3013 0.2476 0.5700
0.3993 0.2350 0.5681
0.5229 0.2197 0.5603
0.6844 0.2078 0.5540
0.7881 0.1971 0.5447
0.8113 0.1896 0.5394
0.0627 0.3566 0.5671
0.1008 0.3566 0.5685
0.1717 0.3566 0.5705
0.2841 0.3566 0.5729
0.3993 0.3520 0.5729
0.5229 0.3372 0.5617
0.6956 0.3289 0.5540
0.7998 0.3194 0.5447
0.8215 0.3145 0.5394
0.0355 0.5350 0.5583
0.0665 0.5350 0.5583
0.1215 0.5350 0.5583
0.2264 0.5350 0.5588
0.3631 0.5350 0.5588
0.5156 0.5350 0.5593
0.7130 0.5267 0.5540
0.8154 0.5214 0.5447
0.8462 0.5160 0.5394
0.0417 0.6852 0.5617
0.0727 0.6881 0.5617
0.1280 0.6941 0.5617
0.2380 0.7013 0.5617
0.3723 0.7081 0.5617
0.5258 0.7164 0.5617
0.7477 0.7139 0.5690
0.8545 0.7023 0.5705
0.9267 0.6960 0.5690
0.0471 0.8015 0.5661
0.0802 0.8069 0.5661
0.1393 0.8159 0.5661
0.2520 0.8273 0.5661
0.3808 0.8395 0.5661
0.5370 0.8576 0.5661
0.7594 0.8716 0.5807
0.8837 0.8633 0.6055
0.9844 0.8585 0.6070
0.0510 0.8643 0.5690
0.0838 0.8711 0.5690
0.1468 0.8799 0.5690
0.2595 0.8925 0.5690
0.3884 0.9086 0.5690
0.5485 0.9276 0.5690
0.7672 0.9480 0.5880
0.8915 0.9528 0.6191
1.0000 0.9455 0.6425
0.1443 0.0802 0.6653
0.1912 0.0749 0.6736
0.2551 0.0679 0.6838
0.3385 0.0542 0.6960
0.4361 0.0416 0.7086
0.5637 0.0223 0.7188
0.7433 0.0044 0.7237
0.8193 0.0000 0.7169
0.8428 0.0000 0.7120
0.1327 0.1372 0.6775
0.1912 0.1372 0.6814
0.2551 0.1304 0.6906
0.3385 0.1165 0.7018
0.4361 0.1039 0.7130
0.5637 0.0870 0.7212
0.7433 0.0667 0.7246
0.8225 0.0514 0.7169
0.8462 0.0463 0.7120
0.1215 0.1956 0.6891
0.1788 0.1956 0.6926
0.2551 0.1932 0.6979
0.3385 0.1827 0.7081
0.4361 0.1702 0.7173
0.5637 0.1508 0.7242
0.7433 0.1330 0.7251
0.8232 0.1176 0.7169
0.8526 0.1126 0.7120
0.1079 0.2721 0.7023
0.1624 0.2721 0.7057
0.2392 0.2721 0.7096
0.3385 0.2687 0.7159
0.4361 0.2522 0.7237
0.5637 0.2368 0.7276
0.7433 0.2189 0.7256
0.8271 0.2074 0.7169
0.8574 0.2023 0.7120
0.0872 0.3737 0.7178
0.1338 0.3737 0.7203
0.2125 0.3737 0.7232
0.3213 0.3737 0.7281
0.4361 0.3690 0.7329
0.5637 0.3537 0.7334
0.7433 0.3372 0.7266
0.8307 0.3284 0.7169
0.8696 0.3233 0.7120
0.0549 0.5481 0.7310
0.0917 0.5481 0.7319
0.1567 0.5481 0.7334
0.2673 0.5481 0.7354
0.3962 0.5481 0.7383
0.5564 0.5481 0.7412
0.7433 0.5371 0.7290
0.8389 0.5262 0.7169
0.8958 0.5215 0.7120
0.0353 0.7222 0.7242
0.0627 0.7222 0.7242
0.1177 0.7232 0.7242
0.2225 0.7232 0.7242
0.3590 0.7232 0.7242
0.5117 0.7232 0.7242
0.7314 0.7232 0.7242
0.8467 0.7154 0.7173
0.9177 0.7100 0.7120
0.0392 0.8517 0.7285
0.0699 0.8557 0.7285
0.1252 0.8604 0.7285
0.2338 0.8643 0.7285
0.3704 0.8701 0.7285
0.5233 0.8768 0.7285
0.7458 0.8852 0.7285
0.8701 0.8768 0.7344
0.9703 0.8711 0.7324
0.0431 0.9183 0.7315
0.0745 0.9222 0.7315
0.1327 0.9276 0.7315
0.2453 0.9344 0.7315
0.3741 0.9436 0.7315
0.5306 0.9509 0.7315
0.7536 0.9635 0.7315
0.8783 0.9669 0.7422
0.9938 0.9586 0.7538
0.1749 0.0966 0.7470
0.2220 0.0913 0.7587
0.2858 0.0804 0.7728
0.3653 0.0705 0.7908
0.4630 0.0540 0.8129
0.5944 0.0387 0.8326
0.7706 0.0168 0.8477
0.8545 0.0000 0.8545
0.9036 0.0000 0.8497
0.1635 0.1496 0.7635
0.2220 0.1496 0.7679
0.2858 0.1427 0.7811
0.3653 0.1329 0.7976
0.4630 0.1163 0.8195
0.5944 0.1010 0.8365
0.7706 0.0792 0.8497
0.8545 0.0608 0.8545
0.9061 0.0527 0.8497
0.1472 0.2102 0.7791
0.2096 0.2102 0.7835
0.2858 0.2090 0.7898
0.3653 0.1983 0.8054
0.4630 0.1826 0.8258
0.5944 0.1673 0.8409
0.7706 0.1454 0.8516
0.8545 0.1280 0.8545
0.9090 0.1205 0.8497
0.1308 0.2844 0.7976
0.1893 0.2844 0.8015
0.2680 0.2844 0.8064
0.3653 0.2810 0.8195
0.4630 0.2685 0.8341
0.5944 0.2493 0.8467
0.7706 0.2314 0.8545
0.8550 0.2139 0.8545
0.9133 0.2088 0.8497
0.1101 0.3843 0.8244
0.1646 0.3843 0.8278
0.2433 0.3843 0.8322
0.3480 0.3843 0.8380
0.4630 0.3817 0.8463
0.5944 0.3661 0.8550
0.7706 0.3483 0.8589
0.8560 0.3347 0.8545
0.9192 0.3296 0.8497
0.0718 0.5605 0.8535
0.1146 0.5605 0.8555
0.1854 0.5605 0.8579
0.2979 0.5605 0.8613
0.4229 0.5605 0.8657
0.5871 0.5605 0.8711
0.7706 0.5461 0.8672
0.8569 0.5325 0.8545
0.9348 0.5277 0.8497
0.0471 0.7383 0.8599
0.0809 0.7383 0.8604
0.1400 0.7383 0.8613
0.2527 0.7383 0.8628
0.3816 0.7383 0.8643
0.5379 0.7383 0.8667
0.7608 0.7383 0.8691
0.8584 0.7222 0.8545
0.9489 0.7164 0.8497
0.0353 0.8838 0.8555
0.0637 0.8843 0.8555
0.1188 0.8847 0.8555
0.2236 0.8852 0.8555
0.3602 0.8857 0.8555
0.5131 0.8867 0.8555
0.7343 0.8872 0.8555
0.8608 0.8867 0.8555
0.9586 0.8813 0.8506
0.0392 0.9494 0.8584
0.0673 0.9514 0.8584
0.1225 0.9533 0.8584
0.2311 0.9567 0.8584
0.3677 0.9611 0.8584
0.5204 0.9660 0.8584
0.7429 0.9723 0.8584
0.8681 0.9771 0.8589
0.9830 0.9684 0.8613
0.1956 0.1061 0.8034
0.2465 0.1008 0.8210
0.3062 0.0939 0.8380
0.3820 0.0801 0.8599
0.4837 0.0675 0.8880
0.6222 0.0483 0.9144
0.7876 0.0292 0.9372
0.8778 0.0084 0.9562
0.9607 0.0000 0.9601
0.1841 0.1631 0.8258
0.2465 0.1631 0.8312
0.3062 0.1522 0.8472
0.3820 0.1425 0.8681
0.4837 0.1299 0.8959
0.6222 0.1106 0.9192
0.7876 0.0927 0.9401
0.8778 0.0707 0.9572
0.9607 0.0605 0.9601
0.1718 0.2198 0.8448
0.2303 0.2198 0.8497
0.3062 0.2186 0.8574
0.3820 0.2086 0.8773
0.4837 0.1923 0.9032
0.6222 0.1769 0.9251
0.7876 0.1569 0.9462
0.8778 0.1370 0.9582
0.9616 0.1279 0.9601
0.1513 0.2939 0.8672
0.2137 0.2939 0.8716
0.2923 0.2939 0.8778
0.3820 0.2905 0.8930
0.4837 0.2781 0.9129
0.6222 0.2628 0.9319
0.7876 0.2408 0.9513
0.8778 0.2229 0.9596
0.9626 0.2137 0.9601
0.1268 0.3919 0.9007
0.1852 0.3919 0.9046
0.2639 0.3919 0.9095
0.3685 0.3919 0.9163
0.4837 0.3872 0.9275
0.6222 0.3758 0.9452
0.7876 0.3578 0.9582
0.8778 0.3398 0.9616
0.9645 0.3347 0.9601
0.0846 0.5661 0.9433
0.1313 0.5661 0.9481
0.2100 0.5661 0.9513
0.3188 0.5661 0.9557
0.4438 0.5661 0.9616
0.6114 0.5661 0.9684
0.7876 0.5554 0.9713
0.8778 0.5374 0.9659
0.9675 0.5325 0.9601
0.0587 0.7523 0.9621
0.0976 0.7523 0.9635
0.1646 0.7523 0.9650
0.2731 0.7523 0.9674
0.4020 0.7523 0.9703
0.5623 0.7523 0.9742
0.7774 0.7523 0.9786
0.8778 0.7344 0.9693
0.9693 0.7222 0.9601
0.0431 0.8954 0.9640
0.0745 0.8954 0.9645
0.1309 0.8954 0.9650
0.2434 0.8954 0.9659
0.3723 0.8954 0.9669
0.5287 0.8954 0.9684
0.7515 0.8954 0.9698
0.8772 0.8954 0.9713
0.9703 0.8867 0.9601
0.0353 0.9737 0.9611
0.0633 0.9737 0.9611
0.1185 0.9742 0.9611
0.2232 0.9747 0.9611
0.3599 0.9752 0.9611
0.5126 0.9757 0.9611
0.7333 0.9762 0.9611
0.8603 0.9767 0.9611
0.9722 0.9757 0.9611
