70 CGC LUTs/Film Emulation/Kodak Vision 2383.cube
#Created by: Denver Riddle
#Copyright: (C) Copyright Color Grading Central LLC
DOMAIN_MIN 0.0 0.0 0.0
DOMAIN_MAX 1.0 1.0 1.0
LUT_3D_SIZE 5
0.0205 0.0379 0.0000
0.0284 0.0362 0.0000
0.1364 0.0422 0.0000
0.1926 0.0467 0.0000
0.1122 0.0403 0.0000
0.0232 0.0468 0.0049
0.0656 0.0843 0.0000
0.3883 0.1027 0.0000
0.6448 0.1202 0.0000
0.6928 0.1233 0.0000
0.0358 0.0895 0.0095
0.0950 0.2749 0.0000
0.5412 0.5046 0.0000
0.8819 0.5210 0.0000
0.9436 0.5132 0.0000
0.0437 0.1276 0.0223
0.1796 0.4624 0.0000
0.3746 0.7174 0.0000
0.9539 0.9040 0.0000
1.0000 0.9046 0.0000
0.0359 0.1204 0.0408
0.2093 0.5370 0.0000
0.3259 0.7290 0.0000
0.8146 0.9519 0.0000
1.0000 0.9711 0.0000
0.0118 0.0353 0.0968
0.0039 0.0353 0.0896
0.1315 0.0384 0.0884
0.2948 0.0514 0.0826
0.3033 0.0519 0.0840
0.0078 0.0588 0.1351
0.0541 0.0823 0.1403
0.4070 0.1014 0.1285
0.6772 0.1194 0.1165
0.7331 0.1229 0.1153
0.0119 0.1720 0.1714
0.0378 0.2840 0.1712
0.5377 0.5081 0.1337
0.8856 0.5250 0.1162
0.9469 0.5173 0.1141
0.0532 0.3340 0.2049
0.1151 0.4983 0.1954
0.3540 0.7425 0.1209
0.9504 0.9075 0.1140
1.0000 0.9082 0.1118
0.0652 0.4093 0.2467
0.1379 0.5953 0.2387
0.2543 0.7850 0.1574
0.8103 0.9610 0.1367
1.0000 0.9746 0.1092
0.0118 0.0353 0.2413
0.0039 0.0353 0.3019
0.0955 0.0354 0.3417
0.3672 0.0375 0.3392
0.5154 0.0497 0.3357
0.0078 0.0588 0.4069
0.0431 0.0836 0.4543
0.2694 0.0555 0.4351
0.6945 0.0835 0.4244
0.8282 0.1000 0.4212
0.0000 0.2938 0.5207
0.0637 0.4006 0.5353
0.5285 0.5165 0.5453
0.8880 0.5311 0.5321
0.9524 0.5216 0.5325
0.0039 0.5887 0.5893
0.0469 0.7119 0.5923
0.2011 0.8092 0.5941
0.9403 0.9176 0.5392
1.0000 0.9183 0.5390
0.0438 0.7389 0.6501
0.0768 0.8345 0.6513
0.0923 0.8850 0.6559
0.8007 0.9869 0.5860
1.0000 0.9847 0.5368
0.0118 0.0353 0.3084
0.0000 0.0353 0.4704
0.0792 0.0354 0.6171
0.3723 0.0368 0.7226
0.6702 0.0396 0.7202
0.0078 0.0600 0.6200
0.0353 0.0856 0.7041
0.2449 0.0594 0.7698
0.6461 0.0576 0.7976
0.8906 0.0764 0.7929
0.0000 0.2982 0.8237
0.0608 0.4064 0.8553
0.4970 0.5226 0.8792
0.8414 0.3841 0.8626
0.9728 0.4244 0.8600
0.0820 0.7669 0.9074
0.1928 0.8398 0.9122
0.5652 0.8894 0.9176
0.9310 0.9270 0.9212
1.0000 0.9276 0.9178
0.0700 0.9045 0.9331
0.0940 0.9426 0.9364
0.2598 0.9660 0.9384
0.7091 0.9857 0.9395
1.0000 0.9941 0.9209
0.0118 0.0353 0.2553
0.0000 0.0353 0.4952
0.0670 0.0353 0.7334
0.3397 0.0367 0.8693
0.7398 0.0408 0.9344
0.0078 0.0619 0.6700
0.0301 0.0876 0.7804
0.2164 0.0633 0.8870
0.6157 0.0625 0.9345
0.8985 0.0778 0.9554
0.0000 0.3021 0.9156
0.0588 0.4120 0.9462
0.4651 0.5265 0.9683
0.8241 0.4027 0.9714
0.9672 0.3703 0.9732
0.1006 0.7697 0.9839
0.2006 0.8422 0.9878
0.5564 0.8914 0.9917
0.9230 0.9288 0.9956
0.9915 0.8822 0.9908
0.6257 0.9565 0.9956
0.6132 0.9743 0.9956
0.7757 0.9839 0.9956
0.9405 0.9917 0.9956
1.0000 0.9960 0.9954
