70 CGC LUTs/Film Emulation/LPP Tetrachrome 400.cube
#Created by: Denver Riddle
#Copyright: (C) Copyright Color Grading Central LLC
DOMAIN_MIN 0.0 0.0 0.0
DOMAIN_MAX 1.0 1.0 1.0
LUT_3D_SIZE 5
0.0975 0.0157 0.0157
0.2020 0.0157 0.0157
0.3720 0.0157 0.0157
0.4454 0.0157 0.0157
0.4599 0.0157 0.0157
0.0750 0.1568 0.0157
0.2619 0.1781 0.0157
0.4468 0.1780 0.0157
0.5325 0.1774 0.0157
0.5735 0.1770 0.0157
0.0157 0.2539 0.0157
0.1423 0.3143 0.0157
0.4955 0.3930 0.0157
0.6530 0.3955 0.0157
0.7529 0.3953 0.0157
0.0157 0.2727 0.0157
0.0545 0.3508 0.0157
0.4531 0.4833 0.0157
0.7313 0.5299 0.0579
0.8706 0.5294 0.0391
0.0157 0.2524 0.0157
0.0157 0.3501 0.0157
0.3758 0.5350 0.0157
0.6556 0.6872 0.0157
0.9513 0.7433 0.1202
0.0937 0.0157 0.2091
0.2422 0.0157 0.2223
0.4271 0.0157 0.1817
0.5111 0.0157 0.1412
0.5415 0.0157 0.1024
0.0801 0.1897 0.1977
0.2419 0.2177 0.2218
0.4446 0.2193 0.1817
0.5406 0.2188 0.1412
0.5880 0.2183 0.1024
0.0157 0.3114 0.0916
0.1211 0.3474 0.1159
0.4854 0.4284 0.2115
0.6464 0.4310 0.1935
0.7571 0.4306 0.1630
0.0157 0.3415 0.0162
0.0304 0.3812 0.0404
0.4375 0.5105 0.1454
0.7145 0.5665 0.2417
0.8646 0.5661 0.2194
0.0157 0.3353 0.0157
0.0157 0.3791 0.0157
0.3583 0.5596 0.0502
0.6359 0.7224 0.1759
0.9353 0.7874 0.2791
0.0515 0.0157 0.4223
0.2032 0.0157 0.4327
0.4775 0.0157 0.4584
0.5867 0.0157 0.4276
0.6546 0.0157 0.3966
0.0408 0.1580 0.4128
0.2028 0.1863 0.4323
0.4775 0.2193 0.4584
0.6036 0.2193 0.4276
0.6926 0.2188 0.3966
0.0468 0.3861 0.3779
0.1845 0.4102 0.3981
0.4717 0.4677 0.4493
0.6391 0.4722 0.4306
0.7616 0.4720 0.4005
0.0157 0.4431 0.3114
0.1177 0.4714 0.3367
0.4186 0.5460 0.3879
0.6945 0.6142 0.4550
0.8575 0.6138 0.4327
0.0157 0.4669 0.2183
0.0243 0.5000 0.2410
0.3378 0.5943 0.2997
0.6162 0.7654 0.3892
0.9154 0.8405 0.4621
0.0184 0.0157 0.5622
0.1742 0.0157 0.5739
0.4613 0.0157 0.6031
0.6576 0.0157 0.6191
0.7543 0.0157 0.5875
0.0157 0.1327 0.5524
0.1738 0.1612 0.5734
0.4613 0.1944 0.6031
0.6625 0.2197 0.6191
0.7796 0.2192 0.5875
0.0362 0.3743 0.5269
0.1727 0.3981 0.5469
0.4583 0.4540 0.5997
0.6697 0.4777 0.6191
0.8156 0.4776 0.5875
0.0740 0.5066 0.5017
0.1916 0.5294 0.5210
0.4472 0.5919 0.5704
0.6785 0.6546 0.6235
0.8516 0.6541 0.5924
0.0165 0.5596 0.4274
0.1209 0.5924 0.4461
0.3833 0.6853 0.4917
0.6017 0.7991 0.5435
0.8998 0.8808 0.6123
0.0157 0.0157 0.8190
0.1223 0.0157 0.8317
0.4337 0.0157 0.8599
0.6478 0.0157 0.8881
0.8896 0.0157 0.9106
0.0157 0.0924 0.8073
0.1217 0.1213 0.8317
0.4337 0.1550 0.8599
0.6478 0.1877 0.8881
0.8896 0.2151 0.9106
0.0157 0.3397 0.7801
0.1303 0.3645 0.8047
0.4311 0.4228 0.8565
0.6478 0.4528 0.8881
0.8896 0.4742 0.9106
0.0605 0.4896 0.7617
0.1747 0.5116 0.7821
0.4301 0.5695 0.8385
0.6478 0.6318 0.8881
0.8896 0.6590 0.9106
0.1956 0.7092 0.7266
0.2745 0.7388 0.7514
0.4549 0.8111 0.8047
0.6359 0.8794 0.8589
0.8789 0.9373 0.9036
