70 CGC LUTs/Film Emulation/LPP Tetrachrome 400.cube
#Created by: Denver Riddle
#Copyright: (C) Copyright Color Grading Central LLC
DOMAIN_MIN 0.0 0.0 0.0
DOMAIN_MAX 1.0 1.0 1.0
LUT_3D_SIZE 33
0.0975 0.0157 0.0157
0.0908 0.0157 0.0157
0.0889 0.0157 0.0157
0.0940 0.0157 0.0157
0.1043 0.0157 0.0157
0.1278 0.0157 0.0157
0.1520 0.0157 0.0157
0.1776 0.0157 0.0157
0.2020 0.0157 0.0157
0.2267 0.0157 0.0157
0.2515 0.0157 0.0157
0.2721 0.0157 0.0157
0.2946 0.0157 0.0157
0.3184 0.0157 0.0157
0.3384 0.0157 0.0157
0.3567 0.0157 0.0157
0.3720 0.0157 0.0157
0.3865 0.0157 0.0157
0.4031 0.0157 0.0157
0.4110 0.0157 0.0157
0.4197 0.0157 0.0157
0.4278 0.0157 0.0157
0.4351 0.0157 0.0157
0.4405 0.0157 0.0157
0.4454 0.0157 0.0157
0.4490 0.0157 0.0157
0.4527 0.0157 0.0157
0.4536 0.0157 0.0157
0.4551 0.0157 0.0157
0.4571 0.0157 0.0157
0.4587 0.0157 0.0157
0.4597 0.0157 0.0157
0.4599 0.0157 0.0157
0.1029 0.0348 0.0157
0.0967 0.0348 0.0157
0.0957 0.0348 0.0157
0.0993 0.0348 0.0157
0.1140 0.0348 0.0157
0.1346 0.0348 0.0157
0.1581 0.0347 0.0157
0.1845 0.0347 0.0157
0.2132 0.0346 0.0157
0.2371 0.0346 0.0157
0.2619 0.0345 0.0157
0.2843 0.0344 0.0157
0.3071 0.0344 0.0157
0.3271 0.0343 0.0157
0.3478 0.0342 0.0157
0.3665 0.0341 0.0157
0.3820 0.0341 0.0157
0.4002 0.0340 0.0157
0.4108 0.0339 0.0157
0.4222 0.0338 0.0157
0.4313 0.0338 0.0157
0.4397 0.0337 0.0157
0.4472 0.0336 0.0157
0.4529 0.0336 0.0157
0.4551 0.0335 0.0157
0.4591 0.0335 0.0157
0.4632 0.0334 0.0157
0.4666 0.0334 0.0157
0.4694 0.0333 0.0157
0.4719 0.0332 0.0157
0.4739 0.0332 0.0157
0.4753 0.0331 0.0157
0.4759 0.0331 0.0157
0.1111 0.0541 0.0157
0.1016 0.0542 0.0157
0.1006 0.0542 0.0157
0.1043 0.0542 0.0157
0.1190 0.0541 0.0157
0.1401 0.0541 0.0157
0.1648 0.0540 0.0157
0.1945 0.0540 0.0157
0.2199 0.0539 0.0157
0.2441 0.0539 0.0157
0.2693 0.0538 0.0157
0.2920 0.0537 0.0157
0.3153 0.0537 0.0157
0.3396 0.0536 0.0157
0.3567 0.0535 0.0157
0.3760 0.0534 0.0157
0.3931 0.0534 0.0157
0.4077 0.0533 0.0157
0.4212 0.0532 0.0157
0.4330 0.0531 0.0157
0.4426 0.0531 0.0157
0.4512 0.0530 0.0157
0.4559 0.0529 0.0157
0.4622 0.0529 0.0157
0.4678 0.0528 0.0157
0.4721 0.0528 0.0157
0.4761 0.0527 0.0157
0.4771 0.0527 0.0157
0.4802 0.0526 0.0157
0.4830 0.0526 0.0157
0.4856 0.0525 0.0157
0.4873 0.0525 0.0157
0.4885 0.0524 0.0157
0.1175 0.0762 0.0157
0.1089 0.0762 0.0157
0.1068 0.0762 0.0157
0.1138 0.0762 0.0157
0.1276 0.0762 0.0157
0.1496 0.0762 0.0157
0.1745 0.0761 0.0157
0.2014 0.0760 0.0157
0.2297 0.0760 0.0157
0.2551 0.0759 0.0157
0.2814 0.0759 0.0157
0.3020 0.0758 0.0157
0.3243 0.0757 0.0157
0.3489 0.0757 0.0157
0.3665 0.0756 0.0157
0.3863 0.0755 0.0157
0.4059 0.0754 0.0157
0.4180 0.0754 0.0157
0.4326 0.0753 0.0157
0.4450 0.0752 0.0157
0.4536 0.0751 0.0157
0.4607 0.0751 0.0157
0.4694 0.0750 0.0157
0.4759 0.0749 0.0157
0.4787 0.0749 0.0157
0.4834 0.0748 0.0157
0.4885 0.0748 0.0157
0.4922 0.0747 0.0157
0.4929 0.0747 0.0157
0.4963 0.0746 0.0157
0.4992 0.0746 0.0157
0.5012 0.0745 0.0157
0.5028 0.0744 0.0157
0.1193 0.0926 0.0157
0.1058 0.0919 0.0157
0.1037 0.0919 0.0157
0.1136 0.0922 0.0157
0.1326 0.0929 0.0157
0.1544 0.0929 0.0157
0.1790 0.0929 0.0157
0.2081 0.0928 0.0157
0.2365 0.0927 0.0157
0.2614 0.0927 0.0157
0.2875 0.0926 0.0157
0.3108 0.0925 0.0157
0.3322 0.0925 0.0157
0.3560 0.0924 0.0157
0.3738 0.0923 0.0157
0.3969 0.0923 0.0157
0.4104 0.0922 0.0157
0.4263 0.0921 0.0157
0.4411 0.0921 0.0157
0.4536 0.0919 0.0157
0.4607 0.0919 0.0157
0.4704 0.0918 0.0157
0.4761 0.0917 0.0157
0.4828 0.0917 0.0157
0.4894 0.0917 0.0157
0.4922 0.0916 0.0157
0.4965 0.0915 0.0157
0.5006 0.0915 0.0157
0.5048 0.0915 0.0157
0.5085 0.0914 0.0157
0.5112 0.0914 0.0157
0.5112 0.0913 0.0157
0.5132 0.0912 0.0157
0.1118 0.1092 0.0157
0.0978 0.1078 0.0157
0.0961 0.1076 0.0157
0.1022 0.1084 0.0157
0.1254 0.1101 0.0157
0.1588 0.1119 0.0157
0.1838 0.1118 0.0157
0.2156 0.1117 0.0157
0.2421 0.1117 0.0157
0.2674 0.1117 0.0157
0.2937 0.1116 0.0157
0.3174 0.1115 0.0157
0.3416 0.1115 0.0157
0.3633 0.1114 0.0157
0.3816 0.1113 0.0157
0.4053 0.1112 0.0157
0.4188 0.1111 0.0157
0.4351 0.1111 0.0157
0.4504 0.1110 0.0157
0.4601 0.1109 0.0157
0.4710 0.1109 0.0157
0.4777 0.1108 0.0157
0.4871 0.1107 0.0157
0.4922 0.1107 0.0157
0.4981 0.1106 0.0157
0.5031 0.1106 0.0157
0.5091 0.1105 0.0157
0.5112 0.1105 0.0157
0.5149 0.1104 0.0157
0.5191 0.1104 0.0157
0.5229 0.1103 0.0157
0.5244 0.1102 0.0157
0.5248 0.1102 0.0157
0.1001 0.1238 0.0157
0.0871 0.1221 0.0157
0.0838 0.1218 0.0157
0.0940 0.1228 0.0157
0.1158 0.1255 0.0157
0.1520 0.1287 0.0157
0.1925 0.1308 0.0157
0.2207 0.1307 0.0157
0.2476 0.1307 0.0157
0.2742 0.1307 0.0157
0.3006 0.1306 0.0157
0.3238 0.1305 0.0157
0.3485 0.1305 0.0157
0.3707 0.1304 0.0157
0.3893 0.1304 0.0157
0.4099 0.1302 0.0157
0.4271 0.1302 0.0157
0.4438 0.1301 0.0157
0.4563 0.1300 0.0157
0.4700 0.1300 0.0157
0.4779 0.1299 0.0157
0.4883 0.1298 0.0157
0.4949 0.1298 0.0157
0.5022 0.1297 0.0157
0.5096 0.1296 0.0157
0.5119 0.1296 0.0157
0.5185 0.1295 0.0157
0.5233 0.1295 0.0157
0.5248 0.1294 0.0157
0.5295 0.1294 0.0157
0.5342 0.1293 0.0157
0.5376 0.1293 0.0157
0.5406 0.1292 0.0157
0.0887 0.1398 0.0157
0.0757 0.1380 0.0157
0.0730 0.1376 0.0157
0.0801 0.1387 0.0157
0.1020 0.1419 0.0157
0.1389 0.1466 0.0157
0.1805 0.1505 0.0157
0.2277 0.1531 0.0157
0.2574 0.1529 0.0157
0.2836 0.1529 0.0157
0.3107 0.1528 0.0157
0.3331 0.1528 0.0157
0.3562 0.1528 0.0157
0.3788 0.1527 0.0157
0.4010 0.1526 0.0157
0.4188 0.1526 0.0157
0.4365 0.1524 0.0157
0.4535 0.1524 0.0157
0.4668 0.1523 0.0157
0.4777 0.1523 0.0157
0.4894 0.1522 0.0157
0.4971 0.1522 0.0157
0.5075 0.1521 0.0157
0.5123 0.1521 0.0157
0.5204 0.1519 0.0157
0.5244 0.1519 0.0157
0.5299 0.1518 0.0157
0.5355 0.1518 0.0157
0.5410 0.1518 0.0157
0.5427 0.1517 0.0157
0.5482 0.1517 0.0157
0.5520 0.1515 0.0157
0.5554 0.1515 0.0157
0.0750 0.1568 0.0157
0.0604 0.1545 0.0157
0.0587 0.1542 0.0157
0.0648 0.1555 0.0157
0.0897 0.1593 0.0157
0.1258 0.1648 0.0157
0.1691 0.1708 0.0157
0.2172 0.1754 0.0157
0.2619 0.1781 0.0157
0.2903 0.1784 0.0157
0.3181 0.1784 0.0157
0.3428 0.1783 0.0157
0.3647 0.1783 0.0157
0.3878 0.1781 0.0157
0.4077 0.1781 0.0157
0.4285 0.1780 0.0157
0.4468 0.1780 0.0157
0.4611 0.1779 0.0157
0.4761 0.1778 0.0157
0.4900 0.1778 0.0157
0.4990 0.1776 0.0157
0.5104 0.1776 0.0157
0.5185 0.1775 0.0157
0.5244 0.1775 0.0157
0.5325 0.1774 0.0157
0.5393 0.1774 0.0157
0.5435 0.1774 0.0157
0.5499 0.1772 0.0157
0.5559 0.1772 0.0157
0.5586 0.1771 0.0157
0.5642 0.1771 0.0157
0.5687 0.1770 0.0157
0.5735 0.1770 0.0157
0.0598 0.1725 0.0157
0.0451 0.1699 0.0157
0.0435 0.1695 0.0157
0.0536 0.1709 0.0157
0.0757 0.1752 0.0157
0.1123 0.1816 0.0157
0.1553 0.1886 0.0157
0.2033 0.1957 0.0157
0.2498 0.2000 0.0157
0.2928 0.2028 0.0157
0.3247 0.2035 0.0157
0.3501 0.2035 0.0157
0.3724 0.2034 0.0157
0.3993 0.2034 0.0157
0.4156 0.2032 0.0157
0.4377 0.2032 0.0157
0.4536 0.2031 0.0157
0.4715 0.2030 0.0157
0.4862 0.2030 0.0157
0.4985 0.2028 0.0157
0.5112 0.2028 0.0157
0.5209 0.2027 0.0157
0.5291 0.2027 0.0157
0.5389 0.2026 0.0157
0.5448 0.2026 0.0157
0.5520 0.2024 0.0157
0.5586 0.2024 0.0157
0.5637 0.2024 0.0157
0.5708 0.2023 0.0157
0.5773 0.2023 0.0157
0.5802 0.2022 0.0157
0.5858 0.2022 0.0157
0.5914 0.2021 0.0157
0.0417 0.1900 0.0157
0.0270 0.1871 0.0157
0.0254 0.1867 0.0157
0.0344 0.1884 0.0157
0.0576 0.1932 0.0157
0.0947 0.2006 0.0157
0.1375 0.2089 0.0157
0.1878 0.2176 0.0157
0.2372 0.2250 0.0157
0.2821 0.2298 0.0157
0.3247 0.2332 0.0157
0.3585 0.2347 0.0157
0.3812 0.2346 0.0157
0.4077 0.2346 0.0157
0.4258 0.2345 0.0157
0.4486 0.2345 0.0157
0.4650 0.2344 0.0157
0.4808 0.2344 0.0157
0.4965 0.2342 0.0157
0.5112 0.2341 0.0157
0.5233 0.2341 0.0157
0.5333 0.2340 0.0157
0.5431 0.2340 0.0157
0.5537 0.2339 0.0157
0.5601 0.2339 0.0157
0.5687 0.2339 0.0157
0.5781 0.2337 0.0157
0.5822 0.2337 0.0157
0.5900 0.2336 0.0157
0.5979 0.2336 0.0157
0.6025 0.2335 0.0157
0.6084 0.2335 0.0157
0.6152 0.2335 0.0157
0.0237 0.2055 0.0157
0.0157 0.2023 0.0157
0.0157 0.2017 0.0157
0.0177 0.2036 0.0157
0.0396 0.2090 0.0157
0.0768 0.2176 0.0157
0.1197 0.2270 0.0157
0.1724 0.2370 0.0157
0.2199 0.2458 0.0157
0.2662 0.2533 0.0157
0.3142 0.2593 0.0157
0.3535 0.2625 0.0157
0.3895 0.2652 0.0157
0.4144 0.2651 0.0157
0.4351 0.2651 0.0157
0.4553 0.2650 0.0157
0.4757 0.2648 0.0157
0.4922 0.2648 0.0157
0.5091 0.2647 0.0157
0.5233 0.2647 0.0157
0.5350 0.2646 0.0157
0.5461 0.2646 0.0157
0.5586 0.2645 0.0157
0.5683 0.2645 0.0157
0.5794 0.2643 0.0157
0.5850 0.2643 0.0157
0.5957 0.2643 0.0157
0.6025 0.2642 0.0157
0.6094 0.2642 0.0157
0.6182 0.2641 0.0157
0.6274 0.2641 0.0157
0.6338 0.2640 0.0157
0.6391 0.2640 0.0157
0.0157 0.2193 0.0157
0.0157 0.2156 0.0157
0.0157 0.2151 0.0157
0.0157 0.2172 0.0157
0.0216 0.2232 0.0157
0.0588 0.2324 0.0157
0.1018 0.2429 0.0157
0.1547 0.2541 0.0157
0.2025 0.2645 0.0157
0.2501 0.2735 0.0157
0.2988 0.2822 0.0157
0.3432 0.2880 0.0157
0.3810 0.2915 0.0157
0.4218 0.2949 0.0157
0.4438 0.2951 0.0157
0.4650 0.2949 0.0157
0.4828 0.2949 0.0157
0.5005 0.2949 0.0157
0.5183 0.2946 0.0157
0.5333 0.2946 0.0157
0.5461 0.2946 0.0157
0.5586 0.2946 0.0157
0.5735 0.2944 0.0157
0.5827 0.2944 0.0157
0.5953 0.2944 0.0157
0.6025 0.2944 0.0157
0.6128 0.2944 0.0157
0.6230 0.2941 0.0157
0.6328 0.2941 0.0157
0.6391 0.2941 0.0157
0.6488 0.2941 0.0157
0.6576 0.2939 0.0157
0.6663 0.2939 0.0157
0.0157 0.2311 0.0157
0.0157 0.2272 0.0157
0.0157 0.2266 0.0157
0.0157 0.2288 0.0157
0.0157 0.2354 0.0157
0.0408 0.2454 0.0157
0.0844 0.2567 0.0157
0.1370 0.2693 0.0157
0.1863 0.2808 0.0157
0.2363 0.2910 0.0157
0.2862 0.3013 0.0157
0.3281 0.3097 0.0157
0.3712 0.3163 0.0157
0.4125 0.3205 0.0157
0.4480 0.3237 0.0157
0.4735 0.3241 0.0157
0.4922 0.3241 0.0157
0.5109 0.3241 0.0157
0.5265 0.3239 0.0157
0.5431 0.3239 0.0157
0.5586 0.3239 0.0157
0.5735 0.3239 0.0157
0.5863 0.3237 0.0157
0.6002 0.3237 0.0157
0.6099 0.3237 0.0157
0.6211 0.3237 0.0157
0.6337 0.3237 0.0157
0.6410 0.3235 0.0157
0.6519 0.3235 0.0157
0.6625 0.3235 0.0157
0.6746 0.3235 0.0157
0.6795 0.3232 0.0157
0.6894 0.3232 0.0157
0.0157 0.2401 0.0157
0.0157 0.2361 0.0157
0.0157 0.2355 0.0157
0.0157 0.2378 0.0157
0.0157 0.2446 0.0157
0.0244 0.2553 0.0157
0.0683 0.2677 0.0157
0.1207 0.2812 0.0157
0.1732 0.2939 0.0157
0.2205 0.3053 0.0157
0.2709 0.3167 0.0157
0.3171 0.3262 0.0157
0.3613 0.3353 0.0157
0.4074 0.3419 0.0157
0.4397 0.3458 0.0157
0.4761 0.3495 0.0157
0.4973 0.3497 0.0157
0.5170 0.3497 0.0157
0.5367 0.3497 0.0157
0.5542 0.3497 0.0157
0.5691 0.3495 0.0157
0.5832 0.3495 0.0157
0.6007 0.3495 0.0157
0.6123 0.3495 0.0157
0.6264 0.3492 0.0157
0.6348 0.3492 0.0157
0.6483 0.3492 0.0157
0.6600 0.3492 0.0157
0.6718 0.3492 0.0157
0.6795 0.3490 0.0157
0.6921 0.3490 0.0157
0.7026 0.3490 0.0157
0.7135 0.3490 0.0157
0.0157 0.2482 0.0157
0.0157 0.2438 0.0157
0.0157 0.2430 0.0157
0.0157 0.2455 0.0157
0.0157 0.2527 0.0157
0.0157 0.2642 0.0157
0.0553 0.2775 0.0157
0.1043 0.2917 0.0157
0.1570 0.3053 0.0157
0.2051 0.3180 0.0157
0.2594 0.3305 0.0157
0.3051 0.3410 0.0157
0.3508 0.3515 0.0157
0.3985 0.3616 0.0157
0.4315 0.3665 0.0157
0.4706 0.3712 0.0157
0.5022 0.3743 0.0157
0.5244 0.3747 0.0157
0.5431 0.3747 0.0157
0.5614 0.3745 0.0157
0.5801 0.3745 0.0157
0.5962 0.3745 0.0157
0.6114 0.3745 0.0157
0.6274 0.3743 0.0157
0.6391 0.3743 0.0157
0.6519 0.3743 0.0157
0.6663 0.3743 0.0157
0.6750 0.3743 0.0157
0.6878 0.3741 0.0157
0.7004 0.3741 0.0157
0.7140 0.3741 0.0157
0.7252 0.3741 0.0157
0.7373 0.3738 0.0157
0.0157 0.2539 0.0157
0.0157 0.2495 0.0157
0.0157 0.2488 0.0157
0.0157 0.2512 0.0157
0.0157 0.2589 0.0157
0.0157 0.2709 0.0157
0.0403 0.2849 0.0157
0.0937 0.3001 0.0157
0.1423 0.3143 0.0157
0.1943 0.3277 0.0157
0.2454 0.3413 0.0157
0.2922 0.3529 0.0157
0.3412 0.3643 0.0157
0.3860 0.3754 0.0157
0.4242 0.3836 0.0157
0.4637 0.3892 0.0157
0.4955 0.3930 0.0157
0.5291 0.3960 0.0184
0.5512 0.3960 0.0157
0.5708 0.3960 0.0157
0.5871 0.3958 0.0157
0.6036 0.3958 0.0157
0.6240 0.3958 0.0157
0.6365 0.3958 0.0157
0.6530 0.3955 0.0157
0.6668 0.3955 0.0157
0.6775 0.3955 0.0157
0.6916 0.3955 0.0157
0.7047 0.3955 0.0157
0.7181 0.3953 0.0157
0.7323 0.3953 0.0157
0.7444 0.3953 0.0157
0.7529 0.3953 0.0157
0.0157 0.2590 0.0157
0.0157 0.2541 0.0157
0.0157 0.2534 0.0157
0.0157 0.2562 0.0157
0.0157 0.2642 0.0157
0.0157 0.2767 0.0157
0.0253 0.2910 0.0157
0.0787 0.3073 0.0157
0.1316 0.3226 0.0157
0.1796 0.3365 0.0157
0.2351 0.3511 0.0157
0.2823 0.3633 0.0157
0.3281 0.3759 0.0157
0.3772 0.3883 0.0157
0.4158 0.3979 0.0157
0.4563 0.4060 0.0157
0.4915 0.4107 0.0157
0.5244 0.4145 0.0157
0.5586 0.4169 0.0226
0.5794 0.4169 0.0189
0.5970 0.4167 0.0157
0.6148 0.4167 0.0157
0.6338 0.4167 0.0157
0.6493 0.4167 0.0157
0.6668 0.4165 0.0157
0.6770 0.4165 0.0157
0.6931 0.4165 0.0157
0.7072 0.4165 0.0157
0.7213 0.4165 0.0157
0.7356 0.4163 0.0157
0.7505 0.4163 0.0157
0.7592 0.4163 0.0157
0.7728 0.4163 0.0157
0.0157 0.2628 0.0157
0.0157 0.2577 0.0157
0.0157 0.2570 0.0157
0.0157 0.2599 0.0157
0.0157 0.2681 0.0157
0.0157 0.2810 0.0157
0.0160 0.2961 0.0157
0.0652 0.3130 0.0157
0.1182 0.3287 0.0157
0.1697 0.3433 0.0157
0.2222 0.3586 0.0157
0.2698 0.3716 0.0157
0.3197 0.3847 0.0157
0.3692 0.3981 0.0157
0.4082 0.4087 0.0157
0.4531 0.4196 0.0157
0.4852 0.4248 0.0157
0.5189 0.4292 0.0157
0.5554 0.4329 0.0200
0.5832 0.4344 0.0263
0.6025 0.4344 0.0231
0.6240 0.4344 0.0199
0.6420 0.4342 0.0167
0.6600 0.4342 0.0157
0.6748 0.4342 0.0157
0.6889 0.4342 0.0157
0.7057 0.4342 0.0157
0.7208 0.4340 0.0157
0.7351 0.4340 0.0157
0.7505 0.4340 0.0157
0.7616 0.4340 0.0157
0.7748 0.4338 0.0157
0.7889 0.4338 0.0157
0.0157 0.2658 0.0157
0.0157 0.2608 0.0157
0.0157 0.2599 0.0157
0.0157 0.2629 0.0157
0.0157 0.2714 0.0157
0.0157 0.2847 0.0157
0.0157 0.3001 0.0157
0.0559 0.3177 0.0157
0.1050 0.3342 0.0157
0.1573 0.3495 0.0157
0.2132 0.3652 0.0157
0.2612 0.3791 0.0157
0.3114 0.3930 0.0157
0.3611 0.4072 0.0157
0.4040 0.4185 0.0157
0.4460 0.4304 0.0157
0.4790 0.4383 0.0157
0.5123 0.4435 0.0157
0.5491 0.4477 0.0157
0.5841 0.4506 0.0279
0.6099 0.4514 0.0308
0.6328 0.4514 0.0277
0.6514 0.4514 0.0245
0.6707 0.4514 0.0218
0.6853 0.4514 0.0191
0.7004 0.4512 0.0168
0.7181 0.4512 0.0157
0.7334 0.4512 0.0157
0.7488 0.4512 0.0157
0.7597 0.4510 0.0157
0.7763 0.4510 0.0157
0.7899 0.4510 0.0157
0.8049 0.4510 0.0157
0.0157 0.2680 0.0157
0.0157 0.2628 0.0157
0.0157 0.2620 0.0157
0.0157 0.2650 0.0157
0.0157 0.2737 0.0157
0.0157 0.2873 0.0157
0.0157 0.3031 0.0157
0.0438 0.3212 0.0157
0.0970 0.3381 0.0157
0.1484 0.3540 0.0157
0.2015 0.3706 0.0157
0.2510 0.3847 0.0157
0.3013 0.3992 0.0157
0.3542 0.4143 0.0157
0.3974 0.4261 0.0157
0.4397 0.4389 0.0157
0.4761 0.4491 0.0157
0.5104 0.4548 0.0157
0.5431 0.4595 0.0157
0.5801 0.4633 0.0229
0.6143 0.4659 0.0355
0.6359 0.4661 0.0344
0.6595 0.4661 0.0314
0.6755 0.4661 0.0287
0.6945 0.4659 0.0261
0.7103 0.4659 0.0239
0.7281 0.4659 0.0212
0.7444 0.4659 0.0188
0.7560 0.4659 0.0163
0.7719 0.4657 0.0157
0.7889 0.4657 0.0157
0.8028 0.4657 0.0157
0.8176 0.4657 0.0157
0.0157 0.2699 0.0157
0.0157 0.2646 0.0157
0.0157 0.2637 0.0157
0.0157 0.2668 0.0157
0.0157 0.2758 0.0157
0.0157 0.2899 0.0157
0.0157 0.3063 0.0157
0.0331 0.3246 0.0157
0.0844 0.3422 0.0157
0.1367 0.3588 0.0157
0.1930 0.3759 0.0157
0.2414 0.3907 0.0157
0.2921 0.4058 0.0157
0.3464 0.4214 0.0157
0.3867 0.4342 0.0157
0.4328 0.4479 0.0157
0.4698 0.4587 0.0157
0.5043 0.4675 0.0157
0.5401 0.4728 0.0157
0.5749 0.4770 0.0172
0.6070 0.4799 0.0299
0.6439 0.4823 0.0422
0.6683 0.4823 0.0392
0.6848 0.4823 0.0366
0.7047 0.4821 0.0341
0.7208 0.4821 0.0319
0.7398 0.4821 0.0294
0.7519 0.4821 0.0270
0.7681 0.4821 0.0246
0.7841 0.4819 0.0220
0.8017 0.4819 0.0190
0.8161 0.4819 0.0165
0.8317 0.4819 0.0157
0.0157 0.2713 0.0157
0.0157 0.2658 0.0157
0.0157 0.2650 0.0157
0.0157 0.2681 0.0157
0.0157 0.2773 0.0157
0.0157 0.2917 0.0157
0.0157 0.3087 0.0157
0.0224 0.3277 0.0157
0.0756 0.3456 0.0157
0.1268 0.3624 0.0157
0.1808 0.3802 0.0157
0.2335 0.3955 0.0157
0.2845 0.4115 0.0157
0.3391 0.4278 0.0157
0.3797 0.4409 0.0157
0.4261 0.4556 0.0157
0.4635 0.4677 0.0157
0.4985 0.4783 0.0157
0.5342 0.4849 0.0157
0.5687 0.4896 0.0157
0.6025 0.4932 0.0247
0.6375 0.4962 0.0376
0.6748 0.4980 0.0468
0.6931 0.4980 0.0443
0.7135 0.4978 0.0418
0.7307 0.4978 0.0397
0.7499 0.4978 0.0372
0.7621 0.4978 0.0349
0.7791 0.4978 0.0326
0.7962 0.4976 0.0301
0.8142 0.4976 0.0272
0.8288 0.4976 0.0247
0.8448 0.4976 0.0218
0.0157 0.2721 0.0157
0.0157 0.2666 0.0157
0.0157 0.2657 0.0157
0.0157 0.2690 0.0157
0.0157 0.2783 0.0157
0.0157 0.2929 0.0157
0.0157 0.3104 0.0157
0.0157 0.3299 0.0157
0.0636 0.3483 0.0157
0.1165 0.3656 0.0157
0.1730 0.3838 0.0157
0.2219 0.3998 0.0157
0.2745 0.4161 0.0157
0.3286 0.4331 0.0157
0.3729 0.4471 0.0157
0.4199 0.4625 0.0157
0.4571 0.4752 0.0157
0.4925 0.4867 0.0157
0.5286 0.4960 0.0157
0.5628 0.5007 0.0157
0.5975 0.5049 0.0198
0.6338 0.5086 0.0329
0.6746 0.5112 0.0463
0.7010 0.5120 0.0516
0.7219 0.5120 0.0492
0.7393 0.5120 0.0471
0.7549 0.5120 0.0447
0.7723 0.5120 0.0425
0.7894 0.5120 0.0401
0.8064 0.5120 0.0377
0.8248 0.5120 0.0349
0.8400 0.5120 0.0325
0.8570 0.5116 0.0297
0.0157 0.2727 0.0157
0.0157 0.2671 0.0157
0.0157 0.2662 0.0157
0.0157 0.2694 0.0157
0.0157 0.2791 0.0157
0.0157 0.2941 0.0157
0.0157 0.3120 0.0157
0.0157 0.3319 0.0157
0.0545 0.3508 0.0157
0.1032 0.3688 0.0157
0.1600 0.3877 0.0157
0.2130 0.4041 0.0157
0.2648 0.4211 0.0157
0.3204 0.4387 0.0157
0.3651 0.4534 0.0157
0.4125 0.4699 0.0157
0.4531 0.4833 0.0157
0.4885 0.4962 0.0157
0.5244 0.5079 0.0157
0.5586 0.5142 0.0157
0.5905 0.5188 0.0157
0.6274 0.5229 0.0272
0.6663 0.5260 0.0408
0.7004 0.5286 0.0525
0.7313 0.5299 0.0579
0.7494 0.5299 0.0559
0.7653 0.5299 0.0536
0.7830 0.5299 0.0514
0.8006 0.5299 0.0492
0.8181 0.5299 0.0469
0.8375 0.5294 0.0442
0.8531 0.5294 0.0418
0.8706 0.5294 0.0391
0.0157 0.2729 0.0157
0.0157 0.2670 0.0157
0.0157 0.2662 0.0157
0.0157 0.2696 0.0157
0.0157 0.2793 0.0157
0.0157 0.2949 0.0157
0.0157 0.3130 0.0157
0.0157 0.3335 0.0157
0.0411 0.3531 0.0157
0.0941 0.3714 0.0157
0.1510 0.3909 0.0157
0.2002 0.4079 0.0157
0.2558 0.4253 0.0157
0.3122 0.4439 0.0157
0.3574 0.4589 0.0157
0.4077 0.4764 0.0157
0.4462 0.4910 0.0157
0.4812 0.5044 0.0157
0.5181 0.5176 0.0157
0.5529 0.5269 0.0157
0.5832 0.5324 0.0157
0.6196 0.5371 0.0216
0.6585 0.5413 0.0353
0.6926 0.5443 0.0471
0.7307 0.5469 0.0590
0.7543 0.5482 0.0650
0.7753 0.5482 0.0627
0.7934 0.5482 0.0606
0.8116 0.5477 0.0585
0.8297 0.5477 0.0562
0.8497 0.5477 0.0536
0.8657 0.5477 0.0513
0.8835 0.5477 0.0487
0.0157 0.2725 0.0157
0.0157 0.2665 0.0157
0.0157 0.2657 0.0157
0.0157 0.2691 0.0157
0.0157 0.2791 0.0157
0.0157 0.2949 0.0157
0.0157 0.3136 0.0157
0.0157 0.3346 0.0157
0.0278 0.3547 0.0157
0.0808 0.3736 0.0157
0.1379 0.3934 0.0157
0.1906 0.4111 0.0157
0.2436 0.4290 0.0157
0.3009 0.4483 0.0157
0.3494 0.4643 0.0157
0.4008 0.4825 0.0157
0.4389 0.4980 0.0157
0.4761 0.5125 0.0157
0.5112 0.5264 0.0157
0.5457 0.5388 0.0157
0.5798 0.5460 0.0157
0.6118 0.5511 0.0160
0.6503 0.5558 0.0298
0.6843 0.5592 0.0417
0.7230 0.5627 0.0537
0.7519 0.5651 0.0641
0.7846 0.5665 0.0762
0.8039 0.5665 0.0731
0.8221 0.5665 0.0690
0.8404 0.5665 0.0657
0.8609 0.5665 0.0632
0.8774 0.5665 0.0610
0.8959 0.5665 0.0584
0.0157 0.2715 0.0157
0.0157 0.2653 0.0157
0.0157 0.2643 0.0157
0.0157 0.2679 0.0157
0.0157 0.2782 0.0157
0.0157 0.2944 0.0157
0.0157 0.3136 0.0157
0.0157 0.3353 0.0157
0.0164 0.3561 0.0157
