70 CGC LUTs/Film Emulation/LPP Tetrachrome 400.cube
#Created by: Denver Riddle
#Copyright: (C) Copyright Color Grading Central LLC
DOMAIN_MIN 0.0 0.0 0.0
DOMAIN_MAX 1.0 1.0 1.0
LUT_3D_SIZE 9
0.0975 0.0157 0.0157
0.1043 0.0157 0.0157
0.2020 0.0157 0.0157
0.2946 0.0157 0.0157
0.3720 0.0157 0.0157
0.4197 0.0157 0.0157
0.4454 0.0157 0.0157
0.4551 0.0157 0.0157
0.4599 0.0157 0.0157
0.1193 0.0926 0.0157
0.1326 0.0929 0.0157
0.2365 0.0927 0.0157
0.3322 0.0925 0.0157
0.4104 0.0922 0.0157
0.4607 0.0919 0.0157
0.4894 0.0917 0.0157
0.5048 0.0915 0.0157
0.5132 0.0912 0.0157
0.0750 0.1568 0.0157
0.0897 0.1593 0.0157
0.2619 0.1781 0.0157
0.3647 0.1783 0.0157
0.4468 0.1780 0.0157
0.4990 0.1776 0.0157
0.5325 0.1774 0.0157
0.5559 0.1772 0.0157
0.5735 0.1770 0.0157
0.0157 0.2193 0.0157
0.0216 0.2232 0.0157
0.2025 0.2645 0.0157
0.3810 0.2915 0.0157
0.4828 0.2949 0.0157
0.5461 0.2946 0.0157
0.5953 0.2944 0.0157
0.6328 0.2941 0.0157
0.6663 0.2939 0.0157
0.0157 0.2539 0.0157
0.0157 0.2589 0.0157
0.1423 0.3143 0.0157
0.3412 0.3643 0.0157
0.4955 0.3930 0.0157
0.5871 0.3958 0.0157
0.6530 0.3955 0.0157
0.7047 0.3955 0.0157
0.7529 0.3953 0.0157
0.0157 0.2680 0.0157
0.0157 0.2737 0.0157
0.0970 0.3381 0.0157
0.3013 0.3992 0.0157
0.4761 0.4491 0.0157
0.6143 0.4659 0.0355
0.6945 0.4659 0.0261
0.7560 0.4659 0.0163
0.8176 0.4657 0.0157
0.0157 0.2727 0.0157
0.0157 0.2791 0.0157
0.0545 0.3508 0.0157
0.2648 0.4211 0.0157
0.4531 0.4833 0.0157
0.5905 0.5188 0.0157
0.7313 0.5299 0.0579
0.8006 0.5299 0.0492
0.8706 0.5294 0.0391
0.0157 0.2697 0.0157
0.0157 0.2766 0.0157
0.0157 0.3565 0.0157
0.2179 0.4362 0.0157
0.4208 0.5125 0.0157
0.5605 0.5744 0.0157
0.7026 0.6026 0.0405
0.8404 0.6157 0.0912
0.9261 0.6162 0.0878
0.0157 0.2524 0.0157
0.0157 0.2603 0.0157
0.0157 0.3501 0.0157
0.1525 0.4416 0.0157
0.3758 0.5350 0.0157
0.5244 0.6230 0.0157
0.6556 0.6872 0.0157
0.7923 0.7208 0.0576
0.9513 0.7433 0.1202
0.1068 0.0157 0.1180
0.1190 0.0157 0.1190
0.2282 0.0157 0.1083
0.3243 0.0157 0.0897
0.4068 0.0157 0.0628
0.4536 0.0157 0.0401
0.4808 0.0157 0.0213
0.4957 0.0157 0.0157
0.5062 0.0157 0.0157
0.1059 0.1094 0.1176
0.1190 0.1110 0.1190
0.2337 0.1129 0.1083
0.3341 0.1126 0.0897
0.4150 0.1124 0.0628
0.4688 0.1121 0.0401
0.4971 0.1118 0.0213
0.5153 0.1116 0.0157
0.5265 0.1114 0.0157
0.0651 0.1778 0.0855
0.0791 0.1802 0.0873
0.2496 0.2018 0.1160
0.3592 0.2019 0.1002
0.4448 0.2016 0.0788
0.4995 0.2013 0.0532
0.5359 0.2010 0.0354
0.5586 0.2009 0.0201
0.5801 0.2006 0.0157
0.0157 0.2413 0.0288
0.0157 0.2441 0.0306
0.1908 0.2837 0.0620
0.3731 0.3139 0.1068
0.4777 0.3170 0.1035
0.5440 0.3167 0.0844
0.5953 0.3165 0.0643
0.6338 0.3163 0.0506
0.6724 0.3160 0.0347
0.0157 0.2770 0.0157
0.0157 0.2800 0.0157
0.1310 0.3317 0.0157
0.3276 0.3815 0.0581
0.4913 0.4128 0.1147
0.5812 0.4155 0.1145
0.6493 0.4153 0.1005
0.7037 0.4153 0.0883
0.7549 0.4151 0.0732
0.0157 0.2915 0.0157
0.0157 0.2946 0.0157
0.0814 0.3540 0.0157
0.2900 0.4149 0.0235
0.4682 0.4649 0.0855
0.6050 0.4843 0.1427
0.6878 0.4843 0.1278
0.7519 0.4841 0.1169
0.8171 0.4841 0.1043
0.0157 0.2970 0.0157
0.0157 0.3004 0.0157
0.0388 0.3659 0.0157
0.2517 0.4354 0.0157
0.4446 0.4984 0.0511
0.5822 0.5384 0.1156
0.7224 0.5499 0.1595
0.7940 0.5494 0.1498
0.8672 0.5494 0.1385
0.0157 0.2946 0.0157
0.0157 0.2983 0.0157
0.0157 0.3706 0.0157
0.2028 0.4494 0.0157
0.4119 0.5269 0.0157
0.5546 0.5919 0.0840
0.6931 0.6250 0.1401
0.8312 0.6391 0.1824
0.9197 0.6395 0.1776
0.0157 0.2788 0.0157
0.0157 0.2825 0.0157
0.0157 0.3631 0.0157
0.1371 0.4536 0.0157
0.3663 0.5486 0.0157
0.5164 0.6400 0.0349
0.6449 0.7067 0.0974
0.7826 0.7455 0.1509
0.9421 0.7675 0.2083
0.0937 0.0157 0.2091
0.1029 0.0157 0.2101
0.2422 0.0157 0.2223
0.3476 0.0157 0.2076
0.4271 0.0157 0.1817
0.4787 0.0157 0.1596
0.5111 0.0157 0.1412
0.5270 0.0157 0.1211
0.5415 0.0157 0.1024
0.0933 0.0973 0.2088
0.1029 0.0990 0.2101
0.2422 0.1115 0.2223
0.3514 0.1128 0.2076
0.4355 0.1126 0.1817
0.4913 0.1123 0.1596
0.5244 0.1120 0.1412
0.5448 0.1118 0.1211
0.5618 0.1116 0.1024
0.0801 0.1897 0.1977
0.0939 0.1917 0.1995
0.2419 0.2177 0.2218
0.3560 0.2196 0.2076
0.4446 0.2193 0.1817
0.5020 0.2189 0.1596
0.5406 0.2188 0.1412
0.5652 0.2186 0.1211
0.5880 0.2183 0.1024
0.0226 0.2671 0.1444
0.0350 0.2696 0.1462
0.1813 0.2997 0.1686
0.3663 0.3312 0.2091
0.4761 0.3346 0.2044
0.5418 0.3344 0.1805
0.5953 0.3342 0.1639
0.6338 0.3340 0.1494
0.6748 0.3337 0.1286
0.0157 0.3114 0.0916
0.0157 0.3139 0.0934
0.1211 0.3474 0.1159
0.3193 0.3953 0.1587
0.4854 0.4284 0.2115
0.5801 0.4310 0.2094
0.6464 0.4310 0.1935
0.7032 0.4308 0.1780
0.7571 0.4306 0.1630
0.0157 0.3315 0.0503
0.0157 0.3344 0.0521
0.0759 0.3697 0.0787
0.2814 0.4274 0.1190
0.4609 0.4777 0.1762
0.6021 0.4995 0.2296
0.6828 0.4996 0.2182
0.7505 0.4995 0.2066
0.8166 0.4993 0.1902
0.0157 0.3415 0.0162
0.0157 0.3445 0.0180
0.0304 0.3812 0.0404
0.2414 0.4469 0.0863
0.4375 0.5105 0.1454
0.5790 0.5545 0.2061
0.7145 0.5665 0.2417
0.7889 0.5661 0.2315
0.8646 0.5661 0.2194
0.0157 0.3445 0.0157
0.0157 0.3476 0.0157
0.0157 0.3861 0.0157
0.1937 0.4601 0.0425
0.4077 0.5392 0.1040
0.5474 0.6065 0.1680
0.6853 0.6444 0.2212
0.8238 0.6580 0.2634
0.9149 0.6585 0.2544
0.0157 0.3353 0.0157
0.0157 0.3385 0.0157
0.0157 0.3791 0.0157
0.1258 0.4639 0.0157
0.3583 0.5596 0.0502
0.5112 0.6546 0.1175
0.6359 0.7224 0.1759
0.7753 0.7659 0.2269
0.9353 0.7874 0.2791
0.0682 0.0157 0.3328
0.0808 0.0157 0.3338
0.2214 0.0157 0.3445
0.3647 0.0157 0.3577
0.4567 0.0157 0.3463
0.5132 0.0157 0.3236
0.5516 0.0157 0.3060
0.5790 0.0157 0.2915
0.6017 0.0157 0.2743
0.0673 0.0795 0.3324
0.0808 0.0812 0.3338
0.2214 0.0937 0.3445
0.3647 0.1088 0.3577
0.4603 0.1128 0.3463
0.5219 0.1126 0.3236
0.5605 0.1123 0.3060
0.5929 0.1121 0.2915
0.6211 0.1119 0.2743
0.0590 0.1723 0.3187
0.0702 0.1745 0.3203
0.2209 0.2005 0.3442
0.3647 0.2158 0.3577
0.4642 0.2196 0.3463
0.5274 0.2193 0.3236
0.5759 0.2191 0.3060
0.6094 0.2188 0.2915
0.6434 0.2186 0.2743
0.0586 0.2980 0.3029
0.0678 0.2999 0.3048
0.2078 0.3241 0.3292
0.3605 0.3522 0.3534
0.4706 0.3603 0.3467
0.5415 0.3601 0.3245
0.5953 0.3599 0.3065
0.6370 0.3597 0.2919
0.6801 0.3594 0.2749
0.0157 0.3556 0.2556
0.0206 0.3579 0.2591
0.1563 0.3850 0.2808
0.3145 0.4171 0.3056
0.4765 0.4510 0.3481
0.5730 0.4538 0.3440
0.6425 0.4536 0.3288
0.7021 0.4536 0.3125
0.7597 0.4534 0.2970
0.0157 0.3838 0.2187
0.0157 0.3863 0.2204
0.1160 0.4153 0.2419
0.2747 0.4498 0.2713
0.4536 0.4972 0.3123
0.5919 0.5225 0.3579
0.6750 0.5225 0.3461
0.7483 0.5225 0.3344
0.8156 0.5221 0.3167
0.0157 0.4007 0.1815
0.0157 0.4030 0.1832
0.0780 0.4335 0.2090
0.2381 0.4702 0.2350
0.4267 0.5294 0.2820
0.5678 0.5776 0.3335
0.7037 0.5919 0.3634
0.7811 0.5919 0.3529
0.8604 0.5914 0.3404
0.0157 0.4111 0.1413
0.0157 0.4136 0.1430
0.0314 0.4457 0.1648
0.1908 0.4847 0.1943
0.3956 0.5575 0.2406
0.5393 0.6293 0.2956
0.6748 0.6735 0.3424
0.8127 0.6867 0.3736
0.9066 0.6872 0.3666
0.0157 0.4113 0.0832
0.0157 0.4141 0.0850
0.0157 0.4481 0.1070
0.1243 0.4898 0.1366
0.3464 0.5776 0.1859
0.5016 0.6760 0.2451
0.6269 0.7461 0.2956
0.7621 0.7918 0.3399
0.9246 0.8166 0.3811
0.0515 0.0157 0.4223
0.0619 0.0157 0.4229
0.2032 0.0157 0.4327
0.3521 0.0157 0.4445
0.4775 0.0157 0.4584
0.5415 0.0157 0.4420
0.5867 0.0157 0.4276
0.6230 0.0157 0.4151
0.6546 0.0157 0.3966
0.0506 0.0648 0.4219
0.0619 0.0664 0.4229
0.2032 0.0790 0.4327
0.3521 0.0942 0.4445
0.4775 0.1125 0.4584
0.5452 0.1128 0.4420
0.5966 0.1125 0.4276
0.6338 0.1123 0.4151
0.6746 0.1121 0.3966
0.0408 0.1580 0.4128
0.0544 0.1601 0.4143
0.2028 0.1863 0.4323
0.3521 0.2016 0.4445
0.4775 0.2193 0.4584
0.5503 0.2194 0.4420
0.6036 0.2193 0.4276
0.6493 0.2191 0.4151
0.6926 0.2188 0.3966
0.0425 0.2856 0.3962
0.0554 0.2876 0.3977
0.1939 0.3118 0.4196
0.3487 0.3403 0.4414
0.4775 0.3607 0.4584
0.5580 0.3609 0.4420
0.6201 0.3607 0.4276
0.6735 0.3605 0.4151
0.7252 0.3603 0.3966
0.0468 0.3861 0.3779
0.0582 0.3881 0.3794
0.1845 0.4102 0.3981
0.3322 0.4364 0.4235
0.4717 0.4677 0.4493
0.5678 0.4724 0.4449
0.6391 0.4722 0.4306
0.7010 0.4722 0.4183
0.7616 0.4720 0.4005
0.0168 0.4211 0.3456
0.0244 0.4228 0.3472
0.1519 0.4473 0.3666
0.2977 0.4768 0.3896
0.4458 0.5129 0.4196
0.5836 0.5418 0.4542
0.6729 0.5418 0.4424
0.7444 0.5418 0.4312
0.8152 0.5418 0.4179
0.0157 0.4431 0.3114
0.0157 0.4451 0.3130
0.1177 0.4714 0.3367
0.2662 0.5036 0.3603
0.4186 0.5460 0.3879
0.5586 0.5961 0.4298
0.6945 0.6142 0.4550
0.7748 0.6138 0.4449
0.8575 0.6138 0.4327
0.0157 0.4591 0.2737
0.0157 0.4616 0.2754
0.0781 0.4902 0.2958
0.2242 0.5260 0.3203
0.3847 0.5744 0.3524
0.5304 0.6483 0.3945
0.6668 0.6940 0.4331
0.8033 0.7114 0.4599
0.9008 0.7120 0.4526
0.0157 0.4669 0.2183
0.0157 0.4693 0.2200
0.0243 0.5000 0.2410
0.1686 0.5401 0.2701
0.3378 0.5943 0.2997
0.4933 0.6940 0.3497
0.6162 0.7654 0.3892
0.7509 0.8121 0.4261
0.9154 0.8405 0.4621
0.0347 0.0157 0.4897
0.0450 0.0157 0.4905
0.1901 0.0157 0.4998
0.3414 0.0157 0.5112
0.4714 0.0157 0.5256
0.5661 0.0157 0.5311
0.6211 0.0157 0.5163
0.6641 0.0157 0.5038
0.7037 0.0157 0.4899
0.0339 0.0522 0.4895
0.0450 0.0538 0.4905
0.1901 0.0665 0.4998
0.3414 0.0816 0.5112
0.4714 0.1001 0.5256
0.5674 0.1130 0.5311
0.6274 0.1127 0.5163
0.6748 0.1125 0.5038
0.7197 0.1123 0.4899
0.0246 0.1457 0.4805
0.0382 0.1478 0.4819
0.1893 0.1741 0.4995
0.3414 0.1895 0.5112
0.4714 0.2071 0.5256
0.5691 0.2197 0.5311
0.6338 0.2194 0.5163
0.6833 0.2193 0.5038
0.7378 0.2191 0.4899
0.0272 0.2739 0.4683
0.0400 0.2760 0.4697
0.1786 0.3004 0.4872
0.3380 0.3294 0.5083
0.4714 0.3499 0.5256
0.5713 0.3612 0.5311
0.6410 0.3609 0.5163
0.7010 0.3607 0.5038
0.7592 0.3605 0.4899
0.0490 0.3850 0.4564
0.0592 0.3870 0.4578
0.1836 0.4087 0.4754
0.3288 0.4342 0.4968
0.4682 0.4641 0.5225
0.5735 0.4777 0.5311
0.6503 0.4776 0.5163
0.7175 0.4776 0.5038
0.7835 0.4774 0.4899
0.0550 0.4485 0.4399
0.0623 0.4500 0.4414
0.1808 0.4710 0.4588
0.3197 0.4968 0.4797
0.4537 0.5286 0.5051
0.5798 0.5588 0.5333
0.6673 0.5588 0.5206
0.7412 0.5588 0.5083
0.8142 0.5584 0.4944
0.0266 0.4756 0.4128
0.0379 0.4774 0.4143
0.1538 0.5007 0.4321
0.2912 0.5307 0.4530
0.4322 0.5695 0.4784
0.5537 0.6128 0.5064
0.6867 0.6332 0.5307
0.7692 0.6332 0.5193
0.8546 0.6327 0.5064
0.0157 0.4978 0.3754
0.0157 0.4996 0.3770
0.1181 0.5264 0.3953
0.2574 0.5609 0.4207
0.4053 0.6074 0.4461
0.5244 0.6646 0.4744
0.6576 0.7125 0.5057
0.7951 0.7323 0.5320
0.8954 0.7329 0.5233
0.0157 0.5116 0.3264
0.0157 0.5142 0.3296
0.0717 0.5447 0.3490
0.2051 0.5845 0.3719
0.3598 0.6391 0.3987
0.4892 0.7098 0.4319
0.6070 0.7821 0.4651
0.7455 0.8293 0.4950
0.9076 0.8599 0.5294
0.0184 0.0157 0.5622
0.0276 0.0157 0.5632
0.1742 0.0157 0.5739
0.3261 0.0157 0.5867
0.4613 0.0157 0.6031
0.5713 0.0157 0.6201
0.6576 0.0157 0.6191
0.7076 0.0157 0.6041
0.7543 0.0157 0.5875
0.0180 0.0390 0.5618
0.0276 0.0407 0.5632
0.1742 0.0533 0.5739
0.3261 0.0685 0.5867
0.4613 0.0869 0.6031
0.5713 0.1052 0.6201
0.6600 0.1130 0.6191
0.7145 0.1127 0.6041
0.7664 0.1125 0.5875
0.0157 0.1327 0.5524
0.0214 0.1348 0.5541
0.1738 0.1612 0.5734
0.3261 0.1767 0.5867
0.4613 0.1944 0.6031
0.5713 0.2122 0.6201
0.6625 0.2197 0.6191
0.7224 0.2194 0.6041
0.7796 0.2192 0.5875
0.0157 0.2619 0.5392
0.0242 0.2639 0.5409
0.1626 0.2885 0.5597
0.3231 0.3177 0.5836
0.4613 0.3387 0.6031
0.5713 0.3545 0.6201
0.6663 0.3612 0.6191
0.7329 0.3609 0.6041
0.7981 0.3607 0.5875
0.0362 0.3743 0.5269
0.0443 0.3761 0.5282
0.1727 0.3981 0.5469
0.3184 0.4238 0.5699
0.4583 0.4540 0.5997
0.5713 0.4720 0.6201
0.6697 0.4777 0.6191
0.7433 0.4776 0.6041
0.8156 0.4776 0.5875
0.0624 0.4516 0.5176
0.0723 0.4534 0.5193
0.1878 0.4736 0.5375
0.3222 0.4982 0.5601
0.4537 0.5281 0.5890
0.5708 0.5601 0.6196
0.6724 0.5674 0.6191
0.7505 0.5669 0.6041
0.8288 0.5669 0.5875
0.0740 0.5066 0.5017
0.0812 0.5083 0.5032
0.1916 0.5294 0.5210
0.3184 0.5567 0.5431
0.4472 0.5919 0.5704
0.5572 0.6298 0.5997
0.6785 0.6546 0.6235
0.7631 0.6541 0.6089
0.8516 0.6541 0.5924
0.0472 0.5362 0.4701
0.0569 0.5384 0.4715
0.1602 0.5637 0.4887
0.2884 0.5970 0.5094
0.4203 0.6415 0.5354
0.5274 0.6889 0.5622
0.6473 0.7313 0.5905
0.7868 0.7539 0.6206
0.8896 0.7543 0.6089
0.0165 0.5596 0.4274
0.0224 0.5618 0.4288
0.1209 0.5924 0.4461
0.2454 0.6322 0.4667
0.3833 0.6853 0.4917
0.4929 0.7412 0.5167
0.6017 0.7991 0.5435
0.7351 0.8470 0.5734
0.8998 0.8808 0.6123
0.0157 0.0157 0.6625
0.0157 0.0157 0.6636
0.1542 0.0157 0.6760
0.3117 0.0157 0.6911
0.4522 0.0157 0.7080
0.5586 0.0157 0.7235
0.6713 0.0157 0.7383
0.7616 0.0157 0.7422
0.8205 0.0157 0.7235
0.0157 0.0227 0.6619
0.0157 0.0243 0.6636
0.1542 0.0370 0.6760
0.3117 0.0522 0.6911
0.4522 0.0706 0.7080
0.5586 0.0890 0.7235
0.6713 0.1042 0.7383
0.7631 0.1130 0.7422
0.8268 0.1128 0.7235
0.0157 0.1166 0.6514
0.0157 0.1188 0.6530
0.1538 0.1453 0.6756
0.3117 0.1607 0.6911
0.4522 0.1788 0.7080
0.5586 0.1965 0.7235
0.6713 0.2112 0.7383
0.7648 0.2197 0.7422
0.8337 0.2194 0.7235
0.0157 0.2466 0.6396
0.0157 0.2488 0.6415
0.1448 0.2736 0.6595
0.3089 0.3031 0.6867
0.4522 0.3244 0.7080
0.5586 0.3403 0.7235
0.6713 0.3536 0.7383
0.7670 0.3612 0.7422
0.8434 0.3609 0.7235
0.0191 0.3605 0.6250
0.0268 0.3622 0.6269
0.1549 0.3847 0.6449
0.3032 0.4111 0.6718
0.4496 0.4416 0.7052
0.5586 0.4595 0.7235
0.6713 0.4712 0.7383
0.7692 0.4777 0.7422
0.8531 0.4776 0.7235
0.0462 0.4393 0.6138
0.0571 0.4409 0.6157
0.1730 0.4614 0.6376
0.3098 0.4859 0.6600
0.4454 0.5159 0.6936
0.5586 0.5469 0.7230
0.6713 0.5596 0.7383
0.7708 0.5674 0.7422
0.8599 0.5669 0.7235
0.0818 0.5083 0.6036
0.0925 0.5097 0.6055
0.1967 0.5307 0.6269
0.3204 0.5567 0.6493
0.4468 0.5904 0.6823
0.5537 0.6259 0.7120
0.6713 0.6551 0.7383
0.7723 0.6635 0.7422
0.8667 0.6635 0.7235
0.1132 0.5831 0.5845
0.1190 0.5854 0.5858
0.2155 0.6094 0.6065
0.3261 0.6405 0.6318
0.4441 0.6795 0.6600
0.5427 0.7197 0.6931
0.6514 0.7543 0.7159
0.7763 0.7806 0.7422
0.8824 0.7816 0.7281
0.0872 0.6216 0.5375
0.0951 0.6235 0.5388
0.1829 0.6541 0.5571
0.2940 0.6921 0.5802
0.4131 0.7402 0.6099
0.5117 0.7894 0.6410
0.6046 0.8302 0.6630
0.7224 0.8687 0.6895
0.8891 0.9056 0.7256
0.0157 0.0157 0.8190
0.0157 0.0157 0.8200
0.1223 0.0157 0.8317
0.2860 0.0157 0.8424
0.4337 0.0157 0.8599
0.5415 0.0157 0.8774
0.6478 0.0157 0.8881
0.7565 0.0157 0.9002
0.8896 0.0157 0.9106
0.0157 0.0157 0.8185
0.0157 0.0157 0.8200
0.1223 0.0157 0.8317
0.2860 0.0278 0.8424
0.4337 0.0463 0.8599
0.5415 0.0647 0.8774
0.6478 0.0799 0.8881
0.7565 0.0931 0.9002
0.8896 0.1083 0.9106
0.0157 0.0924 0.8073
0.0157 0.0946 0.8094
0.1217 0.1213 0.8317
0.2860 0.1370 0.8424
0.4337 0.1550 0.8599
0.5415 0.1730 0.8774
0.6478 0.1877 0.8881
0.7565 0.2004 0.9002
0.8896 0.2151 0.9106
0.0157 0.2237 0.7956
0.0157 0.2257 0.7971
0.1172 0.2510 0.8156
0.2834 0.2810 0.8413
0.4337 0.3027 0.8599
0.5415 0.3191 0.8774
0.6478 0.3326 0.8881
0.7565 0.3440 0.9002
0.8896 0.3572 0.9106
0.0157 0.3397 0.7801
0.0157 0.3415 0.7821
0.1303 0.3645 0.8047
0.2810 0.3915 0.8278
0.4311 0.4228 0.8565
0.5415 0.4411 0.8774
0.6478 0.4528 0.8881
0.7565 0.4627 0.9002
0.8896 0.4742 0.9106
0.0232 0.4204 0.7686
0.0319 0.4222 0.7702
0.1488 0.4428 0.7929
0.2872 0.4677 0.8166
0.4280 0.4974 0.8448
0.5415 0.5273 0.8769
0.6478 0.5401 0.8881
0.7565 0.5507 0.9002
0.8896 0.5632 0.9106
0.0605 0.4896 0.7617
0.0670 0.4914 0.7627
0.1747 0.5116 0.7821
0.2989 0.5371 0.8059
0.4301 0.5695 0.8385
0.5389 0.6035 0.8667
0.6478 0.6318 0.8881
0.7565 0.6444 0.9002
0.8896 0.6590 0.9106
0.1166 0.5772 0.7483
0.1230 0.5789 0.7505
0.2164 0.6026 0.7692
0.3245 0.6327 0.7967
0.4397 0.6702 0.8253
0.5389 0.7092 0.8540
0.6400 0.7412 0.8774
0.7554 0.7697 0.8993
0.8896 0.7857 0.9106
0.1956 0.7092 0.7266
0.2002 0.7114 0.7281
0.2745 0.7388 0.7514
0.3624 0.7719 0.7748
0.4549 0.8111 0.8047
0.5427 0.8486 0.8364
0.6359 0.8794 0.8589
0.7444 0.9061 0.8779
0.8789 0.9373 0.9036
