70 CGC LUTs/Look LUTs/Aviator.cube
#Created by: Denver Riddle
#Copyright: (C) Copyright Color Grading Central LLC
#LUT Size
LUT_3D_SIZE 5
0 0 0
0.216861 0 0
0.437552 0 0
0.683696 0 0
0.968627 0 0
0.196872 0.10454 0.10045
0.234165 0.112993 0.115862
0.301366 0.145815 0.07364
0.560525 0.11931 0.0116579
0.944549 0 0
0.383642 0.237751 0.215747
0.408591 0.238468 0.231556
0.47335 0.285664 0.256825
0.556573 0.367727 0.246082
1 0.372335 0.0683604
0.685893 0.544076 0.441474
0.692012 0.549355 0.443839
0.732082 0.582773 0.472496
0.78677 0.629908 0.507836
0.975738 0.680888 0.349752
1 0.815686 0.596078
0.997086 0.819608 0.617914
1 0.835294 0.659922
1 0.863035 0.757733
1 0.929412 0.847059
0 0.011841 0.0388342
0.151034 0.0089723 0.164797
0.339055 0.0243229 0.127672
0.498009 0.0736706 0.0294194
0.898131 0 0.0518502
0.00129702 0.162493 0.152728
0.150256 0.154162 0.143008
0.342473 0.147463 0.116091
0.59501 0.114382 0.0967422
0.929778 0.00508125 0.079881
0.381537 0.258335 0.281209
0.380896 0.271702 0.277409
0.439704 0.325063 0.306798
0.648966 0.378149 0.225422
0.999817 0.384161 0.19028
0.679957 0.560555 0.47628
0.687251 0.567437 0.477516
0.726345 0.599145 0.500984
0.777111 0.645991 0.538323
0.998764 0.680964 0.330877
1 0.847059 0.78143
0.996307 0.84976 0.76582
0.999512 0.86862 0.754574
0.999588 0.862974 0.757702
1 0.928618 0.846082
0 0.049424 0.111254
0 0.057145 0.291096
0.315847 0.0350347 0.314412
0.512596 0.0527047 0.259495
0.898039 0 0.196262
0 0.190784 0.20325
0.0262608 0.188067 0.199374
0.288197 0.160433 0.289036
0.52433 0.153002 0.243595
0.767727 0.217639 0.0686961
0.0549935 0.352056 0.331914
0.168994 0.356435 0.332708
0.411551 0.369696 0.350637
0.705104 0.394934 0.328054
1 0.419196 0.296391
0.737163 0.56701 0.567758
0.70013 0.589776 0.532082
0.723857 0.626062 0.551125
0.774334 0.672816 0.586648
1 0.684932 0.441367
1 0.855344 0.87451
0.998245 0.855604 0.870893
1 0.874846 0.875181
1 0.910048 0.859236
1 0.929732 0.85098
0 0.0973526 0.175067
0 0.112596 0.274907
0.0441138 0.11809 0.50547
0.510079 0.0549325 0.497536
0.816419 0 0.440558
0 0.217227 0.259098
0 0.218647 0.254749
0.0040589 0.231785 0.33164
0.499718 0.167269 0.471855
0.84773 0.171344 0.441352
0 0.404944 0.412604
0 0.41149 0.417411
0.243259 0.439094 0.446586
0.652918 0.423377 0.5841
0.999023 0.438987 0.504784
0.285481 0.689342 0.641718
0.353689 0.684352 0.636881
0.519936 0.696269 0.640253
0.781201 0.692363 0.649531
1 0.703944 0.558679
0.998901 0.87953 0.810178
0.998245 0.878492 0.833097
0.999756 0.89099 0.873625
1 0.914214 0.905898
1 0.956863 0.921813
0 0.158343 0.298039
0 0.179202 0.360662
0 0.221942 0.513726
0 0.269413 0.759197
0.356863 0.258824 0.933333
0 0.280949 0.405539
0 0.284108 0.402747
0 0.319677 0.455482
0 0.367788 0.670527
0.376272 0.343587 0.91957
0 0.522225 0.634699
0 0.530449 0.637507
0 0.583886 0.681056
0 0.649958 0.758679
0.444968 0.614221 0.937255
0 0.793988 0.816907
0 0.791989 0.813153
0 0.804929 0.820661
0 0.824811 0.832212
0.708034 0.80499 0.937255
0 0.980392 0.92549
0.189899 0.977661 0.926375
0.449958 0.980392 0.929412
0.719738 0.976471 0.933333
0.996078 0.976471 0.941176
