70 CGC LUTs/Look LUTs/Aviator.cube
#Created by: Denver Riddle
#Copyright: (C) Copyright Color Grading Central LLC
#LUT Size
LUT_3D_SIZE 9
0 0 0
0.0967117 0 0
0.216861 0 0
0.323156 0 0
0.437552 0 0
0.558724 0 0
0.683696 0 0
0.829267 0 0
0.968627 0 0
0.0848249 0.0314488 0.0274662
0.10985 0.0377813 0.0394446
0.153735 0.0607919 0.0245365
0.262318 0.0625315 0.00968948
0.367437 0.0523995 0.00361639
0.487968 0.0204471 0
0.626276 0 0
0.782925 0 0
0.96257 0 0
0.196872 0.10454 0.10045
0.211322 0.102647 0.108644
0.234165 0.112993 0.115862
0.237629 0.138827 0.102358
0.301366 0.145815 0.07364
0.424689 0.137835 0.0338903
0.560525 0.11931 0.0116579
0.724971 0.0637064 0.000320439
0.944549 0 0
0.280735 0.165866 0.154101
0.285801 0.162387 0.157671
0.316945 0.164477 0.178729
0.336522 0.177676 0.177951
0.334493 0.205951 0.163165
0.388663 0.22089 0.135042
0.547662 0.220706 0.0800183
0.742306 0.215259 0.0373083
0.976165 0.181964 0.00123598
0.383642 0.237751 0.215747
0.381399 0.23447 0.215076
0.408591 0.238468 0.231556
0.448493 0.256062 0.255726
0.47335 0.285664 0.256825
0.477943 0.33286 0.257237
0.556573 0.367727 0.246082
0.767788 0.376089 0.159304
1 0.372335 0.0683604
0.512566 0.383429 0.312016
0.510048 0.384131 0.310262
0.524346 0.396353 0.318532
0.555978 0.414862 0.339803
0.587655 0.438636 0.359365
0.622614 0.473625 0.378958
0.662409 0.508705 0.398627
0.771817 0.53611 0.370169
1 0.532174 0.167163
0.685893 0.544076 0.441474
0.681987 0.541238 0.437507
0.692012 0.549355 0.443839
0.712581 0.567025 0.456992
0.732082 0.582773 0.472496
0.75938 0.60618 0.49221
0.78677 0.629908 0.507836
0.829267 0.664927 0.519173
0.975738 0.680888 0.349752
0.845624 0.701076 0.571389
0.840787 0.699092 0.566278
0.845106 0.703578 0.572366
0.856138 0.715724 0.582391
0.864713 0.731395 0.598245
0.880507 0.74313 0.613916
0.904082 0.762631 0.637354
0.93109 0.785657 0.657099
0.961776 0.817075 0.649454
1 0.815686 0.596078
0.99646 0.815686 0.607401
0.997086 0.819608 0.617914
1 0.827451 0.628458
1 0.835294 0.659922
1 0.847395 0.706889
1 0.863035 0.757733
1 0.886915 0.812406
1 0.929412 0.847059
0 0.00392157 0.00784314
0.0543832 0.00248722 0.0658732
0.168688 0.00363165 0.0441749
0.227146 0.0329442 0.0119326
0.384375 0.00602731 0.0241855
0.518135 0 0.0276493
0.651896 0 0.025452
0.801968 0 0.019913
0.946777 0 0.00839246
0.00178531 0.0657359 0.0561379
0.0633402 0.0631266 0.0602884
0.175998 0.0654612 0.0461738
0.280491 0.0588846 0.0439002
0.389883 0.0406958 0.036759
0.511101 0.00572213 0.0318608
0.638773 0 0.0263066
0.782528 0 0.0173953
0.950805 0 0.00535592
0.184482 0.115663 0.125444
0.181613 0.118685 0.128695
0.203204 0.129946 0.138094
0.232853 0.149218 0.103975
0.329 0.146365 0.0690471
0.455177 0.131975 0.0504616
0.60235 0.0972763 0.037583
0.764675 0.0232853 0.0270848
0.951751 0 0.0137331
0.276265 0.170657 0.188312
0.269841 0.172869 0.177707
0.28864 0.179217 0.189776
0.313039 0.190127 0.19939
0.317205 0.214969 0.173907
0.421393 0.223163 0.124041
0.578393 0.223667 0.0869764
0.776104 0.211627 0.0664836
0.992126 0.181643 0.0536507
0.379217 0.245747 0.237675
0.373037 0.243153 0.231006
0.389807 0.25182 0.238636
0.431235 0.269123 0.26923
0.461265 0.299794 0.275731
0.469505 0.344717 0.276036
0.579019 0.372427 0.242283
0.801709 0.374151 0.152895
0.999283 0.370321 0.106966
0.507256 0.39202 0.323613
0.506355 0.390219 0.322484
0.517296 0.404257 0.332357
0.544228 0.425406 0.35079
0.581476 0.448981 0.371862
0.614435 0.481819 0.393759
0.660075 0.517098 0.410986
0.785 0.538033 0.363607
0.999039 0.53051 0.179202
0.683787 0.548806 0.450492
0.678752 0.54609 0.446097
0.687953 0.553399 0.452171
0.710369 0.569162 0.465599
0.726314 0.58732 0.481361
0.753643 0.608545 0.500862
0.784863 0.634379 0.516579
0.827588 0.667002 0.524361
0.984634 0.679362 0.339208
0.840131 0.702937 0.575982
0.837049 0.699351 0.574304
0.84239 0.706386 0.578653
0.851011 0.717617 0.5906
0.862882 0.731945 0.602533
0.876234 0.747616 0.622126
0.899565 0.763104 0.64155
0.925353 0.784192 0.664942
0.960311 0.819501 0.654185
1 0.832319 0.651072
0.994949 0.826169 0.644617
0.995254 0.827878 0.641749
0.998932 0.827451 0.63035
0.999313 0.835294 0.660487
0.999542 0.847227 0.706859
0.999939 0.862577 0.757092
1 0.889479 0.811414
1 0.928603 0.846067
0 0.011841 0.0388342
0.000900282 0.0144808 0.150088
0.151034 0.0089723 0.164797
0.242679 0.0178531 0.140642
0.339055 0.0243229 0.127672
0.452613 0.0225834 0.0746777
0.498009 0.0736706 0.0294194
0.724239 0.000747692 0.0580758
0.898131 0 0.0518502
0 0.083238 0.0909285
0.00857557 0.0846723 0.090959
0.137636 0.0740826 0.152651
0.23418 0.0764172 0.134508
0.336187 0.074464 0.0966354
0.389715 0.101198 0.0442664
0.571893 0.0340734 0.0666209
0.724941 0 0.0665751
0.910246 0 0.0575113
0.00129702 0.162493 0.152728
0.0512856 0.159136 0.145296
0.150256 0.154162 0.143008
0.238148 0.154055 0.129213
0.342473 0.147463 0.116091
0.460777 0.134188 0.104067
0.59501 0.114382 0.0967422
0.74464 0.0723735 0.0888075
0.929778 0.00508125 0.079881
0.146258 0.221927 0.148531
0.209552 0.202869 0.157992
0.261936 0.198657 0.205615
0.285237 0.211124 0.220417
0.325414 0.230045 0.172076
0.457481 0.228885 0.146517
0.630152 0.220768 0.141863
0.808728 0.21384 0.138369
0.988251 0.210529 0.127245
0.381537 0.258335 0.281209
0.376425 0.255329 0.278187
0.380896 0.271702 0.277409
0.40322 0.299367 0.289235
0.439704 0.325063 0.306798
0.470649 0.368139 0.297139
0.648966 0.378149 0.225422
0.859586 0.37406 0.196246
0.999817 0.384161 0.19028
0.527245 0.40177 0.366766
0.5196 0.404471 0.358679
0.517525 0.423819 0.363912
0.536187 0.446265 0.381506
0.571649 0.472251 0.401511
0.609232 0.501472 0.424933
0.666423 0.532616 0.434424
0.843748 0.538323 0.338277
0.999954 0.526772 0.249378
0.679957 0.560555 0.47628
0.675364 0.559136 0.471489
0.687251 0.567437 0.477516
0.708171 0.583124 0.487083
0.726345 0.599145 0.500984
0.747677 0.622705 0.522744
0.777111 0.645991 0.538323
0.827695 0.677226 0.543984
0.998764 0.680964 0.330877
0.840284 0.713161 0.601831
0.83505 0.708492 0.595834
0.83946 0.714611 0.600931
0.847227 0.727672 0.612406
0.859007 0.739803 0.624475
0.870832 0.755444 0.643992
0.891875 0.772473 0.664912
0.919326 0.7944 0.686824
0.962356 0.827344 0.660121
1 0.847059 0.78143
0.996704 0.844816 0.771267
0.996307 0.84976 0.76582
0.999268 0.860441 0.762097
0.999512 0.86862 0.754574
0.99942 0.862821 0.731517
0.999588 0.862974 0.757702
1 0.889952 0.812024
1 0.928618 0.846082
0 0.025803 0.0758679
0 0.032105 0.15581
0.0730144 0.0277256 0.265049
0.234546 0.0207523 0.24416
0.330083 0.0302892 0.211353
0.412161 0.0451209 0.193057
0.573159 0.00149538 0.165515
0.675151 0.0230716 0.0824598
0.706889 0.119539 0.00645457
0 0.0988327 0.118441
0 0.102251 0.11957
0.033051 0.104097 0.194553
0.221195 0.0798505 0.231739
0.312627 0.0822309 0.198932
0.409949 0.0799115 0.180911
0.560754 0.043061 0.134173
0.566598 0.137575 0.035935
0.821088 0.0276493 0.0533455
0 0.176181 0.176364
0.00311284 0.172274 0.173236
0.092546 0.170932 0.172824
0.204913 0.160662 0.211887
0.303365 0.159045 0.190799
0.400595 0.165805 0.127352
0.502876 0.172091 0.10071
0.69865 0.128832 0.121401
0.900175 0.0722972 0.116533
0.00981155 0.243107 0.225467
0.0576944 0.236988 0.219989
0.1411 0.236576 0.217807
0.237079 0.23386 0.21088
0.336675 0.236637 0.205112
0.473732 0.236027 0.196719
0.625727 0.238361 0.190692
0.797238 0.238804 0.186587
0.976364 0.240024 0.175525
0.179797 0.330312 0.225635
0.237705 0.316915 0.215854
0.377508 0.292927 0.284276
0.402029 0.31667 0.319463
0.429129 0.348699 0.330907
0.513863 0.379278 0.290684
0.697353 0.379736 0.269993
0.872801 0.383749 0.262181
1 0.399634 0.246326
0.556435 0.411215 0.426551
0.547082 0.411658 0.420233
0.541619 0.433249 0.403372
0.540581 0.46537 0.407095
0.571862 0.489448 0.426612
0.610819 0.520562 0.449912
0.690257 0.543435 0.443961
0.895796 0.53521 0.344533
1 0.536294 0.313054
0.682124 0.575662 0.501152
0.679896 0.572549 0.498527
0.686076 0.582513 0.504585
0.703914 0.594507 0.5122
0.731289 0.613687 0.523522
0.751003 0.637125 0.543465
0.777554 0.661051 0.562707
0.838026 0.687877 0.550256
1 0.680766 0.372244
0.842725 0.719814 0.62739
0.836332 0.718654 0.620966
0.838407 0.722881 0.626825
0.844785 0.738293 0.637797
0.852644 0.750561 0.64979
0.867552 0.766186 0.66566
0.883665 0.781994 0.688029
0.911299 0.801663 0.711925
0.969085 0.832471 0.653605
1 0.847089 0.84828
0.998169 0.845731 0.842435
0.998169 0.849699 0.838956
1 0.859297 0.840635
1 0.870924 0.829175
1 0.886564 0.817639
1 0.898558 0.809796
1 0.890562 0.812314
1 0.929412 0.847059
0 0.049424 0.111254
0 0.0536202 0.161013
0 0.057145 0.291096
0.158556 0.0488289 0.350958
0.315847 0.0350347 0.314412
0.421851 0.0394446 0.278309
0.512596 0.0527047 0.259495
0.682368 0.00424201 0.241443
0.898039 0 0.196262
0 0.115084 0.142718
0 0.118349 0.144121
0 0.125597 0.194766
0.113634 0.108019 0.30695
0.299107 0.0836042 0.302861
0.401205 0.0827039 0.265965
0.494728 0.0885328 0.248402
0.673854 0.0238193 0.223087
0.868498 0.00584421 0.143603
0 0.190784 0.20325
0 0.185977 0.200732
0.0262608 0.188067 0.199374
0.0935073 0.191913 0.227344
0.288197 0.160433 0.289036
0.39527 0.161089 0.261601
0.52433 0.153002 0.243595
0.683787 0.146288 0.183856
0.767727 0.217639 0.0686961
0 0.256809 0.253758
0.000869764 0.251164 0.2477
0.0832532 0.252735 0.248631
0.16759 0.257084 0.25655
0.305119 0.247776 0.293446
0.439429 0.252811 0.277165
0.547814 0.29073 0.190356
0.729305 0.292515 0.187945
0.948409 0.279591 0.197009
0.0549935 0.352056 0.331914
0.0866712 0.346685 0.324865
0.168994 0.356435 0.332708
0.254353 0.371328 0.33843
0.411551 0.369696 0.350637
0.551812 0.384085 0.336278
0.705104 0.394934 0.328054
0.865568 0.403357 0.316487
1 0.419196 0.296391
0.296605 0.500557 0.352926
0.355673 0.489525 0.333257
0.569238 0.441871 0.423835
0.577737 0.46978 0.459297
0.575753 0.508537 0.45362
0.615915 0.535729 0.473014
0.758404 0.539712 0.427863
0.907378 0.53962 0.405783
1 0.54789 0.370672
0.737163 0.56701 0.567758
0.725017 0.568734 0.551553
0.70013 0.589776 0.532082
0.70013 0.610178 0.543359
0.723857 0.626062 0.551125
0.758282 0.645472 0.563195
0.774334 0.672816 0.586648
0.868757 0.691737 0.535134
1 0.684932 0.441367
0.866377 0.719356 0.676204
0.855848 0.717464 0.666865
0.85153 0.729152 0.661341
0.848905 0.742504 0.665507
0.852674 0.758785 0.677058
0.860151 0.774151 0.69221
0.87541 0.793332 0.711971
0.903212 0.812985 0.735851
0.987869 0.836637 0.624216
1 0.855344 0.87451
0.998245 0.851728 0.870893
0.998245 0.855604 0.870893
1 0.866712 0.874815
1 0.874846 0.875181
1 0.890486 0.870939
1 0.910048 0.859236
1 0.925505 0.863767
1 0.929732 0.85098
0 0.0733959 0.143389
0 0.0773175 0.175051
0 0.0848554 0.282933
0.0176547 0.0860151 0.399802
0.234745 0.0701305 0.43682
0.409247 0.0474861 0.392599
0.529717 0.0400397 0.352544
0.642603 0.0494545 0.335622
0.840986 0 0.318013
0 0.131655 0.168444
0 0.134356 0.17116
0 0.141863 0.206882
0.00331121 0.139208 0.306813
0.199359 0.114443 0.406165
0.390082 0.088716 0.37644
0.510307 0.0826886 0.338033
0.616281 0.0899062 0.323796
0.85832 0.0018616 0.298711
0 0.202152 0.231403
0 0.198535 0.226352
0 0.202914 0.226093
0.00730907 0.210651 0.239902
0.146075 0.199817 0.3449
0.385794 0.163851 0.371969
0.510506 0.16173 0.340627
0.643091 0.165743 0.332799
0.905287 0.108873 0.290059
0 0.275563 0.285542
0 0.269825 0.281346
0.000106813 0.269978 0.283146
0.10042 0.276158 0.287724
0.177172 0.290166 0.309483
0.432609 0.261036 0.393362
0.567239 0.273548 0.382208
0.763012 0.274022 0.358022
0.917525 0.325383 0.206332
0 0.378271 0.370398
0.000747692 0.372076 0.364797
0.0924849 0.380377 0.372427
0.200275 0.395071 0.386404
0.321828 0.407202 0.399069
0.512825 0.403449 0.439139
0.666407 0.412863 0.403037
0.781643 0.465873 0.284672
0.973678 0.46038 0.281147
0.179782 0.525109 0.493111
0.199924 0.521447 0.487922
0.270329 0.527306 0.491737
0.357092 0.540002 0.495842
0.505501 0.543313 0.470924
0.634028 0.547326 0.503975
0.774136 0.547723 0.484596
0.906737 0.555032 0.460609
1 0.566918 0.417639
0.407187 0.672038 0.470253
0.45127 0.662974 0.454139
0.686793 0.615641 0.484901
0.773983 0.592782 0.618753
0.722255 0.640497 0.585184
0.754772 0.657099 0.594171
0.782391 0.680644 0.613855
0.910063 0.684962 0.544442
1 0.692378 0.496239
0.904295 0.708492 0.746822
0.895735 0.706996 0.742046
0.889708 0.717021 0.736431
0.87982 0.73843 0.727718
0.861097 0.762097 0.713085
0.856413 0.781826 0.719539
0.867597 0.80119 0.738811
0.891615 0.821088 0.75906
0.999588 0.836774 0.612024
1 0.863172 0.870161
0.998093 0.858915 0.871443
0.997879 0.863325 0.873747
1 0.87454 0.882094
1 0.882658 0.88658
1 0.894408 0.894133
1 0.910063 0.890761
1 0.933532 0.882856
1 0.945403 0.902571
0 0.0973526 0.175067
0 0.101396 0.196719
0 0.112596 0.274907
0 0.119203 0.391165
0.0441138 0.11809 0.50547
0.299062 0.0960098 0.539788
0.510079 0.0549325 0.497536
0.665171 0.0243839 0.452689
0.816419 0 0.440558
0 0.149218 0.196414
0 0.150317 0.198978
0 0.158175 0.224048
0 0.163394 0.296132
0.0138399 0.156558 0.434379
0.277134 0.12491 0.509453
0.495521 0.09131 0.472129
0.639155 0.0765545 0.429984
0.807935 0.0604562 0.419715
0 0.217227 0.259098
0 0.213611 0.253071
0 0.218647 0.254749
0 0.229236 0.264515
0.0040589 0.231785 0.33164
0.238849 0.204013 0.474693
0.499718 0.167269 0.471855
0.658061 0.167865 0.444907
0.84773 0.171344 0.441352
0 0.292897 0.324025
0 0.2878 0.316381
0 0.288212 0.319326
0.000198367 0.298787 0.325994
0.0838788 0.317968 0.341146
0.238087 0.320592 0.467918
0.566766 0.281697 0.523354
0.732036 0.293599 0.50425
0.937819 0.301701 0.489021
0 0.404944 0.412604
0 0.402182 0.408209
0 0.41149 0.417411
0.0872206 0.426108 0.433616
0.243259 0.439094 0.446586
0.345357 0.461555 0.493874
0.652918 0.423377 0.5841
0.811292 0.437919 0.568444
0.999023 0.438987 0.504784
0.0566262 0.552636 0.536904
0.0988022 0.546731 0.530999
0.199969 0.552651 0.535088
0.302892 0.563531 0.547234
0.415442 0.574853 0.555657
0.531594 0.582879 0.567376
0.729656 0.563531 0.630335
0.878141 0.56434 0.583551
0.959838 0.623529 0.347631
0.285481 0.689342 0.641718
0.300862 0.684092 0.636927
0.353689 0.684352 0.636881
0.426184 0.69221 0.640711
0.519936 0.696269 0.640253
0.726101 0.679683 0.624582
0.781201 0.692363 0.649531
0.905303 0.697383 0.615457
1 0.703944 0.558679
0.481575 0.827115 0.563989
0.518532 0.817655 0.55523
0.677745 0.799985 0.540124
0.861387 0.767285 0.62446
0.903838 0.752941 0.755215
0.880034 0.778088 0.769833
0.860517 0.809247 0.762753
0.879759 0.832654 0.782162
1 0.836667 0.661982
0.998901 0.87953 0.810178
0.998108 0.874296 0.819348
0.998245 0.878492 0.833097
0.999756 0.886763 0.850034
0.999756 0.89099 0.873625
1 0.90248 0.893935
1 0.914214 0.905898
1 0.937423 0.902403
1 0.956863 0.921813
0 0.125658 0.215442
0 0.132342 0.231815
0 0.144396 0.286198
0 0.157702 0.375708
0 0.17142 0.507347
0 0.173983 0.645014
0.196368 0.159792 0.73753
0.563165 0.0924086 0.744945
0.844541 0 0.706737
0 0.172274 0.234821
0 0.17319 0.236042
0 0.181003 0.256565
0 0.191241 0.307668
0 0.197543 0.417884
0 0.19472 0.574411
0.238956 0.171374 0.687007
0.57026 0.110689 0.687694
0.839918 0.0161135 0.639811
0 0.241032 0.302388
0 0.234821 0.296086
0 0.240955 0.295399
0 0.251453 0.304158
0 0.263523 0.348074
0 0.265614 0.482628
0.217304 0.244297 0.649775
0.591134 0.195651 0.697978
0.86978 0.163363 0.667582
0 0.322194 0.381903
0 0.315694 0.374136
0 0.318059 0.372198
0 0.329519 0.37995
0 0.358099 0.404532
0 0.387015 0.480613
0.181811 0.383963 0.675456
0.647944 0.325246 0.773739
0.933776 0.30573 0.73994
0 0.443763 0.482612
0 0.443259 0.478096
0 0.450324 0.487129
0 0.465812 0.501167
0.00285344 0.486152 0.517143
0.0904707 0.516976 0.553094
0.250233 0.528969 0.693629
0.72398 0.463081 0.809796
0.96878 0.445731 0.775387
0 0.596109 0.604288
0 0.592874 0.600183
0 0.597375 0.604868
0.0157626 0.606683 0.618463
0.251743 0.618265 0.633707
0.34902 0.634012 0.645792
0.409476 0.653239 0.708095
0.794079 0.587854 0.827955
0.984482 0.578668 0.790219
0.00842298 0.721248 0.701503
0.0145113 0.715007 0.695567
0.160372 0.719219 0.699428
0.272786 0.723888 0.7075
0.39765 0.727687 0.711894
0.522774 0.731579 0.719707
0.60914 0.743114 0.731655
0.848325 0.709285 0.827787
0.996139 0.711406 0.793423
0.272145 0.841947 0.794125
0.292409 0.836866 0.788708
0.351049 0.836988 0.789014
0.427848 0.840726 0.793683
0.529198 0.840726 0.797192
0.635401 0.840726 0.800977
0.749325 0.844511 0.804959
0.868147 0.844373 0.813031
0.999603 0.84477 0.764904
0.481559 0.965011 0.779293
0.509163 0.960998 0.769314
0.572534 0.959228 0.765026
0.662684 0.960647 0.761074
0.782559 0.953353 0.761379
0.908553 0.941985 0.788083
0.993423 0.930312 0.877363
1 0.941512 0.921416
1 0.964706 0.92961
0 0.158343 0.298039
0 0.164843 0.314
0 0.179202 0.360662
0 0.198505 0.423697
0 0.221942 0.513726
0 0.245289 0.628183
0 0.269413 0.759197
0 0.286275 0.869154
0.356863 0.258824 0.933333
0 0.206317 0.324269
0 0.20763 0.326925
0 0.218555 0.353384
0 0.233005 0.396475
0 0.251438 0.468223
0 0.272007 0.574136
0 0.289357 0.713848
0 0.302052 0.841245
0.37879 0.255573 0.918242
0 0.280949 0.405539
0 0.278584 0.399878
0 0.284108 0.402747
0 0.301228 0.42005
0 0.319677 0.455482
0 0.341421 0.53312
0 0.367788 0.670527
0 0.38735 0.823682
0.376272 0.343587 0.91957
0 0.382483 0.504051
0 0.374823 0.496056
0 0.381125 0.498527
0 0.405524 0.520333
0 0.440833 0.557229
0 0.47718 0.616983
0 0.512505 0.711147
1.5259e-05 0.539422 0.831937
0.389593 0.492668 0.936751
0 0.522225 0.634699
0 0.520027 0.628504
0 0.530449 0.637507
0 0.556435 0.661357
0 0.583886 0.681056
0 0.61854 0.712016
0 0.649958 0.758679
0 0.66894 0.836576
0.444968 0.614221 0.937255
0 0.681605 0.754696
0 0.676905 0.746395
0 0.683314 0.751064
0 0.699748 0.761761
0 0.715221 0.765942
0 0.731228 0.777264
0 0.751003 0.793103
0 0.769924 0.840299
0.555703 0.719295 0.937255
0 0.793988 0.816907
0 0.788083 0.811063
0 0.791989 0.813153
0 0.797711 0.820203
0 0.804929 0.820661
0 0.813016 0.824567
0 0.824811 0.832212
0.0138857 0.840131 0.851545
0.708034 0.80499 0.937255
0 0.891661 0.867643
0 0.886381 0.863096
0 0.886717 0.865232
0 0.894804 0.871
0 0.895033 0.871473
0.00517281 0.898802 0.875227
0.367636 0.898802 0.878904
0.585077 0.90251 0.882902
0.860197 0.887037 0.937255
0 0.980392 0.92549
0.0537423 0.977417 0.924651
0.189899 0.977661 0.926375
0.314076 0.980392 0.929412
0.449958 0.980392 0.929412
0.583154 0.980087 0.933333
0.719738 0.976471 0.933333
0.852628 0.976471 0.937255
0.996078 0.976471 0.941176
