70 CGC LUTs/Look LUTs/Aviator.cube
#Created by: Denver Riddle
#Copyright: (C) Copyright Color Grading Central LLC
#LUT Size
LUT_3D_SIZE 33
0 0 0
0.000976577 0 0
0.0172732 0 0
0.0561685 0 0
0.0967117 0 0
0.132723 0 0
0.162371 0 0
0.189883 0 0
0.216861 0 0
0.244099 0 0
0.2701 0 0
0.296345 0 0
0.323156 0 0
0.350072 0 0
0.378988 0 0
0.408499 0 0
0.437552 0 0
0.467414 0 0
0.497642 0 0
0.527169 0 0
0.558724 0 0
0.588785 0 0
0.620356 0 0
0.651667 0 0
0.683696 0 0
0.7178 0 0
0.752926 0 0
0.788083 0 0
0.829267 0 0
0.871275 0 0
0.914427 0 0
0.957336 0 0
0.968627 0 0
0.00547799 0.000518807 0.000518807
0.00613413 0.000534066 0.000534066
0.017731 0.000747692 0.000564584
0.0524147 0.00109865 0.000549325
0.0918593 0.00115969 0.000198367
0.125887 0.00129702 0
0.155459 0.000946059 0
0.18291 0.000915541 0
0.209873 0.000228885 0
0.238331 0 0
0.263874 0 0
0.290532 0 0
0.317189 0 0
0.34345 0 0
0.371756 0 0
0.402152 0 0
0.431418 0 0
0.46038 0 0
0.490288 0 0
0.521294 0 0
0.551736 0 0
0.582071 0 0
0.613397 0 0
0.646815 0 0
0.679026 0 0
0.711772 0 0
0.746059 0 0
0.782773 0 0
0.821683 0 0
0.863035 0 0
0.907362 0 0
0.950942 0 0
0.968627 0 0
0.0230411 0.00637827 0.00637827
0.0246281 0.00646983 0.00646983
0.0328374 0.00773632 0.00688182
0.0423438 0.011017 0.00709544
0.0698253 0.0125429 0.00477607
0.100298 0.0132448 0.0030518
0.132036 0.0119326 0.00180056
0.161105 0.0108492 0.00169375
0.190341 0.00996414 0.00192264
0.219074 0.0103151 0.000946059
0.245197 0.00999466 0.000656138
0.271153 0.0087892 0.000366217
0.297978 0.00698863 0
0.324407 0.0039826 0
0.352956 0.000869764 0
0.383551 0 0
0.413214 0 0
0.44271 0 0
0.473198 0 0
0.504433 0 0
0.536507 0 0
0.569345 0 0
0.60119 0 0
0.633707 0 0
0.66656 0 0
0.699901 0 0
0.735195 0 0
0.772564 0 0
0.81181 0 0
0.853559 0 0
0.897383 0 0
0.941299 0 0
0.968627 0 0
0.0528267 0.0175937 0.0156558
0.0544594 0.0177005 0.0160067
0.0646372 0.0182803 0.0189212
0.0696117 0.021561 0.0205844
0.0756695 0.0260777 0.0183413
0.0889754 0.030808 0.0165103
0.112078 0.0339208 0.0132601
0.141268 0.0338293 0.00949111
0.170718 0.0345922 0.00706493
0.199512 0.0356298 0.00593576
0.226871 0.0346075 0.00430304
0.252399 0.0338293 0.00320439
0.277638 0.0327459 0.00325017
0.303212 0.0298466 0.00337224
0.331548 0.0269017 0.00340276
0.360967 0.0235294 0.0024567
0.388769 0.0184939 0.000717174
0.41796 0.011841 0
0.449088 0.00384527 0
0.480888 0 0
0.513771 0 0
0.547875 0 0
0.581109 0 0
0.613458 0 0
0.647898 0 0
0.682872 0 0
0.720363 0 0
0.758984 0 0
0.7991 0 0
0.842451 0 0
0.885649 0 0
0.929992 0 0
0.966476 0 0
0.0848249 0.0314488 0.0274662
0.0858015 0.0340124 0.0281682
0.0926223 0.0338903 0.0334783
0.103044 0.0345159 0.0390631
0.10985 0.0377813 0.0394446
0.110979 0.0451362 0.0372015
0.116503 0.0525063 0.0338903
0.131533 0.0586404 0.0297398
0.153735 0.0607919 0.0245365
0.180804 0.061799 0.0194095
0.208896 0.0624552 0.0155032
0.236271 0.0631266 0.0125887
0.262318 0.0625315 0.00968948
0.28687 0.0603952 0.0075227
0.312367 0.0589303 0.00750744
0.340139 0.0557412 0.00621042
0.367437 0.0523995 0.00361639
0.395163 0.0460975 0.00350958
0.424247 0.039704 0.00344854
0.455055 0.0305638 0.00242618
0.487968 0.0204471 0
0.522942 0.00924697 0
0.557412 0 0
0.591333 0 0
0.626276 0 0
0.661494 0 0
0.700465 0 0
0.741527 0 0
0.782925 0 0
0.828672 0 0
0.873121 0 0
0.918807 0 0
0.96257 0 0
0.115648 0.0509346 0.0469673
0.116442 0.0516518 0.0471656
0.122332 0.0515908 0.0506447
0.131655 0.0514992 0.0573892
0.140002 0.0537881 0.0609445
0.144579 0.0587167 0.0612039
0.147936 0.0661326 0.0581979
0.148898 0.073991 0.0548409
0.156909 0.0808576 0.0514839
0.171206 0.0852979 0.0479896
0.192096 0.0872511 0.0416266
0.216892 0.0878004 0.0338598
0.242023 0.0881666 0.0274662
0.267155 0.0875257 0.0216373
0.294392 0.0844587 0.0179141
0.322255 0.0835737 0.0139925
0.349172 0.0821241 0.0102083
0.376455 0.0774853 0.00772107
0.404288 0.0730449 0.00727855
0.434867 0.0678416 0.00654612
0.464103 0.0612955 0.00321965
0.498787 0.0515145 0.0031281
0.533547 0.0381933 0.00273136
0.568307 0.0255894 0
0.603159 0.0135653 0
0.64065 0 0
0.679072 0 0
0.72369 0 0
0.766079 0 0
0.813825 0 0
0.861799 0 0
0.909773 0 0
0.955154 0 0
0.145342 0.0693065 0.0648966
0.145418 0.0699779 0.0657359
0.148791 0.0717021 0.0682841
0.157321 0.0712749 0.0728161
0.165728 0.0713054 0.0804761
0.17319 0.074342 0.0822156
0.180255 0.0790112 0.081651
0.181598 0.0860761 0.0787823
0.182803 0.0935225 0.0755169
0.185061 0.100465 0.0724346
0.19147 0.105303 0.0687877
0.204562 0.108598 0.0638132
0.224643 0.111147 0.0563516
0.249195 0.111269 0.0467536
0.2748 0.109804 0.0380407
0.305348 0.10631 0.028336
0.332525 0.10515 0.0236515
0.360189 0.101274 0.0169833
0.390082 0.099733 0.0140688
0.418189 0.0952773 0.0135195
0.448325 0.0906233 0.00955215
0.480293 0.084947 0.00674449
0.515023 0.0752575 0.0065919
0.547127 0.0641489 0.00268559
0.584192 0.0529641 0.002533
0.622553 0.0352331 0.000183108
0.663035 0.0200198 0
0.706264 0.00444038 0
0.750637 0.000366217 0
0.79971 0 0
0.850889 0 0
0.902037 0 0
0.949844 0 0
0.170825 0.0888838 0.0827649
0.171557 0.0885328 0.0845655
0.175097 0.0881666 0.0845502
0.181109 0.0875563 0.0888075
0.189349 0.0873121 0.0947738
0.19733 0.090013 0.100511
0.20499 0.0937972 0.101442
0.208759 0.0982071 0.0986038
0.209628 0.102693 0.0952163
0.209812 0.108827 0.0919051
0.210742 0.11548 0.088716
0.214298 0.121996 0.0852827
0.223285 0.127443 0.080827
0.239811 0.129809 0.0755016
0.260838 0.129244 0.066453
0.287114 0.127825 0.0543832
0.314672 0.127245 0.0464942
0.344701 0.125444 0.0359503
0.375525 0.121965 0.0289311
0.405127 0.117632 0.0233921
0.435966 0.115572 0.0192264
0.466804 0.111009 0.0127565
0.50135 0.105013 0.0124666
0.534234 0.096788 0.00865187
0.570138 0.0902113 0.0062562
0.60827 0.0784009 0.002533
0.648112 0.0608225 0.00187686
0.690013 0.0386206 0.000366217
0.736797 0.0205844 0
0.786191 0.00404364 0
0.839765 0 0
0.894545 0 0
0.945922 0 0
0.196872 0.10454 0.10045
0.196979 0.104051 0.10013
0.197986 0.103807 0.0995346
0.202014 0.103212 0.102022
0.211322 0.102647 0.108644
0.219501 0.104997 0.114
0.226886 0.106172 0.116823
0.231357 0.109422 0.118318
0.234165 0.112993 0.115862
0.236576 0.118853 0.112459
0.236667 0.125917 0.109285
0.235828 0.13283 0.105898
0.237629 0.138827 0.102358
0.242893 0.142229 0.098558
0.257038 0.144701 0.0924239
0.276341 0.146273 0.0824903
0.301366 0.145815 0.07364
0.329732 0.145174 0.0615396
0.358663 0.143038 0.0508431
0.39176 0.140581 0.0403449
0.424689 0.137835 0.0338903
0.45742 0.13341 0.0238956
0.491844 0.129046 0.0213779
0.526253 0.122652 0.0158389
0.560525 0.11931 0.0116579
0.598199 0.111604 0.00764477
0.636393 0.101152 0.00563058
0.677897 0.088304 0.00222782
0.724971 0.0637064 0.000320439
0.776226 0.0302892 0
0.831998 0.0109407 0
0.889952 0.00224308 0
0.944549 0 0
0.218921 0.119417 0.11339
0.218738 0.119249 0.113695
0.219806 0.120256 0.114031
0.22356 0.120302 0.116182
0.230716 0.119371 0.120806
0.238727 0.119646 0.127047
0.246082 0.119417 0.131121
0.25211 0.122393 0.134249
0.256077 0.125902 0.13373
0.259648 0.130449 0.132509
0.261616 0.135241 0.130007
0.261418 0.140871 0.125948
0.259754 0.147372 0.121538
0.260166 0.152987 0.119417
0.265217 0.158618 0.11458
0.276829 0.161639 0.106218
0.294224 0.163149 0.099443
0.317525 0.164248 0.0888991
0.344732 0.163607 0.0766003
0.37763 0.162966 0.064332
0.412467 0.158572 0.0543984
0.448631 0.15552 0.0422675
0.484459 0.151034 0.0348058
0.518975 0.146487 0.0267796
0.554376 0.14432 0.0210117
0.592187 0.138079 0.0158389
0.630564 0.130877 0.0115969
0.671672 0.12343 0.0075227
0.717449 0.107546 0.00280766
0.771847 0.0866255 0.0009308
0.82916 0.0516365 0.000198367
0.890257 0.0196841 0
0.946654 0.00660716 0
0.238575 0.136965 0.12639
0.238834 0.136324 0.12665
0.239857 0.135912 0.127718
0.242603 0.135286 0.129061
0.248936 0.134432 0.133593
0.256565 0.133761 0.138949
0.263783 0.133333 0.144656
0.271015 0.136446 0.148257
0.276478 0.138476 0.148943
0.281468 0.141421 0.150027
0.284749 0.144854 0.148775
0.285756 0.149584 0.144671
0.285542 0.156435 0.140383
0.285512 0.163333 0.138201
0.284932 0.168994 0.133532
0.288808 0.174075 0.126955
0.296208 0.178836 0.122087
0.314015 0.182071 0.114931
0.338048 0.182834 0.103975
0.3664 0.182361 0.0917372
0.400946 0.179049 0.0794385
0.438407 0.178424 0.0662852
0.476677 0.174975 0.0540932
0.512978 0.170596 0.0448157
0.550958 0.166232 0.0360266
0.589456 0.162509 0.0279393
0.628305 0.15816 0.0226596
0.670237 0.153719 0.0180362
0.718685 0.143923 0.0108492
0.772045 0.132326 0.00567636
0.830549 0.112474 0.00138857
0.895506 0.0847334 9.15541e-05
0.95581 0.0508125 0
0.259312 0.151965 0.1402
0.259388 0.151171 0.139712
0.260121 0.150179 0.14023
0.26215 0.149203 0.141451
0.26688 0.148287 0.145739
0.27509 0.147555 0.150958
0.28246 0.147189 0.156771
0.289616 0.150179 0.1617
0.296544 0.150729 0.16376
0.30309 0.153017 0.165438
0.306813 0.15642 0.165072
0.309071 0.160723 0.162432
0.31194 0.166796 0.15935
0.312703 0.173251 0.156573
0.311406 0.177325 0.15201
0.309453 0.18471 0.147265
0.309926 0.192493 0.142794
0.322438 0.196094 0.138293
0.339742 0.200092 0.130632
0.361883 0.200305 0.119219
0.394491 0.199664 0.106874
0.429114 0.199115 0.0913558
0.46743 0.198657 0.0786603
0.50959 0.195117 0.0667277
0.54876 0.191165 0.0544137
0.587762 0.190326 0.045655
0.629801 0.186877 0.0375219
0.676555 0.183124 0.0295109
0.727749 0.179568 0.0217288
0.783398 0.173068 0.0137026
0.845563 0.159472 0.00595102
0.908812 0.144732 0.00132753
0.967315 0.127047 9.15541e-05
0.280735 0.165866 0.154101
0.281163 0.165011 0.153246
0.280995 0.163973 0.152682
0.282795 0.162997 0.154391
0.285801 0.162387 0.157671
0.294423 0.162448 0.163561
0.301778 0.161913 0.168185
0.309804 0.163973 0.17409
0.316945 0.164477 0.178729
0.323781 0.166735 0.18056
0.32929 0.170184 0.180987
0.333181 0.173602 0.180056
0.336522 0.177676 0.177951
0.339452 0.183581 0.176349
0.338979 0.188205 0.172
0.334905 0.195956 0.167346
0.334493 0.205951 0.163165
0.337163 0.210147 0.159274
0.347677 0.217273 0.154726
0.365988 0.220996 0.146807
0.388663 0.22089 0.135042
0.423117 0.220569 0.122988
0.461677 0.220462 0.107378
0.50428 0.22034 0.0953689
0.547662 0.220706 0.0800183
0.59498 0.221088 0.0684215
0.638773 0.221439 0.0569314
0.690578 0.218326 0.0452277
0.742306 0.215259 0.0373083
0.797864 0.211429 0.0252689
0.856489 0.203952 0.0170901
0.918608 0.192599 0.00891127
0.976165 0.181964 0.00123598
0.303365 0.181582 0.168017
0.303151 0.180438 0.167102
0.302861 0.179141 0.166308
0.303746 0.177905 0.168063
0.306371 0.177249 0.171359
0.312779 0.178836 0.174701
0.320134 0.17908 0.180941
0.32987 0.178851 0.18529
0.337407 0.17882 0.191455
0.344457 0.18085 0.196201
0.351461 0.183948 0.197879
0.357382 0.187411 0.198093
0.360861 0.190814 0.197589
0.364645 0.194736 0.194339
0.367239 0.201999 0.190005
0.36643 0.209552 0.185306
0.365713 0.216983 0.181369
0.361944 0.224506 0.180682
0.365377 0.231815 0.176379
0.377035 0.239261 0.172198
0.397299 0.24329 0.164401
0.429374 0.247623 0.15668
0.465141 0.251728 0.145098
0.505455 0.252628 0.129839
0.552499 0.256397 0.114488
0.599573 0.253285 0.099382
0.648264 0.253727 0.0870069
0.702525 0.253742 0.0717784
0.754314 0.253437 0.0592508
0.813016 0.249531 0.0438544
0.871839 0.245594 0.0318608
0.929915 0.238071 0.0201419
0.981201 0.23505 0.0126802
0.32784 0.199435 0.1823
0.326223 0.198291 0.181369
0.326101 0.197055 0.18085
0.32636 0.195758 0.182101
0.327886 0.194614 0.185229
0.33373 0.193835 0.188586
0.343359 0.196063 0.191943
0.351476 0.196765 0.198169
0.358511 0.196689 0.205127
0.36553 0.19675 0.210193
0.373831 0.198245 0.212299
0.3823 0.201709 0.213382
0.386496 0.205188 0.216449
0.393774 0.209247 0.216464
0.396933 0.216434 0.212299
0.396368 0.223926 0.207782
0.399863 0.231724 0.20383
0.399863 0.243412 0.203784
0.396872 0.251804 0.20032
0.405753 0.264195 0.200732
0.418784 0.27248 0.197253
0.442634 0.280293 0.193408
0.471107 0.284688 0.185153
0.509499 0.288823 0.170001
0.549294 0.292424 0.154574
0.596979 0.292958 0.138598
0.651316 0.292958 0.119341
0.70605 0.292958 0.102983
0.761532 0.292683 0.0836347
0.820645 0.289296 0.0674754
0.882643 0.288548 0.0515908
0.937881 0.282094 0.0363317
0.988846 0.281804 0.0250553
0.354162 0.217426 0.197818
0.352453 0.216648 0.19675
0.350622 0.215717 0.19559
0.350545 0.21416 0.196292
0.352926 0.212863 0.199313
0.358144 0.211765 0.202609
0.365286 0.213855 0.206104
0.374655 0.215 0.211917
0.383246 0.214923 0.217105
0.39176 0.216464 0.222171
0.401404 0.220111 0.228122
0.408576 0.223163 0.231647
0.416052 0.223896 0.235294
0.423957 0.231724 0.235752
0.428229 0.235981 0.235843
0.432593 0.248157 0.232227
0.43682 0.25658 0.232227
0.437446 0.268818 0.228946
0.438056 0.281193 0.229099
0.438712 0.292805 0.229221
0.446555 0.300938 0.229511
0.46247 0.309056 0.229267
0.485588 0.316869 0.222004
0.513283 0.324605 0.214069
0.55201 0.328954 0.20235
0.595132 0.332647 0.183398
0.646036 0.332952 0.163363
0.704433 0.332952 0.140169
0.76408 0.332784 0.1196
0.82739 0.332921 0.0961166
0.889708 0.329198 0.076112
0.947753 0.329061 0.0602274
0.996414 0.325612 0.0451667
0.383642 0.237751 0.215747
0.381567 0.236637 0.214603
0.380545 0.237659 0.213382
0.381033 0.235904 0.213901
0.381399 0.23447 0.215076
0.38677 0.235798 0.216907
0.393896 0.236957 0.220478
0.401236 0.236912 0.226108
0.408591 0.238468 0.231556
0.41738 0.242206 0.236637
0.428702 0.245609 0.244099
0.44004 0.247959 0.251347
0.448493 0.256062 0.255726
0.45687 0.261006 0.259983
0.46508 0.269123 0.260471
0.469276 0.277134 0.260136
0.47335 0.285664 0.256825
0.477104 0.297612 0.256657
0.47686 0.309377 0.253071
0.477134 0.321096 0.25359
0.477943 0.33286 0.257237
0.489632 0.34432 0.261173
0.50547 0.352331 0.261082
0.525536 0.360281 0.254063
0.556573 0.367727 0.246082
0.595331 0.371908 0.233768
0.642527 0.375631 0.210925
0.700923 0.375921 0.187076
0.767788 0.376089 0.159304
0.834333 0.375906 0.131334
0.896971 0.372168 0.10399
0.95491 0.372168 0.0840314
1 0.372335 0.0683604
0.415442 0.267338 0.234134
0.413855 0.265354 0.232929
0.411887 0.263905 0.231464
0.411582 0.26508 0.231861
0.412558 0.263722 0.233463
0.415961 0.264851 0.234943
0.423468 0.268132 0.238651
0.431525 0.270237 0.242985
0.439887 0.271489 0.248981
0.449836 0.274372 0.256809
0.460975 0.279438 0.263813
0.469825 0.284352 0.268818
0.480873 0.289403 0.276066
0.488701 0.297322 0.280095
0.496605 0.301442 0.283879
0.504295 0.309651 0.283833
0.508339 0.321324 0.284184
0.511574 0.332906 0.283833
0.508507 0.344671 0.280781
0.512154 0.35639 0.284413
0.512947 0.368093 0.285222
0.521248 0.379522 0.292943
0.532967 0.387625 0.29659
0.549065 0.395438 0.296635
0.57229 0.40322 0.292607
0.603845 0.410834 0.28127
0.646754 0.415198 0.265446
0.701228 0.418921 0.238209
0.764126 0.419226 0.20676
0.834501 0.419043 0.171298
0.900343 0.415137 0.139208
0.958373 0.415137 0.111116
1 0.415473 0.0883803
0.444724 0.30396 0.256092
0.443259 0.302113 0.254994
0.442435 0.30016 0.253803
0.444282 0.299062 0.253086
0.445411 0.299901 0.25449
0.449531 0.301823 0.256489
0.454322 0.304707 0.259174
0.461006 0.307042 0.263371
0.469383 0.310155 0.267857
0.477287 0.314702 0.273533
0.486213 0.319341 0.281056
0.497398 0.324056 0.288609
0.507988 0.329046 0.295552
0.515969 0.337026 0.299794
0.52398 0.34136 0.30367
0.531518 0.349081 0.304112
0.535409 0.357061 0.307652
0.539284 0.368521 0.307942
0.539742 0.380056 0.308385
0.543801 0.391959 0.312413
0.54844 0.403342 0.316732
0.556161 0.411337 0.323919
0.564782 0.422782 0.328099
0.580056 0.430564 0.331762
0.596063 0.438392 0.331823
0.62327 0.446662 0.327901
0.655177 0.454414 0.316335
0.702144 0.458167 0.292912
0.76408 0.461891 0.26157
0.833936 0.461738 0.222019
0.900053 0.458091 0.178393
0.958251 0.457954 0.138964
1 0.457938 0.11223
0.475196 0.341939 0.279042
0.474784 0.341482 0.278676
0.474037 0.340566 0.278065
0.474922 0.341131 0.278996
0.4766 0.342535 0.280766
0.478721 0.34435 0.282765
0.482567 0.34583 0.284321
0.489143 0.348821 0.287129
0.495079 0.353216 0.291234
0.500893 0.357794 0.295384
0.509819 0.362493 0.300771
0.520088 0.367025 0.30753
0.528405 0.372015 0.312276
0.539651 0.380041 0.31986
0.547433 0.384329 0.32372
0.555016 0.39202 0.32784
0.559426 0.399451 0.331655
0.567224 0.407553 0.335576
0.57142 0.419303 0.339757
0.576043 0.430655 0.343801
0.583886 0.438499 0.347723
0.592004 0.446632 0.351949
0.603311 0.457938 0.35935
0.614984 0.465721 0.363241
0.627573 0.474113 0.367178
0.647166 0.485267 0.367239
0.674556 0.492882 0.362722
0.713603 0.496925 0.347036
0.764492 0.500679 0.319417
0.830274 0.500938 0.276188
0.896284 0.500618 0.225101
0.954482 0.496727 0.174487
1 0.493416 0.139513
0.512566 0.383429 0.312016
0.511803 0.383062 0.311391
0.510414 0.384924 0.310292
0.509148 0.383505 0.309224
0.510048 0.384131 0.310262
0.511406 0.385367 0.311681
0.514031 0.387869 0.314137
0.518181 0.391867 0.315938
0.524346 0.396353 0.318532
0.530556 0.400931 0.322744
0.536034 0.405417 0.326925
0.545266 0.410361 0.332418
0.555978 0.414862 0.339803
0.564019 0.419608 0.343923
0.571923 0.427146 0.348104
0.579538 0.434424 0.355184
0.587655 0.438636 0.359365
0.599039 0.446937 0.363729
0.607156 0.458137 0.371267
0.614969 0.46595 0.375174
0.622614 0.473625 0.378958
0.630503 0.481727 0.383124
0.638819 0.492927 0.390433
0.650462 0.500893 0.394476
0.662409 0.508705 0.398627
0.677897 0.516487 0.401862
0.697902 0.5243 0.398322
0.73225 0.531914 0.390036
0.771817 0.53611 0.370169
0.826154 0.539544 0.330831
0.888151 0.535805 0.276265
0.950256 0.532311 0.21735
1 0.532174 0.167163
0.552728 0.426902 0.343877
0.551553 0.425834 0.343038
0.549859 0.424292 0.341863
0.548257 0.422766 0.340566
0.549264 0.423774 0.341787
0.550332 0.424842 0.343008
0.552728 0.427237 0.345403
0.556802 0.431312 0.349294
0.561135 0.435554 0.351507
0.567178 0.44004 0.353918
0.575433 0.4448 0.358434
0.582773 0.449409 0.363638
0.588281 0.454322 0.371038
0.599313 0.462211 0.375296
0.60705 0.466178 0.37911
0.614801 0.473625 0.383124
0.622858 0.478035 0.3906
0.631251 0.485847 0.395071
0.642283 0.493263 0.402228
0.650095 0.501076 0.406134
0.657771 0.508751 0.409934
0.665858 0.516579 0.413855
0.677409 0.524453 0.418006
0.685695 0.532235 0.422141
0.697017 0.539925 0.429114
0.708873 0.547692 0.429572
0.72459 0.555245 0.432685
0.748547 0.563607 0.425452
0.783093 0.570962 0.41323
0.822705 0.571252 0.38172
0.880354 0.571115 0.330922
0.942473 0.570993 0.264454
0.99971 0.56762 0.198993
0.595865 0.466117 0.375677
0.594522 0.464897 0.37499
0.592828 0.463355 0.376959
0.591318 0.463584 0.375784
0.592233 0.464744 0.374914
0.59321 0.46627 0.376593
0.595438 0.46772 0.378073
0.599542 0.470375 0.380667
0.603861 0.474632 0.382849
0.60882 0.479438 0.385443
0.614725 0.484031 0.389822
0.622721 0.488472 0.394858
0.630213 0.493355 0.40206
0.635065 0.500969 0.406241
0.64268 0.505119 0.410208
0.650431 0.512596 0.414282
0.658564 0.516793 0.418509
0.669764 0.524086 0.425772
0.67744 0.528161 0.429572
0.685252 0.535973 0.433478
0.693263 0.543938 0.437522
0.701106 0.551263 0.441444
0.709178 0.555673 0.44535
0.720226 0.563104 0.449134
0.728252 0.570916 0.45304
0.739681 0.5785 0.456718
0.752102 0.583352 0.456962
0.771099 0.594461 0.456931
0.794751 0.602106 0.452216
0.829953 0.606027 0.428489
0.87631 0.606531 0.385626
0.934768 0.606516 0.318944
0.995499 0.606546 0.239078
0.639155 0.50518 0.410422
0.637873 0.504112 0.409552
0.63621 0.502724 0.408453
0.636072 0.502846 0.407233
0.636927 0.503883 0.406256
0.638392 0.505501 0.408011
0.639826 0.506889 0.40943
0.642695 0.509606 0.412055
0.647196 0.514031 0.416251
0.651759 0.518502 0.418952
0.657679 0.523064 0.421042
0.664805 0.527398 0.425193
0.669886 0.531792 0.429404
0.67776 0.536278 0.433707
0.681926 0.540429 0.437919
0.689479 0.547494 0.445014
0.697078 0.551415 0.44892
0.704738 0.555215 0.452766
0.712352 0.559655 0.456916
0.720317 0.567376 0.460945
0.728161 0.574929 0.464866
0.735973 0.579141 0.468788
0.74342 0.586542 0.472557
0.751232 0.590692 0.476478
0.759014 0.598474 0.480354
0.767224 0.60647 0.484169
0.778897 0.614252 0.484382
0.790951 0.62208 0.487938
0.810224 0.630014 0.484062
0.837156 0.637797 0.471839
0.873182 0.64535 0.440146
0.927169 0.64535 0.377462
0.987411 0.641978 0.290349
0.685893 0.544076 0.441474
0.684718 0.543099 0.440711
0.683024 0.541741 0.439643
0.681285 0.540291 0.438483
0.681987 0.541238 0.437507
0.682963 0.542367 0.439261
0.685115 0.544564 0.440681
0.689525 0.546715 0.441321
0.692012 0.549355 0.443839
0.694728 0.553735 0.446418
0.69926 0.558083 0.44828
0.704738 0.562448 0.452537
0.712581 0.567025 0.456992
0.716838 0.571176 0.461067
0.720821 0.57525 0.464897
0.728008 0.578988 0.468727
0.732082 0.582773 0.472496
0.739559 0.587137 0.476844
0.744106 0.594568 0.484245
0.751568 0.59884 0.488289
0.75938 0.60618 0.49221
0.766629 0.610269 0.496025
0.770993 0.617807 0.499901
0.778958 0.622324 0.503944
0.78677 0.629908 0.507836
0.794781 0.63772 0.511528
0.805997 0.645502 0.511971
0.817609 0.65359 0.515755
0.829267 0.664927 0.519173
0.845548 0.67274 0.51136
0.876585 0.67689 0.49099
0.919448 0.680644 0.439857
0.975738 0.680888 0.349752
0.728862 0.579843 0.469047
0.727474 0.57847 0.468254
0.725948 0.578058 0.467033
0.724315 0.579324 0.465919
0.725078 0.578225 0.467048
0.726375 0.577905 0.468559
0.726238 0.577829 0.468437
0.729076 0.580423 0.468772
0.733227 0.584512 0.471183
0.737697 0.588891 0.475334
0.742412 0.592157 0.478431
0.747051 0.594232 0.480247
0.751431 0.598703 0.48452
0.755627 0.603143 0.488411
0.759426 0.610407 0.492241
0.763165 0.614145 0.49604
0.767102 0.618082 0.499992
0.77145 0.622141 0.50425
0.778622 0.626215 0.508309
0.782818 0.633738 0.515633
0.790234 0.637522 0.519432
0.79443 0.641703 0.523339
0.80238 0.649668 0.527398
0.81001 0.657038 0.531533
0.817792 0.661387 0.535424
0.82536 0.6692 0.53933
0.829541 0.677028 0.543084
0.840833 0.688334 0.546975
0.849119 0.696483 0.550988
0.860868 0.704173 0.550576
0.880476 0.711803 0.538674
0.915709 0.715801 0.502541
0.964248 0.719722 0.42443
0.768063 0.619058 0.497459
0.766735 0.617716 0.499687
0.765042 0.616022 0.498314
0.765103 0.614588 0.497063
0.766384 0.613748 0.496437
0.76556 0.615152 0.495888
0.767651 0.616388 0.498024
0.769512 0.618967 0.499626
0.772396 0.6215 0.502235
0.776883 0.624063 0.504952
0.780392 0.628702 0.507134
0.782284 0.633295 0.511498
0.78645 0.637613 0.515221
0.790784 0.642023 0.516274
0.794583 0.645808 0.520073
0.798459 0.649699 0.52398
0.802182 0.65362 0.528206
0.805966 0.657374 0.535378
0.809873 0.661601 0.539284
0.813947 0.668757 0.543053
0.821637 0.672847 0.547143
0.825833 0.677256 0.551263
0.833188 0.684581 0.555474
0.837537 0.688731 0.562768
0.845212 0.696391 0.566751
0.852567 0.70399 0.570626
0.857053 0.711955 0.574701
0.864973 0.71989 0.578744
0.87245 0.727581 0.582727
0.880369 0.735286 0.586313
0.892439 0.743069 0.585763
0.919402 0.750759 0.565332
0.956634 0.755016 0.506554
0.81033 0.661738 0.535958
0.809354 0.660502 0.534844
0.808255 0.659281 0.533745
0.806714 0.657649 0.532372
0.805386 0.656123 0.531121
0.804623 0.657694 0.530434
0.806912 0.659037 0.53051
0.808698 0.661646 0.532967
0.811643 0.664302 0.535439
