70 CGC LUTs/Look LUTs/Blade Runner.cube
#Created by: Denver Riddle
#Copyright: (C) Copyright Color Grading Central LLC
#LUT Size
LUT_3D_SIZE 9
0 0 0
0.00961318 0.00285344 0.00285344
0.0740826 0.012665 0.00790417
0.164034 0.0282597 0.0169375
0.260288 0.0409094 0.0263523
0.388998 0.0353246 0.0313725
0.553414 0 0.0319829
0.742245 0 0.0279698
0.953307 0 0.00392157
0.0246433 0.0345617 0.0276493
0.0383917 0.0492103 0.0194247
0.129961 0.0596017 0.0232395
0.220401 0.0675975 0.0305486
0.306264 0.0731365 0.0364996
0.426444 0.0627909 0.0409094
0.587076 0.00769055 0.0394141
0.784405 0 0.0268864
0.998856 0 0.00392157
0.100649 0.129656 0.108492
0.105425 0.13637 0.0993362
0.170077 0.154467 0.0473945
0.265217 0.151934 0.053193
0.350118 0.152209 0.058793
0.49044 0.137667 0.0544747
0.712963 0.0399176 0.0336767
0.931868 0 0.0135805
1 0 0.00746166
0.18027 0.217395 0.178561
0.177798 0.218967 0.164752
0.197559 0.240467 0.0892042
0.28394 0.246494 0.0472267
0.407828 0.24155 0.0269017
0.564523 0.219837 0.0261845
0.783581 0.161273 0.0199435
0.972442 0.0913558 0.0137026
1 0.142 0.0361181
0.256748 0.309682 0.2318
0.249729 0.309102 0.215732
0.237888 0.336461 0.130877
0.292119 0.355367 0.0732433
0.405112 0.369299 0.0213931
0.588846 0.359319 0.0010071
0.76495 0.339574 0.0476081
0.887449 0.344793 0.112749
0.935332 0.396338 0.184421
0.388113 0.437171 0.332387
0.381109 0.432868 0.316304
0.374151 0.452888 0.269261
0.399115 0.481682 0.215915
0.478157 0.499687 0.202396
0.604288 0.508919 0.197055
0.733455 0.508095 0.240879
0.825803 0.5205 0.28481
0.915724 0.542 0.311254
0.545342 0.577447 0.435386
0.540825 0.578088 0.430426
0.544869 0.587503 0.411933
0.561212 0.606302 0.38323
0.601587 0.620829 0.358892
0.679637 0.631876 0.338811
0.780972 0.635904 0.335378
0.860853 0.65066 0.362524
0.936095 0.678248 0.389761
0.697032 0.728588 0.536156
0.689738 0.724361 0.522881
0.694087 0.729946 0.514199
0.706569 0.743191 0.501854
0.729335 0.757229 0.481361
0.76968 0.769589 0.46656
0.82533 0.782208 0.440955
0.892378 0.797086 0.444709
0.955764 0.817258 0.495415
0.860533 0.874388 0.732357
0.856962 0.868299 0.737133
0.862287 0.871824 0.740414
0.869902 0.88072 0.736629
0.880018 0.891493 0.737163
0.895903 0.903944 0.73843
0.920394 0.920104 0.742229
0.95201 0.935836 0.772747
0.987778 0.955856 0.826032
0 0 0
0.0107118 0.00392157 0.0128023
0.0743267 0.0161288 0.0492103
0.168505 0.0345922 0.0805371
0.249683 0.0550546 0.0963912
0.348302 0.074403 0.0868849
0.495491 0.0663767 0.0820935
0.692668 0.00375372 0.0745098
0.919036 0 0.0482185
0.0162051 0.0493019 0.0493019
0.0367132 0.0596933 0.060441
0.112367 0.0697642 0.0689708
0.185061 0.0878157 0.0781415
0.259892 0.100298 0.0847486
0.362814 0.106325 0.0866407
0.516457 0.0887465 0.081529
0.727398 0 0.0646525
0.964416 0 0.0322881
0.107897 0.138949 0.127199
0.117662 0.139223 0.130465
0.153017 0.158984 0.103059
0.246265 0.161059 0.109224
0.335012 0.161715 0.110216
0.464118 0.152224 0.103777
0.666972 0.0963455 0.0825055
0.877714 0 0.0546731
0.998642 0 0.0370794
0.185473 0.220661 0.194614
0.189609 0.220996 0.192599
0.195315 0.239857 0.156786
0.263844 0.253422 0.102693
0.385702 0.248035 0.0840009
0.542367 0.229801 0.0846876
0.767468 0.177356 0.0726482
0.945663 0.129259 0.0682841
0.999939 0.172107 0.0859388
0.268757 0.311391 0.257893
0.265782 0.309514 0.249363
0.267903 0.326024 0.222599
0.283513 0.357076 0.140352
0.380285 0.373068 0.0915236
0.564569 0.36733 0.0662852
0.742321 0.348196 0.113268
0.866941 0.356588 0.15967
0.915175 0.4112 0.23154
0.402274 0.438132 0.3617
0.395377 0.433219 0.350713
0.401007 0.445594 0.335698
0.412787 0.477729 0.28307
0.472496 0.502205 0.249958
0.593912 0.514305 0.239429
0.72253 0.515938 0.276295
0.819165 0.5243 0.313344
0.911696 0.549157 0.334493
0.55079 0.581964 0.445945
0.546487 0.579629 0.440757
0.54931 0.588067 0.427756
0.56524 0.606409 0.40032
0.598566 0.622202 0.372808
0.673411 0.635966 0.355306
0.778149 0.640238 0.351476
0.855863 0.652934 0.374777
0.93109 0.682399 0.402991
0.700404 0.725826 0.555306
0.694652 0.722576 0.540719
0.697185 0.72781 0.53315
0.70959 0.741039 0.523781
0.731136 0.75787 0.50161
0.76788 0.771328 0.483482
0.823514 0.783536 0.456062
0.890822 0.797879 0.459586
0.950805 0.819043 0.523201
0.858213 0.870146 0.733944
0.856992 0.86595 0.74168
0.861692 0.869108 0.744762
0.869825 0.878523 0.74197
0.879225 0.889662 0.740887
0.894331 0.902113 0.740307
0.918334 0.918059 0.740276
0.950484 0.933745 0.76611
0.986877 0.953826 0.817624
0.00392157 0.00392157 0.0113069
0.0173648 0.00793469 0.0357061
0.0875257 0.0235447 0.0952926
0.176013 0.0387121 0.135637
0.269535 0.0523995 0.169375
0.403189 0.043595 0.195483
0.573907 0.000579843 0.203616
0.803342 0 0.20589
0.978988 0 0.179004
0.0117647 0.0621653 0.0894331
0.035111 0.0683299 0.1037
0.122148 0.075349 0.138582
0.204425 0.0818647 0.155917
0.291646 0.0908827 0.1794
0.40914 0.0861982 0.189837
0.571099 0.0496529 0.189151
0.780179 0 0.155505
0.962234 0 0.106966
0.0604562 0.162417 0.151247
0.0840162 0.160739 0.15433
0.145129 0.167178 0.165698
0.22562 0.172091 0.167575
0.304067 0.179141 0.168612
0.423499 0.175525 0.154421
0.618265 0.142138 0.134722
0.818036 0.0663615 0.114672
0.975082 0.0227512 0.103853
0.187106 0.232792 0.212406
0.196551 0.230228 0.212192
0.217288 0.240787 0.221317
0.244755 0.260426 0.191226
0.358297 0.259464 0.173266
0.518151 0.244556 0.168811
0.709438 0.218738 0.154955
0.869398 0.206195 0.142977
0.957519 0.24303 0.152102
0.283879 0.324147 0.285115
0.281834 0.317403 0.280873
0.298878 0.327794 0.287755
0.317098 0.349783 0.28368
0.357275 0.384634 0.206394
0.531502 0.386404 0.177234
0.710262 0.372213 0.211154
0.821347 0.391165 0.254322
0.872648 0.445457 0.31426
0.436027 0.444312 0.399847
0.427771 0.438895 0.391943
0.435813 0.450111 0.397162
0.456321 0.473411 0.403143
0.478782 0.510246 0.349294
0.577127 0.528756 0.318929
0.708644 0.52723 0.339788
0.811734 0.539513 0.356329
0.899031 0.565469 0.371679
0.570657 0.5906 0.446586
0.568719 0.588327 0.444648
0.571603 0.595605 0.446616
0.580407 0.610361 0.439323
0.605051 0.630243 0.411383
0.668666 0.644312 0.391318
0.770855 0.64918 0.384283
0.851347 0.66392 0.410285
0.927077 0.691234 0.437537
0.719295 0.728786 0.598108
0.712245 0.722301 0.584268
0.714549 0.728756 0.58262
0.724636 0.741878 0.583566
0.7411 0.759228 0.568399
0.768139 0.775311 0.533486
0.822736 0.787457 0.511193
0.887251 0.802991 0.514763
0.946838 0.82298 0.591882
0.883909 0.871565 0.819944
0.878309 0.866926 0.814313
0.881376 0.869657 0.817029
0.889128 0.877485 0.821485
0.89604 0.889372 0.820127
0.895949 0.90161 0.764935
0.918364 0.918242 0.749249
0.949905 0.934051 0.77612
0.987045 0.953826 0.819867
0.00993362 0.00993362 0.0386969
0.0264134 0.0138094 0.0719005
0.100267 0.027039 0.136324
0.186954 0.0410315 0.179477
0.277134 0.0547341 0.209384
0.406363 0.0517586 0.241001
0.593729 0 0.274601
0.85243 0 0.300496
1 0 0.313359
0.0156863 0.0741436 0.12604
0.0426337 0.0766613 0.139757
0.128038 0.0802777 0.181659
0.212711 0.0857862 0.205295
0.294041 0.0951095 0.221988
0.412695 0.0910201 0.247074
0.599985 0.0246433 0.265492
0.851789 0 0.276188
1 0 0.285054
0.0281071 0.174823 0.190845
0.0671855 0.170428 0.192721
0.144854 0.172702 0.207355
0.235355 0.1729 0.229801
0.322072 0.174441 0.243442
0.473442 0.157946 0.255772
0.685222 0.0945296 0.250721
0.873991 0.0168917 0.22739
0.987869 0.0366522 0.198489
0.148882 0.253147 0.227955
0.163607 0.248157 0.227024
0.210681 0.252842 0.23534
0.249516 0.264256 0.24683
0.345068 0.269413 0.234363
0.490608 0.264912 0.220417
0.670832 0.249836 0.199954
0.829847 0.243946 0.192813
0.92015 0.280583 0.210498
0.284215 0.339055 0.299062
0.287251 0.332479 0.295018
0.310201 0.33846 0.306584
0.342733 0.356909 0.326116
0.361135 0.391272 0.29778
0.519432 0.397665 0.254231
0.695018 0.393179 0.282032
0.782422 0.421576 0.316762
0.845853 0.471183 0.345205
0.450919 0.458671 0.404013
0.446601 0.454108 0.399329
0.456565 0.463691 0.398703
0.477317 0.488807 0.406943
0.498238 0.521385 0.39498
0.577203 0.543236 0.362173
0.704997 0.543221 0.373953
0.811078 0.554391 0.385107
0.889754 0.584512 0.402655
0.598367 0.598367 0.457359
0.594202 0.596323 0.457435
0.599512 0.603555 0.45742
0.602472 0.616571 0.457557
0.616938 0.638636 0.447364
0.671595 0.654459 0.425422
0.770916 0.660166 0.416541
0.848508 0.67538 0.446571
0.92343 0.703182 0.478691
0.738109 0.733257 0.625803
0.730526 0.727153 0.615259
0.732357 0.731609 0.618616
0.742855 0.743542 0.628031
0.753445 0.760494 0.627848
0.772732 0.780179 0.590921
0.820401 0.792767 0.568887
0.884153 0.808377 0.569802
0.943832 0.828595 0.659022
0.893904 0.877897 0.83476
0.888991 0.872847 0.829709
0.892119 0.875776 0.831037
0.899489 0.883772 0.840024
0.910292 0.894591 0.848676
0.918715 0.904402 0.853712
0.926604 0.919478 0.838026
0.951141 0.935607 0.783963
0.987305 0.955489 0.832258
0.0196078 0.0167086 0.0915541
0.0389258 0.0211032 0.122423
0.10753 0.0318456 0.190051
0.188968 0.0457618 0.242893
0.28188 0.0571298 0.281254
0.421912 0.0482643 0.307362
0.603189 3.0518e-05 0.341634
0.874266 0 0.389288
1 0 0.411933
0.0211795 0.082414 0.171832
0.0530251 0.0836652 0.185626
0.129412 0.0849012 0.227344
0.213458 0.0905776 0.264744
0.298787 0.0954147 0.289082
0.423774 0.0914626 0.306477
0.607782 0.0227359 0.339681
0.871916 0 0.372564
1 0 0.386725
0.0319677 0.180499 0.237842
0.0712749 0.177905 0.236439
0.148653 0.176715 0.257267
0.23331 0.176989 0.290089
0.33312 0.173404 0.313359
0.478233 0.160266 0.329091
0.684993 0.0945602 0.350347
0.902998 0 0.351858
1 0 0.358175
0.0354314 0.274708 0.274968
0.0793011 0.269902 0.273838
0.154986 0.27068 0.280842
0.22916 0.274693 0.294301
0.336843 0.274464 0.314916
0.481834 0.267811 0.319051
0.683925 0.246708 0.30219
0.845823 0.240604 0.296971
0.903685 0.300755 0.276616
0.235416 0.363851 0.315404
0.245212 0.356283 0.309651
0.294789 0.359976 0.319951
0.347433 0.371847 0.338918
0.393545 0.393942 0.364874
0.52462 0.409461 0.334249
0.6645 0.419013 0.336629
0.749279 0.451652 0.355566
0.835721 0.492119 0.369711
0.468528 0.469352 0.420188
0.460655 0.467308 0.413428
0.474388 0.47921 0.404669
0.503838 0.50248 0.407385
0.528862 0.528145 0.417029
0.577691 0.553704 0.396994
0.705318 0.555505 0.402762
0.804471 0.569345 0.413611
0.876097 0.604059 0.421912
0.617151 0.609308 0.476646
0.611627 0.603784 0.473854
0.616312 0.607904 0.476692
0.63035 0.622583 0.48571
0.63978 0.643214 0.483406
0.675059 0.663294 0.46392
0.768719 0.671519 0.449699
0.849027 0.68658 0.480034
0.916442 0.714855 0.525841
0.749569 0.738231 0.645762
0.742977 0.734127 0.63714
0.747234 0.737591 0.643549
0.758572 0.750057 0.659007
0.769253 0.76527 0.67219
0.781567 0.781643 0.649241
0.821286 0.797925 0.620462
0.884596 0.813611 0.621042
0.940658 0.833799 0.706752
0.899123 0.886488 0.843366
0.896712 0.880186 0.837827
0.898268 0.88069 0.840406
0.9075 0.889357 0.848646
0.915572 0.899886 0.856748
0.927581 0.911711 0.868574
0.940261 0.924575 0.877501
0.95256 0.940627 0.859098
0.987961 0.960327 0.838804
0.0276951 0.0276951 0.167483
0.0483101 0.0313725 0.197894
0.110506 0.0386816 0.268177
0.185107 0.0512551 0.335851
0.278401 0.0616617 0.386755
0.426657 0.0479133 0.41268
0.639536 0 0.435523
0.902922 0 0.490654
1 0 0.558862
0.027451 0.0872358 0.247959
0.0576638 0.088716 0.261158
0.128725 0.0891127 0.309667
0.203693 0.0942702 0.356603
0.291508 0.100191 0.389288
0.430396 0.0892195 0.409308
0.646906 0 0.43064
0.883619 0 0.465904
1 0 0.520806
0.0193179 0.18436 0.319127
0.0633097 0.181765 0.321614
0.144091 0.17995 0.348394
0.224735 0.180087 0.378759
0.324163 0.176776 0.40943
0.492119 0.155291 0.43975
0.702342 0.0796216 0.444999
0.890791 0 0.460197
1 0 0.487648
0 0.284779 0.377783
0.0128481 0.277287 0.373831
0.125582 0.277089 0.38056
0.213062 0.279225 0.395071
0.31841 0.28101 0.41532
0.49752 0.266682 0.439277
0.687404 0.244434 0.433387
0.849393 0.237247 0.443168
0.932845 0.286259 0.446784
0 0.408789 0.388479
0.00334173 0.398856 0.385519
0.11162 0.398718 0.386572
0.222522 0.408515 0.392462
0.334905 0.420478 0.399954
0.4795 0.429267 0.4159
0.63061 0.435126 0.428351
0.753048 0.458579 0.437079
0.854688 0.491371 0.454841
0.367422 0.515206 0.41001
0.372549 0.507713 0.406241
0.415015 0.511818 0.417472
0.499046 0.518898 0.458778
0.535348 0.543603 0.459174
0.5841 0.560662 0.450828
0.689799 0.573816 0.445945
0.781369 0.592203 0.452049
0.864225 0.620127 0.463325
0.614054 0.617594 0.53019
0.60798 0.61503 0.518959
0.614847 0.622187 0.508812
0.634333 0.633478 0.508202
0.662989 0.647608 0.528908
0.682918 0.667094 0.537255
0.760998 0.679774 0.526223
0.837293 0.695537 0.549294
0.900877 0.730327 0.576577
0.756939 0.746059 0.67248
0.751553 0.740581 0.662318
0.758129 0.745418 0.665812
0.769863 0.755627 0.681254
0.785016 0.769329 0.700801
0.79353 0.781765 0.712215
0.81796 0.802045 0.686976
0.880964 0.817823 0.684077
0.940444 0.841215 0.742809
0.902983 0.890623 0.848066
0.900816 0.884627 0.842435
0.901549 0.887678 0.845396
0.912413 0.895796 0.85359
0.923003 0.90367 0.864378
0.931945 0.915862 0.873121
0.944823 0.928786 0.885634
0.96051 0.944671 0.893889
0.988022 0.96054 0.874357
0.0352941 0.0371557 0.2607
0.0546731 0.0396124 0.287999
0.110292 0.0484474 0.360174
0.183185 0.0607919 0.413825
0.275746 0.0703746 0.461311
0.424094 0.0550088 0.524727
0.657237 0 0.646922
0.928023 0 0.76791
1 0 0.793103
0.0233768 0.0919203 0.343954
0.0543069 0.0931258 0.358053
0.125658 0.093843 0.394171
0.199786 0.102495 0.428321
0.283864 0.107454 0.467903
0.421836 0.09514 0.521859
0.658351 0 0.644892
0.912612 0 0.726894
1 0 0.749035
0.0108949 0.190707 0.412863
0.0586404 0.185489 0.410361
0.139849 0.183474 0.428901
0.216648 0.186496 0.4654
0.309499 0.183276 0.53106
0.464256 0.155276 0.633677
0.695247 0.0530098 0.703609
0.912291 0 0.707851
0.999664 0 0.692561
0 0.293751 0.487846
0 0.28571 0.48072
0.0809796 0.281987 0.495338
0.18323 0.28542 0.531014
0.291951 0.286641 0.575509
0.456474 0.274037 0.635935
0.68188 0.238071 0.677104
0.859068 0.225971 0.638911
0.914244 0.304067 0.596033
0 0.420127 0.515541
0 0.412497 0.503227
0.0115053 0.413016 0.506432
0.179126 0.419944 0.520104
0.31252 0.432105 0.528801
0.472557 0.437446 0.5449
0.642725 0.439796 0.566873
0.756619 0.462104 0.55996
0.857862 0.490623 0.596277
0.281498 0.538476 0.4934
0.281102 0.536431 0.488441
0.337636 0.540856 0.49247
0.410163 0.552514 0.505089
0.481346 0.565652 0.521416
0.568521 0.571374 0.543191
0.676921 0.574685 0.580606
0.777096 0.585534 0.597711
0.87216 0.612436 0.6421
0.492302 0.657313 0.570993
0.493492 0.652857 0.560662
0.511238 0.652461 0.560265
0.546792 0.661509 0.575174
0.599435 0.670588 0.591974
0.67219 0.678477 0.619852
0.742123 0.687755 0.641672
0.822049 0.703639 0.671397
0.897017 0.73138 0.702068
0.732494 0.760571 0.687709
0.731945 0.755337 0.683787
0.742412 0.757961 0.6916
0.765377 0.766094 0.708919
0.788952 0.773953 0.729549
0.808865 0.786053 0.741726
0.825666 0.80618 0.753582
0.873198 0.825605 0.753826
0.932891 0.849409 0.785779
0.906783 0.895277 0.855161
0.902144 0.891005 0.848859
0.904936 0.893263 0.850294
0.913924 0.900969 0.858808
0.923705 0.911238 0.868788
0.936202 0.920501 0.880903
0.952361 0.932754 0.893538
0.9682 0.944961 0.90547
0.988235 0.968353 0.909529
0.0227207 0.0483558 0.382834
0.0492714 0.0498512 0.401419
0.113359 0.0589303 0.444556
0.180743 0.0698405 0.507347
0.261799 0.0780346 0.608621
0.400946 0.0560006 0.731044
0.658701 0 0.859327
0.926513 0 0.911269
1 0 0.922972
0.0261234 0.100679 0.437339
0.0582132 0.101045 0.44654
0.125032 0.101595 0.478386
0.188861 0.109606 0.532418
0.264607 0.114031 0.615595
0.397787 0.0935683 0.73518
0.644831 0 0.85597
0.900572 0 0.893767
1 0 0.900755
0 0.198001 0.531319
0.0311589 0.192401 0.523354
0.112291 0.186648 0.570077
0.174228 0.187228 0.661509
0.260441 0.17966 0.764584
0.425498 0.157824 0.835233
0.659861 0.070634 0.874388
0.888518 0 0.885756
0.993866 0.00419623 0.868009
0 0.292653 0.740032
0 0.284688 0.729946
0 0.281987 0.752148
0.0512093 0.282963 0.781308
0.228687 0.28658 0.810224
0.414527 0.280415 0.831312
0.633097 0.256764 0.845701
0.814694 0.248539 0.829526
0.890639 0.324727 0.771817
0 0.426841 0.747677
0 0.416297 0.741238
0 0.418708 0.741421
0.0755627 0.426596 0.740459
0.27805 0.436637 0.733761
0.454154 0.44947 0.718654
0.612451 0.459281 0.716487
0.749172 0.468971 0.733089
0.868589 0.492561 0.749249
0.280049 0.549752 0.634928
0.278782 0.548241 0.630732
0.335531 0.552895 0.633433
0.397971 0.564111 0.644251
0.468284 0.576913 0.662638
0.558022 0.582025 0.682063
0.665476 0.582193 0.71284
0.780941 0.589197 0.748455
0.884123 0.612848 0.768231
0.471656 0.66807 0.697124
0.469795 0.663996 0.686351
0.490471 0.664378 0.689082
0.526879 0.67245 0.699474
0.580499 0.682612 0.713878
0.651408 0.690364 0.730114
0.73434 0.695628 0.751034
0.822187 0.707088 0.782452
0.912657 0.734127 0.802213
0.643641 0.788846 0.757443
0.640742 0.783062 0.75433
0.655482 0.785428 0.75555
0.68275 0.791516 0.76585
0.718471 0.800595 0.77348
0.765774 0.805798 0.785748
0.813352 0.817929 0.798321
0.865644 0.830167 0.81857
0.936431 0.853651 0.845823
0.898451 0.906905 0.863462
0.89192 0.901534 0.857496
0.897368 0.903517 0.859068
0.90898 0.909758 0.867033
0.923415 0.919432 0.876616
0.939834 0.92462 0.885405
0.956466 0.93698 0.901564
0.972274 0.952667 0.913588
0.992157 0.972427 0.925368
0 0.0509804 0.511498
0 0.0527352 0.538918
0.0164492 0.0578164 0.631891
0.0865797 0.063447 0.73756
0.193622 0.0742046 0.818082
0.366979 0.0599832 0.884688
0.646815 0 0.954467
0.910216 0 0.975601
1 0 0.980392
0 0.10016 0.651286
0 0.0973678 0.66807
0 0.100435 0.726726
0.0630961 0.105348 0.792218
0.190112 0.110765 0.847364
0.366186 0.0945144 0.915022
0.626169 0 0.960311
0.876127 0 0.976226
0.998932 0 0.974655
0 0.193622 0.834562
0 0.187762 0.83714
0 0.185214 0.861067
0.0158999 0.185809 0.900236
0.202426 0.185107 0.931731
0.39646 0.173129 0.952255
0.628946 0.12874 0.962615
0.846632 0.0413519 0.963623
0.950973 0.0735943 0.946654
0 0.302144 0.92813
0 0.292988 0.929366
0 0.289036 0.930892
0 0.293767 0.937209
0.175494 0.300587 0.942153
0.383154 0.301305 0.941009
0.58851 0.295201 0.933608
0.744991 0.310628 0.910445
0.844083 0.375021 0.878767
0 0.440558 0.900374
0 0.433066 0.904067
0 0.434348 0.896773
0.0198672 0.441718 0.887312
0.266896 0.460273 0.872892
0.442908 0.47364 0.849683
0.592554 0.485801 0.846662
0.720974 0.499245 0.858518
0.845029 0.515267 0.86804
0.25597 0.573159 0.815763
0.262928 0.570153 0.810498
0.311208 0.576272 0.814282
0.371633 0.58468 0.821805
0.447135 0.595407 0.826459
0.541802 0.6009 0.83209
0.653147 0.605295 0.84358
0.764385 0.619104 0.85539
0.867704 0.642405 0.871244
0.447608 0.690562 0.831464
0.444343 0.683055 0.826719
0.47158 0.684916 0.826154
0.51165 0.692851 0.833173
0.568872 0.70219 0.84097
0.64744 0.710338 0.845533
0.733516 0.718807 0.854658
0.813687 0.730541 0.86627
0.901061 0.754314 0.885618
0.638041 0.807904 0.85211
0.633143 0.801907 0.846525
0.649332 0.802915 0.848783
0.677974 0.809888 0.853758
0.714168 0.816892 0.860426
0.75874 0.825208 0.868849
0.813855 0.834073 0.874144
0.869123 0.845548 0.885634
0.936721 0.865721 0.90547
0.84828 0.926513 0.899367
0.844511 0.921645 0.89453
0.851911 0.924361 0.895232
0.866514 0.929686 0.901396
0.884764 0.935775 0.908324
0.908904 0.944106 0.912993
0.936706 0.952667 0.921294
0.964462 0.960784 0.92929
0.995865 0.976196 0.941024
