70 CGC LUTs/Look LUTs/Blade Runner.cube
#Created by: Denver Riddle
#Copyright: (C) Copyright Color Grading Central LLC
#LUT Size
LUT_3D_SIZE 5
0 0 0
0.0740826 0.012665 0.00790417
0.260288 0.0409094 0.0263523
0.553414 0 0.0319829
0.953307 0 0.00392157
0.100649 0.129656 0.108492
0.170077 0.154467 0.0473945
0.350118 0.152209 0.058793
0.712963 0.0399176 0.0336767
1 0 0.00746166
0.256748 0.309682 0.2318
0.237888 0.336461 0.130877
0.405112 0.369299 0.0213931
0.76495 0.339574 0.0476081
0.935332 0.396338 0.184421
0.545342 0.577447 0.435386
0.544869 0.587503 0.411933
0.601587 0.620829 0.358892
0.780972 0.635904 0.335378
0.936095 0.678248 0.389761
0.860533 0.874388 0.732357
0.862287 0.871824 0.740414
0.880018 0.891493 0.737163
0.920394 0.920104 0.742229
0.987778 0.955856 0.826032
0.00392157 0.00392157 0.0113069
0.0875257 0.0235447 0.0952926
0.269535 0.0523995 0.169375
0.573907 0.000579843 0.203616
0.978988 0 0.179004
0.0604562 0.162417 0.151247
0.145129 0.167178 0.165698
0.304067 0.179141 0.168612
0.618265 0.142138 0.134722
0.975082 0.0227512 0.103853
0.283879 0.324147 0.285115
0.298878 0.327794 0.287755
0.357275 0.384634 0.206394
0.710262 0.372213 0.211154
0.872648 0.445457 0.31426
0.570657 0.5906 0.446586
0.571603 0.595605 0.446616
0.605051 0.630243 0.411383
0.770855 0.64918 0.384283
0.927077 0.691234 0.437537
0.883909 0.871565 0.819944
0.881376 0.869657 0.817029
0.89604 0.889372 0.820127
0.918364 0.918242 0.749249
0.987045 0.953826 0.819867
0.0196078 0.0167086 0.0915541
0.10753 0.0318456 0.190051
0.28188 0.0571298 0.281254
0.603189 3.0518e-05 0.341634
1 0 0.411933
0.0319677 0.180499 0.237842
0.148653 0.176715 0.257267
0.33312 0.173404 0.313359
0.684993 0.0945602 0.350347
1 0 0.358175
0.235416 0.363851 0.315404
0.294789 0.359976 0.319951
0.393545 0.393942 0.364874
0.6645 0.419013 0.336629
0.835721 0.492119 0.369711
0.617151 0.609308 0.476646
0.616312 0.607904 0.476692
0.63978 0.643214 0.483406
0.768719 0.671519 0.449699
0.916442 0.714855 0.525841
0.899123 0.886488 0.843366
0.898268 0.88069 0.840406
0.915572 0.899886 0.856748
0.940261 0.924575 0.877501
0.987961 0.960327 0.838804
0.0352941 0.0371557 0.2607
0.110292 0.0484474 0.360174
0.275746 0.0703746 0.461311
0.657237 0 0.646922
1 0 0.793103
0.0108949 0.190707 0.412863
0.139849 0.183474 0.428901
0.309499 0.183276 0.53106
0.695247 0.0530098 0.703609
0.999664 0 0.692561
0 0.420127 0.515541
0.0115053 0.413016 0.506432
0.31252 0.432105 0.528801
0.642725 0.439796 0.566873
0.857862 0.490623 0.596277
0.492302 0.657313 0.570993
0.511238 0.652461 0.560265
0.599435 0.670588 0.591974
0.742123 0.687755 0.641672
0.897017 0.73138 0.702068
0.906783 0.895277 0.855161
0.904936 0.893263 0.850294
0.923705 0.911238 0.868788
0.952361 0.932754 0.893538
0.988235 0.968353 0.909529
0 0.0509804 0.511498
0.0164492 0.0578164 0.631891
0.193622 0.0742046 0.818082
0.646815 0 0.954467
1 0 0.980392
0 0.193622 0.834562
0 0.185214 0.861067
0.202426 0.185107 0.931731
0.628946 0.12874 0.962615
0.950973 0.0735943 0.946654
0 0.440558 0.900374
0 0.434348 0.896773
0.266896 0.460273 0.872892
0.592554 0.485801 0.846662
0.845029 0.515267 0.86804
0.447608 0.690562 0.831464
0.47158 0.684916 0.826154
0.568872 0.70219 0.84097
0.733516 0.718807 0.854658
0.901061 0.754314 0.885618
0.84828 0.926513 0.899367
0.851911 0.924361 0.895232
0.884764 0.935775 0.908324
0.936706 0.952667 0.921294
0.995865 0.976196 0.941024
