70 CGC LUTs/Look LUTs/Blade Runner.cube
#Created by: Denver Riddle
#Copyright: (C) Copyright Color Grading Central LLC
#LUT Size
LUT_3D_SIZE 33
0 0 0
0 0 0
0 0 0
0.00216678 0 0
0.00961318 0.00285344 0.00285344
0.0185092 0.00392157 0.00392157
0.0343023 0.00758373 0.00402838
0.054078 0.0115969 0.00769055
0.0740826 0.012665 0.00790417
0.0961929 0.0162814 0.0115663
0.118608 0.020264 0.0126955
0.140917 0.0242618 0.0153201
0.164034 0.0282597 0.0169375
0.188266 0.0322576 0.0191196
0.212512 0.0362707 0.0211032
0.236622 0.0387274 0.0240024
0.260288 0.0409094 0.0263523
0.288502 0.0424811 0.0273289
0.319753 0.0421759 0.029572
0.353826 0.0389868 0.0311589
0.388998 0.0353246 0.0313725
0.426337 0.0262608 0.0313725
0.468757 0.0141146 0.0313725
0.512642 0.0024567 0.0336919
0.553414 0 0.0319829
0.599466 0 0.0339666
0.644343 0 0.0318914
0.691096 0 0.0313725
0.742245 0 0.0279698
0.807324 0 0.023682
0.881407 0 0.0130617
0.946609 0 0.00474556
0.953307 0 0.00392157
0.000595102 0.000595102 0.000595102
0.000610361 0.000610361 0.000610361
0.00209049 0.000885023 0.000640879
0.00491341 0.0031281 0.00062562
0.0111238 0.00457771 0.00311284
0.0236362 0.0081178 0.00456245
0.0409247 0.00869764 0.00495918
0.0615702 0.0128328 0.00794995
0.0815595 0.0169528 0.00956741
0.101732 0.0180819 0.0120546
0.12491 0.0222782 0.0128634
0.147784 0.0265049 0.0160372
0.171435 0.0307012 0.0183108
0.194308 0.0349889 0.0204318
0.2177 0.038056 0.0225071
0.240528 0.0411688 0.0250248
0.264942 0.0440528 0.0269932
0.29279 0.045243 0.0289616
0.325246 0.0452735 0.030808
0.360021 0.0424048 0.031342
0.392218 0.0362249 0.033341
0.428214 0.0287633 0.0342107
0.472053 0.018204 0.0343023
0.514199 0.00436408 0.0344396
0.556863 0 0.0344091
0.60058 0 0.0345006
0.646311 0 0.0322118
0.690852 0 0.0313725
0.742565 0 0.0284581
0.806729 0 0.0217441
0.876341 0 0.0137789
0.943877 0 0.00585946
0.960143 0 0.00392157
0.0053254 0.00674449 0.0053254
0.00535592 0.00680552 0.00535592
0.00680552 0.00823987 0.00535592
0.0115206 0.0107271 0.00535592
0.0201877 0.011841 0.00538643
0.0344549 0.0145571 0.00761425
0.0553292 0.0168154 0.00949111
0.0758984 0.0194095 0.00993362
0.0975967 0.0236973 0.0120699
0.1178 0.0267033 0.014313
0.14107 0.0294499 0.0152895
0.163455 0.0336919 0.0184024
0.186481 0.0381781 0.0204623
0.207843 0.041413 0.0226139
0.229007 0.0448768 0.0246128
0.251072 0.0477913 0.026627
0.27541 0.0499733 0.0287022
0.302861 0.0507668 0.0307012
0.332845 0.0498207 0.0328985
0.365362 0.0467384 0.0337377
0.401129 0.0406806 0.0347601
0.437171 0.0334783 0.0353399
0.477134 0.0213169 0.0353552
0.520653 0.00769055 0.0353704
0.563561 0.00109865 0.0353552
0.604196 0 0.0345312
0.647761 0 0.033875
0.694713 0 0.0324254
0.74609 0 0.0291447
0.811582 0 0.0229496
0.880934 0 0.0151675
0.9449 0 0.00735485
0.971588 0 0.00392157
0.0122835 0.0162051 0.0122835
0.0123445 0.0185245 0.0146029
0.0137636 0.019913 0.0137331
0.0184787 0.0236667 0.012314
0.0290074 0.0276341 0.0106661
0.0481422 0.0290379 0.0102846
0.0692454 0.0331731 0.0140536
0.0897078 0.0339513 0.0146029
0.115892 0.038407 0.01738
0.138842 0.0407416 0.0186007
0.161608 0.044007 0.0197147
0.184237 0.0482948 0.0225071
0.204959 0.0508125 0.024155
0.22443 0.0535439 0.0264897
0.244755 0.0558328 0.0284276
0.266514 0.0581521 0.0304875
0.290455 0.0594644 0.0325322
0.316976 0.0595254 0.0345159
0.346319 0.05832 0.0354925
0.378958 0.0552529 0.0365148
0.412543 0.0498207 0.0374762
0.447761 0.0424353 0.0375372
0.488106 0.0314183 0.0375677
0.530602 0.0141909 0.0374456
0.572503 0.00140383 0.0373083
0.614603 0 0.0364843
0.658396 0 0.0353246
0.704753 0 0.0337987
0.761181 0 0.0290074
0.825498 0 0.021622
0.892393 0 0.0129854
0.953292 0 0.00660716
0.986893 0 0.00392157
0.0246433 0.0345617 0.0276493
0.0247044 0.0355535 0.0286259
0.0260929 0.0369268 0.0293126
0.0290837 0.0433509 0.0271
0.0383917 0.0492103 0.0194247
0.0585489 0.0529793 0.017792
0.0796216 0.0546426 0.0187381
0.105486 0.055436 0.0219883
0.129961 0.0596017 0.0232395
0.15314 0.0607309 0.0263066
0.178241 0.0648051 0.0275883
0.200961 0.0662699 0.0282292
0.220401 0.0675975 0.0305486
0.240925 0.070161 0.0323339
0.261433 0.071809 0.0331121
0.282689 0.0724956 0.0345464
0.306264 0.0731365 0.0364996
0.332586 0.073167 0.0382544
0.361059 0.0710918 0.0396277
0.392309 0.0677195 0.0401465
0.426444 0.0627909 0.0409094
0.463859 0.0545663 0.0409857
0.504692 0.0425116 0.0409094
0.544381 0.0270085 0.0404822
0.587076 0.00769055 0.0394141
0.630045 0 0.0386816
0.673747 0 0.0362097
0.72517 0 0.0338598
0.784405 0 0.0268864
0.849653 0 0.0191196
0.910506 0 0.011841
0.965316 0 0.00720226
0.998856 0 0.00392157
0.0419165 0.0575113 0.0494545
0.0419165 0.0582589 0.0494545
0.0434272 0.0608682 0.0495155
0.0456855 0.0635233 0.0470436
0.0490578 0.0706798 0.0362554
0.0674754 0.0788434 0.0274357
0.0914778 0.0799573 0.0234684
0.11902 0.0805371 0.0271305
0.142611 0.0817273 0.0307469
0.168017 0.0853285 0.0316625
0.190951 0.0863508 0.0350195
0.212451 0.0869001 0.0361639
0.234424 0.0874647 0.0383307
0.254459 0.0885786 0.039765
0.274281 0.0907607 0.0404059
0.296178 0.0925002 0.041062
0.319814 0.0917983 0.0419471
0.346807 0.0895247 0.0437171
0.375753 0.0878614 0.0438544
0.408774 0.0835584 0.044358
0.44416 0.078645 0.044358
0.47921 0.0713512 0.044358
0.520699 0.059144 0.0442512
0.563149 0.0428779 0.0439765
0.608148 0.0225376 0.0428779
0.651942 0 0.0397803
0.701442 0 0.0386969
0.759274 0 0.0310674
0.820249 0 0.0237125
0.88452 0 0.0160678
0.938201 0 0.0116426
0.988434 0 0.00444038
0.999802 0 0.00393683
0.0596628 0.08336 0.0675364
0.0607156 0.0832685 0.0686046
0.0630198 0.0845808 0.0708934
0.0651865 0.0861067 0.0704204
0.0661479 0.0949111 0.0574197
0.0803693 0.100771 0.0436103
0.100771 0.104707 0.0353399
0.127779 0.10515 0.031693
0.157443 0.105516 0.0352026
0.180575 0.105882 0.0386664
0.202472 0.10634 0.0396887
0.223972 0.107042 0.0425269
0.245243 0.10782 0.0440833
0.264866 0.109697 0.0458076
0.284581 0.111589 0.0475929
0.307118 0.111772 0.0480201
0.332555 0.11107 0.0485084
0.36025 0.108278 0.0483558
0.391623 0.106355 0.048188
0.42446 0.102174 0.0479744
0.460487 0.0978866 0.0478065
0.497276 0.0901808 0.0477455
0.53933 0.0783398 0.0475929
0.581125 0.0624704 0.047013
0.631052 0.0354925 0.043473
0.684047 0.000549325 0.0395209
0.743648 0 0.0356756
0.803845 0 0.0281834
0.864363 0 0.0205386
0.916594 0 0.0128176
0.963439 0 0.00880446
0.995377 0 0.00437934
0.999786 0 0.00392157
0.0807355 0.108293 0.0893873
0.0803388 0.107988 0.090013
0.0817884 0.107347 0.0913252
0.0856031 0.109224 0.0906539
0.0860456 0.116243 0.0802625
0.0933242 0.124361 0.0596475
0.109285 0.128527 0.0505684
0.136019 0.128862 0.0429999
0.165682 0.12871 0.039704
0.191424 0.128862 0.042771
0.213581 0.129137 0.0460975
0.235279 0.129686 0.0474098
0.256382 0.12987 0.049546
0.275853 0.130144 0.0513619
0.295003 0.130541 0.052903
0.316472 0.130861 0.0550698
0.339849 0.130419 0.0550698
0.370352 0.129564 0.0550393
0.401999 0.125338 0.0549172
0.437034 0.120867 0.0542
0.473915 0.116518 0.0512398
0.513649 0.109056 0.0511788
0.55877 0.0973526 0.0508125
0.611093 0.0745861 0.0471962
0.670161 0.0377661 0.0401312
0.729671 0.00289921 0.0328985
0.789853 0 0.0289616
0.847013 0 0.0218814
0.902174 0 0.0170443
0.946792 0 0.0124208
0.986755 0 0.00843824
0.998703 0 0.00457771
1 0 0.00610361
0.100649 0.129656 0.108492
0.100206 0.129946 0.108293
0.101625 0.130694 0.109575
0.10515 0.132616 0.109987
0.105425 0.13637 0.0993362
0.108858 0.147082 0.0777752
0.120836 0.151293 0.0655222
0.143923 0.151461 0.0545815
0.170077 0.154467 0.0473945
0.198489 0.151766 0.0467994
0.224094 0.151568 0.0473335
0.246128 0.151751 0.049958
0.265217 0.151934 0.053193
0.28452 0.152026 0.0549783
0.305531 0.152117 0.0564431
0.326894 0.152224 0.0587015
0.350118 0.152209 0.058793
0.379873 0.151186 0.0590829
0.409171 0.146517 0.0587778
0.447837 0.142138 0.0579385
0.49044 0.137667 0.0544747
0.536873 0.123873 0.0512398
0.591516 0.109026 0.0477913
0.650217 0.0831617 0.041062
0.712963 0.0399176 0.0336767
0.773159 0.00440986 0.0262303
0.833295 0 0.0221103
0.886336 0 0.0174868
0.931868 0 0.0135805
0.972061 0 0.00982681
0.995712 0 0.0081178
1 0 0.00666819
1 0 0.00746166
0.120317 0.15169 0.127718
0.121065 0.150668 0.126864
0.12195 0.151949 0.125872
0.124254 0.152468 0.125124
0.124041 0.15848 0.117449
0.123873 0.166445 0.0957809
0.135637 0.170031 0.0800031
0.155001 0.173098 0.0684672
0.174502 0.176638 0.0582132
0.202884 0.176608 0.0543374
0.228214 0.176638 0.051606
0.252338 0.174533 0.0512703
0.274235 0.173434 0.0533303
0.295003 0.173526 0.0551156
0.316243 0.173709 0.0565652
0.338231 0.173617 0.0588235
0.36379 0.173434 0.0588998
0.393729 0.172381 0.0591745
0.425559 0.167712 0.0584726
0.466941 0.162982 0.055436
0.510994 0.156039 0.0518196
0.563333 0.141344 0.0481117
0.621775 0.123079 0.0416876
0.68191 0.0967117 0.0343175
0.748043 0.0571908 0.0268711
0.809491 0.00761425 0.0216373
0.865919 0 0.0177005
0.912306 0 0.0139467
0.952773 0 0.010193
0.987701 0 0.00819409
0.998795 0 0.00784314
1 0 0.0093843
1 0 0.0112001
0.142321 0.173922 0.146014
0.141558 0.173007 0.145403
0.14049 0.171817 0.144411
0.142596 0.173663 0.143267
0.142184 0.177264 0.135485
0.141588 0.184787 0.113893
0.147204 0.191196 0.0940566
0.163317 0.194827 0.0800031
0.184466 0.198322 0.0714275
0.207477 0.198413 0.062562
0.231708 0.198505 0.0560464
0.254215 0.19791 0.0542458
0.278599 0.197589 0.0531014
0.302434 0.197803 0.0523079
0.325628 0.196811 0.0526284
0.352499 0.194675 0.0530556
0.380499 0.193942 0.0528725
0.411139 0.190478 0.0527962
0.448325 0.185916 0.0505226
0.490043 0.181308 0.0491646
0.531167 0.173678 0.0456092
0.582498 0.16144 0.0420691
0.644251 0.144686 0.0349279
0.705119 0.120211 0.0296025
0.770596 0.0868238 0.0223239
0.83267 0.0370184 0.0180056
0.885451 0.00483711 0.0142672
0.929183 0 0.0105135
0.966598 0 0.00825513
0.994308 0 0.00784314
1 0 0.00915541
1 0 0.0124208
1 0.00996414 0.017258
0.160632 0.195895 0.160662
0.15964 0.194705 0.159869
0.160967 0.193317 0.158953
0.161089 0.195224 0.157961
0.160113 0.198322 0.15259
0.156573 0.205539 0.128603
0.160784 0.212696 0.107912
0.173342 0.216114 0.0928664
0.192386 0.219501 0.0827497
0.211704 0.219837 0.0721752
0.233448 0.22153 0.0626078
0.256397 0.222049 0.0567178
0.282673 0.222263 0.0513771
0.309346 0.222263 0.0463722
0.33576 0.220859 0.0428168
0.364477 0.218128 0.041001
0.395605 0.217212 0.0408026
0.42884 0.212863 0.0406806
0.468086 0.208072 0.0379034
0.509514 0.203128 0.0379492
0.549233 0.195499 0.0365301
0.59765 0.184329 0.0350347
0.656825 0.170687 0.0298924
0.718166 0.149722 0.0259403
0.781003 0.122652 0.0204471
0.844205 0.0855268 0.0163119
0.896147 0.0454566 0.0124666
0.938537 0.0309148 0.00987259
0.973526 0.0256046 0.009308
0.995941 0.0267185 0.0103151
1 0.0287327 0.0134585
1 0.0325475 0.0171206
1 0.0547799 0.0244907
0.18027 0.217395 0.178561
0.180041 0.216114 0.176349
0.179965 0.214649 0.173465
0.178882 0.214038 0.172122
0.177798 0.218967 0.164752
0.173144 0.224704 0.142443
0.174655 0.233783 0.119722
0.183703 0.237079 0.102358
0.197559 0.240467 0.0892042
0.215442 0.242512 0.0781262
0.23624 0.245792 0.0660258
0.258274 0.246601 0.0561532
0.28394 0.246494 0.0472267
0.311757 0.246494 0.0394141
0.340887 0.245808 0.0331884
0.373114 0.244007 0.0285954
0.407828 0.24155 0.0269017
0.443824 0.23711 0.0270695
0.483345 0.232319 0.0258183
0.524865 0.22739 0.0260471
0.564523 0.219837 0.0261845
0.609812 0.210193 0.0263218
0.664546 0.199878 0.0244144
0.722423 0.182147 0.0222782
0.783581 0.161273 0.0199435
0.847288 0.137377 0.0162966
0.899794 0.1149 0.0134737
0.94052 0.0997787 0.0129091
0.972442 0.0913558 0.0137026
0.995697 0.0968643 0.0168612
1 0.106416 0.0212711
1 0.124056 0.0263066
1 0.142 0.0361181
0.196628 0.238636 0.189899
0.196658 0.237247 0.188891
0.197299 0.235691 0.18732
0.19649 0.236378 0.184054
0.195331 0.240269 0.175738
0.19028 0.246113 0.154192
0.188388 0.254871 0.130144
0.193957 0.25948 0.109499
0.203143 0.263066 0.0945449
0.220569 0.26656 0.0817731
0.239948 0.269963 0.0683604
0.260471 0.271977 0.0568246
0.284596 0.272419 0.0454414
0.311543 0.272419 0.0352026
0.341131 0.272297 0.0267033
0.375387 0.271794 0.01944
0.411994 0.269215 0.0160525
0.451484 0.264454 0.014786
0.49276 0.259419 0.0139162
0.53489 0.254383 0.0144961
0.57615 0.248203 0.0157015
0.61976 0.240574 0.0158236
0.671962 0.232258 0.0171054
0.724422 0.218677 0.0183871
0.783078 0.203326 0.0194705
0.843107 0.18761 0.0178378
0.89456 0.173007 0.0174258
0.934737 0.166751 0.0178988
0.964843 0.16466 0.021561
0.991608 0.170291 0.026276
0.998535 0.179599 0.0335851
0.999817 0.193622 0.044358
1 0.208927 0.0563058
0.216449 0.259586 0.203128
0.215457 0.258213 0.202213
0.215076 0.258549 0.200229
0.213962 0.258885 0.196551
0.212726 0.261555 0.187991
0.207477 0.268727 0.166262
0.202243 0.275822 0.142
0.204364 0.282506 0.118898
0.211551 0.28748 0.101442
0.226307 0.290867 0.0870527
0.243732 0.29427 0.0740978
0.262928 0.297642 0.0621042
0.28481 0.299672 0.0492256
0.310124 0.300313 0.0364843
0.33872 0.300755 0.0251469
0.370703 0.301366 0.0157931
0.407935 0.300557 0.00996414
0.45095 0.297017 0.00537118
0.495247 0.291844 0.00294499
0.538003 0.287236 0.00340276
0.582498 0.283207 0.00608835
0.626917 0.276432 0.00701915
0.677974 0.268223 0.0113832
0.728161 0.259693 0.0159304
0.780484 0.248646 0.0203098
0.834089 0.237003 0.0247196
0.880873 0.228199 0.0263523
0.917861 0.226276 0.0299535
0.949371 0.225925 0.0373236
0.971023 0.234821 0.0480964
0.987686 0.242756 0.0598001
0.996689 0.257603 0.0719921
0.998093 0.273533 0.0876478
0.235172 0.282963 0.217151
0.234104 0.281468 0.216297
0.234165 0.282536 0.213443
0.23299 0.281636 0.20943
0.230213 0.283772 0.201511
0.224887 0.290562 0.180545
0.218097 0.29749 0.157107
0.216571 0.304738 0.133639
0.222751 0.311589 0.111788
0.232364 0.315877 0.0962387
0.24802 0.319371 0.0841688
0.265202 0.32285 0.0716411
0.284749 0.326345 0.0581064
0.308568 0.328801 0.0446326
0.336019 0.330602 0.0317082
0.365957 0.333104 0.0197452
0.402914 0.333455 0.00939956
0.447318 0.332204 0.00148013
0.494133 0.328023 0
0.538338 0.323156 0
0.586206 0.319341 0.000106813
0.632929 0.315373 0.00375372
0.678676 0.307454 0.0115663
0.728222 0.299535 0.0200656
0.77496 0.294789 0.0284123
0.821485 0.287098 0.0365759
0.861021 0.28246 0.0478676
0.896452 0.281849 0.0563211
0.921508 0.284977 0.0677348
0.94136 0.293355 0.0805676
0.957382 0.305272 0.0964523
0.965591 0.321233 0.112825
0.973129 0.337377 0.132708
0.256748 0.309682 0.2318
0.255146 0.307851 0.230396
0.254948 0.307378 0.228138
0.254047 0.307164 0.222873
0.249729 0.309102 0.215732
0.244511 0.315816 0.19678
0.239567 0.321736 0.17615
0.235126 0.329519 0.153033
0.237888 0.336461 0.130877
0.244099 0.343359 0.112108
0.256382 0.34789 0.0974136
0.27277 0.351659 0.0855421
0.292119 0.355367 0.0732433
0.314336 0.359075 0.0611276
0.339666 0.362707 0.0486915
0.369345 0.36611 0.0330053
0.405112 0.369299 0.0213931
0.444022 0.368688 0.00952163
0.48777 0.367254 0.00169375
0.537942 0.362982 0.0009308
0.588846 0.359319 0.0010071
0.633265 0.355642 0.00520333
0.679194 0.348333 0.016846
0.722255 0.343847 0.032105
0.76495 0.339574 0.0476081
0.807889 0.335775 0.0635843
0.839963 0.335729 0.0796521
0.867628 0.339864 0.0958267
0.887449 0.344793 0.112749
0.903334 0.352972 0.128939
0.918883 0.36527 0.145617
0.927413 0.38088 0.165331
0.935332 0.396338 0.184421
0.284077 0.339971 0.250034
0.281941 0.337758 0.247623
0.280064 0.335271 0.245747
0.278035 0.335897 0.24123
0.275517 0.338216 0.232532
0.270848 0.343786 0.219272
0.265599 0.347356 0.199435
0.261051 0.357412 0.179828
0.260243 0.364675 0.158099
0.26305 0.371832 0.136477
0.271809 0.37911 0.120348
0.286381 0.383917 0.106401
0.30544 0.389181 0.094316
0.326345 0.39498 0.0840314
0.349264 0.398749 0.0738079
0.3776 0.402457 0.0628367
0.407889 0.405997 0.0485695
0.449256 0.405585 0.0332952
0.489311 0.40499 0.0243381
0.535912 0.404334 0.0164797
0.583825 0.400946 0.0168765
0.632334 0.397971 0.0288396
0.675349 0.3944 0.0482185
0.718105 0.390616 0.0680858
0.753948 0.387198 0.0882277
0.785458 0.387427 0.108248
0.809552 0.387823 0.125322
0.832746 0.395987 0.145602
0.84921 0.404166 0.165438
0.865125 0.412467 0.181949
0.881773 0.423697 0.201068
0.898253 0.431769 0.215778
0.913725 0.445914 0.229908
0.315847 0.372641 0.273991
0.313298 0.370428 0.271702
0.311894 0.368505 0.268818
0.310979 0.368658 0.264164
0.306218 0.370764 0.258167
0.303334 0.373159 0.246098
0.298817 0.379294 0.230045
0.294316 0.386236 0.211109
0.293568 0.393622 0.192599
0.296025 0.40322 0.171923
0.301839 0.411597 0.152956
0.312596 0.416922 0.137438
0.326894 0.420722 0.125032
0.344137 0.425589 0.115892
0.368933 0.432593 0.109438
0.391409 0.436408 0.10248
0.424262 0.440192 0.0917372
0.455192 0.44007 0.0800183
0.491417 0.443748 0.0716564
0.535042 0.443885 0.0682841
0.58027 0.441184 0.0700999
0.628428 0.438148 0.0787518
0.667979 0.434836 0.097673
0.703151 0.43154 0.11754
0.73814 0.431662 0.137713
0.763027 0.435386 0.158206
0.78645 0.436423 0.181796
0.806729 0.443839 0.201007
0.826535 0.450828 0.215976
0.843076 0.458091 0.23061
0.866758 0.465446 0.245258
0.890242 0.472602 0.25275
0.913268 0.479866 0.259907
0.351141 0.405035 0.302235
0.349172 0.40325 0.300496
0.346792 0.402396 0.29691
0.344213 0.402365 0.290425
0.341512 0.402975 0.283818
0.339803 0.405676 0.275273
0.338369 0.408743 0.263081
0.335027 0.41532 0.245426
0.333715 0.422431 0.229236
0.333913 0.431998 0.212161
0.338354 0.439048 0.194614
0.34757 0.444541 0.17911
0.360052 0.450721 0.166903
0.375921 0.455756 0.157885
0.395483 0.463004 0.152102
0.421378 0.467308 0.149447
0.44448 0.47155 0.143191
0.475959 0.471962 0.136004
0.512489 0.475853 0.131945
0.552224 0.476341 0.129396
0.589654 0.476921 0.134401
0.630274 0.474159 0.143099
0.66891 0.474449 0.158785
0.697368 0.474449 0.174212
0.728878 0.474586 0.193606
0.756313 0.474708 0.211902
0.776059 0.477882 0.229892
0.799237 0.484779 0.244923
0.819135 0.488167 0.256184
0.842344 0.494987 0.267201
0.869184 0.502266 0.274723
0.892546 0.505486 0.281712
0.915343 0.512169 0.285252
0.388113 0.437171 0.332387
0.385641 0.435233 0.329778
0.384268 0.433021 0.327321
0.383474 0.432914 0.322606
0.381109 0.432868 0.316304
0.379263 0.437156 0.307622
0.378424 0.441352 0.298497
0.375158 0.447807 0.284169
0.374151 0.452888 0.269261
0.376577 0.459678 0.252659
0.380758 0.467109 0.237064
0.387854 0.475059 0.225483
0.399115 0.481682 0.215915
0.415747 0.486275 0.208865
0.434913 0.490745 0.206653
0.454673 0.495216 0.204654
0.478157 0.499687 0.202396
0.506462 0.504143 0.199435
0.538399 0.507591 0.195148
0.570474 0.507912 0.192813
0.604288 0.508919 0.197055
0.637659 0.508919 0.204593
0.671672 0.508644 0.214817
0.702876 0.508507 0.226352
0.733455 0.508095 0.240879
0.760433 0.511193 0.252125
0.779828 0.51429 0.262989
0.80264 0.517433 0.273869
0.825803 0.5205 0.28481
0.84921 0.52401 0.292546
0.872602 0.530938 0.299794
0.892714 0.534768 0.307317
0.915724 0.542 0.311254
0.430823 0.469429 0.368078
0.428626 0.467628 0.365866
0.425849 0.465431 0.363333
0.423407 0.465507 0.358892
0.421561 0.465766 0.352758
0.420035 0.46804 0.346609
0.419196 0.47158 0.338521
0.418616 0.47599 0.327306
0.418997 0.482551 0.315923
0.42269 0.490471 0.305028
0.428 0.496849 0.29337
0.43508 0.503502 0.282811
0.44538 0.51136 0.275196
0.459052 0.516716 0.269871
0.475792 0.519738 0.266667
0.495048 0.527123 0.267369
0.51516 0.531746 0.2654
0.538323 0.535637 0.261357
0.562646 0.538476 0.255894
0.590707 0.538735 0.251499
0.623545 0.542031 0.248814
0.656291 0.542031 0.25185
0.686885 0.541909 0.252155
0.717342 0.541299 0.262699
0.744015 0.54049 0.269718
0.770809 0.543542 0.280583
0.79028 0.54313 0.288014
0.813474 0.546578 0.299336
0.836957 0.550149 0.310826
0.857145 0.553735 0.315236
0.877089 0.561151 0.322728
0.896773 0.568368 0.330419
0.920043 0.576165 0.334493
0.471504 0.502785 0.408301
0.469581 0.501137 0.406012
0.467216 0.499199 0.40087
0.465034 0.497673 0.398596
0.463508 0.499001 0.394232
0.464942 0.499825 0.388907
0.465507 0.503014 0.384085
0.466056 0.509834 0.376928
0.469459 0.515419 0.369757
0.472221 0.520638 0.36112
0.476127 0.527413 0.351431
0.48336 0.535454 0.342321
0.491905 0.541726 0.333257
0.503304 0.546136 0.325582
0.517632 0.551751 0.320867
0.52961 0.558419 0.317906
0.54493 0.562219 0.31426
0.564248 0.565698 0.308721
0.587961 0.568383 0.296651
0.615061 0.568383 0.288991
0.644434 0.571817 0.285145
0.673411 0.571572 0.281437
0.699931 0.571084 0.280888
0.730205 0.570459 0.284504
0.757519 0.570092 0.295048
0.781445 0.573465 0.303227
0.801526 0.57377 0.311147
0.821469 0.577188 0.322499
0.844877 0.580896 0.330861
0.861494 0.584604 0.338231
0.884398 0.592187 0.342687
0.904356 0.6 0.347051
0.924437 0.608087 0.354482
0.509346 0.536843 0.427222
0.508125 0.535744 0.426581
0.506737 0.534508 0.42562
0.505364 0.535149 0.422904
0.504143 0.535897 0.42031
0.506462 0.537972 0.416571
0.507134 0.541741 0.412421
0.507759 0.546746 0.405661
0.511772 0.551492 0.398627
0.513512 0.558541 0.391516
0.516823 0.564095 0.382162
0.523308 0.568597 0.372076
0.530816 0.57261 0.363546
0.540154 0.578134 0.356863
0.551278 0.584543 0.35024
0.562127 0.588296 0.344121
0.573358 0.591806 0.340154
0.588708 0.59501 0.335515
0.611688 0.597787 0.326879
0.635004 0.597543 0.321996
0.661067 0.601221 0.314946
0.687175 0.601343 0.311391
0.713939 0.601221 0.307759
0.741543 0.601099 0.310903
0.768826 0.600855 0.318502
0.79295 0.604562 0.326528
0.812924 0.604776 0.33106
0.832639 0.608286 0.338964
0.852827 0.615427 0.346868
0.86891 0.619333 0.351385
0.889067 0.627237 0.358801
0.908843 0.635142 0.36289
0.931746 0.642954 0.370596
0.545342 0.577447 0.435386
0.544549 0.579721 0.435172
0.543313 0.57821 0.434897
0.541924 0.576715 0.432364
0.540825 0.578088 0.430426
0.540581 0.578698 0.427085
0.540688 0.582116 0.423026
0.54377 0.586313 0.418769
0.544869 0.587503 0.411933
0.547524 0.59086 0.404746
0.551369 0.597086 0.397467
0.555383 0.602228 0.390173
0.561212 0.606302 0.38323
0.568429 0.610025 0.376318
0.576562 0.613901 0.369375
0.587442 0.617304 0.362615
0.601587 0.620829 0.358892
0.616983 0.624567 0.354955
0.637003 0.627939 0.350072
0.656901 0.627939 0.342733
0.679637 0.631876 0.338811
0.702388 0.635477 0.335286
0.729015 0.635767 0.331426
0.756634 0.635904 0.331456
0.780972 0.635904 0.335378
0.804578 0.639338 0.342855
0.824613 0.639689 0.347158
0.844327 0.643168 0.35465
0.860853 0.65066 0.362524
0.876905 0.655055 0.366857
0.893141 0.662669 0.374548
0.912764 0.670436 0.381964
0.936095 0.678248 0.389761
0.577844 0.617212 0.447669
0.576883 0.616144 0.447242
0.575616 0.614801 0.446738
0.57438 0.615488 0.446128
0.573037 0.615625 0.442832
0.574914 0.617517 0.438361
0.574884 0.617914 0.436866
0.575113 0.620859 0.4309
0.577539 0.621515 0.426017
0.580957 0.624094 0.421805
0.584634 0.628138 0.41593
0.588281 0.633539 0.408988
0.593256 0.638972 0.40209
0.600549 0.642756 0.395224
0.608118 0.646708 0.388373
0.616526 0.65066 0.381704
0.628367 0.651469 0.378241
0.643931 0.65536 0.377829
0.660273 0.659007 0.373465
0.679728 0.662318 0.365621
0.698955 0.666438 0.362188
0.718105 0.667369 0.355566
0.741573 0.670848 0.351507
0.768704 0.671336 0.351186
0.792676 0.674403 0.354635
0.813077 0.67509 0.355688
0.832761 0.678203 0.362509
0.849256 0.681971 0.370306
0.86862 0.686473 0.378363
0.884779 0.693858 0.382605
0.900557 0.698207 0.393637
0.916732 0.705837 0.401602
0.939956 0.713787 0.409491
0.614298 0.657206 0.464347
0.612436 0.655512 0.463172
0.610391 0.653376 0.462135
0.608454 0.651423 0.46128
0.606943 0.65008 0.457938
0.60853 0.651667 0.455543
0.608515 0.651652 0.45243
0.610071 0.653849 0.450126
0.61117 0.656626 0.44686
0.613779 0.659922 0.443259
0.617761 0.663951 0.438025
0.621851 0.668421 0.431312
0.626154 0.672999 0.425559
0.631647 0.676555 0.42121
0.639277 0.678035 0.414511
0.647715 0.682506 0.408011
0.662486 0.686152 0.401343
0.674632 0.690044 0.401251
0.686885 0.69366 0.400427
0.703075 0.697581 0.392584
0.71873 0.701854 0.385977
0.737652 0.702708 0.382239
0.757336 0.706355 0.378439
0.780743 0.709819 0.374731
0.801114 0.710521 0.37467
0.820829 0.713756 0.374716
0.840665 0.714443 0.378592
0.856931 0.721538 0.386267
0.876417 0.722301 0.394141
0.892592 0.729625 0.405081
0.90837 0.733639 0.413413
0.924239 0.741405 0.424796
0.944121 0.749523 0.432929
0.656245 0.695216 0.491661
0.654063 0.693355 0.489662
