70 CGC LUTs/Look LUTs/Bleach.cube
#Created by: Denver Riddle
#Copyright: (C) Copyright Color Grading Central LLC
#LUT Size
LUT_3D_SIZE 5
0 0 0
0.11693 0 0.00106813
0.469551 0 0.00427253
0.856809 0 0.00973526
1 0 0.0176089
9.15541e-05 0.0298314 0
0.159243 0.157961 0
0.579187 0.279911 0
0.920974 0.350866 0
0.992905 0.390509 0.00183108
0.000564584 0.192844 0
0.229618 0.454353 0
0.673518 0.670253 0.0343023
0.921721 0.903151 0.0803998
0.957824 1 0.104387
0.00138857 0.658534 0
0.286152 0.773358 0.00535592
0.765545 0.844373 0.0696574
0.968368 0.969024 0.0884871
0.9552 1 0.103182
0.025391 0.962753 0.0234989
0.346868 0.920562 0.0648814
0.847089 0.936538 0.0830549
0.999664 0.941756 0.088304
0.940078 0.94287 0.0896162
0 0 0
0.0675669 0 0.067628
0.372915 0 0.186877
0.810941 0 0.312367
1 0 0.442969
0 0 0
0.113878 0.113298 0.113619
0.510506 0.224826 0.228397
0.896391 0.316167 0.327123
0.910018 0.477623 0.495247
0 0.104311 0.0514382
0.183276 0.364446 0.18233
0.603326 0.600427 0.308934
0.881361 0.807858 0.411704
0.950195 0.977386 0.577356
0 0.612207 0.110048
0.237491 0.731762 0.235645
0.68246 0.801205 0.373938
0.928801 0.928466 0.501106
0.958236 1 0.623163
0.0305943 0.952544 0.172091
0.306645 0.921569 0.304616
0.768887 0.938903 0.426871
0.965591 0.947158 0.539788
0.948348 0.950088 0.648554
0 0 0
0.0182956 0 0.0367437
0.277485 0 0.278004
0.765515 0 0.530587
1 0 0.788449
0 0 0
0.0685283 0.0683757 0.140246
0.40441 0.19794 0.403952
0.836469 0.320485 0.663417
0.902235 0.437156 0.837797
0 0.0180972 0.0180209
0.137545 0.275822 0.276844
0.529122 0.526574 0.528084
0.836545 0.707301 0.713466
0.956069 0.98146 0.982589
0 0.565866 0.127977
0.188815 0.689174 0.376684
0.597452 0.756374 0.596567
0.887678 0.886564 0.831495
0.960174 1 1
0.0336309 0.948516 0.229465
0.264515 0.922393 0.459907
0.688869 0.939986 0.6878
0.930053 0.951308 0.908049
0.955337 0.956268 1
0 0 0.351263
0 0 0.468803
0.182483 0 0.590738
0.719829 0 0.720424
1 0 0.850431
0 0 0.39588
0.0240635 0.0240787 0.529397
0.311513 0.153552 0.660365
0.792554 0.28159 0.79237
0.911162 0.396994 0.8392
0 0 0.466773
0.0916915 0.185214 0.596384
0.438163 0.436576 0.721279
0.78381 0.644251 0.783444
0.945922 0.891142 0.919478
0 0.523568 0.523461
0.141588 0.64477 0.645731
0.510826 0.711086 0.712734
0.841611 0.839963 0.841062
0.953872 0.962692 0.962524
0.0519417 0.929335 0.542718
0.225162 0.923858 0.652384
0.605524 0.938399 0.771725
0.888228 0.949462 0.887678
0.953399 0.95375 0.995804
0 0 0.999039
0 0 0.998917
0.0905928 0 0.998978
0.671733 0 0.99913
0.998291 0 1
0 0 1
0 0 1
0.222675 0.11136 1
0.742092 0.242023 1
0.919478 0.356603 0.920409
0 0 1
0.0466011 0.0956436 1
0.346197 0.34519 1
0.733562 0.558587 0.906111
0.936538 0.801633 0.936934
0 0.475364 1
0.0951247 0.596628 1
0.427253 0.669856 0.914458
0.796445 0.794537 0.931914
0.948882 0.916991 0.948989
0.0666361 0.922393 0.919005
0.187457 0.926558 0.925063
0.525292 0.938109 0.937804
0.847761 0.948913 0.949111
0.952712 0.952728 0.952712
