70 CGC LUTs/Look LUTs/Bleach.cube
#Created by: Denver Riddle
#Copyright: (C) Copyright Color Grading Central LLC
#LUT Size
LUT_3D_SIZE 9
0 0 0
0.0290684 0 0.000259403
0.11693 0 0.00106813
0.263371 0 0.00239567
0.469551 0 0.00427253
0.692409 0 0.00669871
0.856809 0 0.00973526
0.960189 0 0.0133822
1 0 0.0176089
1.5259e-05 0.00526436 0
0.0351415 0.0348669 0
0.131044 0.0632639 0
0.290028 0.0804913 0
0.514336 0.0910506 0
0.732464 0.096376 0
0.886488 0.0983444 0
0.975921 0.0959335 0
1 0.0895094 0
9.15541e-05 0.0298314 0
0.0474556 0.0938888 0
0.159243 0.157961 0
0.336446 0.222171 0
0.579187 0.279911 0
0.782971 0.316472 0
0.920974 0.350866 0
0.990509 0.375341 0.000488289
0.992905 0.390509 0.00183108
0.000274662 0.0915847 0
0.0642252 0.190051 0
0.194217 0.288594 0
0.389364 0.386252 0
0.649409 0.48368 0
0.799374 0.560052 0.0161288
0.870253 0.615824 0.0469978
0.919448 0.665644 0.0563058
0.916152 0.714031 0.0620737
0.000564584 0.192844 0
0.0822003 0.323796 0
0.229618 0.454353 0
0.442222 0.584253 0
0.673518 0.670253 0.0343023
0.818479 0.780468 0.0648203
0.921721 0.903151 0.0803998
0.9682 1 0.0937209
0.957824 1 0.104387
0.000946059 0.445289 0
0.0987869 0.541238 0
0.260731 0.636561 0
0.476967 0.710994 0.0131991
0.717159 0.765179 0.0601663
0.859831 0.858778 0.0740063
0.947692 0.951202 0.0860609
0.98024 1 0.0962234
0.95964 1 0.106905
0.00138857 0.658534 0
0.112428 0.720668 0
0.286152 0.773358 0.00535592
0.504128 0.786419 0.0467536
0.765545 0.844373 0.0696574
0.894438 0.907561 0.0800031
0.968368 0.969024 0.0884871
0.987762 1 0.0951553
0.9552 1 0.103182
0.0018616 0.841794 0
0.128466 0.859953 0.00689708
0.31487 0.851591 0.035935
0.539254 0.862425 0.0645304
0.808331 0.900664 0.0766613
0.924117 0.933715 0.0835584
0.985122 0.964889 0.0885939
0.992554 0.995315 0.0918898
0.948638 1 0.0973831
0.025391 0.962753 0.0234989
0.163333 0.939116 0.0424506
0.346868 0.920562 0.0648814
0.573968 0.927214 0.07364
0.847089 0.936538 0.0830549
0.950622 0.940078 0.0866255
0.999664 0.941756 0.088304
0.994171 0.941573 0.0880751
0.940078 0.94287 0.0896162
0 0 0
0.0167849 0 0.0168002
0.0922713 0 0.0462806
0.22652 0 0.0759289
0.42118 0 0.106111
0.657069 0 0.137087
0.833768 0 0.168978
0.948913 0 0.201846
1 0 0.235187
0 0 0
0.0229648 0.0228428 0.0229038
0.111513 0.0491951 0.0499733
0.268849 0.0714275 0.0738994
0.500328 0.0891127 0.0942245
0.730419 0.101961 0.110643
0.891035 0.109819 0.123033
0.981659 0.112703 0.131411
1 0.246372 0.268086
0 0.00695811 0.0034638
0.0358129 0.0712139 0.0356298
0.136522 0.135637 0.0679789
0.312612 0.19733 0.0907607
0.560906 0.230961 0.103593
0.776394 0.249302 0.113252
0.919539 0.256855 0.118715
0.991058 0.255863 0.119188
0.980926 0.372473 0.263066
0 0.0581674 0.0192721
0.0526436 0.156695 0.0522164
0.171435 0.255283 0.0850843
0.355901 0.353399 0.117998
0.606607 0.451514 0.148684
0.787778 0.52314 0.152102
0.871351 0.546914 0.159167
0.906493 0.572686 0.163836
0.914809 0.669856 0.300237
0 0.148592 0.0365759
0.0703899 0.279194 0.0696117
0.206424 0.409644 0.102281
0.407584 0.539284 0.134707
0.638315 0.635325 0.177905
0.78645 0.738994 0.231174
0.901518 0.865049 0.258396
0.95108 0.960601 0.247623
0.953307 1 0.350134
0 0.411505 0.0528267
0.0865492 0.507164 0.085359
0.236728 0.602167 0.117098
0.444358 0.682918 0.152483
0.674754 0.732631 0.211292
0.828382 0.826963 0.252476
0.926894 0.919875 0.291173
0.969375 1 0.322316
0.960067 1 0.367086
0 0.635325 0.0659953
0.0997482 0.697536 0.098085
0.261799 0.752575 0.131289
0.471611 0.767193 0.184848
0.724269 0.823056 0.231724
0.864103 0.886946 0.269154
0.948745 0.948867 0.30457
0.97879 1 0.337407
0.956878 1 0.373419
0 0.830167 0.0771954
0.116045 0.847837 0.114046
0.292393 0.840131 0.16286
0.507591 0.852384 0.210483
0.768154 0.8907 0.24889
0.894972 0.924437 0.282704
0.966934 0.956298 0.314549
0.984985 0.98703 0.344564
0.951614 1 0.377371
0.0272068 0.957076 0.108659
0.155322 0.934356 0.153445
0.327001 0.92076 0.195422
0.543648 0.92845 0.229541
0.808194 0.937881 0.265232
0.922789 0.942168 0.29575
0.982773 0.94461 0.324315
0.988403 0.94519 0.351049
0.944366 0.946593 0.379339
0 0 0
0.00447089 0 0.0089723
0.0675669 0 0.067628
0.189761 0 0.126757
0.372915 0 0.186877
0.621881 0 0.248783
0.810941 0 0.312367
0.937697 0 0.377295
1 0 0.442969
0 0 0
0.0108797 0.0108492 0.021912
0.0842451 0.0413672 0.0841688
0.223392 0.0711376 0.14757
0.437201 0.0956283 0.209064
0.685328 0.112596 0.265187
0.863813 0.123339 0.315831
0.970932 0.128634 0.361212
1 0.235279 0.476936
0 0 0
0.0243229 0.0486152 0.0486763
0.113878 0.113298 0.113619
0.276127 0.171496 0.172992
0.510506 0.224826 0.228397
0.738842 0.272999 0.279789
0.896391 0.316167 0.327123
0.968231 0.350545 0.366506
0.910018 0.477623 0.495247
0 0.0247807 0.016495
0.0411536 0.123262 0.0820935
0.148714 0.221897 0.148165
0.322194 0.320241 0.214054
0.571496 0.413565 0.265904
0.774319 0.464988 0.304402
0.865339 0.488441 0.337285
0.903563 0.510185 0.368627
0.914153 0.634897 0.519509
0 0.104311 0.0514382
0.0585794 0.23473 0.116701
0.183276 0.364446 0.18233
0.372763 0.493858 0.24715
0.603326 0.600427 0.308934
0.754467 0.697124 0.376684
0.881361 0.807858 0.411704
0.937118 0.868574 0.436454
0.950195 0.977386 0.577356
0 0.377462 0.0837415
0.0740673 0.472999 0.147387
0.212833 0.5673 0.211429
0.411231 0.654124 0.273884
0.632822 0.700755 0.34255
0.796445 0.794736 0.411292
0.90576 0.888228 0.477348
0.958556 0.979263 0.522866
0.960403 1 0.60708
0 0.612207 0.110048
0.0866102 0.674388 0.172122
0.237491 0.731762 0.235645
0.438788 0.748531 0.303838
0.68246 0.801205 0.373938
0.83328 0.865873 0.43856
0.928801 0.928466 0.501106
0.969802 0.989548 0.560998
0.958236 1 0.623163
0 0.818555 0.132692
0.102342 0.837003 0.196521
0.269764 0.829587 0.267933
0.4757 0.841749 0.336416
0.727489 0.880217 0.401251
0.8654 0.914794 0.462119
0.948394 0.947433 0.520928
0.977325 0.978744 0.577951
0.954284 1 0.636835
0.0305943 0.952544 0.172091
0.144854 0.931594 0.238743
0.306645 0.921569 0.304616
0.513054 0.929381 0.364904
0.768887 0.938903 0.426871
0.89453 0.943954 0.484321
0.965591 0.947158 0.539788
0.982269 0.948501 0.593484
0.948348 0.950088 0.648554
0 0 0
0 0 0
0.0428016 0 0.0643473
0.153109 0 0.153231
0.325154 0 0.243854
0.58677 0 0.337057
0.788205 0 0.432929
0.926497 0 0.530159
1 0 0.628321
0 0 0
0 0 0
0.0605173 0.0298314 0.0912032
0.188006 0.060914 0.187961
0.384329 0.0907759 0.285069
0.639094 0.118669 0.381796
0.830152 0.141009 0.477089
0.953704 0.156039 0.568353
0.999374 0.22417 0.679271
0 0 0
0.0129702 0.0260319 0.0391089
0.0910811 0.0907454 0.13698
0.236316 0.155657 0.236027
0.450217 0.218463 0.334264
0.693187 0.27422 0.429252
0.867735 0.321035 0.517143
0.938979 0.35378 0.581659
0.905379 0.45713 0.672923
0 0 0
0.0300298 0.0902113 0.0903029
0.126238 0.188922 0.189288
0.288548 0.287053 0.287892
0.525277 0.374823 0.377264
0.738415 0.452247 0.457343
0.829297 0.504356 0.512673
0.893736 0.568597 0.580713
0.927001 0.730236 0.744549
0 0.059678 0.0437781
0.0473793 0.190295 0.142031
0.160159 0.3196 0.239628
0.337896 0.448234 0.336812
0.567483 0.564736 0.426734
0.726284 0.648219 0.490608
0.85774 0.726574 0.559335
0.924529 0.787869 0.623117
0.947204 0.921172 0.784695
0 0.343404 0.091783
0.0625467 0.438743 0.18732
0.188663 0.532708 0.282002
0.377386 0.623926 0.37583
0.592142 0.670893 0.455161
0.764126 0.762188 0.549752
0.884504 0.85626 0.640665
0.94844 0.947707 0.692561
0.960479 1 0.826673
0 0.589044 0.130709
0.074876 0.651225 0.224125
0.212528 0.711055 0.316976
0.405829 0.730953 0.404242
0.640192 0.778988 0.495659
0.801999 0.844434 0.587427
0.90837 0.907622 0.676905
0.960433 0.969467 0.764004
0.959319 1 0.852369
0 0.806943 0.164569
0.0901503 0.826917 0.257816
0.245518 0.82063 0.350256
0.443656 0.830777 0.441794
0.686381 0.869368 0.533013
0.83537 0.904753 0.62092
0.929488 0.938231 0.706706
0.969299 0.970138 0.790722
0.956649 1 0.875731
0.0327611 0.949706 0.212146
0.136034 0.929747 0.30396
0.284611 0.922087 0.391455
0.482124 0.930007 0.479683
0.729137 0.939605 0.567926
0.865827 0.945434 0.652262
0.948028 0.949386 0.734707
0.975753 0.951492 0.815366
0.952026 0.953323 0.897215
0 0 0
0 0 0
0.0182956 0 0.0367437
0.116381 0 0.155459
0.277485 0 0.278004
0.552163 0 0.403098
0.765515 0 0.530587
0.915328 0 0.65922
1 0 0.788449
0 0 0
0 0 0
0.0374609 0.0184634 0.0793164
0.152743 0.0496376 0.207477
0.338277 0.0806744 0.338262
0.604028 0.110201 0.466835
0.804318 0.13843 0.596109
0.938399 0.163958 0.726055
0.995758 0.212726 0.853483
0 0 0
0.00177005 0.00355535 0.0109407
0.0685283 0.0683757 0.140246
0.201831 0.133349 0.271519
0.40441 0.19794 0.403952
0.654505 0.2607 0.534478
0.836469 0.320485 0.663417
0.905058 0.362509 0.753933
0.902235 0.437156 0.837797
0 0 0
0.0188602 0.0569009 0.079408
0.103792 0.155657 0.209888
0.254337 0.2533 0.340261
0.472389 0.350545 0.471595
0.696529 0.440513 0.594461
0.79971 0.498939 0.671855
0.885435 0.569253 0.773678
0.926131 0.699809 0.911864
0 0.0180972 0.0180209
0.0361639 0.147723 0.148287
0.137545 0.275822 0.276844
0.303105 0.402975 0.404257
0.529122 0.526574 0.528084
0.693996 0.600366 0.604166
0.836545 0.707301 0.713466
0.92076 0.808499 0.817716
0.956069 0.98146 0.982589
0 0.309361 0.0775311
0.0510109 0.404486 0.204791
0.165393 0.4981 0.330526
0.342351 0.591241 0.45536
0.552468 0.643183 0.551644
0.731411 0.729305 0.667338
0.865583 0.822278 0.770428
0.939345 0.913069 0.860975
0.959838 1 1
0 0.565866 0.127977
0.0631571 0.628061 0.252689
0.188815 0.689174 0.376684
0.372061 0.714778 0.485863
0.597452 0.756374 0.596567
0.770245 0.822583 0.715145
0.887678 0.886564 0.831495
0.950698 0.94905 0.943618
0.960174 1 1
0 0.7953 0.172793
0.0774701 0.817761 0.296132
0.222461 0.812589 0.413565
0.410681 0.819699 0.525567
0.6448 0.858137 0.643809
0.804746 0.894286 0.758297
0.910124 0.928634 0.871046
0.960891 0.961212 0.981903
0.958679 0.992584 1
0.0336309 0.948516 0.229465
0.126284 0.92903 0.347402
0.264515 0.922393 0.459907
0.449851 0.930266 0.572457
0.688869 0.939986 0.6878
0.836637 0.946578 0.798718
0.930053 0.951308 0.908049
0.968856 0.954162 1
0.955337 0.956268 1
0 0 0.0643015
0 0 0.151949
0 0 0.240208
0.0801556 0 0.329747
0.229297 0 0.421698
0.517311 0 0.517891
0.742947 0 0.614435
0.904189 0 0.711147
1 0 0.808225
0 0 0.0851301
0 0 0.182376
0.0146639 0.00721752 0.277501
0.118364 0.0384222 0.3738
0.289403 0.0695201 0.470665
0.569894 0.100435 0.570001
0.781689 0.12961 0.666789
0.926787 0.157351 0.763424
0.997726 0.201968 0.85803
0 0 0.126467
0 0 0.226917
0.0461891 0.0461585 0.323644
0.168048 0.111101 0.422065
0.35729 0.175738 0.520531
0.620691 0.240085 0.620401
0.814969 0.302098 0.717556
0.899199 0.352331 0.778424
0.906157 0.416953 0.82826
0 0 0.178103
0.0077821 0.0236057 0.278538
0.0814221 0.122332 0.37586
0.22031 0.219623 0.473075
0.425834 0.316793 0.570977
0.667765 0.411933 0.667185
0.783001 0.479622 0.710689
0.871687 0.561364 0.788174
0.922271 0.6663 0.882109
0 0 0.231296
0.0248264 0.103075 0.329641
0.114656 0.230747 0.425345
0.268452 0.357412 0.520226
0.485237 0.483055 0.614618
0.661891 0.571679 0.661387
0.808637 0.686458 0.750027
0.907744 0.796216 0.844144
0.950851 0.936187 0.940993
0 0.278599 0.278508
0.0394446 0.372656 0.373205
0.141955 0.464897 0.465888
0.307225 0.557305 0.558556
0.513848 0.618448 0.620142
0.697292 0.695018 0.696666
0.841398 0.785504 0.786999
0.926818 0.878706 0.879606
0.955047 0.972854 0.972564
0 0.542672 0.311925
0.0514229 0.604944 0.405692
0.165164 0.665904 0.498222
0.338766 0.69839 0.571679
0.553719 0.733181 0.643702
0.736706 0.799039 0.735988
0.864515 0.863127 0.825986
0.938842 0.925063 0.912917
0.957061 0.988739 1
0 0.783673 0.344625
0.066865 0.804196 0.434623
0.200275 0.80238 0.514443
0.378958 0.80856 0.592538
0.601755 0.846021 0.682795
0.772259 0.881941 0.771481
0.887968 0.91632 0.857923
0.948974 0.948837 0.942504
0.956481 0.979904 1
0.0423438 0.938552 0.377935
0.119768 0.92546 0.462165
0.244694 0.922972 0.545815
0.419104 0.930098 0.631617
0.646601 0.939025 0.71899
0.805249 0.945556 0.80444
0.909041 0.950256 0.887556
0.95819 0.95314 0.968872
0.954208 0.954818 1
0 0 0.351263
0 0 0.409735
0 0 0.468803
0.0443885 0 0.528923
0.182483 0 0.590738
0.480659 0 0.654231
0.719829 0 0.720424
0.893034 0 0.785534
1 0 0.850431
0 0 0.366644
0 0 0.435157
0 0 0.498726
0.084184 0.0272831 0.562844
0.242649 0.0584421 0.627451
0.53286 0.0894789 0.692439
0.759106 0.120134 0.759258
0.91574 0.14873 0.823133
0.998627 0.191058 0.883757
0 0 0.39588
0 0 0.465431
0.0240635 0.0240787 0.529397
0.134295 0.0888075 0.594766
0.311513 0.153552 0.660365
0.584604 0.217914 0.725872
0.792554 0.28159 0.79237
0.895827 0.334844 0.824155
0.911162 0.396994 0.8392
0 0 0.431083
0 0 0.499901
0.0591287 0.0890211 0.564095
0.186389 0.185977 0.628214
0.379812 0.282918 0.693202
0.633677 0.37882 0.757702
0.771023 0.452705 0.770748
0.858717 0.53225 0.807172
0.918715 0.633005 0.872358
0 0 0.466773
0.0135805 0.0581674 0.533486
0.0916915 0.185214 0.596384
0.233722 0.311498 0.658961
0.438163 0.436576 0.721279
0.63711 0.534463 0.736736
0.78381 0.644251 0.783444
0.892973 0.763394 0.851926
0.945922 0.891142 0.919478
0 0.244251 0.498009
0.0277562 0.338231 0.561776
0.11841 0.430213 0.622827
0.271748 0.522408 0.683986
0.474052 0.592996 0.715618
0.662684 0.66038 0.74638
0.814755 0.75491 0.814252
0.910994 0.846983 0.879286
0.95111 0.938491 0.942809
0 0.523568 0.523461
0.0396887 0.584909 0.585443
0.141588 0.64477 0.645731
0.304967 0.681575 0.683009
0.510826 0.711086 0.712734
0.703517 0.776211 0.777661
0.841611 0.839963 0.841062
0.926497 0.90042 0.901122
0.953872 0.962692 0.962524
0.000595102 0.770871 0.539986
0.0570535 0.789441 0.594644
0.178775 0.790951 0.636896
0.347463 0.798047 0.6804
0.559609 0.834257 0.74313
0.73994 0.870054 0.805097
0.865995 0.90425 0.865431
0.937316 0.936782 0.92372
0.95465 0.968017 0.980117
0.0519417 0.929335 0.542718
0.113817 0.92253 0.596201
0.225162 0.923858 0.652384
0.388663 0.93022 0.711269
0.605524 0.938399 0.771725
0.773892 0.944884 0.830503
0.888228 0.949462 0.887678
0.947662 0.952377 0.942641
0.953399 0.95375 0.995804
0 0 0.662806
0 0 0.692058
0 0 0.721752
0.0091249 0 0.752132
0.136294 0 0.783291
0.445838 0 0.815244
0.694835 0 0.847562
0.881346 0 0.881941
1 0 0.914931
0 0 0.671901
0 0 0.711223
0 0 0.742885
0.0503853 0.0162966 0.774731
0.197406 0.0474556 0.80679
0.497719 0.0785077 0.838972
0.733501 0.109239 0.871107
0.904494 0.139513 0.904707
0.998856 0.180056 0.931014
0 0 0.6878
0 0 0.726421
0.00210575 0.00210575 0.757504
0.100954 0.0667735 0.78996
0.266682 0.131441 0.822477
0.549828 0.195712 0.854856
0.767483 0.259236 0.886961
0.8907 0.31603 0.890654
0.916075 0.376928 0.870192
0 0 0.706203
0 0 0.743496
0.0367742 0.0554665 0.774533
0.152667 0.152483 0.805783
0.334188 0.249058 0.837934
0.598474 0.34461 0.86981
0.757778 0.423682 0.853849
0.846052 0.501442 0.845884
0.91545 0.6 0.882704
0 0 0.724529
0.00241093 0.0131075 0.759915
0.0687877 0.139483 0.790265
0.198947 0.265492 0.820645
0.39115 0.390021 0.851026
0.613001 0.496818 0.841001
0.758175 0.599527 0.835508
0.878752 0.720851 0.878462
0.941299 0.846296 0.918273
0 0.210086 0.740353
0.016144 0.303609 0.773571
0.0949111 0.395361 0.803128
0.236316 0.487327 0.832837
0.432395 0.56582 0.837842
0.628428 0.626123 0.81677
0.790326 0.720653 0.85774
0.897368 0.813245 0.897017
0.947463 0.904234 0.933333
0 0.500359 0.753429
0.0278019 0.561715 0.785138
0.117784 0.621515 0.814374
0.27042 0.662516 0.817166
0.467964 0.689906 0.803403
0.670512 0.753445 0.839872
0.818586 0.81677 0.876768
0.912764 0.879088 0.912383
0.951278 0.939696 0.945602
0.00349432 0.759045 0.758984
0.0493019 0.775906 0.776501
0.158724 0.780102 0.781231
0.316457 0.789364 0.790753
0.517693 0.823819 0.825238
0.708293 0.859037 0.860304
0.844358 0.892775 0.893751
0.925902 0.925017 0.925551
0.953063 0.955764 0.955688
0.0609293 0.923003 0.722835
0.107454 0.921614 0.749493
0.205936 0.925063 0.779583
0.358511 0.930663 0.811566
0.564782 0.938094 0.845167
0.743267 0.944579 0.877729
0.867567 0.949035 0.908309
0.937346 0.951843 0.937087
0.952895 0.953048 0.963989
0 0 0.999039
0 0 0.998932
0 0 0.998917
0 0 0.998932
0.0905928 0 0.998978
0.411124 0 0.999039
0.671733 0 0.99913
0.867811 0 0.999252
0.998291 0 1
0 0 1
0 0 1
0 0 1
0.0170138 0.00567636 1
0.152819 0.0381476 1
0.461509 0.0707408 1
0.706737 0.103319 1
0.88629 0.135958 1
0.99733 0.169009 0.998672
0 0 1
0 0 1
0 0 1
0.0682994 0.045594 1
0.222675 0.11136 1
0.514961 0.176883 1
0.742092 0.242023 1
0.877928 0.301823 0.970901
0.919478 0.356603 0.920409
0 0 1
0 0 1
0.0148318 0.0222477 1
0.120043 0.120027 1
0.289906 0.217227 1
0.563806 0.313375 1
0.741772 0.397574 0.955932
0.832288 0.475395 0.902419
0.911818 0.567193 0.912459
0 0 1
0 0 1
0.0466011 0.0956436 1
0.165499 0.221592 1
0.346197 0.34519 1
0.587991 0.459617 0.968078
0.733562 0.558587 0.906111
0.863035 0.681376 0.922515
0.936538 0.801633 0.936934
0 0.175128 1
0.00471504 0.267796 1
0.0723735 0.360403 1
0.202319 0.452888 1
0.391119 0.537438 0.981262
0.597284 0.595071 0.908507
0.766934 0.688029 0.920226
0.88307 0.780331 0.933135
0.943908 0.870436 0.944121
0 0.475364 1
0.016495 0.535897 1
0.0951247 0.596628 1
0.237079 0.641596 0.970291
0.427253 0.669856 0.914458
0.638956 0.73135 0.920684
0.796445 0.794537 0.931914
0.900038 0.856672 0.941375
0.948882 0.916991 0.948989
0.0075227 0.738247 0.981323
0.0419013 0.756237 0.96527
0.139422 0.765011 0.937072
0.286442 0.7776 0.915602
0.477287 0.811841 0.923858
0.677485 0.847456 0.933608
0.823346 0.881422 0.941527
0.914687 0.913542 0.947585
0.951812 0.944274 0.951827
0.0666361 0.922393 0.919005
0.0998703 0.923552 0.921187
0.187457 0.926558 0.925063
0.329229 0.931411 0.930587
0.525292 0.938109 0.937804
0.71371 0.944518 0.944549
0.847761 0.948913 0.949111
0.927398 0.951644 0.951827
0.952712 0.952728 0.952712
