70 CGC LUTs/Look LUTs/Bleach.cube
#Created by: Denver Riddle
#Copyright: (C) Copyright Color Grading Central LLC
#LUT Size
LUT_3D_SIZE 33
0 0 0
0.00172427 0 1.5259e-05
0.00715648 0 6.10361e-05
0.0162661 0 0.00015259
0.0290684 0 0.000259403
0.0455482 0 0.000411994
0.0656596 0 0.000595102
0.0894942 0 0.000808728
0.11693 0 0.00106813
0.148013 0 0.00134279
0.182773 0 0.00166323
0.221225 0 0.00201419
0.263371 0 0.00239567
0.309331 0 0.00280766
0.358892 0 0.00326543
0.412238 0 0.00375372
0.469551 0 0.00427253
0.530694 0 0.00482185
0.588144 0 0.00541695
0.64213 0 0.00604257
0.692409 0 0.00669871
0.739147 0 0.00740063
0.782193 0 0.00814832
0.821393 0 0.00892653
0.856809 0 0.00973526
0.888563 0 0.0105898
0.916365 0 0.0114748
0.940261 0 0.0124056
0.960189 0 0.0133822
0.97615 0 0.014374
0.988174 0 0.0154269
0.996139 0 0.0165103
1 0 0.0176089
0 0.000274662 0
0.002121 0.00210575 0
0.00791943 0.00383001 0
0.01738 0.00482185 0
0.0304875 0.00540169 0
0.0472572 0.0056611 0
0.0677348 0.00573739 0
0.0918746 0.00556954 0
0.119677 0.00515755 0
0.151156 0.004654 0
0.186328 0.00416571 0
0.225223 0.00369268 0
0.268055 0.00329595 0
0.314595 0.00296025 0
0.364935 0.00271611 0
0.419043 0.002533 0
0.477165 0.00241093 0
0.538552 0.00236515 0
0.596307 0.00231937 0
0.650294 0.00233463 0
0.70045 0.00231937 0
0.746853 0.00228885 0
0.789548 0.00224308 0
0.82858 0.00222782 0
0.863584 0.00227359 0
0.894591 0.00231937 0
0.921645 0.00233463 0
0.944732 0.00224308 0
0.963851 0.00213626 0
0.978988 0.00201419 0
0.990036 0.00187686 0
0.99707 0.00167849 0
1 0.00143435 0
0 0.0012665 0
0.00248722 0.00491341 0
0.00860609 0.00854505 0
0.0184024 0.0121614 0
0.0318914 0.0153964 0
0.049073 0.0174563 0
0.0699016 0.0193942 0
0.0944076 0.0208133 0
0.122637 0.0217136 0
0.154665 0.0223392 0
0.190555 0.0228275 0
0.230198 0.0231327 0
0.273594 0.0231937 0
0.320958 0.0230106 0
0.372412 0.0225834 0
0.427939 0.0218662 0
0.487617 0.0209964 0
0.548836 0.0200656 0
0.606302 0.019089 0
0.66009 0.0180972 0
0.710094 0.0171206 0
0.756146 0.0161746 0
0.798383 0.015259 0
0.836591 0.014435 0
0.870817 0.0136721 0
0.901061 0.0129244 0
0.927275 0.0123598 0
0.949477 0.0117494 0
0.967742 0.0113527 0
0.981903 0.0109255 0
0.992004 0.0106203 0
0.998032 0.0103914 0
1 0.0101472 0
1.5259e-05 0.00288396 0
0.00283818 0.00839246 0
0.00933852 0.0138857 0
0.019501 0.0193484 0
0.0333867 0.0248112 0
0.0509651 0.0302739 0
0.0723125 0.0349126 0
0.0974136 0.038117 0
0.126268 0.0411688 0
0.158984 0.0441138 0
0.195697 0.04654 0
0.236378 0.0483711 0
0.281041 0.0497444 0
0.32961 0.0508583 0
0.382177 0.0518044 0
0.439155 0.0526284 0
0.500114 0.0532387 0
0.561181 0.0536507 0
0.618296 0.0537881 0
0.671504 0.0536507 0
0.720913 0.0532387 0
0.766384 0.0525521 0
0.807752 0.051545 0
0.845106 0.0502937 0
0.878462 0.0489052 0
0.90782 0.0474556 0
0.933227 0.0459602 0
0.954559 0.04448 0
0.971771 0.0429389 0
0.984924 0.0413367 0
0.994018 0.0398871 0
0.999023 0.0383612 0
1 0.0371252 0
1.5259e-05 0.00526436 0
0.00320439 0.0126192 0
0.0101472 0.0200809 0
0.0208133 0.027512 0
0.0351415 0.0348669 0
0.0532692 0.0422522 0
0.075227 0.0496681 0
0.101106 0.0570687 0
0.131044 0.0632639 0
0.164813 0.0678111 0
0.202502 0.0720836 0
0.244205 0.0763867 0
0.290028 0.0804913 0
0.340032 0.0840162 0
0.394232 0.0869154 0
0.452277 0.0892042 0
0.514336 0.0910506 0
0.574762 0.0926528 0
0.631251 0.0940566 0
0.683833 0.0953078 0
0.732464 0.096376 0
0.776989 0.0972305 0
0.817517 0.0978714 0
0.854032 0.0982376 0
0.886488 0.0983444 0
0.914961 0.0981918 0
0.939406 0.0977493 0
0.959701 0.0970169 0
0.975921 0.0959335 0
0.988052 0.0946059 0
0.996094 0.0929274 0
1 0.0911574 0
1 0.0895094 0
3.0518e-05 0.00863661 0
0.00367742 0.0180209 0
0.0110933 0.0273899 0
0.0223239 0.0368353 0
0.0374304 0.0463874 0
0.0563058 0.0558633 0
0.0791638 0.0654002 0
0.10605 0.0750591 0
0.136858 0.0846876 0
0.17174 0.0940261 0
0.210681 0.101732 0
0.253635 0.107668 0
0.300633 0.113146 0
0.351904 0.118761 0
0.40708 0.124239 0
0.466346 0.129412 0
0.529503 0.133898 0
0.589136 0.137728 0
0.64509 0.140993 0
0.696803 0.143664 0
0.744503 0.145953 0
0.788128 0.147921 0
0.827726 0.149722 0
0.863325 0.151339 0
0.894972 0.152834 0
0.922408 0.154116 0
0.945739 0.155169 0
0.964996 0.155978 0
0.980163 0.156588 0
0.991257 0.156924 0
0.998245 0.157 0
1 0.156756 0
1 0.156558 0
4.57771e-05 0.0134585 0
0.00425727 0.024979 0
0.0123598 0.0365606 0
0.0243534 0.0481727 0
0.0402686 0.0598306 0
0.0602579 0.0716869 0
0.0840009 0.0833295 0
0.11191 0.0951095 0
0.143816 0.106889 0
0.179751 0.1187 0
0.219745 0.13051 0
0.264027 0.141619 0
0.312169 0.150729 0
0.36437 0.157977 0
0.420645 0.164584 0
0.481071 0.171237 0
0.545373 0.177935 0
0.604532 0.184588 0
0.659342 0.190738 0
0.71014 0.196216 0
0.756924 0.201022 0
0.799649 0.205158 0
0.8383 0.208698 0
0.873045 0.211795 0
0.903517 0.21445 0
0.929915 0.216815 0
0.952224 0.218982 0
0.970413 0.220935 0
0.984497 0.222736 0
0.994537 0.22443 0
1 0.225849 0
1 0.227085 0
1 0.228504 0.000106813
6.10361e-05 0.0204166 0
0.0049897 0.0340734 0
0.0138857 0.0478676 0
0.0267796 0.0617533 0
0.0437324 0.075761 0
0.064683 0.0897231 0
0.0896468 0.1037 0
0.118318 0.117372 0
0.151293 0.131273 0
0.188312 0.145174 0
0.229541 0.159197 0
0.274754 0.173144 0
0.324041 0.186938 0
0.377447 0.199512 0
0.434928 0.209995 0
0.496498 0.21857 0
0.562142 0.226459 0
0.620142 0.234195 0
0.674083 0.242008 0
0.723949 0.24979 0
0.769726 0.257435 0
0.811627 0.264622 0
0.849287 0.271061 0
0.882811 0.276814 0
0.91223 0.28188 0
0.937545 0.286259 0
0.95874 0.290089 0
0.975937 0.293523 0
0.988907 0.296513 0
0.997757 0.299199 0
1 0.30164 0
1 0.303914 0
1 0.306661 0.000259403
9.15541e-05 0.0298314 0
0.00587472 0.0457465 0
0.0156863 0.0616922 0
0.0295567 0.0778363 0
0.0474556 0.0938888 0
0.069398 0.109972 0
0.0953994 0.12607 0
0.12546 0.142184 0
0.159243 0.157961 0
0.197467 0.17406 0
0.239704 0.190097 0
0.28603 0.206119 0
0.336446 0.222171 0
0.390997 0.238239 0
0.449866 0.253941 0
0.512779 0.268055 0
0.579187 0.279911 0
0.636194 0.289799 0
0.689143 0.298726 0
0.738018 0.3075 0
0.782971 0.316472 0
0.823667 0.325414 0
0.860212 0.334234 0
0.892653 0.34284 0
0.920974 0.350866 0
0.94519 0.358221 0
0.965316 0.36495 1.5259e-05
0.980285 0.370565 0.000183108
0.990509 0.375341 0.000488289
0.996567 0.379477 0.000823987
0.99884 0.383139 0.00109865
0.997543 0.386496 0.00128176
0.992905 0.390509 0.00183108
0.000122072 0.0416266 0
0.0068513 0.0597696 0
0.0176394 0.0779736 0
0.0324712 0.0961013 0
0.0513771 0.11426 0
0.0743572 0.132479 0
0.101442 0.150744 0
0.132677 0.169085 0
0.168032 0.187457 0
0.206821 0.205158 0
0.250202 0.223301 0
0.297704 0.241459 0
0.349294 0.259632 0
0.405142 0.277882 0
0.465126 0.296117 0
0.529122 0.314244 0
0.596567 0.331472 0
0.652567 0.34696 0
0.704448 0.360128 0
0.752499 0.371466 0
0.79617 0.381537 0
0.835721 0.391302 0
0.871168 0.401144 0
0.901534 0.410727 0.000198367
0.925002 0.419425 0.00106813
0.942428 0.42739 0.00247196
0.954772 0.434806 0.00422675
0.963027 0.44155 0.00608835
0.967773 0.447807 0.00788891
0.969451 0.45359 0.00949111
0.968322 0.459052 0.0107881
0.964508 0.464179 0.0117037
0.958053 0.469688 0.0129854
0.000167849 0.0558022 0
0.00787366 0.0761578 0
0.0196689 0.0964218 0
0.0355383 0.116732 0
0.0554971 0.137057 0
0.0795453 0.157382 0
0.107836 0.177951 0
0.140139 0.198367 0
0.176577 0.218814 0
0.217121 0.239246 0
0.261021 0.25893 0
0.309712 0.279225 0
0.362661 0.299626 0
0.419577 0.31989 0
0.480598 0.340124 0
0.545724 0.360372 0
0.614099 0.380621 0
0.669123 0.400656 0
0.720104 0.419516 0
0.766781 0.436316 0
0.809033 0.450614 7.62951e-05
0.843488 0.461265 0.00115969
0.87068 0.469535 0.00326543
0.89189 0.47689 0.00613413
0.908034 0.484047 0.00952163
0.919875 0.491203 0.0131838
0.92813 0.498589 0.0169223
0.933288 0.506218 0.0205539
0.935729 0.513985 0.0238956
0.935592 0.521996 0.0268864
0.93312 0.529641 0.0292973
0.928222 0.536965 0.0311284
0.920989 0.544671 0.0333715
0.000213626 0.0725567 0
0.00894179 0.0949111 0
0.0217746 0.117296 0
0.0387121 0.139742 0
0.0597696 0.162234 0
0.0850233 0.184939 0
0.114321 0.207446 0
0.147753 0.229969 0
0.185321 0.252506 0
0.227008 0.275074 0
0.272877 0.297688 0
0.322072 0.319493 0
0.375982 0.341802 0
0.434012 0.364111 0
0.496162 0.386404 0
0.562432 0.408698 0
0.631769 0.431037 0
0.685771 0.453452 0
0.735393 0.475654 0
0.777127 0.495232 0.00122072
0.808743 0.51043 0.00477607
0.833249 0.522408 0.00987259
0.853056 0.532158 0.0157015
0.869444 0.540307 0.0214694
0.883116 0.547936 0.0269169
0.894347 0.555749 0.0319371
0.903243 0.564111 0.0364538
0.909911 0.573175 0.0403906
0.914351 0.582879 0.0437476
0.916426 0.592874 0.0464332
0.915969 0.603128 0.0485542
0.912718 0.613352 0.0501564
0.907149 0.624338 0.0523232
0.000274662 0.0915847 0
0.0100557 0.116106 0
0.0239719 0.140658 0
0.0419928 0.165225 0
0.0642252 0.190051 0
0.0905318 0.214679 0
0.120958 0.239307 0
0.15552 0.263951 0
0.194217 0.288594 0
0.237217 0.313466 0
0.284184 0.338109 0
0.335286 0.362753 0
0.389364 0.386252 0
0.448493 0.410574 0
0.511711 0.434882 0
0.579324 0.459403 0
0.649409 0.48368 0
0.701671 0.507698 0.000122072
0.743511 0.527871 0.00270085
0.775097 0.544732 0.00828565
0.799374 0.560052 0.0161288
0.819348 0.574685 0.0251011
0.837049 0.588815 0.033814
0.85391 0.602594 0.0412909
0.870253 0.615824 0.0469978
0.885801 0.628565 0.0508888
0.900008 0.641108 0.0532235
0.911589 0.653605 0.0548409
0.919448 0.665644 0.0563058
0.92372 0.677592 0.0576486
0.924437 0.689479 0.0588693
0.921599 0.701289 0.059968
0.916152 0.714031 0.0620737
0.000335698 0.113069 0
0.0112001 0.139727 0
0.0262455 0.166629 0
0.0454108 0.193378 0
0.0686961 0.220081 0
0.0961166 0.246784 0
0.127657 0.273487 0
0.163348 0.300206 0
0.203311 0.327153 0
0.247272 0.353887 0
0.295354 0.38056 0
0.347524 0.407218 0
0.4038 0.43386 0
0.462837 0.459129 0
0.527382 0.485679 0
0.595712 0.511925 0
0.665385 0.537285 0.000457771
0.708309 0.557565 0.00436408
0.741451 0.574487 0.0116732
0.767926 0.590311 0.0213626
0.790768 0.606867 0.0320745
0.812284 0.625055 0.0421454
0.834546 0.645701 0.0501259
0.858549 0.668421 0.0547189
0.880903 0.690608 0.0576486
0.899535 0.710704 0.0602426
0.914153 0.727993 0.0624552
0.925002 0.743145 0.0643168
0.932143 0.756802 0.065919
0.935653 0.769604 0.0673228
0.935576 0.781979 0.0685588
0.932006 0.794491 0.0697185
0.925948 0.807843 0.0720226
0.000396735 0.137011 0
0.0123903 0.165957 0
0.0285344 0.194812 0
0.0487984 0.22359 0
0.0731975 0.252369 0
0.101732 0.281147 0
0.134401 0.309911 0
0.171313 0.338918 0
0.212222 0.367636 0
0.257252 0.396338 0
0.306386 0.42504 0
0.359625 0.453696 0
0.417075 0.48249 0
0.478538 0.511131 0
0.542397 0.538064 0
0.610712 0.565347 0.000488289
0.67187 0.585199 0.00602731
0.707271 0.602243 0.0149691
0.736751 0.618723 0.0263371
0.763348 0.63653 0.0381018
0.789914 0.657237 0.0482795
0.818647 0.682063 0.0548562
0.8477 0.709468 0.0585336
0.873167 0.736645 0.0620584
0.895125 0.76321 0.0654307
0.913222 0.788052 0.0684977
0.92755 0.81091 0.0712444
0.938048 0.831312 0.07364
0.944778 0.84921 0.0756542
0.947768 0.864973 0.0773327
0.947143 0.879347 0.0787671
0.942855 0.892622 0.0799878
0.936248 0.906615 0.0824903
0.00047303 0.163531 0
0.0135805 0.194369 0
0.0308385 0.225208 0
0.0522011 0.256031 0
0.0777142 0.286824 0
0.107378 0.317739 0
0.141192 0.348653 0
0.179065 0.3794 0
0.221027 0.410101 0
0.267079 0.440742 0
0.317205 0.471336 0
0.371527 0.502083 0
0.429923 0.532753 0
0.492271 0.563241 0
0.557748 0.592676 0.000518807
0.617578 0.612604 0.00611887
0.672465 0.628138 0.0178836
0.705394 0.645319 0.0306859
0.736202 0.664744 0.0432593
0.768002 0.688334 0.0529335
0.80238 0.716899 0.0578927
0.834302 0.746197 0.0618296
0.862623 0.775326 0.0656596
0.887495 0.804456 0.0693675
0.908598 0.833112 0.0729076
0.926146 0.861387 0.0763104
0.940063 0.888548 0.0794842
0.950286 0.914092 0.0823835
0.956863 0.937713 0.0849775
0.95964 0.958801 0.0871901
0.958663 0.97731 0.0890364
0.953994 0.993729 0.090547
0.947021 1 0.0934157
0.000564584 0.192844 0
0.0147707 0.225559 0
0.0331273 0.258274 0
0.0555886 0.29099 0
0.0822003 0.323796 0
0.112947 0.356634 0
0.147738 0.389227 0
0.186633 0.42179 0
0.229618 0.454353 0
0.276661 0.486854 0
0.327932 0.519585 0
0.383078 0.551949 0
0.442222 0.584253 0
0.504936 0.615839 0.000381476
0.564813 0.639017 0.00614939
0.621103 0.655634 0.0185855
0.673518 0.670253 0.0343023
0.708568 0.69131 0.0473793
0.745571 0.71812 0.0561837
0.783795 0.749401 0.0606088
0.818479 0.780468 0.0648203
0.849653 0.81146 0.0689097
0.877272 0.842283 0.0728771
0.901259 0.872816 0.0767071
0.921721 0.903151 0.0803998
0.938628 0.933257 0.0839704
0.95201 0.963165 0.0874037
0.961929 0.99263 0.0906844
0.9682 1 0.0937209
0.970794 1 0.0964675
0.969696 1 0.0988632
0.964889 1 0.100923
0.957824 1 0.104387
0.000656138 0.259648 0
0.0159609 0.290257 0
0.0353857 0.320851 0
0.0589609 0.351629 0
0.0865949 0.382147 0
0.118334 0.412634 0
0.154147 0.443076 0
0.194003 0.473426 0
0.237934 0.503777 0
0.28603 0.534279 0
0.338048 0.564538 0
0.39408 0.594705 0
0.454047 0.62475 1.5259e-05
0.514015 0.648737 0.00357061
0.571206 0.66511 0.013489
0.627131 0.678569 0.0285191
0.68191 0.69453 0.0445258
0.719219 0.717128 0.0545052
0.759106 0.746029 0.0595102
0.796262 0.775601 0.0636454
0.829953 0.805127 0.0676585
0.860121 0.834546 0.0715648
0.88661 0.86363 0.0753185
0.90959 0.892561 0.0789502
0.929091 0.921386 0.082475
0.945098 0.950088 0.0858625
0.957732 0.978882 0.0891585
0.966751 1 0.0923171
0.972305 1 0.0953536
0.974411 1 0.0982681
0.973083 1 0.101106
0.968353 1 0.103853
0.961654 1 0.1084
0.000747692 0.323964 0
0.0171054 0.352407 0
0.0376287 0.381094 0
0.0621958 0.409461 0
0.090837 0.437751 0
0.123537 0.466011 0
0.160296 0.49424 0
0.201099 0.522454 0
0.246052 0.550805 0
0.294881 0.57882 0
0.347677 0.60679 0
0.404501 0.634745 0
0.463508 0.659327 0.0018616
0.521096 0.675898 0.00953689
0.577203 0.687846 0.0224308
0.633921 0.699977 0.0382544
0.691783 0.71751 0.0521859
0.73286 0.743038 0.0583963
0.771756 0.770001 0.0623178
0.807965 0.797635 0.0662242
0.840467 0.824933 0.0699931
0.86949 0.85214 0.07364
0.895003 0.879225 0.0771649
0.917037 0.906157 0.0805524
0.935592 0.932998 0.0838483
0.950774 0.959884 0.0870222
0.962371 0.986465 0.090074
0.970504 1 0.0930037
0.975174 1 0.0958114
0.976394 1 0.098497
0.974182 1 0.101076
0.968551 1 0.103563
0.961074 1 0.107988
0.000854505 0.386007 0
0.018265 0.412268 0
0.0397498 0.438468 0
0.0653086 0.464668 0
0.0949264 0.490806 0
0.128542 0.516854 0
0.166278 0.543053 0
0.20795 0.569024 0
0.253635 0.594949 0
0.303273 0.620813 0
0.356832 0.646555 0
0.413703 0.670695 0.000823987
0.470787 0.687465 0.00650034
0.527062 0.698741 0.0173037
0.583368 0.708476 0.0318151
0.642084 0.721035 0.0469368
0.703731 0.741176 0.0572366
0.745678 0.766796 0.0612039
0.784405 0.792554 0.0649882
0.818845 0.817426 0.068574
0.850355 0.842725 0.0720989
0.878401 0.867903 0.0755016
0.902983 0.893004 0.0787976
0.924102 0.917998 0.0819715
0.941863 0.943023 0.0850538
0.956024 0.967742 0.0879835
0.96672 0.992355 0.0908064
0.973983 1 0.0935073
0.977783 1 0.0960861
0.97821 1 0.0985733
0.975128 1 0.100923
0.968612 1 0.103151
0.960403 1 0.1075
0.000946059 0.445289 0
0.0193484 0.469352 0
0.0418097 0.493355 0
0.0682841 0.517311 0
0.0987869 0.541238 0
0.133364 0.565316 0
0.171893 0.589166 0
0.214343 0.612894 0
0.260731 0.636561 0
0.311101 0.660227 0
0.365255 0.683299 0.000274662
0.421073 0.70016 0.00433356
0.476967 0.710994 0.0131991
0.533028 0.719112 0.0260471
0.590326 0.728191 0.0408331
0.651698 0.742397 0.0538033
0.717159 0.765179 0.0601663
0.75819 0.788907 0.0638132
0.795682 0.812451 0.0673533
0.829694 0.835874 0.0707713
0.859831 0.858778 0.0740063
0.886946 0.882002 0.0771954
0.91075 0.905287 0.0802777
0.930938 0.928298 0.0832227
0.947692 0.951202 0.0860609
0.960983 0.973999 0.088777
0.97081 0.996658 0.091371
0.977203 1 0.093843
0.98024 1 0.0962234
0.979767 1 0.0984665
0.975845 1 0.100587
0.968521 1 0.102602
0.95964 1 0.106905
0.00105287 0.501991 0
0.0204013 0.523888 0
0.0437629 0.545754 0
0.0711528 0.567636 0
0.10251 0.589441 0
0.137835 0.611109 0
0.177127 0.632776 0
0.22034 0.654398 0
0.267491 0.675944 0
0.318608 0.697444 6.10361e-05
0.372366 0.713985 0.0028687
0.427359 0.724529 0.0100557
0.483009 0.731579 0.0212406
0.539528 0.738186 0.03505
0.598398 0.74786 0.0488289
0.663096 0.764706 0.0583963
0.729946 0.787366 0.0627909
0.770001 0.80911 0.0662242
0.806561 0.830701 0.0695354
0.839628 0.852155 0.0727245
0.86923 0.873503 0.0757916
0.895262 0.894591 0.0787213
0.918044 0.915801 0.0815595
0.937346 0.936858 0.0842908
0.953216 0.957809 0.0869001
0.965652 0.978668 0.0893873
0.974655 0.999405 0.0917678
0.980301 1 0.0940414
0.982406 1 0.0961776
0.981109 1 0.0982071
0.976394 1 0.100114
0.968246 1 0.1019
0.958755 1 0.106188
0.00115969 0.556344 0
0.0213931 0.576028 0
0.0456092 0.595789 0
0.0738231 0.615549 0
0.105974 0.635157 0
0.142061 0.654719 0
0.182071 0.674235 0
0.226017 0.693751 0
0.273945 0.713329 0
0.325292 0.72929 0.00195315
0.378729 0.739376 0.00779736
0.433555 0.745617 0.0174258
0.489403 0.750454 0.0299535
0.546822 0.756817 0.0435798
0.607874 0.76817 0.0552529
0.675349 0.787137 0.0610971
0.742214 0.807889 0.0652476
0.781353 0.82768 0.068452
0.817014 0.847349 0.0715343
0.849287 0.866972 0.0745098
0.878065 0.886427 0.0773632
0.903304 0.905699 0.0800946
0.925002 0.924758 0.0826886
0.943465 0.943893 0.0851911
0.95848 0.962936 0.0875715
0.970138 0.981949 0.0898604
0.978332 1 0.0920119
0.983063 1 0.0940566
0.98439 1 0.0959793
0.982284 1 0.0977951
0.976761 1 0.0994736
0.967849 1 0.101061
0.957717 1 0.105333
0.0012665 0.608408 0
0.0223392 0.626154 0
0.0473793 0.643717 0
0.0763561 0.661265 0
0.109255 0.678798 0
0.14609 0.69633 0
0.186877 0.713863 0
0.231617 0.731441 0
0.280064 0.746212 0.00143435
0.331548 0.755627 0.00627146
0.385077 0.761105 0.0145571
0.440024 0.764614 0.0257572
0.496406 0.768521 0.0386511
0.555123 0.775662 0.0510719
0.618265 0.789136 0.0594949
0.68716 0.808026 0.0635691
0.754086 0.826871 0.0675364
0.792309 0.844739 0.0705119
0.827146 0.862531 0.0733806
0.858579 0.880232 0.0761425
0.886412 0.897719 0.0787671
0.910796 0.915068 0.0812695
0.931731 0.932296 0.08365
0.949294 0.949477 0.0859236
0.963546 0.96669 0.0881056
0.974365 0.98378 0.0901656
0.981704 1 0.0921035
0.985641 1 0.0939345
0.98616 1 0.0956436
0.983261 1 0.0972305
0.977005 1 0.0987259
0.967285 1 0.100084
0.956527 1 0.104326
0.00138857 0.658534 0
0.0232547 0.674098 0
0.0490425 0.689647 0
0.0787823 0.705165 0
0.112428 0.720668 0
0.150011 0.736187 0
0.191562 0.751812 0
0.237064 0.764981 0.00120546
0.286152 0.773358 0.00535592
0.337942 0.777996 0.0125429
0.391669 0.780392 0.0225071
0.446983 0.782422 0.0344244
0.504128 0.786419 0.0467536
0.564095 0.794965 0.0569009
0.629267 0.81033 0.0620279
0.698573 0.82739 0.0658885
0.765545 0.844373 0.0696574
0.803128 0.860441 0.0724346
0.837003 0.876265 0.0750744
0.86743 0.891966 0.0776074
0.894438 0.907561 0.0800031
0.917983 0.923018 0.0822919
0.938125 0.938369 0.0844587
0.954894 0.953674 0.0865339
0.968368 0.969024 0.0884871
0.978332 0.984161 0.0903334
0.984878 0.999207 0.0920577
0.988022 1 0.0936599
0.987762 1 0.0951553
0.984131 1 0.0965438
0.977035 1 0.0978103
0.966552 1 0.0989548
0.9552 1 0.103182
0.00149538 0.706752 0
0.0241093 0.720287 0
0.0506752 0.733837 0
0.0811475 0.747372 0
0.115587 0.760998 0
0.153887 0.774502 0
0.196368 0.785641 0.00122072
0.242878 0.792676 0.00494392
0.292576 0.796307 0.0113222
0.344717 0.797665 0.0202029
0.398825 0.798245 0.0310979
0.454475 0.799802 0.0428168
0.512291 0.804562 0.0536202
0.5738 0.815091 0.0607767
0.640009 0.830137 0.0643626
0.709636 0.845335 0.06804
0.776867 0.860533 0.0716411
0.813367 0.874601 0.0741894
0.846418 0.888533 0.0766003
0.87602 0.902342 0.0789197
0.902174 0.91603 0.0811017
0.924926 0.92961 0.0831769
0.94435 0.943145 0.0851453
0.960204 0.956481 0.0869764
0.972625 0.96968 0.0886854
0.982086 0.98323 0.0903487
0.987854 0.996399 0.0918593
0.990234 1 0.0932631
0.989227 1 0.0945449
0.984771 1 0.0957046
0.976928 1 0.0967575
0.965682 1 0.0977035
0.95375 1 0.101915
0.00161746 0.753323 0
0.024979 0.764874 0
0.0522621 0.776425 0
0.0834821 0.788052 0
0.118624 0.799466 6.10361e-05
0.158221 0.80824 0.00151064
0.201999 0.813596 0.00503548
0.249332 0.816022 0.0108186
0.299519 0.816327 0.0187991
0.352041 0.815641 0.0286717
0.406241 0.81532 0.0396124
0.462287 0.817197 0.0503548
0.520943 0.823346 0.0588998
0.58381 0.835309 0.0631571
0.650401 0.848554 0.0665446
0.720607 0.861982 0.0700542
0.787655 0.875227 0.0734569
0.823301 0.887388 0.0757763
0.855528 0.899443 0.0779889
0.884321 0.911376 0.0800793
0.909834 0.923262 0.082063
0.931746 0.934951 0.0839246
0.950225 0.946517 0.0856641
0.965301 0.957977 0.0872816
0.976944 0.969314 0.0887922
0.985168 0.980529 0.0901808
0.990738 0.992386 0.0915389
0.992309 1 0.0927291
0.990494 1 0.0937972
0.985275 1 0.0947433
0.976669 1 0.0955825
0.964675 1 0.0963149
0.952178 1 0.100526
0.00173953 0.798291 0
0.0258183 0.807889 0
0.0538491 0.817548 0
0.0859846 0.826398 0.000350958
0.122744 0.832578 0.00215152
0.16376 0.836072 0.0056611
0.20856 0.83714 0.0110323
0.25655 0.836347 0.0183108
0.307057 0.834501 0.0272374
