70 CGC LUTs/Look LUTs/Brooklyn.cube
#Created by: Denver Riddle
#Copyright: (C) Copyright Color Grading Central LLC
#LUT Size
LUT_3D_SIZE 33
0.0763409 0.0744488 0.0754711
0.0897078 0.0774395 0.0772869
0.110384 0.0817273 0.0798962
0.136858 0.0870527 0.0838788
0.161471 0.093492 0.0893263
0.185977 0.100649 0.0944228
0.207034 0.10631 0.0982681
0.231556 0.112367 0.101808
0.255268 0.118013 0.104707
0.27921 0.12343 0.108217
0.301335 0.12813 0.112428
0.32282 0.132998 0.116487
0.34786 0.139147 0.120317
0.375875 0.145953 0.126131
0.402274 0.151476 0.131792
0.424079 0.156268 0.13669
0.450568 0.161486 0.141924
0.480919 0.167361 0.14789
0.507927 0.173342 0.15407
0.532952 0.17969 0.159289
0.555291 0.185214 0.165133
0.578683 0.190585 0.171969
0.600717 0.195804 0.1785
0.619593 0.199893 0.182895
0.640574 0.205341 0.18674
0.660853 0.213001 0.192401
0.680964 0.221103 0.199847
0.701106 0.228168 0.205921
0.719066 0.234318 0.209445
0.733532 0.239445 0.21146
0.745998 0.243732 0.217197
0.757427 0.248402 0.222034
0.76669 0.252781 0.225269
0.0802014 0.0947127 0.0787518
0.0911116 0.093492 0.079881
0.108827 0.0957351 0.0815442
0.135912 0.100771 0.0854963
0.159884 0.105928 0.0907454
0.184695 0.110552 0.0954147
0.207614 0.115129 0.099382
0.232883 0.121263 0.10309
0.254994 0.126787 0.105852
0.278477 0.132357 0.109361
0.302281 0.136614 0.11371
0.324407 0.141161 0.11783
0.349035 0.146822 0.121782
0.376761 0.153231 0.127657
0.403189 0.158877 0.133196
0.425132 0.163867 0.138064
0.451972 0.169284 0.143267
0.482399 0.175341 0.149233
0.509346 0.181445 0.155367
0.534447 0.187945 0.16054
0.556878 0.19353 0.16643
0.580255 0.198978 0.173236
0.60322 0.204562 0.179828
0.623438 0.209064 0.184146
0.64271 0.214237 0.18761
0.662867 0.221912 0.1935
0.682948 0.229969 0.201068
0.703273 0.237064 0.207095
0.72134 0.243244 0.210697
0.735744 0.248341 0.212955
0.747997 0.252766 0.218662
0.759319 0.257649 0.223346
0.768536 0.262196 0.226383
0.0855268 0.118822 0.0830091
0.0962387 0.11725 0.0842603
0.108446 0.114199 0.0849775
0.13547 0.116045 0.0862135
0.163027 0.120943 0.0917525
0.186465 0.126055 0.0970779
0.209552 0.128542 0.101488
0.233875 0.132189 0.104723
0.257221 0.136995 0.107515
0.279225 0.141741 0.110811
0.30222 0.145647 0.114946
0.325521 0.149599 0.119234
0.351049 0.154955 0.12343
0.378927 0.161273 0.129366
0.405234 0.166995 0.134798
0.427222 0.172122 0.139605
0.454597 0.177737 0.144778
0.485023 0.183963 0.150835
0.511711 0.190112 0.156863
0.536492 0.196826 0.161929
0.558953 0.202319 0.167803
0.582483 0.207996 0.174578
0.605264 0.213764 0.180865
0.62594 0.218235 0.185016
0.645151 0.223484 0.188479
0.665202 0.231189 0.194705
0.685283 0.239185 0.202457
0.705745 0.246311 0.208347
0.723842 0.252567 0.212085
0.737957 0.25771 0.21471
0.750195 0.262211 0.220264
0.761425 0.267323 0.22472
0.770535 0.272206 0.227573
0.0917372 0.144686 0.0878309
0.102632 0.14403 0.0888685
0.114717 0.144503 0.0899825
0.134981 0.142504 0.0910506
0.161715 0.142092 0.093019
0.189181 0.142962 0.0974899
0.213336 0.146181 0.102266
0.238254 0.149081 0.106371
0.261173 0.151766 0.109728
0.284428 0.155779 0.113558
0.307454 0.158831 0.117571
0.330312 0.161944 0.121447
0.355703 0.166247 0.125582
0.383597 0.171969 0.131594
0.409369 0.177615 0.136828
0.431434 0.182727 0.141573
0.459571 0.188571 0.146807
0.489799 0.19498 0.153109
0.515755 0.201175 0.158831
0.539895 0.208057 0.163729
0.562448 0.213382 0.16965
0.58616 0.219425 0.176272
0.608286 0.225162 0.182025
0.629679 0.229313 0.186053
0.6486 0.23473 0.189731
0.66836 0.242527 0.19649
0.688563 0.250385 0.204334
0.708858 0.257404 0.209857
0.725139 0.263172 0.213367
0.740688 0.269261 0.217136
0.753017 0.273701 0.222263
0.764157 0.279133 0.226352
0.773022 0.284581 0.228977
0.097612 0.172473 0.0931716
0.108782 0.173388 0.0936141
0.120333 0.174884 0.0940566
0.139651 0.169528 0.0952468
0.162188 0.166842 0.0981003
0.190204 0.16318 0.0997482
0.215702 0.161501 0.102388
0.241367 0.163531 0.106218
0.266499 0.16669 0.110765
0.290059 0.170092 0.115175
0.312963 0.17293 0.119203
0.33611 0.175555 0.122927
0.361288 0.179294 0.127291
0.390433 0.184924 0.133761
0.416083 0.190478 0.13901
0.438682 0.195331 0.143755
0.465064 0.2 0.148852
0.49395 0.205524 0.155154
0.520531 0.212238 0.160784
0.544076 0.219089 0.165591
0.567285 0.22504 0.171801
0.591287 0.232502 0.178225
0.612665 0.237705 0.183383
0.634836 0.241581 0.18735
0.653056 0.247333 0.191806
0.672511 0.255131 0.19913
0.693049 0.262715 0.206622
0.713588 0.269963 0.21178
0.729519 0.275914 0.215412
0.743969 0.282124 0.22005
0.756252 0.286549 0.22443
0.767285 0.292393 0.228
0.775921 0.298497 0.230457
0.102754 0.196475 0.0971389
0.112413 0.199924 0.0971695
0.12253 0.200137 0.0962081
0.140444 0.197574 0.0975204
0.16321 0.19501 0.101869
0.184314 0.187259 0.105592
0.211246 0.179538 0.103456
0.239185 0.176867 0.105837
0.265705 0.179767 0.110094
0.291997 0.183474 0.114855
0.315312 0.186557 0.119219
0.338994 0.189761 0.12311
0.36527 0.193851 0.127764
0.392615 0.198093 0.133684
0.420081 0.20322 0.139681
0.446189 0.208347 0.14522
0.472007 0.213565 0.151202
0.50016 0.219944 0.157671
0.52546 0.226993 0.162844
0.549508 0.233127 0.168353
0.574289 0.238834 0.174456
0.596689 0.24506 0.180087
0.617929 0.249363 0.184817
0.639597 0.254078 0.189288
0.65774 0.259968 0.194934
0.677653 0.267384 0.202472
0.698634 0.274784 0.209094
0.719066 0.282643 0.214115
0.73434 0.289128 0.218112
0.747494 0.294697 0.222889
0.759228 0.299733 0.226276
0.770199 0.306035 0.229374
0.779049 0.312322 0.231922
0.108141 0.2206 0.100786
0.115221 0.223255 0.100725
0.124056 0.22443 0.0996872
0.139635 0.225483 0.099733
0.160861 0.224125 0.103609
0.181476 0.215213 0.108202
0.200122 0.204273 0.11014
0.230091 0.194537 0.105104
0.256596 0.191241 0.109224
0.284993 0.193973 0.113436
0.311269 0.196643 0.117739
0.335653 0.20032 0.121843
0.361883 0.205249 0.126833
0.388327 0.210086 0.132326
0.418296 0.215686 0.13843
0.449226 0.222171 0.145434
0.479881 0.228962 0.153796
0.507057 0.235966 0.160357
0.530907 0.24239 0.165621
0.555261 0.247807 0.171023
0.581003 0.254246 0.176944
0.604059 0.260182 0.182712
0.626703 0.2645 0.187793
0.647303 0.270375 0.193683
0.665522 0.275822 0.200366
0.685405 0.282689 0.206958
0.705959 0.291066 0.212558
0.725399 0.299519 0.217929
0.739605 0.305653 0.222126
0.752438 0.310552 0.226062
0.763333 0.316594 0.22855
0.775235 0.323156 0.231373
0.786145 0.329015 0.234119
0.113954 0.246098 0.105623
0.120394 0.248356 0.105562
0.127794 0.24921 0.104707
0.138186 0.253071 0.103868
0.155444 0.252369 0.104677
0.176959 0.246983 0.10901
0.196902 0.23505 0.1131
0.218997 0.223392 0.115358
0.247715 0.214343 0.111879
0.275105 0.208408 0.113787
0.302327 0.208225 0.116548
0.329473 0.211292 0.120516
0.355673 0.216297 0.125765
0.382544 0.221744 0.131655
0.412055 0.226993 0.137301
0.446204 0.234653 0.14432
0.48249 0.244053 0.154604
0.511376 0.251637 0.162432
0.534554 0.256992 0.167514
0.559426 0.263096 0.1729
0.587701 0.271168 0.179721
0.614954 0.277821 0.186725
0.637324 0.283253 0.192798
0.657023 0.289204 0.199557
0.67454 0.294682 0.205371
0.694011 0.3019 0.211048
0.714122 0.310811 0.216876
0.732982 0.31931 0.222416
0.747463 0.325353 0.226246
0.758206 0.329503 0.228565
0.770321 0.336065 0.230671
0.783719 0.342794 0.233906
0.796002 0.348531 0.237522
0.118868 0.269184 0.110353
0.124727 0.269413 0.109789
0.132006 0.271763 0.109224
0.139971 0.275608 0.108415
0.150744 0.278233 0.106859
0.171695 0.274571 0.109056
0.192325 0.265782 0.113237
0.215274 0.250141 0.117983
0.236957 0.241703 0.121111
0.265034 0.229892 0.115541
0.292027 0.222248 0.117693
0.31986 0.22237 0.119982
0.347814 0.226246 0.124285
0.375204 0.230777 0.130678
0.406622 0.236667 0.136965
0.440635 0.244343 0.143969
0.477256 0.253559 0.154131
0.511116 0.263478 0.16347
0.538384 0.270741 0.16939
0.563912 0.277699 0.174792
0.593164 0.286992 0.1823
0.622736 0.295018 0.190433
0.646174 0.302327 0.197452
0.666575 0.308995 0.204257
0.683772 0.31519 0.209277
0.703243 0.323873 0.214969
0.72314 0.333303 0.221027
0.741497 0.341024 0.22591
0.756146 0.346853 0.229053
0.766827 0.351385 0.231052
0.780041 0.358282 0.234104
0.793576 0.365316 0.237995
0.805219 0.371298 0.24184
0.122988 0.291051 0.11458
0.128664 0.290455 0.114015
0.136004 0.293309 0.113527
0.143694 0.297246 0.112627
0.152331 0.29955 0.111315
0.167788 0.299107 0.111345
0.186709 0.292973 0.112917
0.211948 0.279744 0.118257
0.232807 0.266423 0.123003
0.255711 0.256092 0.123705
0.28307 0.245838 0.120333
0.309087 0.238056 0.121401
0.338872 0.237232 0.123247
0.366842 0.241199 0.128786
0.400168 0.246738 0.136492
0.436057 0.254246 0.143954
0.472862 0.263172 0.154391
0.508186 0.273945 0.164157
0.540063 0.282979 0.171069
0.569558 0.291829 0.177157
0.598596 0.301869 0.18555
0.628031 0.310307 0.193759
0.651392 0.318944 0.200534
0.672831 0.327199 0.206897
0.692546 0.33576 0.212619
0.711376 0.345678 0.218341
0.732723 0.356405 0.22446
0.751125 0.363912 0.228748
0.766369 0.370291 0.232044
0.777981 0.375952 0.234791
0.790631 0.382879 0.238804
0.802426 0.389319 0.242512
0.811887 0.394461 0.245411
0.126986 0.312596 0.117952
0.132097 0.31284 0.1178
0.138643 0.314717 0.117525
0.146807 0.31754 0.11606
0.155322 0.320699 0.115175
0.167346 0.320607 0.115007
0.182406 0.315694 0.115602
0.205081 0.309041 0.118578
0.228107 0.293721 0.123186
0.248371 0.279728 0.12871
0.274235 0.27364 0.126116
0.300526 0.262226 0.123812
0.330251 0.253819 0.125628
0.358557 0.251911 0.127626
0.389227 0.256809 0.134157
0.425711 0.264332 0.142092
0.463401 0.273213 0.152941
0.499397 0.28426 0.163622
0.53315 0.294057 0.171206
0.565301 0.303822 0.178286
0.595361 0.314061 0.186954
0.624552 0.322835 0.194934
0.647166 0.33135 0.201251
0.669764 0.338796 0.207538
0.694759 0.351202 0.214496
0.714763 0.36347 0.220371
0.737377 0.376455 0.226612
0.757122 0.385443 0.23154
0.77499 0.394537 0.236286
0.788617 0.402182 0.239994
0.799939 0.407843 0.242725
0.809903 0.41178 0.244862
0.817472 0.414008 0.246281
0.131167 0.334203 0.120882
0.136019 0.334737 0.120958
0.141283 0.335348 0.121019
0.149264 0.338247 0.119783
0.158465 0.342107 0.119127
0.167407 0.340215 0.118044
0.180896 0.33579 0.119097
0.199466 0.332158 0.12105
0.223377 0.322301 0.124117
0.244068 0.306966 0.128664
0.266224 0.29601 0.130892
0.292821 0.288624 0.128344
0.321035 0.27805 0.128817
0.350134 0.269047 0.129519
0.378332 0.268452 0.132219
0.41001 0.273411 0.138888
0.449195 0.281773 0.148486
0.486061 0.292195 0.16141
0.520989 0.303029 0.169635
0.555123 0.313146 0.177401
0.586664 0.324483 0.186648
0.616632 0.333501 0.194965
0.639918 0.342565 0.200992
0.664073 0.350561 0.207813
0.690791 0.363684 0.215228
0.714778 0.378363 0.22237
0.738781 0.391592 0.229023
0.758968 0.401328 0.234012
0.777844 0.411612 0.238972
0.792035 0.418143 0.241459
0.806607 0.423102 0.243854
0.817426 0.426291 0.245441
0.82536 0.428458 0.246448
0.136324 0.35906 0.125292
0.141192 0.359472 0.125353
0.146044 0.359884 0.125429
0.152972 0.36199 0.124926
0.160815 0.363409 0.124025
0.169604 0.361913 0.122225
0.182269 0.357961 0.122316
0.197986 0.352117 0.123568
0.217075 0.348608 0.125719
0.240833 0.339101 0.128374
0.261906 0.324819 0.13341
0.284596 0.313222 0.133898
0.313146 0.306645 0.130358
0.340627 0.296666 0.133959
0.370092 0.288655 0.134936
0.398398 0.289433 0.13817
0.433066 0.293004 0.144289
0.468177 0.300679 0.155337
0.504799 0.311543 0.16701
0.542748 0.323354 0.17557
0.577096 0.336126 0.185916
0.607065 0.346075 0.194873
0.63183 0.355474 0.200824
0.657328 0.363867 0.207645
0.683497 0.376165 0.215091
0.710552 0.392874 0.223377
0.737591 0.407156 0.230991
0.75848 0.41767 0.23624
0.776211 0.426749 0.24007
0.793744 0.43331 0.242847
0.813474 0.441871 0.246174
0.827665 0.448234 0.248249
0.834394 0.449165 0.248814
0.141268 0.382162 0.130816
0.146151 0.382574 0.130861
0.151049 0.382971 0.130922
0.157519 0.384527 0.130404
0.163653 0.385397 0.12958
0.172183 0.38439 0.127352
0.184314 0.379141 0.126085
0.199298 0.372351 0.12607
0.214191 0.367895 0.127916
0.235843 0.364828 0.12903
0.259236 0.354726 0.132799
0.27982 0.341985 0.13695
0.305165 0.332021 0.136324
0.334096 0.325551 0.13431
0.361944 0.319692 0.138247
0.390143 0.313161 0.141619
0.424262 0.311147 0.144183
0.45893 0.313252 0.150011
0.487617 0.319493 0.161257
0.523507 0.330602 0.170871
0.562966 0.344289 0.181857
0.594751 0.357366 0.192966
0.622507 0.366857 0.20032
0.649424 0.375265 0.207279
0.675578 0.386755 0.214405
0.703059 0.403937 0.222919
0.732967 0.420371 0.231815
0.756329 0.431952 0.237476
0.774441 0.441154 0.240955
0.79443 0.448646 0.243778
0.816648 0.459434 0.247974
0.834699 0.469459 0.251423
0.842893 0.469856 0.25185
0.145785 0.402701 0.136721
0.150698 0.403082 0.136721
0.155596 0.403464 0.136736
0.16228 0.405493 0.135729
0.168246 0.40734 0.134752
0.177264 0.407126 0.132219
0.189883 0.402396 0.130526
0.204898 0.395834 0.130404
0.220478 0.391699 0.131899
0.236347 0.38761 0.13315
0.259724 0.381735 0.13518
0.282109 0.370825 0.138659
0.304326 0.359182 0.141833
0.33164 0.351659 0.139101
0.360723 0.343908 0.13843
0.392798 0.345006 0.145785
0.425788 0.336309 0.148455
0.462058 0.336019 0.151629
0.490043 0.337133 0.158267
0.517769 0.343297 0.166613
0.557198 0.355856 0.179294
0.589197 0.370062 0.191348
0.616968 0.379721 0.199512
0.646967 0.388937 0.208316
0.674693 0.402426 0.215595
0.701549 0.419684 0.224903
0.731746 0.435996 0.233371
0.756344 0.448234 0.238468
0.777111 0.457588 0.241627
0.798108 0.465492 0.245243
0.822202 0.477668 0.250019
0.839628 0.489891 0.253239
0.849271 0.490379 0.253712
0.150637 0.421897 0.142611
0.155657 0.422705 0.142184
0.160693 0.423514 0.141787
0.167437 0.427344 0.139361
0.173678 0.430381 0.137514
0.184771 0.429984 0.136507
0.199634 0.429435 0.136416
0.215396 0.424109 0.136339
0.23061 0.423407 0.138842
0.246891 0.41915 0.140902
0.26743 0.411826 0.14229
0.289281 0.399771 0.14345
0.311025 0.385763 0.146777
0.335439 0.377325 0.146365
0.368444 0.370657 0.143084
0.405951 0.378378 0.148577
0.443244 0.376379 0.154681
0.477607 0.368627 0.156359
0.506569 0.367422 0.162325
0.529747 0.36936 0.168185
0.561959 0.379034 0.179797
0.591928 0.389853 0.191531
0.621378 0.39823 0.201678
0.650568 0.407782 0.210376
0.677836 0.420691 0.217472
0.706798 0.440085 0.228412
0.735561 0.454932 0.236011
0.760372 0.466453 0.239597
0.783856 0.477745 0.243458
0.807385 0.486702 0.247715
0.828946 0.499855 0.252094
0.845502 0.508843 0.254231
0.855116 0.5093 0.254719
0.155947 0.443702 0.146548
0.161089 0.445899 0.145571
0.166232 0.448081 0.144625
0.17438 0.454032 0.143359
0.181765 0.458366 0.142489
0.193744 0.455787 0.142138
0.209766 0.457923 0.143725
0.226383 0.45864 0.145678
0.241489 0.458793 0.148241
0.258946 0.455619 0.14963
0.279042 0.447211 0.151064
0.299016 0.432761 0.150835
0.320912 0.415778 0.15256
0.343236 0.403311 0.153628
0.377951 0.403326 0.151202
0.422019 0.409781 0.156786
0.460075 0.417182 0.162585
0.493492 0.411688 0.166339
0.524834 0.406363 0.17116
0.549722 0.406332 0.177737
0.570703 0.408591 0.183368
0.599451 0.411475 0.193805
0.630396 0.422126 0.20528
0.657343 0.43003 0.212375
0.685389 0.442939 0.221012
0.713649 0.461067 0.231388
0.740887 0.473442 0.237018
0.767071 0.487785 0.240909
0.792508 0.498451 0.245457
0.815839 0.509071 0.249485
0.83537 0.521096 0.253468
0.853346 0.53048 0.254353
0.862745 0.530755 0.254871
0.160754 0.468254 0.148241
0.166567 0.471656 0.148074
0.172381 0.475029 0.147921
0.183017 0.479759 0.148302
0.19202 0.482338 0.148623
0.204257 0.481956 0.149447
0.219776 0.484199 0.151369
0.23624 0.487541 0.153979
0.253437 0.490074 0.156878
0.270527 0.486854 0.158312
0.289891 0.479591 0.159167
0.310399 0.467643 0.160281
0.33193 0.449454 0.160449
0.353811 0.433158 0.160739
0.388098 0.434958 0.161059
0.43946 0.446296 0.16817
0.470848 0.450538 0.172778
0.504677 0.457588 0.180758
0.533104 0.451194 0.183673
0.561761 0.442161 0.18677
0.587304 0.439628 0.19321
0.613321 0.440116 0.200946
0.641505 0.447242 0.20766
0.667338 0.454322 0.214176
0.695384 0.469017 0.224506
0.720684 0.482933 0.233463
0.748257 0.493965 0.238056
0.775738 0.508034 0.242603
0.80119 0.518486 0.247303
0.82153 0.529839 0.251347
0.844144 0.542168 0.254673
0.863279 0.551369 0.256214
0.873701 0.552117 0.256748
0.167422 0.493751 0.152407
0.173434 0.497581 0.152392
0.179431 0.501381 0.152392
0.191531 0.503258 0.154025
0.201511 0.503655 0.155261
0.213672 0.505211 0.156512
0.228855 0.508309 0.158633
0.244892 0.511177 0.161028
0.263676 0.516075 0.164706
0.2813 0.51342 0.166583
0.300923 0.506371 0.167529
0.321584 0.495872 0.168231
0.343175 0.480629 0.16846
0.366278 0.46569 0.167468
0.400168 0.465461 0.171359
0.448417 0.477974 0.178042
0.484398 0.481132 0.183459
0.516579 0.489754 0.190158
0.548821 0.494545 0.196445
0.576822 0.487266 0.199634
0.603647 0.479316 0.20354
0.632059 0.476249 0.208301
0.657359 0.477623 0.213458
0.678767 0.481575 0.218219
0.702892 0.494362 0.227008
0.728344 0.505959 0.235294
0.756313 0.512215 0.2392
0.782223 0.523964 0.243626
0.80734 0.538399 0.249088
0.829114 0.551385 0.253086
0.853376 0.563378 0.25742
0.86862 0.570779 0.259922
0.879698 0.571847 0.260594
0.174456 0.519783 0.158648
0.180301 0.523705 0.158816
0.18613 0.527611 0.158999
0.198047 0.528252 0.160937
0.208194 0.528939 0.162615
0.220874 0.532021 0.164782
0.236423 0.535119 0.167407
0.25272 0.536522 0.169467
0.271901 0.541802 0.17258
0.290913 0.539925 0.175448
0.310857 0.533181 0.176837
0.33283 0.523857 0.176974
0.354788 0.509392 0.177234
0.376974 0.496818 0.178088
0.411688 0.495155 0.182193
0.455512 0.50338 0.186542
0.495201 0.509987 0.192309
0.527916 0.517647 0.19855
0.559869 0.527062 0.205707
0.588952 0.532021 0.210712
0.615488 0.523842 0.213123
0.645136 0.516121 0.217197
0.669734 0.515587 0.221897
0.689662 0.517983 0.225147
0.712016 0.523339 0.231617
0.73785 0.527901 0.237476
0.763882 0.531167 0.240528
0.789593 0.544579 0.246418
0.81474 0.56109 0.251804
0.837995 0.573358 0.256504
0.859785 0.585184 0.26157
0.872419 0.59057 0.263203
0.883299 0.591409 0.263783
0.181231 0.544793 0.166506
0.187182 0.548302 0.166674
0.193439 0.55285 0.167208
0.204974 0.554772 0.168902
0.214847 0.556359 0.170474
0.227771 0.559396 0.173373
0.243793 0.563256 0.176883
0.260563 0.564645 0.179385
0.280217 0.567407 0.181201
0.299947 0.566491 0.184451
0.3205 0.560494 0.186755
0.341909 0.552346 0.187335
0.366491 0.538964 0.187198
0.390478 0.527733 0.189319
0.424231 0.523278 0.190951
0.461494 0.527184 0.193942
0.502281 0.536568 0.200153
0.539956 0.547967 0.207477
0.568063 0.556664 0.213291
0.598215 0.569696 0.219379
0.626108 0.57203 0.224521
0.654719 0.559991 0.22649
0.682887 0.55671 0.231128
0.70428 0.558541 0.233295
0.725429 0.559213 0.236713
0.74728 0.557183 0.241474
0.773266 0.560204 0.24596
0.798886 0.573297 0.251896
0.824002 0.587533 0.256046
0.846586 0.597879 0.261479
0.864515 0.607111 0.264622
0.876326 0.61062 0.265171
0.88716 0.611185 0.265705
0.188571 0.566247 0.174395
0.194598 0.567773 0.174411
0.201205 0.570596 0.175021
0.212375 0.572808 0.176623
0.221927 0.574701 0.178149
0.234852 0.5785 0.181552
0.251057 0.583139 0.185061
0.269078 0.588281 0.188266
0.288594 0.58938 0.189685
0.308415 0.589944 0.19266
0.329366 0.585092 0.194736
0.35079 0.577783 0.195621
0.376883 0.567529 0.195987
0.4056 0.556268 0.196887
0.436362 0.548531 0.197879
0.465904 0.550225 0.200961
0.507347 0.562509 0.206256
0.545815 0.578637 0.214557
0.576669 0.590234 0.221744
0.604379 0.601068 0.226535
0.634867 0.61117 0.23151
0.665354 0.608438 0.234714
0.691875 0.59971 0.238499
0.717037 0.595071 0.240986
0.739757 0.594232 0.242496
0.759075 0.59379 0.245624
0.782879 0.594202 0.251499
0.807614 0.603632 0.256168
0.833585 0.615381 0.261662
0.853346 0.622126 0.265263
0.869932 0.629084 0.265904
0.881407 0.631006 0.26627
0.892226 0.631525 0.266804
0.196658 0.582544 0.181811
0.202838 0.584207 0.182071
0.208713 0.58529 0.182071
0.219394 0.587381 0.183719
0.228611 0.589288 0.18526
0.241794 0.593835 0.188479
0.258228 0.599283 0.191531
0.276478 0.605676 0.1944
0.295705 0.609567 0.196735
0.315251 0.610437 0.199496
0.33698 0.60679 0.20174
0.359213 0.60058 0.202747
0.385107 0.593683 0.203265
0.416342 0.584237 0.204501
0.442939 0.572976 0.204303
0.47277 0.574578 0.208133
0.510887 0.587655 0.212421
0.548806 0.605554 0.220676
0.582757 0.618021 0.228092
0.611643 0.626139 0.232197
0.639597 0.635019 0.236118
0.67393 0.641993 0.241413
0.696086 0.641749 0.243763
0.720241 0.635203 0.246021
0.749249 0.628367 0.247852
0.772656 0.627405 0.251255
0.796262 0.631479 0.256107
0.818235 0.634516 0.260304
0.841428 0.63949 0.264714
0.859968 0.643854 0.266438
0.876585 0.648798 0.267079
0.887678 0.649683 0.267582
0.898421 0.650111 0.268116
0.204837 0.598672 0.188602
0.211231 0.600549 0.189349
0.216861 0.600824 0.189471
0.226886 0.602548 0.191058
0.235889 0.604807 0.192721
0.249012 0.609155 0.194766
0.265217 0.615427 0.19733
0.282887 0.622751 0.200168
0.30309 0.628733 0.203082
0.322789 0.631327 0.206439
0.344823 0.62855 0.208789
0.367849 0.622843 0.21001
0.392966 0.617823 0.210361
0.42475 0.609506 0.21207
0.449042 0.597299 0.211521
0.48159 0.599069 0.214664
0.515435 0.615 0.219532
0.551843 0.631556 0.226154
0.587457 0.643565 0.233234
0.617975 0.653101 0.238331
0.648569 0.660136 0.241825
0.675975 0.666072 0.245548
0.703334 0.679774 0.250675
0.727153 0.678737 0.251713
0.752972 0.666667 0.253376
0.779858 0.659403 0.257115
0.808392 0.659724 0.260182
0.832181 0.661997 0.263188
0.851682 0.663951 0.266392
0.867948 0.664775 0.268101
0.883879 0.668864 0.269398
0.894667 0.669306 0.269917
0.90544 0.669764 0.270451
0.213367 0.617502 0.195483
0.219226 0.618296 0.196017
0.224796 0.618479 0.196338
0.234745 0.620447 0.197971
0.244236 0.624292 0.200046
0.257206 0.628916 0.202106
0.273152 0.634577 0.204395
0.290639 0.640864 0.206744
0.311254 0.647044 0.209445
0.331136 0.649729 0.212818
0.353246 0.648707 0.215549
0.377569 0.644831 0.217166
0.403189 0.641032 0.218463
0.432242 0.632456 0.220386
0.461051 0.622614 0.220203
0.491203 0.626108 0.22118
0.521416 0.642115 0.226917
0.556176 0.656397 0.231479
0.591974 0.668055 0.238468
0.62208 0.678096 0.243259
0.655634 0.68629 0.247166
0.680583 0.692744 0.250538
0.705043 0.704967 0.254887
0.734264 0.715084 0.258732
0.764446 0.715511 0.261173
0.788846 0.702434 0.261646
0.811963 0.690974 0.264027
0.836927 0.689189 0.26627
0.860624 0.689311 0.269078
0.87689 0.689464 0.27155
0.890837 0.692103 0.273304
0.901396 0.691707 0.273747
0.91223 0.692256 0.274296
0.221317 0.637247 0.202548
0.228046 0.640009 0.203845
0.233921 0.640604 0.204334
0.244038 0.642969 0.205936
0.25301 0.645777 0.207538
0.265095 0.650065 0.209674
0.280537 0.6551 0.211521
0.297856 0.66038 0.212924
0.317861 0.666041 0.214832
0.337789 0.669993 0.218402
0.359594 0.670039 0.221317
0.385641 0.666423 0.223987
0.413855 0.662013 0.22649
0.441062 0.654154 0.227832
0.469947 0.649149 0.228733
0.499687 0.654032 0.230182
0.527962 0.666789 0.233036
0.565484 0.681529 0.237339
0.59733 0.691859 0.243412
0.626032 0.701549 0.246937
0.658656 0.713252 0.251789
0.687922 0.722881 0.256535
0.709728 0.728313 0.258732
0.735958 0.736706 0.262119
0.76672 0.749294 0.267872
0.791684 0.750195 0.269612
0.818692 0.734371 0.270497
0.844526 0.725765 0.272099
0.868009 0.724483 0.275883
0.884611 0.723491 0.277699
0.89688 0.721736 0.278035
0.906874 0.719265 0.278096
0.917647 0.719585 0.278599
0.22884 0.672496 0.210315
0.235203 0.674281 0.211124
0.241459 0.675319 0.211826
0.251804 0.678355 0.21384
0.261219 0.685176 0.216327
0.27303 0.690455 0.218875
0.2878 0.695811 0.220737
0.304158 0.701045 0.221759
0.322942 0.705135 0.223224
0.342031 0.704952 0.225254
0.363348 0.700832 0.226886
0.386389 0.699275 0.228717
0.41767 0.69749 0.232517
0.447761 0.6851 0.234379
0.478065 0.678462 0.236728
0.506233 0.683909 0.237552
0.537545 0.695552 0.238651
0.575998 0.711269 0.244434
0.604318 0.72166 0.248981
0.632746 0.734081 0.252293
0.662852 0.743542 0.256931
0.693156 0.747585 0.260456
0.714977 0.752285 0.26331
0.739803 0.761639 0.266651
0.765484 0.773297 0.270604
0.796307 0.78645 0.276326
0.823957 0.782238 0.278752
0.853452 0.769787 0.279301
0.876875 0.760784 0.280507
0.892149 0.757595 0.283284
0.90396 0.754162 0.284169
0.914321 0.751217 0.284016
0.925139 0.751644 0.28452
0.23473 0.708797 0.217029
0.241993 0.713893 0.218891
0.248386 0.715038 0.219791
