70 CGC LUTs/Look LUTs/Brooklyn.cube
#Created by: Denver Riddle
#Copyright: (C) Copyright Color Grading Central LLC
#LUT Size
LUT_3D_SIZE 9
0.0763409 0.0744488 0.0754711
0.161471 0.093492 0.0893263
0.255268 0.118013 0.104707
0.34786 0.139147 0.120317
0.450568 0.161486 0.141924
0.555291 0.185214 0.165133
0.640574 0.205341 0.18674
0.719066 0.234318 0.209445
0.76669 0.252781 0.225269
0.097612 0.172473 0.0931716
0.162188 0.166842 0.0981003
0.266499 0.16669 0.110765
0.361288 0.179294 0.127291
0.465064 0.2 0.148852
0.567285 0.22504 0.171801
0.653056 0.247333 0.191806
0.729519 0.275914 0.215412
0.775921 0.298497 0.230457
0.118868 0.269184 0.110353
0.150744 0.278233 0.106859
0.236957 0.241703 0.121111
0.347814 0.226246 0.124285
0.477256 0.253559 0.154131
0.593164 0.286992 0.1823
0.683772 0.31519 0.209277
0.756146 0.346853 0.229053
0.805219 0.371298 0.24184
0.136324 0.35906 0.125292
0.160815 0.363409 0.124025
0.217075 0.348608 0.125719
0.313146 0.306645 0.130358
0.433066 0.293004 0.144289
0.577096 0.336126 0.185916
0.683497 0.376165 0.215091
0.776211 0.426749 0.24007
0.834394 0.449165 0.248814
0.155947 0.443702 0.146548
0.181765 0.458366 0.142489
0.241489 0.458793 0.148241
0.320912 0.415778 0.15256
0.460075 0.417182 0.162585
0.570703 0.408591 0.183368
0.685389 0.442939 0.221012
0.792508 0.498451 0.245457
0.862745 0.530755 0.254871
0.181231 0.544793 0.166506
0.214847 0.556359 0.170474
0.280217 0.567407 0.181201
0.366491 0.538964 0.187198
0.502281 0.536568 0.200153
0.626108 0.57203 0.224521
0.725429 0.559213 0.236713
0.824002 0.587533 0.256046
0.88716 0.611185 0.265705
0.213367 0.617502 0.195483
0.244236 0.624292 0.200046
0.311254 0.647044 0.209445
0.403189 0.641032 0.218463
0.521416 0.642115 0.226917
0.655634 0.68629 0.247166
0.764446 0.715511 0.261173
0.860624 0.689311 0.269078
0.91223 0.692256 0.274296
0.240558 0.738308 0.224231
0.275822 0.746044 0.228962
0.332708 0.750103 0.232258
0.418524 0.749981 0.239033
0.554314 0.769467 0.252811
0.66923 0.795071 0.266377
0.778607 0.825803 0.283665
0.884459 0.832532 0.291768
0.939315 0.806668 0.291325
0.261433 0.836759 0.248005
0.282841 0.840574 0.250233
0.330068 0.842969 0.252567
0.427558 0.857725 0.262013
0.577157 0.877058 0.275822
0.685527 0.884428 0.284962
0.789136 0.894972 0.29456
0.886641 0.908019 0.303655
0.956542 0.910765 0.309102
0.0852979 0.0955978 0.1505
0.169375 0.10399 0.154025
0.258824 0.117556 0.148699
0.340612 0.131044 0.153048
0.447349 0.155581 0.174441
0.553719 0.181338 0.19823
0.638407 0.203601 0.218952
0.716121 0.232044 0.240909
0.764431 0.248478 0.256306
0.0978256 0.161944 0.158816
0.180087 0.183917 0.181964
0.284062 0.188128 0.174914
0.376318 0.18854 0.167025
0.472374 0.203815 0.181064
0.569818 0.225605 0.203784
0.652888 0.246143 0.222889
0.728634 0.274372 0.245838
0.775799 0.295918 0.261372
0.119509 0.264439 0.142992
0.165499 0.289677 0.163561
0.285634 0.271489 0.179416
0.406241 0.253803 0.178378
0.506065 0.264302 0.195407
0.599176 0.286442 0.217502
0.678981 0.307942 0.24126
0.749691 0.338338 0.261357
0.8009 0.36347 0.272923
0.136416 0.357321 0.149477
0.164889 0.367117 0.155428
0.242527 0.389975 0.166903
0.364782 0.340093 0.176516
0.495781 0.314733 0.194308
0.620066 0.35613 0.230152
0.712383 0.396933 0.257115
0.785611 0.433906 0.275456
0.835218 0.451652 0.284291
0.156435 0.444007 0.170504
0.182361 0.458442 0.166918
0.247852 0.48484 0.180987
0.342901 0.45948 0.19588
0.484657 0.437293 0.203296
0.598199 0.416754 0.22678
0.714717 0.467124 0.266194
0.806577 0.508278 0.282887
0.871412 0.540459 0.293538
0.181415 0.542657 0.189685
0.211933 0.556741 0.191318
0.27657 0.572503 0.208515
0.372107 0.57406 0.227527
0.502861 0.553017 0.235462
0.629877 0.577249 0.258747
0.730785 0.567071 0.27451
0.826886 0.594919 0.297307
0.891768 0.61973 0.307134
0.216358 0.624155 0.218997
0.243076 0.625055 0.220813
0.307073 0.646693 0.235554
0.405463 0.658396 0.254658
0.524758 0.657038 0.267369
0.657481 0.691569 0.282994
0.764279 0.718517 0.300359
0.862654 0.693523 0.312779
0.914305 0.697017 0.320516
0.240452 0.744595 0.246113
0.27303 0.74641 0.248859
0.330419 0.756191 0.257664
0.414588 0.762203 0.270649
0.549279 0.776379 0.286198
0.668544 0.797757 0.303243
0.779339 0.827192 0.325078
0.884169 0.831922 0.336782
0.941527 0.811597 0.340139
0.263172 0.840894 0.26952
0.284153 0.843 0.271916
0.330983 0.845029 0.277577
0.42295 0.858106 0.291768
0.567895 0.878508 0.310185
0.679286 0.889113 0.324254
0.789197 0.900008 0.338109
0.888808 0.910475 0.351888
0.957946 0.914275 0.359609
0.0955978 0.122988 0.223407
0.148638 0.124651 0.224414
0.253513 0.133837 0.212757
0.342382 0.14403 0.20238
0.459205 0.162707 0.210163
0.564279 0.188205 0.233463
0.648035 0.209903 0.252522
0.721569 0.23566 0.273198
0.766506 0.251087 0.288167
0.101686 0.164431 0.225193
0.161242 0.190585 0.249134
0.286961 0.203326 0.248615
0.391363 0.200443 0.225803
0.497353 0.21091 0.224323
0.580377 0.231296 0.241443
0.655207 0.249866 0.257862
0.726589 0.274739 0.278462
0.7738 0.292088 0.294026
0.115572 0.236072 0.214405
0.166323 0.274678 0.256504
0.299947 0.312184 0.299428
0.424338 0.286778 0.272267
0.514565 0.266789 0.240436
0.593622 0.276173 0.247349
0.67158 0.296971 0.26772
0.746136 0.329122 0.289342
0.795209 0.354284 0.302235
0.136034 0.335317 0.196567
0.172351 0.362371 0.206409
0.24976 0.414679 0.23592
0.439963 0.395911 0.262974
0.550408 0.359564 0.266484
0.636683 0.366735 0.277989
0.713298 0.394553 0.291218
0.782284 0.428199 0.306935
0.830732 0.444175 0.316152
0.151446 0.422461 0.195789
0.184512 0.450263 0.206729
0.244358 0.49099 0.215457
0.364462 0.505333 0.251423
0.51751 0.47097 0.258137
0.631907 0.435798 0.267506
0.737514 0.487602 0.301762
0.8224 0.526009 0.319921
0.875364 0.55407 0.330114
0.170794 0.51133 0.224353
0.213001 0.551522 0.228901
0.267231 0.5691 0.233814
0.367086 0.592096 0.262043
0.503914 0.58262 0.284443
0.633753 0.59089 0.291539
0.737575 0.571603 0.307927
0.839689 0.61088 0.336446
0.898146 0.628595 0.343404
0.201617 0.611139 0.254093
0.245411 0.627939 0.255894
0.300572 0.645151 0.260502
0.39498 0.663798 0.284184
0.527871 0.682017 0.312322
0.656413 0.699504 0.316396
0.763943 0.722072 0.334462
0.859129 0.695003 0.348882
0.917006 0.705837 0.36051
0.233692 0.725734 0.280659
0.268772 0.750744 0.279332
0.32166 0.765301 0.2822
0.406241 0.777157 0.299489
0.541024 0.793576 0.318624
0.665949 0.806912 0.338766
0.777768 0.828534 0.361196
0.884535 0.834089 0.375982
0.941634 0.814496 0.38587
0.265034 0.84445 0.296422
0.292821 0.849897 0.30042
0.322286 0.849424 0.301152
0.411399 0.860105 0.316503
0.557382 0.877409 0.337484
0.675258 0.895674 0.358312
0.785397 0.90663 0.377157
0.891951 0.917647 0.405295
0.959243 0.918791 0.424063
0.107195 0.151644 0.29839
0.14519 0.152255 0.297566
0.213977 0.148898 0.283162
0.330282 0.160876 0.262913
0.438407 0.174853 0.263981
0.556359 0.199496 0.281987
0.647013 0.219471 0.294789
0.723247 0.242267 0.30837
0.773892 0.263722 0.324361
0.113191 0.189151 0.305837
0.153002 0.200137 0.314916
0.229068 0.211002 0.321233
0.372107 0.218357 0.295079
0.482261 0.226596 0.282399
0.591348 0.247654 0.292561
0.676127 0.27042 0.308446
0.74165 0.290242 0.319341
0.78175 0.308232 0.330373
0.116075 0.224247 0.276173
0.163592 0.256809 0.325261
0.244099 0.29482 0.363256
0.425589 0.307591 0.347082
0.530999 0.291859 0.311849
0.612253 0.29723 0.307027
0.68835 0.316625 0.320043
0.751904 0.332204 0.328557
0.792813 0.351492 0.338704
0.131991 0.308309 0.273167
0.17586 0.343587 0.308202
0.238254 0.408133 0.371069
0.446998 0.456489 0.431662
0.569223 0.411139 0.386099
0.632425 0.375967 0.3458
0.702724 0.386786 0.345937
0.776043 0.411292 0.358862
0.82414 0.436118 0.369589
0.158572 0.422629 0.276524
0.189654 0.441886 0.275578
0.230488 0.470893 0.281605
0.371832 0.535851 0.328725
0.58294 0.537789 0.365743
0.674266 0.496803 0.383688
0.747051 0.517403 0.397345
0.818845 0.543191 0.406043
0.867124 0.557931 0.412497
0.173938 0.502449 0.286641
0.20296 0.509422 0.274327
0.257511 0.564385 0.283024
0.358389 0.607599 0.303746
0.515969 0.624674 0.348943
0.656733 0.614832 0.350195
0.751186 0.591699 0.378485
0.842268 0.622568 0.412634
0.89778 0.645426 0.432273
0.186954 0.567971 0.303243
0.218784 0.581689 0.299916
0.288746 0.640528 0.306111
0.377295 0.67158 0.317906
0.514382 0.694331 0.349706
0.653544 0.708934 0.375418
0.759716 0.727611 0.378943
0.853315 0.7028 0.399649
0.918242 0.717372 0.437263
0.223713 0.68809 0.32282
0.267704 0.72723 0.327016
0.30695 0.770916 0.323003
0.387549 0.8009 0.327138
0.530648 0.816999 0.355673
0.659266 0.816861 0.389746
0.774227 0.82681 0.424582
0.883085 0.836316 0.420188
0.940414 0.815671 0.475425
0.264698 0.842817 0.328954
0.297932 0.850584 0.332509
0.326604 0.863066 0.336873
0.396414 0.864561 0.339605
0.538521 0.875822 0.361456
0.672419 0.908339 0.394339
0.782834 0.911925 0.442176
0.890776 0.918013 0.484001
0.963623 0.923781 0.504585
0.117769 0.181353 0.369238
0.147372 0.180636 0.367285
0.207416 0.177371 0.359075
0.328847 0.179797 0.339422
0.452201 0.198352 0.328359
0.548775 0.211933 0.329107
0.639323 0.237766 0.353613
0.728115 0.264317 0.373999
0.791989 0.289006 0.393301
0.123323 0.21799 0.37644
0.155779 0.223484 0.381613
0.211978 0.231968 0.385153
0.321675 0.228428 0.377615
0.475792 0.247196 0.345373
0.570352 0.259068 0.343557
0.660319 0.291447 0.369696
0.748287 0.314794 0.388144
0.798795 0.339025 0.40441
0.12723 0.24979 0.361837
0.16527 0.268986 0.394171
0.212497 0.28748 0.421134
0.315648 0.300984 0.430838
0.505821 0.30901 0.37911
0.597742 0.317052 0.371054
0.69192 0.345083 0.395193
0.764477 0.368048 0.407248
0.809323 0.388907 0.41973
0.133242 0.294209 0.33196
0.172717 0.321904 0.379019
0.224353 0.359564 0.441398
0.344472 0.409552 0.494133
0.556161 0.428138 0.466438
0.644846 0.409293 0.427008
0.71693 0.419181 0.421164
0.781643 0.433478 0.430396
0.820798 0.447181 0.447837
0.158389 0.40444 0.35906
0.197375 0.439231 0.382162
0.242069 0.475273 0.426581
0.334371 0.538109 0.507591
0.601526 0.589502 0.570764
0.679042 0.548882 0.522255
0.744381 0.528008 0.492546
0.809506 0.529824 0.489418
0.855177 0.548211 0.498833
0.20293 0.555917 0.427375
0.231449 0.558556 0.405371
0.257404 0.554589 0.384253
0.325338 0.598169 0.39443
0.513069 0.648234 0.436088
0.692317 0.659236 0.471992
0.780133 0.633082 0.524147
0.850202 0.653056 0.544457
0.896742 0.661082 0.550607
0.215702 0.626963 0.425345
0.243442 0.616922 0.400427
0.272145 0.618296 0.391913
0.348653 0.661494 0.385153
0.492805 0.709804 0.398474
0.645289 0.733181 0.454765
0.764813 0.737087 0.462638
0.86247 0.72369 0.527855
0.920851 0.742733 0.570214
0.238544 0.713527 0.432334
0.274418 0.725277 0.417578
0.310155 0.745464 0.399847
0.359594 0.801511 0.387167
0.49218 0.827695 0.395377
0.649958 0.834546 0.444541
0.766766 0.834836 0.510369
0.882902 0.844251 0.511986
0.943221 0.829602 0.591608
0.270375 0.851225 0.436515
0.30399 0.85272 0.412787
0.335729 0.859434 0.391241
0.371588 0.882979 0.389075
0.498238 0.920943 0.401755
0.658473 0.927474 0.44329
0.777539 0.920607 0.51397
0.886366 0.920485 0.580575
0.965942 0.930816 0.608042
0.123293 0.204822 0.437263
0.152926 0.204562 0.434333
0.209796 0.208026 0.434073
0.300587 0.203998 0.420905
0.450172 0.228122 0.398627
0.574746 0.245365 0.399191
0.65568 0.26186 0.4121
0.739162 0.286076 0.431876
0.800305 0.320836 0.472969
0.129732 0.242466 0.448676
0.162203 0.247196 0.4533
0.209079 0.254017 0.456321
0.291966 0.257145 0.451942
0.457237 0.278996 0.422736
0.580636 0.290211 0.4112
0.666041 0.309545 0.426886
0.748363 0.346639 0.45098
0.807614 0.380896 0.49601
0.135134 0.279728 0.446906
0.173312 0.291463 0.468757
0.207874 0.303471 0.485267
0.289067 0.315419 0.49276
0.472999 0.323293 0.463462
0.589654 0.336996 0.433494
0.680766 0.366552 0.446006
0.763897 0.407233 0.489036
0.820706 0.44213 0.523064
0.139422 0.317891 0.414786
0.185245 0.349722 0.474403
0.225254 0.362875 0.503212
0.292729 0.390005 0.536477
0.454337 0.399512 0.547524
0.617578 0.425437 0.493858
0.701198 0.448859 0.50074
0.78883 0.482048 0.533272
0.833082 0.509148 0.551019
0.156161 0.394797 0.42594
0.198169 0.421302 0.463081
0.241764 0.448814 0.505104
0.317739 0.483833 0.574426
0.477394 0.525902 0.622217
0.665324 0.550866 0.599893
0.743511 0.560052 0.582727
0.809918 0.562951 0.575463
0.856077 0.576394 0.589441
0.197131 0.533822 0.493782
0.236744 0.550256 0.506676
0.274266 0.567681 0.527123
0.321019 0.603113 0.564111
0.445029 0.654734 0.628138
0.715969 0.69482 0.675547
0.78056 0.663325 0.6392
0.842847 0.659525 0.62707
0.884703 0.667185 0.633631
0.238239 0.671901 0.567895
0.276356 0.682414 0.575006
0.308522 0.685863 0.572137
0.335988 0.676753 0.549905
0.436561 0.700435 0.539239
0.63888 0.750088 0.559411
0.783978 0.760189 0.600397
0.874449 0.752712 0.656672
0.920287 0.761105 0.677745
0.256962 0.772686 0.595422
0.292531 0.768002 0.571756
0.32665 0.77322 0.546258
0.360204 0.784268 0.531197
0.432273 0.830701 0.485496
0.622812 0.851209 0.510475
0.76733 0.850858 0.596857
0.880842 0.849088 0.619806
0.948348 0.844236 0.692576
0.276158 0.868452 0.584985
0.316411 0.873182 0.557137
0.351736 0.88043 0.543359
0.381552 0.886641 0.513588
0.442191 0.915129 0.4813
0.636957 0.924346 0.509758
0.771557 0.932418 0.591287
0.888762 0.931884 0.673487
0.967163 0.939284 0.699229
0.135378 0.236683 0.513497
0.165621 0.237064 0.510521
0.210193 0.234928 0.50486
0.293568 0.230777 0.489357
0.457801 0.257557 0.472007
0.575799 0.271687 0.472007
0.678904 0.301091 0.487083
0.74876 0.319844 0.518822
0.8103 0.356329 0.56083
0.142275 0.275151 0.525628
0.174746 0.280217 0.530129
0.210636 0.282872 0.526314
0.287907 0.284627 0.522026
0.464729 0.296818 0.513909
0.587442 0.326177 0.489891
0.683604 0.354131 0.510964
0.756344 0.377935 0.541039
0.814984 0.426795 0.585595
0.148989 0.316091 0.533578
0.18439 0.324147 0.542336
0.217075 0.335912 0.554376
0.285786 0.346136 0.560342
0.416297 0.341207 0.559594
0.587549 0.390417 0.533547
0.692363 0.417609 0.549493
0.772015 0.445441 0.578393
0.831601 0.487816 0.621485
0.153643 0.354009 0.512673
0.198413 0.383993 0.557046
0.233021 0.388479 0.571191
0.276387 0.403845 0.595834
0.409812 0.4336 0.620249
0.607553 0.452277 0.590646
0.705592 0.482719 0.599054
0.782773 0.521996 0.626093
0.850355 0.555306 0.654551
0.166445 0.422415 0.517143
0.216556 0.454261 0.566583
0.259846 0.473243 0.60206
0.304829 0.482185 0.633936
0.413153 0.510948 0.66804
0.601144 0.522515 0.677729
0.739132 0.563653 0.657053
0.813947 0.600702 0.666972
0.876219 0.627634 0.697993
0.196658 0.525948 0.571008
0.243534 0.547112 0.59472
0.282216 0.562219 0.614145
0.325322 0.585779 0.649821
0.439918 0.605219 0.690211
0.626413 0.640192 0.737194
0.775647 0.658244 0.716106
0.84654 0.683757 0.717006
0.892866 0.698192 0.722591
0.235966 0.656352 0.636149
0.279591 0.666346 0.646143
0.315282 0.677577 0.657252
0.352209 0.698314 0.676509
0.408896 0.716747 0.697398
0.602045 0.753201 0.731563
0.806027 0.792111 0.763653
0.872465 0.765927 0.748409
0.915053 0.769879 0.751568
0.261326 0.778363 0.698039
0.304707 0.789395 0.707195
0.346548 0.806638 0.716442
0.382437 0.815885 0.716854
0.420005 0.822202 0.695781
0.575799 0.845945 0.671687
0.759213 0.865278 0.688243
0.885801 0.860838 0.733028
0.953704 0.859373 0.779507
0.285039 0.886503 0.746899
0.330724 0.89926 0.738628
0.367254 0.891768 0.720653
0.399558 0.891371 0.699016
0.440177 0.905821 0.678584
0.582574 0.928542 0.635981
0.762692 0.938689 0.677653
0.884672 0.943832 0.753475
0.965499 0.940703 0.791653
0.148028 0.275746 0.585992
0.17882 0.277546 0.583627
0.214069 0.276997 0.577996
0.291234 0.267109 0.56437
0.437003 0.289433 0.570077
0.576074 0.329931 0.582513
0.677501 0.344991 0.610498
0.767788 0.380865 0.647959
0.82858 0.400702 0.676844
0.155413 0.314534 0.602762
0.186999 0.316854 0.603662
0.219562 0.322225 0.59968
0.28954 0.325597 0.595392
0.41529 0.33341 0.600076
0.584009 0.373342 0.605188
0.688441 0.40267 0.629541
0.783612 0.43331 0.672236
0.842939 0.458915 0.691737
0.162158 0.354101 0.614374
0.197711 0.358328 0.619547
0.230121 0.365576 0.627054
0.287282 0.380453 0.632822
0.396155 0.388998 0.63566
0.605737 0.410361 0.654856
0.703105 0.453498 0.66099
0.799893 0.488151 0.697398
0.858305 0.517571 0.714382
0.16733 0.39324 0.604837
0.211704 0.408896 0.632578
0.24535 0.413367 0.643839
0.284352 0.429252 0.66865
0.391104 0.45565 0.682078
0.570932 0.45565 0.702663
0.731945 0.498421 0.70634
0.829984 0.538552 0.730694
0.874876 0.579858 0.74725
0.184939 0.462104 0.627039
0.235096 0.486351 0.663706
0.277714 0.504982 0.68957
0.310475 0.505287 0.695399
0.387839 0.524254 0.728038
0.557794 0.542351 0.750713
0.743755 0.569345 0.760678
0.847593 0.610849 0.769238
0.889494 0.65687 0.776623
0.207935 0.547265 0.668009
0.260258 0.577279 0.690608
0.301198 0.587152 0.714092
0.339559 0.600381 0.736873
0.42623 0.607935 0.751522
0.563607 0.627619 0.781659
0.739025 0.653834 0.790997
0.863172 0.690562 0.799954
0.907439 0.728939 0.805188
0.235706 0.652399 0.720729
0.283528 0.671046 0.735012
0.323308 0.680201 0.741894
0.361334 0.690166 0.753399
0.445197 0.70071 0.768109
0.612085 0.718532 0.797147
0.763195 0.750301 0.825025
0.872831 0.770001 0.818753
0.921706 0.80145 0.830808
0.258381 0.763088 0.764599
0.307393 0.775784 0.772549
0.351247 0.786496 0.78117
0.390982 0.79469 0.791699
0.439429 0.805341 0.801221
0.605737 0.825422 0.816327
0.762524 0.849393 0.828672
0.894209 0.876112 0.849149
0.945541 0.871534 0.851911
0.277043 0.851499 0.812222
0.32784 0.864851 0.819928
0.372549 0.876295 0.823041
0.417227 0.894835 0.832441
0.457801 0.911406 0.834607
0.605524 0.923369 0.8327
0.764538 0.941222 0.820478
0.884901 0.947311 0.828809
0.971801 0.941817 0.869261
0.160143 0.301213 0.642283
0.191302 0.303029 0.639445
0.223606 0.305013 0.63624
0.295476 0.306813 0.634012
0.408011 0.316915 0.639384
0.598535 0.347524 0.680842
0.697765 0.37377 0.700099
0.794324 0.397436 0.732448
0.861402 0.41944 0.768093
0.167269 0.339849 0.658076
0.199344 0.343404 0.660868
0.231617 0.347875 0.655787
0.294774 0.357397 0.657282
0.399985 0.363226 0.652598
0.593057 0.388205 0.704479
0.71812 0.417227 0.727535
0.819211 0.441489 0.755611
0.881041 0.47689 0.790585
0.174868 0.380056 0.673426
0.211719 0.386343 0.683085
0.243137 0.392996 0.690974
0.28426 0.401587 0.690471
0.390921 0.418112 0.693553
0.56051 0.419593 0.733608
0.729641 0.461234 0.765301
0.832731 0.494713 0.788449
0.894469 0.538918 0.811734
0.18265 0.423606 0.68162
0.223774 0.432761 0.69221
0.260273 0.448768 0.709163
0.297276 0.46215 0.72401
0.384665 0.476539 0.741299
0.535409 0.480995 0.760464
0.718059 0.512474 0.798001
0.849546 0.553796 0.81976
0.907469 0.592264 0.841871
0.203922 0.502022 0.716731
0.24976 0.51931 0.731945
0.285008 0.52285 0.738994
0.31606 0.520958 0.740398
0.38233 0.541573 0.776501
0.536187 0.566094 0.798993
0.708583 0.58526 0.815885
0.856046 0.627909 0.844511
0.923705 0.662791 0.858076
0.222934 0.582422 0.75462
0.270863 0.599374 0.771557
0.311559 0.6112 0.780377
0.348486 0.617807 0.788312
0.418631 0.622171 0.799084
0.546502 0.637125 0.825162
0.721019 0.657877 0.838666
0.865782 0.705867 0.86598
0.932296 0.738872 0.877104
0.240681 0.66836 0.789578
0.292775 0.686625 0.803388
0.336294 0.696818 0.811093
0.374304 0.701701 0.819028
0.450202 0.70663 0.830381
0.606271 0.720424 0.846952
0.744961 0.743679 0.863127
0.865309 0.779248 0.87538
0.94406 0.806928 0.890883
0.259495 0.760662 0.830014
0.310765 0.771176 0.838437
0.356069 0.779324 0.839124
0.397055 0.785748 0.844617
0.4804 0.792309 0.856748
0.654826 0.813703 0.874571
0.792309 0.8327 0.890043
0.89131 0.86009 0.894896
0.954803 0.888762 0.908858
0.275547 0.839246 0.857252
0.328771 0.851011 0.870512
0.375402 0.862394 0.873579
0.420859 0.875578 0.87924
0.479515 0.885634 0.886397
0.673136 0.900679 0.902373
0.819211 0.919097 0.913176
0.90692 0.940124 0.915358
0.964584 0.949493 0.915175
