70 CGC LUTs/Look LUTs/Brooklyn.cube
#Created by: Denver Riddle
#Copyright: (C) Copyright Color Grading Central LLC
#LUT Size
LUT_3D_SIZE 5
0.0763409 0.0744488 0.0754711
0.255268 0.118013 0.104707
0.450568 0.161486 0.141924
0.640574 0.205341 0.18674
0.76669 0.252781 0.225269
0.118868 0.269184 0.110353
0.236957 0.241703 0.121111
0.477256 0.253559 0.154131
0.683772 0.31519 0.209277
0.805219 0.371298 0.24184
0.155947 0.443702 0.146548
0.241489 0.458793 0.148241
0.460075 0.417182 0.162585
0.685389 0.442939 0.221012
0.862745 0.530755 0.254871
0.213367 0.617502 0.195483
0.311254 0.647044 0.209445
0.521416 0.642115 0.226917
0.764446 0.715511 0.261173
0.91223 0.692256 0.274296
0.261433 0.836759 0.248005
0.330068 0.842969 0.252567
0.577157 0.877058 0.275822
0.789136 0.894972 0.29456
0.956542 0.910765 0.309102
0.0955978 0.122988 0.223407
0.253513 0.133837 0.212757
0.459205 0.162707 0.210163
0.648035 0.209903 0.252522
0.766506 0.251087 0.288167
0.115572 0.236072 0.214405
0.299947 0.312184 0.299428
0.514565 0.266789 0.240436
0.67158 0.296971 0.26772
0.795209 0.354284 0.302235
0.151446 0.422461 0.195789
0.244358 0.49099 0.215457
0.51751 0.47097 0.258137
0.737514 0.487602 0.301762
0.875364 0.55407 0.330114
0.201617 0.611139 0.254093
0.300572 0.645151 0.260502
0.527871 0.682017 0.312322
0.763943 0.722072 0.334462
0.917006 0.705837 0.36051
0.265034 0.84445 0.296422
0.322286 0.849424 0.301152
0.557382 0.877409 0.337484
0.785397 0.90663 0.377157
0.959243 0.918791 0.424063
0.117769 0.181353 0.369238
0.207416 0.177371 0.359075
0.452201 0.198352 0.328359
0.639323 0.237766 0.353613
0.791989 0.289006 0.393301
0.12723 0.24979 0.361837
0.212497 0.28748 0.421134
0.505821 0.30901 0.37911
0.69192 0.345083 0.395193
0.809323 0.388907 0.41973
0.158389 0.40444 0.35906
0.242069 0.475273 0.426581
0.601526 0.589502 0.570764
0.744381 0.528008 0.492546
0.855177 0.548211 0.498833
0.215702 0.626963 0.425345
0.272145 0.618296 0.391913
0.492805 0.709804 0.398474
0.764813 0.737087 0.462638
0.920851 0.742733 0.570214
0.270375 0.851225 0.436515
0.335729 0.859434 0.391241
0.498238 0.920943 0.401755
0.777539 0.920607 0.51397
0.965942 0.930816 0.608042
0.135378 0.236683 0.513497
0.210193 0.234928 0.50486
0.457801 0.257557 0.472007
0.678904 0.301091 0.487083
0.8103 0.356329 0.56083
0.148989 0.316091 0.533578
0.217075 0.335912 0.554376
0.416297 0.341207 0.559594
0.692363 0.417609 0.549493
0.831601 0.487816 0.621485
0.166445 0.422415 0.517143
0.259846 0.473243 0.60206
0.413153 0.510948 0.66804
0.739132 0.563653 0.657053
0.876219 0.627634 0.697993
0.235966 0.656352 0.636149
0.315282 0.677577 0.657252
0.408896 0.716747 0.697398
0.806027 0.792111 0.763653
0.915053 0.769879 0.751568
0.285039 0.886503 0.746899
0.367254 0.891768 0.720653
0.440177 0.905821 0.678584
0.762692 0.938689 0.677653
0.965499 0.940703 0.791653
0.160143 0.301213 0.642283
0.223606 0.305013 0.63624
0.408011 0.316915 0.639384
0.697765 0.37377 0.700099
0.861402 0.41944 0.768093
0.174868 0.380056 0.673426
0.243137 0.392996 0.690974
0.390921 0.418112 0.693553
0.729641 0.461234 0.765301
0.894469 0.538918 0.811734
0.203922 0.502022 0.716731
0.285008 0.52285 0.738994
0.38233 0.541573 0.776501
0.708583 0.58526 0.815885
0.923705 0.662791 0.858076
0.240681 0.66836 0.789578
0.336294 0.696818 0.811093
0.450202 0.70663 0.830381
0.744961 0.743679 0.863127
0.94406 0.806928 0.890883
0.275547 0.839246 0.857252
0.375402 0.862394 0.873579
0.479515 0.885634 0.886397
0.819211 0.919097 0.913176
0.964584 0.949493 0.915175
