70 CGC LUTs/Look LUTs/Celadon.cube
#Created by: Denver Riddle
#Copyright: (C) Copyright Color Grading Central LLC
#LUT Size
LUT_3D_SIZE 5
0.0156863 0.0134432 0.0378729
0.437736 0 0.00030518
0.851575 0 0
1 0 0
1 0 0
0 0.298497 0
0.231144 0.244953 0
0.61767 0.219928 0
0.998993 0.195651 0
1 0.183825 0
0 0.629374 0
0.154986 0.621973 0
0.451728 0.615808 0
0.745571 0.596521 0
0.841672 0.585733 0
0.00637827 0.931212 0.00555428
0.0941634 0.930816 0.00587472
0.287968 0.888395 0.00047303
0.552575 0.849912 0.00149538
0.737774 0.845426 0.00077821
0.0119936 0.961456 0.0157626
0.0506294 0.96759 0.0167849
0.207126 0.939132 0.00691234
0.45568 0.915007 0.00637827
0.749355 0.901335 0.00813306
0.00756847 0.00422675 0.345418
0.384741 0 0.424079
0.810391 0 0.429175
1 0 0.395499
1 0 0.359274
0 0.303319 0.164462
0.218616 0.231998 0.249454
0.606821 0.203815 0.239765
0.997772 0.184192 0.234379
1 0.177249 0.244038
0 0.61416 0.155138
0.150484 0.615991 0.211917
0.440116 0.605097 0.218952
0.733669 0.580621 0.204685
0.841764 0.568215 0.188006
0.00994888 0.918776 0.181018
0.0875715 0.920195 0.17995
0.275196 0.876936 0.158953
0.537835 0.838376 0.141756
0.731411 0.833463 0.132235
0.0131991 0.955444 0.141466
0.046067 0.962493 0.137591
0.19501 0.9337 0.118044
0.440055 0.909529 0.100999
0.743587 0.895705 0.11783
0.00675975 0.00320439 0.630701
0.311772 0 0.662272
0.760479 0 0.818204
1 0 0.794522
1 0 0.764538
0 0.295155 0.526452
0.226734 0.237964 0.507591
0.573175 0.209812 0.608804
0.976532 0.190311 0.620279
0.995209 0.188296 0.639475
0 0.639628 0.317281
0.139223 0.637415 0.40177
0.434791 0.60441 0.493339
0.728481 0.571832 0.477424
0.839857 0.558511 0.469886
0.0202487 0.913054 0.339864
0.0928206 0.911803 0.359915
0.267262 0.866346 0.368277
0.526848 0.827817 0.342596
0.724865 0.822614 0.329824
0.0219883 0.95021 0.303578
0.0506752 0.956573 0.305776
0.18793 0.926726 0.298985
0.429191 0.902724 0.271519
0.738033 0.889052 0.310124
0.00460822 0.00308232 0.880079
0.289815 0.000762951 0.912077
0.662821 0 1
0.999863 0 1
0.979614 0 1
0 0.270542 0.922774
0.233539 0.245304 0.864775
0.502739 0.247288 0.892088
0.907744 0.21265 1
0.93576 0.215885 1
0 0.665919 0.713161
0.087602 0.656046 0.779873
0.437293 0.600427 0.815137
0.681453 0.576181 0.804166
0.808408 0.553613 0.863935
0 0.92958 0.496864
0.0522774 0.926757 0.516732
0.246189 0.870237 0.550027
0.517433 0.816342 0.625544
0.718196 0.808743 0.642084
0.00750744 0.963043 0.4486
0.036347 0.96788 0.455619
0.18201 0.928374 0.485145
0.417487 0.895338 0.541009
0.731807 0.881559 0.618677
0.00343328 0.00190738 0.871672
0.282445 0.000595102 0.90753
0.645808 0 1
0.998611 0 1
0.977584 0 1
0 0.256153 0.943496
0.227054 0.237736 0.91368
0.494316 0.241856 0.940246
0.887541 0.214191 1
0.924605 0.219532 1
0 0.655207 0.796948
0.0987106 0.645411 0.862364
0.443107 0.587457 0.880415
0.668727 0.569863 0.864378
0.781369 0.552361 0.931456
0 0.935409 0.609537
0.00361639 0.934218 0.63209
0.185748 0.878782 0.67071
0.462898 0.823667 0.74284
0.702022 0.801236 0.816663
0 0.979965 0.528161
0 0.989746 0.527138
0.0522927 0.953643 0.533333
0.290394 0.915282 0.593408
0.704311 0.875151 0.746548
