70 CGC LUTs/Look LUTs/Celadon.cube
#Created by: Denver Riddle
#Copyright: (C) Copyright Color Grading Central LLC
#LUT Size
LUT_3D_SIZE 33
0.0156863 0.0134432 0.0378729
0.0515602 0.00355535 0.0384985
0.101564 0 0.025742
0.164736 0 0.010605
0.228748 0 0.00164797
0.285405 0 3.0518e-05
0.335164 0 0.0010071
0.384115 0 0.00115969
0.437736 0 0.00030518
0.494774 0 0
0.551308 0 0
0.605417 0 0
0.656214 0 0
0.704067 0 0
0.750637 0 0
0.799115 0 0
0.851575 0 0
0.909621 0 0
0.971832 0 0
1 0 0
1 0 0
1 0 0
1 0 0
1 0 0
1 0 0
1 0 0
1 0 0
1 0 0
1 0 0
1 0 0
1 0 0
1 0 0
1 0 0
0.000244144 0.0322576 0.0142824
0.0292821 0.02327 0.0136263
0.0760967 0.012253 0.00598154
0.135805 0.00326543 0
0.19852 0.000610361 0
0.254643 0 0
0.304417 0 0
0.352956 0 0
0.405463 0 0
0.461189 0 0
0.517159 0 0
0.571283 0 0
0.622248 0 0
0.670542 0 0
0.716823 0 0
0.763928 0 0
0.814252 0 0
0.869627 0 0
0.928908 0 0
0.983017 0 0
1 0 0
1 0 0
1 0 0
1 0 0
1 0 0
1 0 0
1 0 0
1 0 0
1 0 0
1 0 0
1 0 0
1 0 0
1 0 0
0 0.0560464 0.0009308
0.00723278 0.0497444 0.00103761
0.0472267 0.0409094 7.62951e-05
0.10277 0.0296178 0
0.165087 0.018677 0
0.22092 0.0126955 0
0.270802 0.00926223 0
0.317861 0.00581369 0
0.368307 0.00218204 0
0.42182 0 0
0.476051 0 0
0.529397 0 0
0.58053 0 0
0.628382 0 0
0.673869 0 0
0.71931 0 0
0.766903 0 0
0.818952 0 0
0.876387 0 0
0.936309 0 0
0.990234 0 0
1 0 0
1 0 0
1 0 0
1 0 0
1 0 0
1 0 0
1 0 0
1 0 0
1 0 0
1 0 0
1 0 0
1 0 0
0 0.0889601 0
0.000274662 0.0833295 0
0.024506 0.0762036 0
0.0823377 0.0681315 0
0.14902 0.0592813 0
0.213504 0.0522011 0
0.27097 0.0475471 0
0.323995 0.044419 0
0.378607 0.0415503 0
0.437156 0.0379644 0
0.496376 0.0343328 0
0.554376 0.0309758 0
0.610666 0.0282444 0
0.664652 0.0262608 0
0.714366 0.024979 0
0.759991 0.0243229 0
0.805768 0.0237888 0
0.852934 0.0227817 0
0.903395 0.02121 0
0.951537 0.0190585 0
0.982361 0.0165255 0
0.997086 0.0139773 0
1 0.0117952 0
1 0.00915541 0
1 0.0062562 0
1 0.00311284 0
1 0 0
1 0.000274662 0
1 0.00184634 0
1 0.00309758 0
1 0.00254826 0
1 0.00202945 0
1 0.00166323 0
0 0.131121 0
0 0.128542 0
0.0084535 0.122179 0
0.0555276 0.113817 0
0.116915 0.105623 0
0.175463 0.0993362 0
0.229618 0.0948196 0
0.280491 0.0911269 0
0.333486 0.0869764 0
0.38999 0.0827649 0
0.448066 0.0784924 0
0.504875 0.0742809 0
0.560555 0.0703593 0
0.614282 0.0671397 0
0.665934 0.0647593 0
0.716289 0.0634623 0
0.767422 0.0616007 0
0.821225 0.0593118 0
0.879103 0.0565194 0
0.941344 0.053193 0
0.990738 0.049546 0
1 0.0461891 0
1 0.0430457 0
1 0.0406806 0
1 0.038056 0
1 0.0353704 0
1 0.0341344 0
1 0.0325017 0
1 0.0316472 0
1 0.0311894 0
1 0.026978 0
1 0.0227817 0
1 0.0189059 0
0 0.176547 0
0 0.174151 0
0.00158694 0.168017 0
0.0362554 0.159289 0
0.0935378 0.150134 0
0.147723 0.142809 0
0.197238 0.137728 0
0.245258 0.134005 0
0.295796 0.129915 0
0.349935 0.125063 0
0.405829 0.120073 0
0.462058 0.115358 0
0.517922 0.11078 0
0.57203 0.107164 0
0.623606 0.104402 0
0.673609 0.102358 0
0.724254 0.100114 0
0.776486 0.0979019 0
0.832715 0.0950484 0
0.89424 0.0922255 0
0.960204 0.0888838 0
0.997269 0.0854353 0
1 0.0817578 0
1 0.0787823 0
1 0.076173 0
1 0.0740368 0
1 0.0715648 0
1 0.069398 0
1 0.0688945 0
1 0.0692607 0
1 0.0651865 0
1 0.0607309 0
1 0.0562753 0
0 0.220401 0
0 0.217411 0
0 0.209842 0
0.0243229 0.200748 0
0.0771038 0.190921 0
0.129213 0.183001 0
0.176699 0.177432 0
0.222095 0.173373 0
0.269139 0.16907 0
0.319554 0.164248 0
0.372549 0.159289 0
0.426932 0.154284 0
0.482856 0.149752 0
0.53611 0.14609 0
0.587198 0.143236 0
0.636622 0.14107 0
0.686534 0.139116 0
0.737896 0.137072 0
0.792737 0.13489 0
0.852262 0.131731 0
0.916228 0.128237 0
0.982742 0.124605 0
1 0.120912 0
1 0.117891 0
1 0.115328 0
1 0.112505 0
1 0.109804 0
1 0.107317 0
1 0.106691 0
1 0.108629 0
1 0.104845 0
1 0.0996872 0
1 0.0945144 0
0 0.26041 0
0 0.257603 0
0 0.249195 0
0.0173953 0.239445 0
0.0648661 0.22948 0
0.114672 0.221485 0
0.160494 0.215732 0
0.204044 0.211063 0
0.249027 0.206546 0
0.296269 0.201862 0
0.346044 0.197284 0
0.397726 0.193118 0
0.451881 0.188907 0
0.503853 0.185733 0
0.554269 0.183078 0
0.602823 0.180911 0
0.651484 0.17908 0
0.70161 0.177264 0
0.755199 0.175021 0
0.813474 0.171923 0
0.875898 0.168215 0
0.940993 0.164309 0
0.995804 0.160693 0
1 0.157473 0
1 0.154498 0
1 0.151568 0
1 0.149081 0
1 0.146899 0
1 0.147173 0
1 0.150072 0
1 0.147005 0
1 0.141634 0
1 0.136675 0
0 0.298497 0
0 0.29601 0
0 0.288106 0
0.0120851 0.278157 0
0.0539559 0.268574 0
0.101381 0.260502 0
0.145418 0.25449 0
0.187716 0.249454 0
0.231144 0.244953 0
0.276371 0.240833 0
0.323659 0.237079 0
0.372702 0.233219 0
0.422721 0.22948 0
0.472938 0.226276 0
0.522057 0.223667 0
0.569909 0.221729 0
0.61767 0.219928 0
0.666957 0.217945 0
0.719493 0.215564 0
0.776623 0.212314 0
0.837415 0.208698 0
0.901015 0.20499 0
0.967315 0.201312 0
0.992401 0.198154 0
0.998993 0.195651 0
1 0.193118 0
1 0.19089 0
1 0.18967 0
1 0.191257 0
1 0.196674 0
1 0.194965 0
1 0.189166 0
1 0.183825 0
0 0.336934 0
0 0.335058 0
0 0.327413 0
0.00808728 0.317906 0
0.0441291 0.308354 0
0.0893111 0.300679 0
0.132235 0.294881 0
0.173556 0.289952 0
0.216022 0.285298 0
0.259495 0.28098 0
0.304753 0.277058 0
0.351293 0.273548 0
0.398718 0.270039 0
0.446204 0.267002 0
0.493278 0.264714 0
0.539818 0.262699 0
0.586511 0.26099 0
0.634668 0.259083 0
0.685908 0.25655 0
0.741283 0.253834 0
0.801068 0.250919 0
0.864195 0.247562 0
0.928985 0.244297 0
0.969146 0.241474 0
0.989685 0.23975 0
0.997818 0.23827 0
1 0.236774 0
1 0.236271 0
1 0.238941 0
0.997971 0.246418 0
0.996353 0.246723 0
0.996902 0.240726 0
0.997391 0.235248 0
0 0.375845 0
0 0.37557 0
0 0.36849 0
0.00540169 0.359503 0
0.0366369 0.350057 0
0.0796521 0.342168 0
0.120531 0.336263 0
0.161349 0.331426 0
0.202716 0.326955 0
0.244663 0.322347 0
0.288334 0.318212 0
0.33286 0.31426 0
0.37821 0.310674 0
0.423697 0.307988 0
0.468559 0.305653 0
0.513191 0.303944 0
0.558267 0.30251 0
0.60502 0.301335 0
0.654871 0.299825 0
0.709163 0.297978 0
0.767865 0.295354 0
0.830335 0.293019 0
0.894179 0.2907 0
0.932982 0.288487 0
0.954833 0.287007 0
0.972335 0.286931 0
0.98613 0.286915 0
0.996078 0.287129 0
0.997024 0.289799 0
0.98616 0.298024 0
0.981018 0.300633 0
0.983581 0.294789 0
0.986023 0.289204 0
0 0.416449 0
0 0.417655 0
0 0.410956 0
0.00331121 0.402197 0
0.0307622 0.392905 0
0.0715801 0.385199 0
0.110979 0.379232 0
0.150042 0.373922 0
0.190097 0.3691 0
0.230823 0.364523 0
0.272984 0.360281 0
0.315877 0.356039 0
0.360006 0.352804 0
0.403891 0.350027 0
0.447639 0.348302 0
0.490669 0.347387 0
0.533791 0.346822 0
0.578698 0.346777 0
0.626764 0.34638 0
0.679728 0.345525 0
0.73753 0.343938 0
0.798642 0.34226 0
0.858671 0.340978 0
0.895567 0.340841 0
0.91783 0.340627 0
0.938323 0.340169 0
0.957153 0.339818 0
0.974044 0.339574 0
0.980682 0.342016 0
0.965805 0.351446 0
0.956985 0.355337 0
0.959396 0.349859 0
0.9617 0.344625 0
0 0.457832 0
0 0.460838 0
0 0.454948 0
0.00158694 0.445808 0
0.0260319 0.436622 0
0.0647898 0.429084 0
0.102205 0.423011 0
0.13991 0.417334 0
0.178317 0.412436 0
0.217945 0.408133 0
0.258991 0.404318 0
0.300832 0.400916 0
0.343816 0.397848 0
0.386954 0.395453 0
0.429694 0.3944 0
0.471839 0.394141 0
0.513649 0.395239 0
0.556527 0.395605 0
0.602304 0.396445 0
0.652567 0.397131 0
0.70869 0.397314 0
0.768612 0.396948 0
0.822019 0.396612 0
0.856413 0.39585 0
0.880537 0.395377 0
0.902861 0.39498 0
0.923827 0.39411 0
0.943221 0.392889 0
0.953536 0.394217 0
0.940826 0.403876 0
0.932692 0.409461 0
0.934951 0.404776 0
0.937118 0.40032 0
0 0.499748 0
0 0.504219 0
0 0.498741 0
0 0.490517 0
0.0222934 0.481331 0
0.0588083 0.474098 0
0.0949416 0.468162 0
0.131411 0.463157 0
0.168658 0.45864 0
0.207248 0.454704 0
0.24683 0.451469 0
0.287831 0.448905 0
0.330129 0.447074 0
0.372732 0.445502 0
0.41471 0.444877 0
0.456138 0.445289 0
0.496788 0.446906 0
0.538399 0.448966 0
0.58233 0.451652 0
0.629725 0.452842 0
0.682429 0.453529 0
0.738705 0.453193 0
0.787305 0.452354 0
0.817365 0.451545 0
0.843336 0.450446 0
0.867796 0.448997 0
0.890562 0.447547 0
0.912123 0.445228 0
0.926558 0.44445 0
0.915679 0.453223 0
0.908217 0.459678 0
0.910231 0.455787 0
0.912077 0.452003 0
0 0.541619 0
0 0.54847 0
0 0.543801 0
0 0.536233 0
0.0204471 0.528115 0
0.0550546 0.52137 0
0.0899519 0.515846 0
0.125216 0.51191 0
0.1617 0.508614 0
0.199176 0.505791 0
0.237522 0.50341 0
0.277317 0.501335 0
0.318761 0.500053 0
0.3608 0.499596 0
0.402411 0.500221 0
0.443153 0.501823 0
0.482734 0.50341 0
0.522637 0.505638 0
0.563653 0.507744 0
0.608255 0.509148 0
0.657435 0.5093 0
0.709026 0.5084 0
0.752285 0.507088 0
0.780621 0.505241 0
0.807767 0.503349 0
0.83386 0.500786 0
0.85861 0.497169 0
0.881956 0.493477 0
0.89955 0.491234 0
0.890211 0.500008 0
0.883543 0.506523 0
0.885344 0.503105 0
0.887144 0.499687 0
0 0.58407 0
0 0.59498 0
0 0.591546 0
0.00115969 0.584787 0
0.0222019 0.578012 0
0.0546426 0.572519 0
0.0880903 0.56846 0
0.121828 0.565255 0
0.156909 0.562539 0
0.193225 0.560678 0
0.230289 0.560128 0
0.269184 0.55938 0
0.30959 0.558572 0
0.350118 0.55819 0
0.390463 0.558221 0
0.429679 0.559136 0
0.467811 0.560418 0
0.50605 0.562112 0
0.545174 0.563775 0
0.586755 0.563729 0
0.632593 0.562524 0
0.680598 0.560861 0
0.718135 0.558465 0
0.747143 0.55552 0
0.775189 0.552041 0
0.802304 0.547951 0
0.828061 0.543633 0
0.852979 0.538537 0
0.872389 0.53463 0
0.865904 0.541909 0
0.860105 0.549538 0
0.86186 0.546319 0
0.863416 0.543465 0
0 0.629374 0
0 0.642115 0
0 0.642771 0
0.00393683 0.637736 0
0.0254826 0.631907 0
0.0572366 0.628153 0
0.0889448 0.625422 0
0.121309 0.62356 0
0.154986 0.621973 0
0.189151 0.62063 0
0.224353 0.619821 0
0.26154 0.618875 0
0.299809 0.617319 0
0.338613 0.616312 0
0.377295 0.615976 0
0.415198 0.615641 0
0.451728 0.615808 0
0.487816 0.616159 0
0.52488 0.615976 0
0.56408 0.614847 0
0.607065 0.61236 0
0.65275 0.609079 0
0.686824 0.605646 0
0.71664 0.601572 0
0.745571 0.596521 0
0.773388 0.591318 0
0.800137 0.585916 0
0.825803 0.580285 0
0.846647 0.576165 0
0.843885 0.582193 0
0.838834 0.591363 0
0.840299 0.588449 0
0.841672 0.585733 0
0 0.677501 0
0 0.692958 0
0 0.697429 0
0.00585946 0.694591 0
0.0326696 0.691142 0
0.0621195 0.68751 0
0.0914626 0.685512 0
0.121599 0.683818 0
0.152865 0.68188 0
0.184985 0.680461 0
0.21828 0.679301 0
0.253269 0.677287 0
0.289403 0.674784 0
0.326452 0.672404 0
0.36321 0.670024 0
0.39942 0.668376 0
0.434638 0.666987 0
0.468757 0.665446 0
0.503594 0.663828 0
0.540612 0.661387 0
0.581064 0.65803 0
0.623941 0.653742 0
0.657649 0.648707 0
0.688579 0.643183 0
0.718303 0.637766 0
0.747066 0.632151 0
0.774639 0.626673 0
0.800992 0.620829 0
0.823346 0.616083 0
0.82443 0.621393 0
0.820356 0.632105 0
0.821576 0.629328 0
0.822522 0.627207 0
0 0.72874 0
0 0.747616 0
3.0518e-05 0.756283 0
0.0135653 0.755047 0
0.0390631 0.751186 0
0.0661326 0.747677 0
0.0932784 0.745586 0
0.12076 0.743694 0
0.149844 0.741497 0
0.179736 0.738476 0
0.210697 0.735256 0
0.243183 0.731884 0
0.277363 0.728115 0
0.312566 0.724208 0
0.347982 0.72047 0
0.382589 0.716518 0
0.416129 0.713329 0
0.448875 0.710399 0
0.481773 0.707759 0
0.516823 0.70425 0
0.555474 0.699962 0
0.595499 0.694789 0
0.63006 0.689189 0
0.662043 0.683543 0
0.693049 0.677653 0
0.722774 0.671855 0
0.751293 0.665888 0
0.778714 0.6598 0
0.80267 0.654597 0
0.807858 0.659037 0
0.804837 0.670558 0
0.805463 0.669261 0
0.806317 0.667079 0
0 0.78819 0
6.10361e-05 0.804334 0
0.00463874 0.815991 0
0.0214847 0.814755 0
0.0441444 0.810788 0
0.0685435 0.807019 0
0.0929427 0.803433 0
0.117983 0.800488 0
0.14432 0.796643 0
0.172152 0.792386 0
0.201038 0.787671 0
0.231373 0.782498 0
0.263539 0.776928 0
0.297017 0.771435 0
0.330663 0.765835 0
0.363989 0.760769 0
0.396277 0.756283 0
0.427726 0.752743 0
0.459312 0.74931 0
0.492851 0.745602 0
0.52961 0.740673 0
0.567788 0.73518 0
0.603113 0.729351 0
0.636332 0.723491 0
0.668727 0.717403 0
0.699733 0.710994 0
0.729366 0.70457 0
0.758083 0.698039 0
0.783917 0.692561 0
0.792889 0.696056 0
0.790951 0.707881 0
0.791318 0.708125 0
0.792081 0.70602 0
0 0.84802 0
0 0.859907 0
0.00946059 0.874372 0
0.0267796 0.872145 0
0.047013 0.867079 0
0.0684062 0.862547 0
0.0901656 0.858091 0
0.112398 0.85359 0
0.136446 0.847974 0
0.162249 0.842008 0
0.189242 0.835966 0
0.217853 0.829786 0
0.248081 0.822934 0
0.279667 0.81593 0
0.312032 0.809125 0
0.344381 0.803098 0
0.375769 0.798154 0
0.406195 0.79443 0
0.436408 0.790646 0
0.46833 0.786358 0
0.503456 0.781277 0
0.54052 0.775464 0
0.576455 0.769436 0
0.6112 0.763287 0
0.644846 0.756649 0
0.67715 0.750042 0
0.708278 0.743191 0
0.738567 0.736431 0
0.766506 0.730388 0
0.779599 0.732418 0
0.778805 0.744335 0
0.779065 0.746395 0
0.779706 0.744335 0
0 0.902831 0
0.00181582 0.911391 0
0.0132601 0.924804 0
0.0291142 0.919158 0
0.046952 0.912764 0
0.0656596 0.907454 0
0.0846571 0.902541 0
0.104631 0.897551 0
0.126604 0.891676 0
0.150622 0.885313 0
0.175967 0.879118 0
0.202533 0.872831 0
0.231098 0.866163 0
0.261341 0.859312 0
0.292409 0.852659 0
0.323644 0.84596 0
0.354177 0.840604 0
0.383688 0.835569 0
0.41265 0.830884 0
0.443198 0.826078 0
0.476814 0.820554 0
0.513268 0.814633 0
0.550149 0.808637 0
0.586114 0.802075 0
0.621241 0.795377 0
0.655207 0.788617 0
0.687953 0.78204 0
0.71986 0.775418 0
0.749462 0.76846 0
0.766629 0.768643 0
0.767193 0.780758 0
0.767651 0.784878 0
0.768215 0.78294 0
1.5259e-05 0.916609 0
0.00404364 0.922454 0
0.0154574 0.940871 0
0.0290227 0.939879 7.62951e-05
0.0445563 0.934737 0.000320439
0.0607767 0.929793 0.000259403
0.0776684 0.924926 7.62951e-05
0.0955978 0.919997 0
0.115755 0.914565 0
0.138308 0.908812 0
0.161807 0.903059 0
0.18674 0.897276 0
0.213886 0.89131 0
0.242496 0.885359 0
0.272328 0.879393 0
0.302403 0.873503 0
0.331945 0.868162 0
0.360433 0.863401 0
0.388464 0.858732 0
0.41767 0.854063 0
0.44976 0.849088 0
0.485466 0.843656 0
0.523552 0.83801 0
0.560983 0.832212 0
0.597482 0.826337 0
0.633036 0.820356 0
0.667399 0.814374 0
0.700694 0.808209 0
0.732341 0.801678 0
0.753674 0.800381 0
0.755688 0.81294 0
0.756771 0.819486 0
0.757259 0.81796 0
0.00297551 0.924132 0.000503548
0.00535592 0.927504 0.000946059
0.0162661 0.945037 0.00262455
0.027451 0.946822 0.00315862
0.0408942 0.942046 0.00337224
0.0551461 0.937438 0.00315862
0.0700084 0.933013 0.00268559
0.0860304 0.928588 0.00227359
0.105272 0.922728 0.00183108
0.125841 0.917494 0.00128176
0.147814 0.912016 0.00077821
0.17113 0.906508 0.000427253
0.196536 0.900847 0.000106813
0.223819 0.895125 0
0.252155 0.889448 0
0.281117 0.883909 0
0.309926 0.87863 0
0.337591 0.873793 0
0.364721 0.869261 0
0.392828 0.864836 0
0.423301 0.860105 0.000106813
0.458335 0.854948 0.000183108
0.497719 0.849592 0.000198367
0.536477 0.844038 0.000213626
0.574517 0.838407 0.000183108
0.611414 0.832776 0.00015259
0.64712 0.826963 0.000106813
0.681575 0.821073 6.10361e-05
0.715053 0.815061 0
0.740902 0.813031 0
0.744259 0.825971 0
0.74641 0.835065 0
0.746914 0.834501 0
0.00637827 0.931212 0.00555428
0.00689708 0.932006 0.00511177
0.0161746 0.948913 0.00666819
0.0253147 0.952956 0.00788891
0.0367437 0.948837 0.00830091
0.0491798 0.944564 0.00810254
0.0623178 0.940383 0.00753796
0.0766613 0.936278 0.00677501
0.0941634 0.930816 0.00587472
0.113237 0.925689 0.00476081
0.133593 0.920531 0.00376898
0.155581 0.915221 0.00294499
0.179522 0.909834 0.00215152
0.205249 0.904341 0.00148013
0.232258 0.898863 0.00102235
0.26009 0.893507 0.00062562
0.287968 0.888395 0.00047303
0.314992 0.883726 0.000595102
0.341436 0.879377 0.000839246
0.368521 0.875044 0.00102235
0.397589 0.870558 0.00123598
0.432853 0.865644 0.00137331
0.472892 0.860548 0.00143435
0.513313 0.855283 0.00151064
0.552575 0.849912 0.00149538
0.590692 0.844434 0.00144961
0.627619 0.838865 0.00137331
0.663539 0.833173 0.00122072
0.69839 0.827451 0.00112917
0.728084 0.824048 0.0010071
0.733822 0.835492 0.000991836
0.737331 0.84596 0.000823987
0.737774 0.845426 0.00077821
0.00856031 0.938003 0.00920119
0.00830091 0.937148 0.00875868
0.0155337 0.952773 0.0102693
0.0226139 0.958587 0.0115358
0.0322576 0.955184 0.0121004
0.0429084 0.951263 0.0119783
0.0545357 0.947311 0.0113069
0.0674296 0.943191 0.0105135
0.0826886 0.938567 0.00952163
0.100221 0.933608 0.00834669
0.119341 0.928603 0.00730907
0.139849 0.923583 0.00640879
0.162142 0.918441 0.00541695
0.186343 0.913222 0.0043946
0.212039 0.907973 0.00341802
0.238972 0.9028 0.00265507
0.26598 0.897871 0.00228885
0.292195 0.893339 0.00238041
0.317769 0.889097 0.00280766
0.343816 0.884962 0.00328069
0.371679 0.88069 0.00361639
0.407004 0.876036 0.00373846
0.448188 0.871183 0.00376898
0.489738 0.866148 0.00373846
0.530449 0.86099 0.00370794
0.569818 0.855726 0.00358587
0.607919 0.850416 0.00344854
0.645243 0.844984 0.00332647
0.681788 0.839506 0.00321965
0.713573 0.835813 0.00308232
0.723262 0.8448 0.00299077
0.728542 0.856474 0.00282292
0.728969 0.855955 0.00271611
0.0142214 0.92871 0.0160983
0.0135042 0.929931 0.0152438
0.0216983 0.945281 0.0163882
0.0292058 0.954391 0.0174105
0.0391852 0.952682 0.0177615
0.0504921 0.949447 0.0175021
0.063508 0.945663 0.0168612
0.0784009 0.941512 0.0160525
0.0957198 0.937011 0.0149233
0.115541 0.932189 0.0135958
0.137469 0.927199 0.0123751
0.160479 0.922286 0.0113069
0.185443 0.917266 0.010071
0.212222 0.9122 0.00875868
0.240192 0.907195 0.00746166
0.269795 0.902235 0.00660716
0.298009 0.897719 0.00601205
0.324239 0.893721 0.00590524
0.34876 0.890135 0.00614939
0.372717 0.886748 0.00645457
0.39794 0.883268 0.00671397
0.429221 0.879454 0.00682078
0.464958 0.875456 0.00666819
0.500999 0.871321 0.00642405
0.536477 0.867109 0.00614939
0.57142 0.862806 0.00584421
0.606348 0.858396 0.0055848
0.640009 0.853941 0.00526436
0.67277 0.84947 0.00491341
0.707286 0.845029 0.00476081
0.759304 0.840467 0.00613413
0.773022 0.849729 0.00653086
0.770779 0.850111 0.00634775
0.0153658 0.935134 0.0180972
0.015259 0.934249 0.0178836
0.0232242 0.944991 0.0194705
0.0321965 0.953429 0.0213474
0.0443732 0.95111 0.0220951
0.0574044 0.947753 0.022034
0.0712749 0.944442 0.0213626
0.0866712 0.940902 0.0203555
0.104799 0.936904 0.0191043
