70 CGC LUTs/Look LUTs/Celadon.cube
#Created by: Denver Riddle
#Copyright: (C) Copyright Color Grading Central LLC
#LUT Size
LUT_3D_SIZE 9
0.0156863 0.0134432 0.0378729
0.228748 0 0.00164797
0.437736 0 0.00030518
0.656214 0 0
0.851575 0 0
1 0 0
1 0 0
1 0 0
1 0 0
0 0.131121 0
0.116915 0.105623 0
0.333486 0.0869764 0
0.560555 0.0703593 0
0.767422 0.0616007 0
0.990738 0.049546 0
1 0.038056 0
1 0.0316472 0
1 0.0189059 0
0 0.298497 0
0.0539559 0.268574 0
0.231144 0.244953 0
0.422721 0.22948 0
0.61767 0.219928 0
0.837415 0.208698 0
0.998993 0.195651 0
1 0.191257 0
1 0.183825 0
0 0.457832 0
0.0260319 0.436622 0
0.178317 0.412436 0
0.343816 0.397848 0
0.513649 0.395239 0
0.70869 0.397314 0
0.880537 0.395377 0
0.953536 0.394217 0
0.937118 0.40032 0
0 0.629374 0
0.0254826 0.631907 0
0.154986 0.621973 0
0.299809 0.617319 0
0.451728 0.615808 0
0.607065 0.61236 0
0.745571 0.596521 0
0.846647 0.576165 0
0.841672 0.585733 0
0 0.84802 0
0.047013 0.867079 0
0.136446 0.847974 0
0.248081 0.822934 0
0.375769 0.798154 0
0.503456 0.781277 0
0.644846 0.756649 0
0.766506 0.730388 0
0.779706 0.744335 0
0.00637827 0.931212 0.00555428
0.0367437 0.948837 0.00830091
0.0941634 0.930816 0.00587472
0.179522 0.909834 0.00215152
0.287968 0.888395 0.00047303
0.397589 0.870558 0.00123598
0.552575 0.849912 0.00149538
0.69839 0.827451 0.00112917
0.737774 0.845426 0.00077821
0.0153964 0.942321 0.0187228
0.038468 0.957717 0.0224918
0.0921798 0.944732 0.0196994
0.178698 0.927657 0.0139162
0.293446 0.909545 0.00907912
0.409033 0.894514 0.00975052
0.560922 0.877653 0.00961318
0.705242 0.858808 0.00862135
0.756054 0.870405 0.0083772
0.0119936 0.961456 0.0157626
0.0186465 0.976654 0.0185702
0.0506294 0.96759 0.0167849
0.11368 0.954086 0.0115053
0.207126 0.939132 0.00691234
0.305577 0.927077 0.00646983
0.45568 0.915007 0.00637827
0.619913 0.901518 0.00569161
0.749355 0.901335 0.00813306
0.0089723 0.00630198 0.222629
0.186084 0 0.255436
0.406439 0 0.251011
0.631632 0 0.237293
0.828992 0 0.235203
1 0 0.220554
1 0 0.201099
1 0 0.185412
1 0 0.156832
0 0.136599 0.118044
0.106523 0.0996262 0.150591
0.322423 0.0763561 0.155642
0.546242 0.0593576 0.138628
0.754711 0.0502937 0.13283
0.991058 0.0393072 0.126513
1 0.0298009 0.115373
1 0.0236057 0.103838
1 0.0119326 0.0855116
0 0.289189 0.0495766
0.0466011 0.257008 0.0882582
0.220798 0.234394 0.0760357
0.417594 0.217762 0.0544289
0.612924 0.20734 0.0506447
0.826047 0.197253 0.051545
0.997513 0.185397 0.0500649
1 0.181964 0.0579995
1 0.176043 0.0539406
0 0.442878 0.0478065
0.0199435 0.424781 0.0599374
0.170001 0.401907 0.0495308
0.334783 0.388205 0.0475013
0.507515 0.385229 0.0516823
0.706493 0.388815 0.055787
0.87808 0.386404 0.0643778
0.955093 0.383932 0.0753948
0.939193 0.390555 0.0765545
0 0.614664 0.0538796
0.0231937 0.623407 0.0660105
0.149187 0.614343 0.0722515
0.291783 0.609918 0.0812543
0.443519 0.605493 0.0895857
0.596811 0.601358 0.0967269
0.738582 0.584695 0.0883497
0.845029 0.56318 0.0706645
0.842634 0.573144 0.0702983
0 0.837674 0.0995346
0.0441749 0.855589 0.104921
0.129656 0.836103 0.102708
0.238956 0.810285 0.0958267
0.366293 0.785031 0.0888533
0.49276 0.768383 0.0860914
0.635706 0.744457 0.0793164
0.760388 0.717922 0.0709239
0.77705 0.732082 0.0686503
0.00671397 0.923888 0.0972457
0.0343481 0.942992 0.096788
0.0888991 0.925368 0.0910353
0.172457 0.903944 0.0825055
0.280583 0.882109 0.0745098
0.389807 0.864149 0.0704967
0.543618 0.843656 0.0642252
0.691096 0.82121 0.057023
0.735332 0.838911 0.055314
0.0156252 0.937072 0.0989853
0.036759 0.953536 0.0983749
0.0881056 0.940734 0.0944991
0.173159 0.9234 0.085832
0.287053 0.904952 0.076936
0.40264 0.889708 0.0723888
0.553719 0.872862 0.0664378
0.699535 0.854078 0.0593729
0.754589 0.865476 0.0565042
0.01178 0.958831 0.0676585
0.0174716 0.974487 0.0654154
0.0470588 0.96582 0.0632181
0.107805 0.952255 0.055787
0.199817 0.937148 0.0479896
0.298009 0.924987 0.0433967
0.445686 0.9131 0.0387274
0.611765 0.899687 0.0333257
0.747051 0.899214 0.0431983
0.00756847 0.00422675 0.345418
0.153826 0 0.350271
0.384741 0 0.424079
0.610513 0 0.426886
0.810391 0 0.429175
0.999893 0 0.415869
1 0 0.395499
1 0 0.384894
1 0 0.359274
0 0.130282 0.296605
0.10985 0.103273 0.28217
0.299672 0.0813306 0.339986
0.530266 0.0594186 0.34374
0.742733 0.0484932 0.339437
0.982742 0.0376593 0.33283
1 0.0288701 0.313863
1 0.0225681 0.293507
1 0.0109255 0.27039
0 0.303319 0.164462
0.0217746 0.26685 0.206424
0.218616 0.231998 0.249454
0.413535 0.214237 0.245182
0.606821 0.203815 0.239765
0.818784 0.194781 0.23772
0.997772 0.184192 0.234379
1 0.182223 0.241443
1 0.177249 0.244038
0 0.446983 0.129473
0.0241245 0.424277 0.176623
0.169131 0.399252 0.208011
0.332341 0.38761 0.20798
0.5084 0.385779 0.20708
0.706722 0.38938 0.214664
0.871687 0.387457 0.222049
0.949905 0.383566 0.22739
0.935058 0.390021 0.234287
0 0.61416 0.155138
0.03122 0.624628 0.193439
0.150484 0.615991 0.211917
0.290105 0.610788 0.21706
0.440116 0.605097 0.218952
0.591241 0.598917 0.219837
0.733669 0.580621 0.204685
0.843671 0.557931 0.18323
0.841764 0.568215 0.188006
0 0.836912 0.198657
0.0483558 0.852979 0.212177
0.12874 0.832288 0.212253
0.234623 0.805097 0.203601
0.360845 0.779873 0.193027
0.485878 0.763058 0.186328
0.629526 0.739055 0.17615
0.755764 0.712123 0.164279
0.7729 0.726421 0.165713
0.00994888 0.918776 0.181018
0.0359808 0.937758 0.185473
0.0875715 0.920195 0.17995
0.168322 0.898848 0.170275
0.275196 0.876936 0.158953
0.383444 0.858961 0.151492
0.537835 0.838376 0.141756
0.686564 0.815824 0.131167
0.731411 0.833463 0.132235
0.0183871 0.932982 0.184207
0.0383917 0.949325 0.188281
0.0872511 0.936522 0.184802
0.169619 0.919295 0.175601
0.282094 0.900755 0.163577
0.395987 0.885603 0.155947
0.547997 0.868528 0.146746
0.694942 0.849668 0.136629
0.750912 0.861082 0.135073
0.0131991 0.955444 0.141466
0.0182345 0.97113 0.141283
0.046067 0.962493 0.137591
0.105287 0.948623 0.128862
0.19501 0.9337 0.118044
0.292073 0.921508 0.109606
0.440055 0.909529 0.100999
0.607217 0.89604 0.0913252
0.743587 0.895705 0.11783
0.00674449 0.00329595 0.47776
0.14345 0 0.457603
0.34844 0 0.555657
0.589517 0 0.608637
0.787243 0 0.616693
0.998276 0 0.607614
1 0 0.585351
1 0 0.57641
1 0 0.552758
0 0.126009 0.445243
0.113802 0.107591 0.41529
0.268345 0.0974594 0.447288
0.508644 0.0644846 0.526223
0.722515 0.0522011 0.531502
0.965515 0.0404669 0.530083
1 0.0302739 0.50338
1 0.0245365 0.4748
1 0.0128481 0.448234
0 0.307881 0.330053
0.0273136 0.264134 0.37554
0.223545 0.234348 0.369833
0.395621 0.218311 0.415717
0.595544 0.204257 0.422431
0.810269 0.195117 0.420874
0.995666 0.186053 0.416144
1 0.184878 0.421759
0.999222 0.181262 0.430625
0 0.460746 0.228473
0.00228885 0.438453 0.269139
0.155596 0.408698 0.306447
0.330495 0.390036 0.357198
0.510781 0.387823 0.37023
0.704921 0.392081 0.3794
0.864225 0.38938 0.382788
0.943832 0.383963 0.382223
0.930022 0.390875 0.394888
0 0.623209 0.221561
0.0361639 0.633173 0.274083
0.15758 0.620951 0.318242
0.290471 0.612222 0.350423
0.437095 0.604929 0.352087
0.586236 0.596811 0.34844
0.730327 0.577111 0.326467
0.842893 0.553491 0.305165
0.841611 0.563943 0.313024
0 0.838422 0.281163
0.0548104 0.852705 0.305165
0.132036 0.829114 0.314839
0.2327 0.800916 0.316732
0.355947 0.775753 0.305913
0.479698 0.758846 0.295781
0.623957 0.734234 0.28188
0.751675 0.707652 0.266651
0.769375 0.721889 0.270527
0.0154116 0.914534 0.263798
0.0401312 0.93315 0.273213
0.0893568 0.915175 0.271092
0.166491 0.893645 0.265827
0.270207 0.871931 0.254475
0.377478 0.853956 0.243885
0.532616 0.833295 0.23064
0.682704 0.81062 0.216358
0.728115 0.828321 0.219593
0.0234073 0.929625 0.269032
0.0426184 0.945708 0.27744
0.0894331 0.932525 0.27718
0.168383 0.915129 0.273136
0.277546 0.896696 0.261555
0.390646 0.881392 0.250843
0.54287 0.864424 0.238376
0.690913 0.845518 0.224628
0.747845 0.856992 0.224033
0.0166476 0.952285 0.220035
0.0210422 0.967926 0.221698
0.0472877 0.959197 0.217975
0.103166 0.94551 0.210529
0.190677 0.930388 0.199344
0.286519 0.918181 0.187304
0.43505 0.906188 0.175128
0.603586 0.892683 0.161578
0.740826 0.892439 0.202609
0.00675975 0.00320439 0.630701
0.142275 0 0.597543
0.311772 0 0.662272
0.550469 0 0.77641
0.760479 0 0.818204
0.992325 0 0.81706
1 0 0.794522
1 0 0.786572
1 0 0.764538
0 0.126192 0.60177
0.11783 0.112078 0.568444
0.258762 0.107668 0.57258
0.465766 0.081651 0.675181
0.698207 0.0583658 0.734813
0.939452 0.0460822 0.743252
0.996933 0.035462 0.707301
1 0.0290837 0.670695
0.990814 0.0192264 0.644694
0 0.295155 0.526452
0.0634318 0.255177 0.53814
0.226734 0.237964 0.507591
0.36614 0.233188 0.529183
0.573175 0.209812 0.608804
0.790021 0.199313 0.619989
0.976532 0.190311 0.620279
0.999939 0.190051 0.62501
0.995209 0.188296 0.639475
0 0.471824 0.388602
0 0.448814 0.434119
0.137758 0.415213 0.473793
0.341176 0.3906 0.50161
0.495094 0.396475 0.539193
0.695644 0.39588 0.568841
0.853056 0.391287 0.569894
0.935699 0.383337 0.565133
0.922194 0.390616 0.581903
0 0.639628 0.317281
0.013962 0.651957 0.365911
0.139223 0.637415 0.40177
0.28426 0.620951 0.445106
0.434791 0.60441 0.493339
0.580362 0.593378 0.501427
0.728481 0.571832 0.477424
0.839857 0.548165 0.458656
0.839857 0.558511 0.469886
0.000198367 0.845579 0.348592
0.0545357 0.857435 0.377386
0.1337 0.829419 0.39736
0.235218 0.797757 0.422324
0.352743 0.770443 0.436851
0.472969 0.75375 0.42916
0.618112 0.728801 0.411582
0.747295 0.702174 0.392187
0.765927 0.716503 0.398444
0.0202487 0.913054 0.339864
0.0443732 0.93109 0.35462
0.0928206 0.911803 0.359915
0.168215 0.888747 0.367102
0.267262 0.866346 0.368277
0.370901 0.848539 0.359365
0.526848 0.827817 0.342596
0.67808 0.805158 0.324666
0.724865 0.822614 0.329824
0.028336 0.929 0.347677
0.0470283 0.944778 0.360265
0.0934157 0.930327 0.367376
0.170687 0.911284 0.376043
0.274815 0.892134 0.377813
0.384421 0.876921 0.369024
0.537194 0.859968 0.353262
0.686427 0.841047 0.335851
0.7449 0.852476 0.336355
0.0219883 0.95021 0.303578
0.0257725 0.965743 0.30724
0.0506752 0.956573 0.305776
0.104417 0.942168 0.303899
0.18793 0.926726 0.298985
0.280278 0.914717 0.287709
0.429191 0.902724 0.271519
0.599054 0.889235 0.253681
0.738033 0.889052 0.310124
0.00714122 0.00381476 0.815137
0.143435 0.000137331 0.773846
0.295033 0 0.805966
0.494621 0 0.910185
0.708644 0 0.99762
0.973953 0 1
1 0 1
0.999008 0 0.998337
1 0 0.988998
0 0.12784 0.785748
0.12163 0.116304 0.752636
0.258534 0.11339 0.742855
0.426123 0.10341 0.80145
0.648737 0.0774701 0.918715
0.896437 0.0543832 0.971756
0.982269 0.0430304 0.93286
0.994919 0.0360418 0.888701
0.965331 0.027039 0.870375
0 0.279072 0.726024
0.0853742 0.25272 0.709392
0.230228 0.241657 0.674601
0.360082 0.241138 0.673091
0.527276 0.229664 0.752392
0.761563 0.207492 0.838422
0.947097 0.198184 0.852033
0.993317 0.198566 0.856718
0.970916 0.199924 0.876036
0 0.465156 0.609674
0.00328069 0.43772 0.65481
0.180331 0.40444 0.666514
0.350484 0.395544 0.654475
0.483085 0.410605 0.666285
0.666773 0.407889 0.759441
0.827497 0.396963 0.783246
0.913848 0.386114 0.778653
0.900633 0.393164 0.797177
0 0.6589 0.484337
1.5259e-05 0.67245 0.535454
0.088838 0.65626 0.565301
0.23856 0.636835 0.601923
0.408347 0.612024 0.64239
0.574868 0.591241 0.658045
0.715923 0.566644 0.674647
0.831479 0.542184 0.654704
0.832624 0.552651 0.669566
0 0.860136 0.446128
0.0219425 0.87068 0.471427
0.105272 0.84033 0.482521
0.215839 0.80557 0.502846
0.345495 0.771862 0.533303
0.469764 0.748104 0.570687
0.611063 0.721874 0.576211
0.743145 0.695109 0.551644
0.763577 0.709072 0.560235
0.0107576 0.919188 0.408988
0.0349737 0.936996 0.425223
0.0864729 0.915755 0.432471
0.166201 0.889418 0.450309
0.268208 0.862684 0.476173
0.368597 0.842359 0.494057
0.519982 0.8215 0.488716
0.672557 0.798718 0.466285
0.721523 0.815885 0.473121
0.0193484 0.936217 0.418158
0.0380407 0.951827 0.43209
0.0875868 0.935546 0.441321
0.16936 0.913085 0.461112
0.276158 0.889464 0.489204
0.382162 0.871733 0.507973
0.530419 0.85478 0.50219
0.681147 0.835782 0.480964
0.742107 0.847013 0.482521
0.0242924 0.952865 0.379156
0.0276646 0.968185 0.384482
0.0523842 0.958083 0.386984
0.106157 0.941649 0.395331
0.188266 0.923903 0.406561
0.276692 0.910796 0.409903
0.421454 0.899046 0.399359
0.59295 0.885573 0.376577
0.735012 0.885374 0.450126
0.00460822 0.00308232 0.880079
0.142794 0.000595102 0.881086
0.289815 0.000762951 0.912077
0.466621 0 0.98999
0.662821 0 1
0.931701 0 1
0.999863 0 1
0.973541 0 1
0.979614 0 1
0 0.128939 0.948379
0.124804 0.119829 0.932769
0.260731 0.117815 0.927337
0.412497 0.115221 0.958618
0.598077 0.103792 0.999847
0.826032 0.0761578 1
0.953429 0.0549325 1
0.967681 0.0451362 1
0.933059 0.0376135 1
0 0.270542 0.922774
0.0986191 0.254032 0.901686
0.233539 0.245304 0.864775
0.361242 0.246052 0.853529
0.502739 0.247288 0.892088
0.706035 0.232578 0.994919
0.907744 0.21265 1
0.968582 0.210834 1
0.93576 0.215885 1
0 0.444633 0.845975
0.044892 0.422492 0.869123
0.209476 0.401541 0.849515
0.357214 0.402747 0.831601
0.487251 0.418387 0.831174
0.630945 0.428885 0.87747
0.78851 0.410346 0.95346
0.887968 0.390814 0.968826
0.872984 0.399466 0.985214
0 0.665919 0.713161
0 0.676783 0.75697
0.087602 0.656046 0.779873
0.254658 0.629221 0.806836
0.437293 0.600427 0.815137
0.576669 0.588708 0.795041
0.681453 0.576181 0.804166
0.807294 0.542428 0.846113
0.808408 0.553613 0.863935
0 0.872343 0.574075
0 0.883436 0.603479
0.0509804 0.853513 0.61416
0.160555 0.81857 0.633005
0.292531 0.784131 0.658122
0.424659 0.758175 0.683207
0.590616 0.722484 0.718379
0.735714 0.687922 0.736339
0.758877 0.70132 0.753826
0 0.92958 0.496864
0.00195315 0.94815 0.514061
0.0522774 0.926757 0.516732
0.135576 0.89955 0.528527
0.246189 0.870237 0.550027
0.357748 0.845243 0.576486
0.517433 0.816342 0.625544
0.666407 0.791989 0.631754
0.718196 0.808743 0.642084
0 0.947814 0.504906
0.00364691 0.964202 0.521492
0.0539406 0.947692 0.525979
0.139544 0.924392 0.539666
0.25539 0.898039 0.563851
0.373037 0.875319 0.593698
0.528252 0.850721 0.641947
0.67451 0.830533 0.649744
0.739101 0.841199 0.654582
0.00750744 0.963043 0.4486
0.0103761 0.978592 0.454917
0.036347 0.96788 0.455619
0.0940719 0.949615 0.464271
0.18201 0.928374 0.485145
0.274952 0.910994 0.51043
0.417487 0.895338 0.541009
0.585946 0.88188 0.528237
0.731807 0.881559 0.618677
0.00350958 0.00195315 0.871656
0.139696 0.000427253 0.874647
0.28603 0.000808728 0.907759
0.459785 0 0.987167
0.653407 0 1
0.919051 0 1
0.998581 0 1
0.969894 0 1
0.975738 0 1
0 0.124346 0.938704
0.121065 0.115892 0.92491
0.256306 0.114061 0.925505
0.407691 0.112612 0.962448
0.584527 0.102693 0.998199
0.79881 0.0766308 1
0.92723 0.0559243 1
0.954543 0.0464942 1
0.921645 0.0417029 1
0 0.26453 0.94461
0.0991226 0.251316 0.934524
0.231876 0.243503 0.913069
0.35938 0.245151 0.9075
0.498466 0.248219 0.938064
0.690715 0.238819 1
0.889845 0.218723 1
0.956771 0.215198 1
0.925689 0.221454 1
0 0.433356 0.908568
0.0596475 0.417762 0.929976
0.215198 0.401572 0.910719
0.35819 0.405097 0.886
0.487694 0.419913 0.874403
0.625422 0.431159 0.905287
0.770733 0.414221 0.978271
0.873564 0.390738 0.999939
0.860533 0.399481 1
0 0.662943 0.779614
0 0.673106 0.821866
0.0966201 0.651881 0.842802
0.264866 0.62179 0.864485
0.442344 0.593347 0.864485
0.572152 0.584085 0.843442
0.672312 0.573831 0.846281
0.786267 0.543404 0.901335
0.789364 0.554559 0.913619
0 0.872679 0.644694
0 0.882902 0.670878
0.0264897 0.853513 0.685344
0.135348 0.817975 0.709499
0.269276 0.78201 0.741131
0.408209 0.753613 0.773571
0.595193 0.712169 0.807401
0.721569 0.68687 0.797391
0.744213 0.700404 0.814023
0 0.934417 0.570748
0 0.952926 0.584588
0.0193942 0.93228 0.58883
0.100038 0.905577 0.60177
0.209339 0.876539 0.623072
0.321233 0.851713 0.64651
0.489784 0.821363 0.686259
0.657099 0.788937 0.726604
0.715114 0.802716 0.752453
0 0.95375 0.57673
0 0.970062 0.590661
0.0224918 0.954055 0.595972
0.105852 0.931167 0.610086
0.220523 0.905104 0.633066
0.339559 0.882399 0.65864
0.505043 0.85597 0.698192
0.669444 0.827405 0.740398
0.737514 0.835554 0.768688
0 0.97229 0.518059
0 0.987655 0.522347
0.00709544 0.977432 0.522255
0.064332 0.959335 0.528801
0.15436 0.937774 0.545007
0.253254 0.918959 0.566415
0.409369 0.89807 0.612467
0.581537 0.878218 0.661753
0.728939 0.877577 0.7476
0.00343328 0.00190738 0.871672
0.138354 0.000335698 0.874739
0.282445 0.000595102 0.90753
0.454063 0 0.98645
0.645808 0 1
0.911421 0 1
0.998611 0 1
0.97467 0 1
0.977584 0 1
0 0.118425 0.932525
0.11548 0.109865 0.923735
0.25008 0.107362 0.924376
0.400488 0.107057 0.957916
0.567178 0.0972305 0.993683
0.775418 0.0727703 1
0.908934 0.0518196 1
0.955871 0.0427253 1
0.920668 0.0392004 1
0 0.256153 0.943496
0.0952468 0.245167 0.93434
0.227054 0.237736 0.91368
0.354467 0.239307 0.908843
0.494316 0.241856 0.940246
0.686885 0.233585 1
0.887541 0.214191 1
0.954574 0.211856 1
0.924605 0.219532 1
0 0.423041 0.912093
0.0581521 0.410803 0.934356
0.211643 0.395682 0.915801
0.353689 0.399405 0.892363
0.484642 0.415122 0.881819
0.621851 0.427512 0.912505
0.764889 0.411582 0.984314
0.867796 0.38793 1
0.856153 0.396292 1
0 0.655207 0.796948
0 0.666148 0.840833
0.0987106 0.645411 0.862364
0.267659 0.615717 0.88304
0.443107 0.587457 0.880415
0.568475 0.579355 0.860761
0.668727 0.569863 0.864378
0.776257 0.541909 0.91902
0.781369 0.552361 0.931456
0 0.869001 0.671504
0 0.879026 0.701106
0.0172427 0.849912 0.717968
0.125704 0.814359 0.744671
0.26331 0.776226 0.781262
0.408515 0.745769 0.817655
0.599573 0.70457 0.844358
0.717418 0.682551 0.83093
0.741268 0.696208 0.84712
0 0.935409 0.609537
0 0.95433 0.626413
0.00361639 0.934218 0.63209
0.0781872 0.907729 0.646754
0.185748 0.878782 0.67071
0.295628 0.854047 0.697902
0.462898 0.823667 0.74284
0.637034 0.788891 0.791165
0.702022 0.801236 0.816663
0 0.957946 0.580941
0 0.974334 0.605524
0.00807202 0.961181 0.608942
0.0724804 0.941207 0.619196
0.171939 0.91783 0.640696
0.282048 0.897551 0.670466
0.448676 0.873991 0.717632
0.595789 0.843763 0.737896
0.71458 0.834485 0.776898
0 0.979965 0.528161
0 0.998001 0.533486
0 0.989746 0.527138
0 0.973495 0.525414
0.0522927 0.953643 0.533333
0.128054 0.936217 0.548333
0.290394 0.915282 0.593408
0.499886 0.890745 0.660655
0.704311 0.875151 0.746548
