70 CGC LUTs/Look LUTs/Chamoisee.cube
#Created by: Denver Riddle
#Copyright: (C) Copyright Color Grading Central LLC
#LUT Size
LUT_3D_SIZE 9
0.0881514 0.0879683 0.0903792
0.160708 0.0917525 0.0931411
0.251469 0.0863355 0.0880903
0.40708 0.0636759 0.0650797
0.53492 0.0524758 0.0540475
0.644251 0.0531167 0.0544594
0.750301 0.0579538 0.059266
0.832685 0.0606699 0.0629435
0.845594 0.061326 0.0636301
0.0952621 0.141894 0.0977035
0.142855 0.146319 0.0951705
0.254231 0.158358 0.088426
0.452262 0.148562 0.070985
0.594385 0.150851 0.0713664
0.704967 0.160342 0.0799878
0.805585 0.171817 0.0912795
0.880796 0.166262 0.0979171
0.905806 0.146838 0.0922408
0.0906539 0.184756 0.0929885
0.126558 0.170306 0.0959335
0.199329 0.215366 0.0950179
0.380774 0.24593 0.0896315
0.584649 0.265858 0.0923171
0.728222 0.292042 0.111437
0.851545 0.316014 0.132891
0.936492 0.302464 0.145983
0.957855 0.262058 0.141604
0.0747845 0.277455 0.0767376
0.110491 0.222156 0.0872969
0.156542 0.266972 0.09131
0.29604 0.336004 0.0960403
0.524956 0.395789 0.101015
0.69688 0.443534 0.121782
0.832761 0.470466 0.136782
0.930587 0.451713 0.153903
0.963989 0.409827 0.166155
0.0595254 0.433036 0.0611429
0.0877394 0.344976 0.0679789
0.123827 0.36997 0.0749523
0.225528 0.44448 0.0931563
0.452461 0.514244 0.108904
0.638605 0.560815 0.120195
0.775555 0.584161 0.126299
0.874784 0.575601 0.132143
0.905257 0.548211 0.139803
0.109789 0.638148 0.112078
0.108568 0.563088 0.0881666
0.14255 0.572229 0.097673
0.222858 0.613214 0.12253
0.406226 0.646052 0.132662
0.606653 0.660624 0.12726
0.736996 0.679194 0.130053
0.836469 0.679103 0.132174
0.862776 0.666041 0.133959
0.147982 0.806027 0.150851
0.17705 0.777401 0.148013
0.210361 0.779355 0.15346
0.277043 0.782727 0.15787
0.425071 0.778485 0.14966
0.605966 0.772 0.13608
0.73138 0.7794 0.136355
0.828733 0.78674 0.139315
0.859953 0.787579 0.141131
0.167147 0.929808 0.169833
0.198535 0.912474 0.168368
0.233371 0.9131 0.173465
0.296742 0.911406 0.175769
0.430762 0.899092 0.166217
0.607141 0.882612 0.151186
0.734951 0.881926 0.151843
0.817716 0.884733 0.154696
0.838468 0.887221 0.156176
0.171221 0.963943 0.173968
0.206912 0.962539 0.176059
0.243839 0.963958 0.181567
0.310994 0.962112 0.183581
0.446662 0.949081 0.17406
0.61976 0.931624 0.159884
0.74583 0.92845 0.160708
0.826474 0.930449 0.162631
0.858412 0.932815 0.163775
0.0907149 0.0908827 0.147723
0.158145 0.0932326 0.161715
0.262455 0.0836652 0.161364
0.419837 0.060853 0.14342
0.543954 0.0521248 0.138155
0.654551 0.054078 0.146029
0.761959 0.0607919 0.15816
0.845197 0.0714733 0.171969
0.858137 0.072221 0.173053
0.0925002 0.149325 0.150423
0.151034 0.150927 0.153994
0.260777 0.156115 0.158007
0.46627 0.147494 0.147539
0.612116 0.147555 0.147372
0.725963 0.155138 0.155093
0.824384 0.169406 0.169345
0.913771 0.174563 0.176516
0.960922 0.169055 0.173281
0.0884565 0.195026 0.140154
0.133364 0.171466 0.135943
0.200702 0.197955 0.147066
0.412726 0.245472 0.160647
0.618555 0.26154 0.170474
0.773877 0.283162 0.191653
0.89482 0.307424 0.21474
0.988647 0.305364 0.22591
1 0.276844 0.218585
0.0768902 0.277485 0.125292
0.121111 0.222339 0.123507
0.167865 0.246632 0.13402
0.321721 0.325017 0.154681
0.569238 0.4056 0.180377
0.751766 0.45069 0.207431
0.888762 0.467094 0.221942
0.988937 0.450141 0.23331
1 0.409751 0.23949
0.0620584 0.418311 0.107362
0.102419 0.328344 0.104143
0.139223 0.333455 0.114275
0.239002 0.395392 0.134859
0.48809 0.503365 0.166735
0.670939 0.563653 0.191272
0.816129 0.584817 0.200778
0.927764 0.574273 0.202716
0.979385 0.53962 0.205417
0.104799 0.616373 0.150759
0.107897 0.527077 0.109514
0.142916 0.530999 0.118959
0.220661 0.559167 0.142046
0.430594 0.615839 0.170779
0.630716 0.651087 0.18352
0.762737 0.677806 0.198016
0.875456 0.679759 0.200412
0.916732 0.659098 0.193164
0.147845 0.793225 0.206149
0.174685 0.747082 0.177737
0.211444 0.748928 0.183673
0.277867 0.749355 0.187823
0.426688 0.748775 0.18703
0.617334 0.752621 0.185794
0.747112 0.769268 0.198215
0.852583 0.785367 0.211704
0.892607 0.786313 0.212329
0.166766 0.905898 0.221698
0.201465 0.889067 0.204746
0.241657 0.890074 0.210254
0.314427 0.886519 0.210636
0.447196 0.873945 0.201617
0.620844 0.863294 0.195544
0.751522 0.868864 0.207218
0.855619 0.876143 0.218799
0.891951 0.87834 0.219104
0.172519 0.940932 0.227039
0.2103 0.943343 0.213565
0.254429 0.945327 0.220218
0.332662 0.941604 0.220005
0.46804 0.928786 0.209903
0.634882 0.91725 0.204654
0.762722 0.91783 0.215015
0.864012 0.919615 0.224857
0.905592 0.922728 0.233204
0.0941634 0.0943313 0.159548
0.156146 0.0926986 0.2327
0.265278 0.0796979 0.265553
0.427161 0.0565805 0.25774
0.550256 0.0501106 0.256596
0.662669 0.0530251 0.268772
0.769207 0.0611734 0.289067
0.844663 0.0730907 0.314717
0.85742 0.0737316 0.316014
0.0928817 0.147799 0.19057
0.153445 0.152346 0.238132
0.265583 0.160571 0.26067
0.467247 0.152071 0.253574
0.614588 0.150851 0.248371
0.734844 0.157443 0.252049
0.835752 0.172045 0.267506
0.930327 0.185443 0.280659
0.98146 0.19205 0.287831
0.0882429 0.199466 0.197803
0.148547 0.209506 0.223804
0.235615 0.22768 0.239719
0.426612 0.244892 0.251911
0.638788 0.270253 0.27071
0.799893 0.288319 0.287053
0.928038 0.308385 0.306676
0.994507 0.314839 0.31812
1 0.306477 0.316991
0.0791028 0.280583 0.192248
0.135943 0.269413 0.192538
0.188281 0.259602 0.191821
0.336965 0.315175 0.224765
0.597864 0.419287 0.282551
0.78172 0.454093 0.30663
0.929458 0.462699 0.314717
0.994583 0.448402 0.318791
1 0.422553 0.318761
0.0668345 0.413703 0.177325
0.118273 0.36611 0.160189
0.161212 0.349065 0.16437
0.267857 0.388556 0.186542
0.510689 0.497383 0.239445
0.692149 0.567376 0.284489
0.847715 0.583642 0.292882
0.971511 0.570001 0.285405
1 0.54081 0.279454
0.104997 0.605692 0.218982
0.127977 0.544396 0.164706
0.162448 0.53492 0.165148
0.242542 0.544594 0.179522
0.447333 0.59379 0.213169
0.647181 0.647745 0.258015
0.780255 0.677043 0.289128
0.903822 0.678157 0.289601
0.955367 0.658747 0.271931
0.147127 0.78265 0.296345
0.183749 0.744671 0.227756
0.222507 0.741131 0.226444
0.296635 0.737285 0.226978
0.444404 0.731411 0.22565
0.631357 0.742229 0.244373
0.759777 0.765606 0.280461
0.864363 0.784787 0.310475
0.908141 0.78587 0.310521
0.165621 0.893812 0.314549
0.208164 0.88098 0.256168
0.251835 0.880018 0.255863
0.333608 0.874464 0.253849
0.470741 0.859449 0.242634
0.633371 0.851774 0.247456
0.764279 0.86157 0.27953
0.867124 0.872023 0.30927
0.905089 0.874495 0.311391
0.171695 0.928115 0.324559
0.217823 0.934005 0.269429
0.26508 0.934203 0.269169
0.352728 0.928801 0.266697
0.495201 0.914244 0.254307
0.648463 0.905806 0.257404
0.775158 0.908537 0.285054
0.875425 0.912795 0.312352
0.913634 0.917159 0.331258
0.096376 0.0964828 0.137438
0.150927 0.094255 0.259648
0.249271 0.0777447 0.372717
0.42063 0.0519265 0.41001
0.552987 0.0466926 0.420874
0.669337 0.0508278 0.42945
0.775174 0.0606699 0.445167
0.845685 0.0737774 0.464836
0.85861 0.0745556 0.466087
0.0952468 0.142504 0.180743
0.148638 0.149752 0.318944
0.248112 0.15758 0.391669
0.442634 0.153185 0.406271
0.605112 0.153185 0.400961
0.731517 0.158816 0.399084
0.838697 0.17348 0.412543
0.935347 0.193042 0.433982
0.983993 0.205615 0.450187
0.090547 0.18703 0.212207
0.149523 0.217288 0.345556
0.241474 0.232029 0.387121
0.428183 0.25597 0.410025
0.637873 0.279698 0.423804
0.801984 0.293904 0.430991
0.940032 0.31075 0.442954
0.994492 0.322194 0.45655
1 0.326757 0.465309
0.0813764 0.269215 0.252888
0.144656 0.307149 0.347448
0.233783 0.333349 0.375723
0.396628 0.369619 0.398291
0.610834 0.420676 0.430182
0.7953 0.457664 0.448692
0.951186 0.458137 0.446036
0.994598 0.444465 0.443015
1 0.43267 0.444907
0.0696727 0.403174 0.283101
0.133639 0.414816 0.321492
0.203235 0.422126 0.324147
0.310948 0.405356 0.315465
0.527428 0.481788 0.368231
0.708568 0.568994 0.429374
0.87126 0.578439 0.426734
0.994461 0.562905 0.409415
1 0.541131 0.402152
0.1037 0.593912 0.353613
0.152132 0.573999 0.32549
0.206027 0.57583 0.311406
0.29131 0.559045 0.295949
0.482597 0.581918 0.322713
0.658198 0.639017 0.388205
0.794858 0.673701 0.43093
0.932128 0.673564 0.424536
0.993622 0.656611 0.404608
0.142687 0.768032 0.451469
0.192035 0.742596 0.374517
0.244312 0.742351 0.350439
0.326894 0.730129 0.331441
0.473335 0.713726 0.320333
0.642145 0.72639 0.353384
0.76878 0.759625 0.418143
0.873426 0.780926 0.455573
0.922103 0.781994 0.456046
0.159899 0.879103 0.483757
0.212284 0.86894 0.401648
0.267735 0.869902 0.377386
0.355535 0.860685 0.359869
0.49897 0.842451 0.342473
0.644862 0.836103 0.350484
0.773907 0.850431 0.403326
0.87277 0.864973 0.451179
0.910445 0.868147 0.457374
0.165652 0.912871 0.499931
0.221622 0.919646 0.42153
0.280781 0.921431 0.395224
0.374151 0.913497 0.378347
0.523339 0.896925 0.361166
0.660487 0.890166 0.363455
0.784527 0.895262 0.405386
0.880919 0.902647 0.449546
0.915694 0.908873 0.47451
0.0974594 0.0975052 0.090013
0.147982 0.0989395 0.21062
0.231006 0.081117 0.395682
0.400702 0.0530098 0.49247
0.550576 0.0475319 0.527764
0.679225 0.0538186 0.545037
0.786725 0.0651408 0.555352
0.849699 0.0787366 0.566888
0.862242 0.0792859 0.567727
0.0962997 0.136324 0.150637
0.138293 0.139345 0.28336
0.214221 0.143999 0.437217
0.387915 0.14818 0.507805
0.579431 0.154589 0.527413
0.718502 0.164843 0.535637
0.834211 0.178561 0.547845
0.935363 0.200534 0.569039
0.982879 0.215457 0.583886
0.0941176 0.172427 0.178119
0.140566 0.199619 0.382422
0.229343 0.230549 0.497337
0.399695 0.257343 0.541222
0.614374 0.285039 0.559487
0.789212 0.304524 0.57348
0.936309 0.316411 0.585611
0.994507 0.32961 0.60061
1 0.339086 0.610712
0.084596 0.247898 0.2327
0.138735 0.292424 0.443854
0.237354 0.351858 0.530297
0.406928 0.383551 0.556405
0.606989 0.442176 0.572976
0.782712 0.467124 0.580591
0.943358 0.460029 0.581613
0.994583 0.447227 0.584695
1 0.443183 0.589746
0.0712139 0.386099 0.337163
0.135943 0.422934 0.487083
0.231983 0.479683 0.541726
0.389258 0.50631 0.551705
0.568093 0.533867 0.554025
0.717403 0.565881 0.562844
0.881331 0.57731 0.558221
0.99443 0.56022 0.548348
1 0.5449 0.549203
0.102113 0.583886 0.475837
0.161944 0.587167 0.534951
0.241413 0.612879 0.555993
0.36405 0.608759 0.538567
0.522972 0.582971 0.514763
0.667918 0.625986 0.542107
0.808881 0.673381 0.564218
0.955367 0.669261 0.555413
1 0.655558 0.548684
0.140688 0.75787 0.575494
0.1935 0.737499 0.579599
0.262531 0.743236 0.574853
0.373312 0.733745 0.542641
0.517555 0.706737 0.509941
0.657008 0.71429 0.524269
0.776806 0.752483 0.560632
0.884001 0.779507 0.580194
0.936721 0.781567 0.581643
0.157519 0.870619 0.618921
0.211795 0.856657 0.606226
0.280766 0.85745 0.592233
0.39028 0.848249 0.555734
0.531441 0.826368 0.523705
0.65864 0.818753 0.520989
0.7832 0.836164 0.552804
0.877394 0.859648 0.585016
0.913893 0.864698 0.59118
0.163622 0.905348 0.635111
0.22179 0.906233 0.624704
0.294118 0.906325 0.60824
0.407721 0.897765 0.571115
0.551736 0.879545 0.542351
0.675532 0.87303 0.538964
0.794064 0.87808 0.555901
0.886213 0.893599 0.584329
0.917998 0.903166 0.598398
0.0980545 0.098085 0.0783856
0.144839 0.100267 0.173693
0.219959 0.0884565 0.327916
0.376364 0.0567941 0.514672
0.537316 0.0493782 0.588479
0.677119 0.0577249 0.635752
0.801419 0.0715801 0.657893
0.853986 0.0847181 0.657252
0.866621 0.0853132 0.658122
0.0966659 0.13283 0.10927
0.133425 0.134524 0.20206
0.184741 0.134218 0.375311
0.325017 0.136233 0.533959
0.53283 0.145418 0.59086
0.691997 0.167788 0.624216
0.825391 0.188815 0.64387
0.932692 0.211704 0.664073
0.979141 0.22707 0.677241
0.0952621 0.164935 0.150057
0.132753 0.176104 0.302144
0.193271 0.195895 0.492348
0.345693 0.229252 0.590234
0.565148 0.27013 0.638163
0.756664 0.311681 0.669261
0.915465 0.330282 0.684245
0.994537 0.341878 0.697902
1 0.35198 0.705486
0.0855726 0.231098 0.184802
0.129564 0.257786 0.424292
0.213413 0.323552 0.577005
0.383139 0.388266 0.642771
0.581384 0.442435 0.670161
0.749111 0.475273 0.67248
0.915679 0.471855 0.671031
0.994598 0.458259 0.677546
1 0.457649 0.681895
0.0728923 0.374411 0.303014
0.127733 0.393851 0.528542
0.21915 0.471 0.626078
0.389288 0.531411 0.669474
0.572 0.545876 0.66775
0.706554 0.580667 0.659998
0.866255 0.586496 0.6486
0.99443 0.568338 0.643091
1 0.559274 0.646525
0.102037 0.580163 0.513848
0.158251 0.580087 0.618433
0.241199 0.621897 0.677562
0.388312 0.642252 0.688899
0.565347 0.640345 0.666362
0.686366 0.656474 0.657389
0.817807 0.673259 0.654398
0.964492 0.672175 0.644739
1 0.662226 0.643565
0.141283 0.754406 0.63473
0.191959 0.734783 0.68777
0.263691 0.746578 0.714626
0.39791 0.746777 0.702586
0.560464 0.729305 0.664942
0.677531 0.715862 0.650034
0.788113 0.748501 0.660258
0.894377 0.783764 0.666804
0.949462 0.785 0.66656
0.158251 0.869795 0.70013
0.211597 0.853529 0.73225
0.284108 0.854658 0.742885
0.414466 0.847257 0.716381
0.570504 0.830777 0.671992
0.684733 0.820462 0.65713
0.798871 0.83154 0.665248
0.884123 0.857114 0.677958
0.918456 0.864637 0.682261
0.164462 0.905409 0.721172
0.222492 0.90341 0.75845
0.299214 0.902571 0.764187
0.433616 0.893553 0.732906
0.586862 0.87837 0.686244
0.697276 0.865934 0.668589
0.810208 0.865568 0.669535
0.894331 0.888319 0.680552
0.92108 0.900832 0.686824
0.0988174 0.098909 0.0916152
0.145373 0.100893 0.151034
0.218128 0.0940414 0.258488
0.358389 0.0605478 0.499306
0.51902 0.0507515 0.608347
0.651789 0.0601205 0.682216
0.774655 0.0738689 0.722622
0.835111 0.0877241 0.72694
0.847684 0.0883345 0.72781
0.0965133 0.133074 0.0893111
0.129534 0.130449 0.161852
0.171206 0.132738 0.262638
0.277913 0.125597 0.502205
0.482109 0.131624 0.613764
0.653574 0.160754 0.683177
0.80383 0.192554 0.725765
0.922774 0.223285 0.751614
0.96936 0.239322 0.763439
0.0949569 0.164813 0.125521
0.129305 0.163943 0.212955
0.169345 0.171878 0.395422
0.288136 0.195102 0.586816
0.506065 0.234531 0.677745
0.705882 0.294148 0.743435
0.87834 0.335882 0.773922
0.994186 0.355749 0.785824
1 0.365072 0.79205
0.0826276 0.227405 0.162234
0.124727 0.232807 0.32929
0.181506 0.272557 0.560281
0.319707 0.328023 0.670649
0.541329 0.39704 0.741115
0.70576 0.460868 0.766964
0.869444 0.480491 0.758068
0.994629 0.476524 0.75465
1 0.477378 0.757183
0.0720531 0.372076 0.239078
0.118151 0.356161 0.500038
0.19115 0.426398 0.64744
0.349554 0.51284 0.739773
0.546258 0.551812 0.766003
0.678874 0.582727 0.764385
0.829358 0.594949 0.738491
0.981826 0.582803 0.724056
1 0.577203 0.72575
0.101884 0.580697 0.492882
0.146685 0.560784 0.637827
0.218494 0.605127 0.739666
0.356176 0.641535 0.793362
0.551827 0.654719 0.787152
0.682643 0.66482 0.768933
0.800595 0.688273 0.743282
0.944991 0.684825 0.726116
1 0.676173 0.727016
0.141787 0.75436 0.656718
0.186343 0.730541 0.749386
0.245441 0.741939 0.814313
0.372824 0.751141 0.835538
0.557595 0.750393 0.807385
0.687755 0.759152 0.772793
0.792294 0.774594 0.753262
0.898833 0.785916 0.745693
0.953277 0.788052 0.743679
0.15935 0.873762 0.752255
0.207782 0.854337 0.826734
0.270436 0.854795 0.87219
0.39852 0.851499 0.872755
0.575051 0.843 0.830167
0.700893 0.841093 0.788464
0.811322 0.834867 0.771176
0.888304 0.857511 0.766888
0.919264 0.867857 0.76556
0.165408 0.90985 0.779797
0.219303 0.905547 0.864164
0.287312 0.904494 0.905196
0.420752 0.897795 0.899687
0.592706 0.886793 0.851728
0.714321 0.882048 0.802747
0.822202 0.872419 0.78143
0.903487 0.882322 0.775738
0.926314 0.897215 0.77229
0.0997482 0.0999008 0.104509
0.146838 0.101656 0.138125
0.219623 0.0961318 0.232212
0.353155 0.0635538 0.476936
0.510018 0.0518959 0.613031
0.634699 0.0615244 0.696651
0.74966 0.0750439 0.745739
0.831144 0.0911727 0.774639
0.843748 0.0919661 0.775265
0.0965286 0.134157 0.100526
0.129473 0.130465 0.13933
0.167224 0.132189 0.213199
0.257176 0.122744 0.428916
0.445808 0.121218 0.610437
0.622675 0.150347 0.714
0.778744 0.1906 0.783444
0.905974 0.228382 0.823758
0.956313 0.245609 0.838865
0.0937514 0.167498 0.10837
0.127016 0.159899 0.184314
0.161807 0.163958 0.282948
0.251392 0.172854 0.546075
0.457618 0.204395 0.684871
0.661418 0.267491 0.787655
0.838132 0.329274 0.847364
0.97293 0.362631 0.867781
1 0.374121 0.872267
0.0790112 0.230137 0.144427
0.122774 0.223026 0.249592
0.163149 0.240177 0.495338
0.271229 0.279408 0.661768
0.488807 0.343343 0.775814
0.676951 0.423285 0.844923
0.829831 0.469261 0.853849
0.96701 0.484779 0.840665
1 0.490379 0.837156
0.0683452 0.373892 0.198459
0.113741 0.342123 0.431296
0.171328 0.387594 0.635996
0.304692 0.464973 0.770031
0.504295 0.516335 0.840375
0.656779 0.559243 0.859678
0.786419 0.590539 0.841871
0.937591 0.593408 0.812924
0.998383 0.59353 0.807431
0.103044 0.585885 0.436088
0.137774 0.548394 0.626993
0.197391 0.580987 0.756802
0.318059 0.625284 0.854673
0.516213 0.648219 0.87834
0.658686 0.67097 0.870848
0.769757 0.694209 0.844724
0.907805 0.695949 0.811643
0.973861 0.692378 0.807782
0.142229 0.757687 0.656321
0.18204 0.729946 0.773785
0.228122 0.735149 0.868086
0.334432 0.746227 0.927169
0.522026 0.74876 0.924102
0.670008 0.765698 0.88954
0.78204 0.783993 0.849561
0.880095 0.796933 0.820768
0.935912 0.796368 0.817807
0.160342 0.880491 0.775937
0.204379 0.858351 0.880446
0.254322 0.856428 0.955856
0.363424 0.854673 0.988098
0.5467 0.847776 0.969253
0.687251 0.857038 0.918853
0.796597 0.86894 0.86067
0.873014 0.878553 0.830228
0.910872 0.877211 0.831403
0.166629 0.917418 0.808835
0.216419 0.911833 0.927489
0.271885 0.909758 0.994064
0.38761 0.904768 0.994858
0.568063 0.892897 0.990539
0.700664 0.894865 0.938994
0.810162 0.894713 0.878309
0.885603 0.90367 0.842496
0.911788 0.909926 0.837583
0.100664 0.100893 0.116915
0.147784 0.102235 0.152804
0.221012 0.0963149 0.246494
0.354726 0.0636149 0.49163
0.510689 0.0521706 0.625528
0.635203 0.0617533 0.708843
0.750072 0.075288 0.757824
0.831388 0.0914015 0.786633
0.844083 0.0923171 0.787335
0.0967422 0.134783 0.112474
0.130037 0.13109 0.143236
0.167697 0.132357 0.217777
0.255467 0.12314 0.413016
0.439933 0.119478 0.616541
0.616907 0.148287 0.730571
0.774899 0.190555 0.809827
0.90515 0.230854 0.856046
0.955413 0.248356 0.871138
0.09337 0.168414 0.115557
0.127077 0.160479 0.186999
0.161227 0.163409 0.268162
0.245243 0.169253 0.535393
0.446754 0.197955 0.692622
0.650843 0.259815 0.806577
0.828656 0.327474 0.877073
0.962463 0.36585 0.899794
1 0.377874 0.903365
0.0779736 0.231922 0.149722
0.122423 0.223804 0.245228
0.160876 0.23566 0.476143
0.261051 0.269017 0.664683
0.473091 0.328664 0.790616
0.670558 0.411017 0.874922
0.8206 0.464607 0.893278
0.954787 0.484947 0.879973
1 0.492515 0.874754
0.0672313 0.376013 0.202594
0.113512 0.344488 0.419623
0.167239 0.37998 0.638666
0.2934 0.451377 0.783688
0.491005 0.504417 0.869459
0.65066 0.550668 0.898253
0.776303 0.585916 0.886839
0.923095 0.594369 0.856886
0.982635 0.596536 0.848844
0.103655 0.588037 0.433524
0.136995 0.549645 0.632776
0.193332 0.576867 0.768048
0.308843 0.620676 0.878676
0.502983 0.643214 0.914946
0.651072 0.664225 0.916625
0.763928 0.688853 0.893339
0.894835 0.696864 0.857557
0.960098 0.695415 0.849928
0.142641 0.759579 0.665095
0.181659 0.731884 0.787732
0.224308 0.734401 0.889235
0.323766 0.744106 0.961059
0.508614 0.74638 0.970077
0.663142 0.763851 0.937774
0.775921 0.785 0.896406
0.871717 0.799527 0.862593
0.926284 0.799802 0.854978
0.160555 0.880461 0.791562
0.203281 0.858381 0.90425
0.249668 0.855756 0.987716
0.351995 0.853941 1
0.533944 0.847211 1
0.679866 0.857084 0.97319
0.790066 0.871916 0.905974
0.871778 0.87921 0.86424
0.910094 0.877653 0.864057
0.166705 0.917205 0.824842
0.215152 0.911818 0.954681
0.26717 0.909529 1
0.375921 0.904418 1
0.556008 0.8916 1
0.693782 0.893828 0.99585
0.802502 0.899855 0.92343
0.878111 0.910521 0.869841
0.907851 0.913436 0.864256
