70 CGC LUTs/Look LUTs/Chamoisee.cube
#Created by: Denver Riddle
#Copyright: (C) Copyright Color Grading Central LLC
#LUT Size
LUT_3D_SIZE 5
0.0881514 0.0879683 0.0903792
0.251469 0.0863355 0.0880903
0.53492 0.0524758 0.0540475
0.750301 0.0579538 0.059266
0.845594 0.061326 0.0636301
0.0906539 0.184756 0.0929885
0.199329 0.215366 0.0950179
0.584649 0.265858 0.0923171
0.851545 0.316014 0.132891
0.957855 0.262058 0.141604
0.0595254 0.433036 0.0611429
0.123827 0.36997 0.0749523
0.452461 0.514244 0.108904
0.775555 0.584161 0.126299
0.905257 0.548211 0.139803
0.147982 0.806027 0.150851
0.210361 0.779355 0.15346
0.425071 0.778485 0.14966
0.73138 0.7794 0.136355
0.859953 0.787579 0.141131
0.171221 0.963943 0.173968
0.243839 0.963958 0.181567
0.446662 0.949081 0.17406
0.74583 0.92845 0.160708
0.858412 0.932815 0.163775
0.0941634 0.0943313 0.159548
0.265278 0.0796979 0.265553
0.550256 0.0501106 0.256596
0.769207 0.0611734 0.289067
0.85742 0.0737316 0.316014
0.0882429 0.199466 0.197803
0.235615 0.22768 0.239719
0.638788 0.270253 0.27071
0.928038 0.308385 0.306676
1 0.306477 0.316991
0.0668345 0.413703 0.177325
0.161212 0.349065 0.16437
0.510689 0.497383 0.239445
0.847715 0.583642 0.292882
1 0.54081 0.279454
0.147127 0.78265 0.296345
0.222507 0.741131 0.226444
0.444404 0.731411 0.22565
0.759777 0.765606 0.280461
0.908141 0.78587 0.310521
0.171695 0.928115 0.324559
0.26508 0.934203 0.269169
0.495201 0.914244 0.254307
0.775158 0.908537 0.285054
0.913634 0.917159 0.331258
0.0974594 0.0975052 0.090013
0.231006 0.081117 0.395682
0.550576 0.0475319 0.527764
0.786725 0.0651408 0.555352
0.862242 0.0792859 0.567727
0.0941176 0.172427 0.178119
0.229343 0.230549 0.497337
0.614374 0.285039 0.559487
0.936309 0.316411 0.585611
1 0.339086 0.610712
0.0712139 0.386099 0.337163
0.231983 0.479683 0.541726
0.568093 0.533867 0.554025
0.881331 0.57731 0.558221
1 0.5449 0.549203
0.140688 0.75787 0.575494
0.262531 0.743236 0.574853
0.517555 0.706737 0.509941
0.776806 0.752483 0.560632
0.936721 0.781567 0.581643
0.163622 0.905348 0.635111
0.294118 0.906325 0.60824
0.551736 0.879545 0.542351
0.794064 0.87808 0.555901
0.917998 0.903166 0.598398
0.0988174 0.098909 0.0916152
0.218128 0.0940414 0.258488
0.51902 0.0507515 0.608347
0.774655 0.0738689 0.722622
0.847684 0.0883345 0.72781
0.0949569 0.164813 0.125521
0.169345 0.171878 0.395422
0.506065 0.234531 0.677745
0.87834 0.335882 0.773922
1 0.365072 0.79205
0.0720531 0.372076 0.239078
0.19115 0.426398 0.64744
0.546258 0.551812 0.766003
0.829358 0.594949 0.738491
1 0.577203 0.72575
0.141787 0.75436 0.656718
0.245441 0.741939 0.814313
0.557595 0.750393 0.807385
0.792294 0.774594 0.753262
0.953277 0.788052 0.743679
0.165408 0.90985 0.779797
0.287312 0.904494 0.905196
0.592706 0.886793 0.851728
0.822202 0.872419 0.78143
0.926314 0.897215 0.77229
0.100664 0.100893 0.116915
0.221012 0.0963149 0.246494
0.510689 0.0521706 0.625528
0.750072 0.075288 0.757824
0.844083 0.0923171 0.787335
0.09337 0.168414 0.115557
0.161227 0.163409 0.268162
0.446754 0.197955 0.692622
0.828656 0.327474 0.877073
1 0.377874 0.903365
0.0672313 0.376013 0.202594
0.167239 0.37998 0.638666
0.491005 0.504417 0.869459
0.776303 0.585916 0.886839
0.982635 0.596536 0.848844
0.142641 0.759579 0.665095
0.224308 0.734401 0.889235
0.508614 0.74638 0.970077
0.775921 0.785 0.896406
0.926284 0.799802 0.854978
0.166705 0.917205 0.824842
0.26717 0.909529 1
0.556008 0.8916 1
0.802502 0.899855 0.92343
0.907851 0.913436 0.864256
