70 CGC LUTs/Look LUTs/Chamoisee.cube
#Created by: Denver Riddle
#Copyright: (C) Copyright Color Grading Central LLC
#LUT Size
LUT_3D_SIZE 33
0.0881514 0.0879683 0.0903792
0.107439 0.0890364 0.0912337
0.12491 0.0899977 0.0919203
0.142275 0.0910658 0.0927443
0.160708 0.0917525 0.0931411
0.18027 0.0917372 0.09308
0.199863 0.0910506 0.0926833
0.222004 0.0895399 0.0912642
0.251469 0.0863355 0.0880903
0.284932 0.0820783 0.0837262
0.323568 0.0763256 0.0778668
0.365591 0.0697642 0.0712596
0.40708 0.0636759 0.0650797
0.444343 0.0588846 0.0603952
0.47686 0.0555123 0.0569772
0.50634 0.0534676 0.0549783
0.53492 0.0524758 0.0540475
0.562661 0.0520027 0.0535134
0.589624 0.0520638 0.0534676
0.616587 0.0524453 0.0537881
0.644251 0.0531167 0.0544594
0.671931 0.0540322 0.0553597
0.699031 0.0551919 0.0564889
0.725124 0.0565194 0.0578012
0.750301 0.0579538 0.059266
0.773907 0.0591135 0.0605631
0.797101 0.0597086 0.0614176
0.8215 0.0603037 0.0624247
0.832685 0.0606699 0.0629435
0.835981 0.060853 0.0631418
0.839246 0.0610513 0.0633555
0.842435 0.0611887 0.0634928
0.845594 0.061326 0.0636301
0.0914015 0.105592 0.0935988
0.105714 0.10605 0.0930648
0.122621 0.108461 0.092256
0.139956 0.109804 0.0918593
0.158923 0.109957 0.0911421
0.180865 0.108751 0.0898146
0.204776 0.106767 0.0878462
0.229984 0.104021 0.0852674
0.257435 0.10071 0.0823224
0.28751 0.0966659 0.078706
0.320424 0.0916915 0.0741131
0.360006 0.0855573 0.0679789
0.401587 0.0795758 0.061799
0.439643 0.0750744 0.0570382
0.473259 0.0721599 0.0542306
0.50341 0.0706035 0.0524605
0.532006 0.0699321 0.0515908
0.559701 0.0698711 0.0514687
0.587304 0.0704662 0.0518807
0.61474 0.0713664 0.0525978
0.64242 0.0726177 0.0536812
0.670802 0.0740063 0.0549935
0.698695 0.075639 0.0563668
0.725704 0.0775616 0.0581674
0.751675 0.0794995 0.060029
0.776165 0.081117 0.0618906
0.79823 0.0816815 0.0632486
0.818524 0.0801709 0.0632639
0.839429 0.0774243 0.0625772
0.84921 0.0764019 0.0623484
0.852369 0.0765393 0.0624857
0.855451 0.0766155 0.062562
0.85861 0.0767529 0.0626993
0.0937819 0.115206 0.0963149
0.102785 0.112657 0.0965591
0.116304 0.117662 0.0949416
0.133089 0.122286 0.0937972
0.151568 0.124651 0.092546
0.173785 0.124849 0.0908675
0.199374 0.123507 0.0884871
0.227955 0.12105 0.0854963
0.259617 0.117784 0.0817578
0.295369 0.113512 0.0773022
0.335027 0.108309 0.0719615
0.377523 0.102754 0.0663157
0.418677 0.0979019 0.0613413
0.455817 0.094316 0.0576791
0.48896 0.0921492 0.0554818
0.518837 0.0911879 0.0543679
0.546761 0.0910811 0.054139
0.573754 0.0915694 0.0545052
0.600504 0.0924849 0.055314
0.627283 0.0938125 0.0565347
0.654368 0.0953841 0.0579232
0.681971 0.0971847 0.0594492
0.709239 0.0992905 0.0613718
0.736324 0.101808 0.0639048
0.762448 0.104509 0.0664073
0.786725 0.106462 0.0685893
0.808774 0.107317 0.0702831
0.827527 0.105837 0.0708171
0.843244 0.101137 0.069398
0.860151 0.0937667 0.0664988
0.863783 0.0935988 0.0664988
0.86685 0.0936751 0.0665751
0.869932 0.0937514 0.0666667
0.09514 0.125612 0.0979324
0.104875 0.12639 0.0965133
0.116335 0.128267 0.0957504
0.13051 0.132753 0.0948806
0.146593 0.13698 0.0940566
0.168292 0.139696 0.0924544
0.196536 0.140826 0.0904097
0.230304 0.140719 0.0877394
0.268864 0.13904 0.0842298
0.313283 0.13579 0.0797284
0.36376 0.131395 0.0742657
0.413825 0.126864 0.0690013
0.458473 0.123659 0.0649119
0.496498 0.122423 0.0634623
0.529976 0.122438 0.0631571
0.560113 0.123064 0.0635233
0.588312 0.124361 0.0645762
0.615122 0.126207 0.0657969
0.641428 0.12813 0.0677653
0.667277 0.130098 0.0696117
0.693019 0.13196 0.0715343
0.718791 0.134234 0.07364
0.743542 0.136721 0.0759594
0.767895 0.139483 0.0787366
0.791348 0.142107 0.0814679
0.813535 0.144167 0.0839704
0.833829 0.144808 0.085893
0.850874 0.14287 0.0867323
0.864164 0.137133 0.0856489
0.876738 0.128206 0.0826429
0.884138 0.123827 0.0811017
0.887282 0.123995 0.081239
0.89044 0.124178 0.0814069
0.0952621 0.141894 0.0977035
0.106188 0.136995 0.0974899
0.116991 0.138064 0.0965286
0.128954 0.141634 0.0956588
0.142855 0.146319 0.0951705
0.160586 0.150729 0.0940871
0.185183 0.154635 0.0929122
0.216526 0.157153 0.0909438
0.254231 0.158358 0.088426
0.297917 0.157687 0.0849317
0.348592 0.155047 0.0800793
0.402487 0.151339 0.0748455
0.452262 0.148562 0.070985
0.494057 0.147402 0.0691997
0.530892 0.147692 0.0689555
0.564004 0.149004 0.06981
0.594385 0.150851 0.0713664
0.622995 0.152987 0.0729839
0.650538 0.15523 0.0750744
0.677745 0.157778 0.0774548
0.704967 0.160342 0.0799878
0.731365 0.162966 0.0823835
0.756848 0.165759 0.0850996
0.781415 0.168811 0.0881361
0.805585 0.171817 0.0912795
0.828809 0.174395 0.0945144
0.85008 0.17554 0.0972763
0.867628 0.17322 0.098558
0.880796 0.166262 0.0979171
0.891508 0.154864 0.094789
0.899367 0.14638 0.0918135
0.902632 0.146654 0.0920577
0.905806 0.146838 0.0922408
0.095201 0.151202 0.0977188
0.105714 0.143359 0.0984665
0.115297 0.144289 0.0973373
0.126696 0.148547 0.0962081
0.138903 0.153964 0.0956741
0.153979 0.159838 0.0948959
0.175051 0.165911 0.0941787
0.202686 0.17113 0.09308
0.237507 0.175158 0.0914778
0.279103 0.17731 0.0888228
0.328939 0.177401 0.0851453
0.385687 0.175631 0.0803845
0.440223 0.173526 0.0762798
0.4878 0.173297 0.0745556
0.528481 0.174304 0.0745861
0.56434 0.175967 0.0756237
0.59707 0.178302 0.0776379
0.627619 0.181094 0.0798505
0.656718 0.183917 0.0822003
0.685542 0.186938 0.0850996
0.713878 0.190112 0.0878767
0.741695 0.193332 0.0910353
0.768322 0.196765 0.0944228
0.794079 0.200519 0.0978408
0.819257 0.204181 0.101717
0.843305 0.207294 0.105501
0.865675 0.208942 0.108904
0.883909 0.206302 0.110887
0.897032 0.197696 0.110521
0.906691 0.183078 0.107195
0.91429 0.170825 0.103883
0.917647 0.171221 0.104219
0.921004 0.171618 0.104555
0.0945754 0.160739 0.0971237
0.104829 0.148836 0.0991531
0.113191 0.148867 0.0983291
0.123507 0.153613 0.0969558
0.134707 0.160357 0.0957809
0.148394 0.168002 0.0950179
0.166995 0.176028 0.094728
0.191485 0.183398 0.094316
0.222736 0.189837 0.093431
0.261219 0.194873 0.0918288
0.307866 0.197864 0.0892805
0.365484 0.198886 0.0853132
0.423865 0.198566 0.0813306
0.476341 0.199054 0.0792859
0.521477 0.200992 0.0794842
0.560601 0.203647 0.0807813
0.596078 0.20676 0.0828717
0.628977 0.210391 0.0859388
0.660182 0.214099 0.0889754
0.690684 0.217853 0.0923476
0.720592 0.221744 0.0957198
0.749859 0.225727 0.0994736
0.777996 0.230091 0.103548
0.805417 0.23476 0.107973
0.832166 0.239582 0.112764
0.857343 0.24332 0.117205
0.880369 0.244785 0.12105
0.899428 0.241718 0.12343
0.912367 0.23125 0.123156
0.92163 0.213779 0.120226
0.928542 0.198322 0.116625
0.931868 0.198764 0.116945
0.935225 0.199298 0.117327
0.0931106 0.17171 0.0955673
0.103914 0.155581 0.0991836
0.111131 0.153857 0.0988479
0.120302 0.157748 0.0975052
0.130541 0.165103 0.096025
0.143038 0.174685 0.09514
0.159625 0.184817 0.0948959
0.182269 0.194507 0.0948806
0.210285 0.203174 0.0944686
0.245365 0.210773 0.0936446
0.289067 0.216892 0.0920272
0.343236 0.220844 0.0894331
0.40325 0.222629 0.0860914
0.460548 0.224369 0.0836652
0.510124 0.227344 0.0834058
0.553292 0.231342 0.0851606
0.592035 0.236088 0.087953
0.62771 0.241169 0.0914931
0.661112 0.245975 0.0952926
0.693629 0.250904 0.0994583
0.72578 0.256016 0.103868
0.756939 0.260945 0.108476
0.786618 0.266361 0.113176
0.815351 0.271824 0.118181
0.842985 0.277043 0.123232
0.869459 0.281209 0.128206
0.893568 0.282994 0.132525
0.912917 0.27892 0.135058
0.92604 0.266423 0.135241
0.934661 0.245762 0.132311
0.940597 0.22829 0.12903
0.943954 0.228855 0.129396
0.94728 0.229297 0.129732
0.0906539 0.184756 0.0929885
0.102724 0.164752 0.0981918
0.109529 0.161898 0.0982681
0.117403 0.163973 0.0973678
0.126558 0.170306 0.0959335
0.137682 0.180362 0.0948501
0.152148 0.192096 0.0947127
0.172534 0.204135 0.0948653
0.199329 0.215366 0.0950179
0.232013 0.225605 0.0946517
0.27216 0.234623 0.0940108
0.322011 0.241535 0.0922866
0.380774 0.24593 0.0896315
0.440833 0.249454 0.0873579
0.495155 0.253773 0.087129
0.542351 0.259342 0.0888685
0.584649 0.265858 0.0923171
0.623514 0.272892 0.0966812
0.659617 0.279484 0.101335
0.69427 0.285786 0.106218
0.728222 0.292042 0.111437
0.761517 0.298146 0.116793
0.79292 0.304601 0.122118
0.822919 0.310628 0.127687
0.851545 0.316014 0.132891
0.878904 0.320409 0.138033
0.90341 0.321508 0.142199
0.92314 0.316686 0.145098
0.936492 0.302464 0.145983
0.945251 0.279088 0.143664
0.951202 0.260899 0.140902
0.954498 0.261418 0.141222
0.957855 0.262058 0.141604
0.0872511 0.202533 0.0894789
0.100359 0.177462 0.095613
0.107759 0.174304 0.0960555
0.115221 0.175418 0.095613
0.123323 0.180407 0.0945144
0.133471 0.189837 0.0939345
0.146365 0.201724 0.0937819
0.164446 0.215076 0.0945296
0.189151 0.22855 0.0950484
0.220569 0.24123 0.0952773
0.258701 0.252888 0.0951705
0.304891 0.263172 0.094377
0.360693 0.270588 0.0927901
0.421057 0.276143 0.0908522
0.478691 0.2822 0.0901961
0.529747 0.289693 0.0922255
0.575402 0.298116 0.0963607
0.617288 0.307134 0.101442
0.656229 0.315755 0.10695
0.693431 0.324056 0.112917
0.729473 0.332021 0.118776
0.764309 0.339162 0.124437
0.796857 0.345861 0.130022
0.827665 0.351995 0.135317
0.857069 0.357519 0.140658
0.884855 0.361547 0.145449
0.909804 0.362264 0.149599
0.9299 0.356298 0.153033
0.943587 0.34049 0.154467
0.953262 0.315297 0.153307
0.959686 0.297063 0.151781
0.963012 0.297795 0.152148
0.966339 0.298512 0.152514
0.0835584 0.22359 0.0857252
0.0969711 0.193576 0.0920577
0.104494 0.187411 0.0932326
0.111711 0.187228 0.0931106
0.119417 0.191012 0.092546
0.128588 0.198962 0.0924392
0.140063 0.210636 0.0926528
0.155398 0.224598 0.0936141
0.177157 0.239277 0.0944076
0.20621 0.254032 0.095201
0.242588 0.268193 0.0955215
0.287022 0.281697 0.095613
0.338537 0.29308 0.094728
0.397482 0.302098 0.0934157
0.457816 0.31017 0.0928511
0.512657 0.319585 0.0948653
0.561502 0.330175 0.09897
0.605844 0.341161 0.104479
0.647303 0.351705 0.11043
0.686244 0.361608 0.116518
0.723415 0.37052 0.122423
0.759441 0.378347 0.128008
0.793301 0.385412 0.133425
0.824918 0.391577 0.138323
0.854932 0.396979 0.143114
0.882994 0.400366 0.147494
0.90869 0.400488 0.151705
0.929885 0.393652 0.155825
0.94519 0.377386 0.158999
0.956451 0.351507 0.160021
0.963546 0.333165 0.159777
0.966873 0.334066 0.160159
0.970077 0.334676 0.160433
0.0793927 0.248432 0.0814374
0.0934005 0.212055 0.0885328
0.100877 0.203098 0.0901198
0.107836 0.202136 0.0905623
0.11516 0.204959 0.0902419
0.123674 0.211795 0.0902571
0.134279 0.222522 0.090898
0.147356 0.236042 0.0918593
0.165911 0.251453 0.0932174
0.19173 0.267491 0.0944991
0.225681 0.283864 0.0955673
0.267826 0.299733 0.0959029
0.317342 0.314534 0.0959182
0.373175 0.327138 0.0948653
0.433692 0.338552 0.0945296
0.491691 0.350195 0.0961776
0.543755 0.362844 0.100267
0.590463 0.375341 0.105776
0.633082 0.387152 0.111284
0.673518 0.398169 0.117449
0.711559 0.407782 0.123064
0.748272 0.416068 0.128023
0.782803 0.423331 0.132708
0.815335 0.430106 0.137057
0.846189 0.435599 0.141238
0.87483 0.438666 0.145068
0.900771 0.438209 0.148699
0.923095 0.431571 0.153277
0.940703 0.415579 0.158724
0.954726 0.389761 0.163195
0.963546 0.371557 0.165225
0.96669 0.372 0.165393
0.969741 0.37258 0.16556
0.0747845 0.277455 0.0767376
0.0892653 0.234653 0.0844434
0.0966354 0.222126 0.0865034
0.103334 0.219883 0.0871443
0.110491 0.222156 0.0872969
0.118837 0.228504 0.087541
0.128527 0.23827 0.0881971
0.140642 0.25153 0.0895857
0.156542 0.266972 0.09131
0.179309 0.283833 0.0931258
0.210346 0.301686 0.0946975
0.24979 0.319387 0.0955215
0.29604 0.336004 0.0960403
0.351705 0.352941 0.0959182
0.411017 0.367483 0.0959487
0.470375 0.381094 0.097261
0.524956 0.395789 0.101015
0.573388 0.409384 0.105776
0.617548 0.422141 0.111376
0.658473 0.433707 0.116884
0.69688 0.443534 0.121782
0.734066 0.45211 0.126497
0.769406 0.459922 0.130449
0.802075 0.465797 0.133761
0.832761 0.470466 0.136782
0.861631 0.473259 0.139803
0.888365 0.47303 0.143267
0.911498 0.466773 0.147677
0.930587 0.451713 0.153903
0.94728 0.4271 0.16144
0.958053 0.408682 0.166018
0.961028 0.409262 0.166079
0.963989 0.409827 0.166155
0.0695201 0.310491 0.0714275
0.084947 0.261555 0.0801709
0.0922408 0.245808 0.0827344
0.0987869 0.241917 0.0836194
0.105531 0.243153 0.0840925
0.113466 0.248219 0.0845502
0.122713 0.257389 0.0852522
0.133913 0.269978 0.086656
0.148089 0.285466 0.0885939
0.167926 0.302922 0.0908675
0.195651 0.321416 0.092958
0.231952 0.340383 0.0943008
0.276295 0.359274 0.0953384
0.328908 0.377295 0.0962692
0.388144 0.394217 0.0971542
0.448859 0.410712 0.0988327
0.505501 0.426307 0.1019
0.555856 0.441047 0.106096
0.600992 0.454597 0.111208
0.642237 0.466438 0.115862
0.680781 0.476707 0.120394
0.717876 0.485527 0.124208
0.753246 0.492531 0.127337
0.786542 0.498054 0.130007
0.817777 0.502495 0.132342
0.847105 0.505028 0.134524
0.873777 0.504814 0.136904
0.897231 0.499535 0.14081
0.916869 0.486107 0.147051
0.934844 0.462928 0.155612
0.94699 0.445045 0.1617
0.94995 0.445472 0.161746
0.95285 0.446021 0.161776
0.0639506 0.347662 0.0657359
0.0800031 0.293645 0.075227
0.0874189 0.275532 0.0781567
0.0938582 0.27039 0.0791485
0.100465 0.270344 0.079881
0.107912 0.273945 0.0805829
0.11664 0.28159 0.0814527
0.127413 0.293355 0.0831006
0.140398 0.308293 0.0854505
0.157702 0.325612 0.0880598
0.181857 0.344457 0.090135
0.215137 0.364309 0.092256
0.256992 0.384146 0.0941939
0.307347 0.404044 0.0964981
0.366552 0.422751 0.0986038
0.428504 0.439353 0.100496
0.486946 0.455314 0.103273
0.538796 0.470726 0.107149
0.58471 0.484535 0.111376
0.626688 0.496849 0.115557
0.665583 0.507546 0.119387
0.702495 0.515984 0.122591
0.737362 0.52253 0.124849
0.770748 0.527611 0.126665
0.802441 0.53167 0.128389
0.832212 0.534188 0.130098
0.859419 0.534356 0.132174
0.88275 0.529854 0.13521
0.901823 0.518013 0.1402
0.919463 0.497139 0.14815
0.932006 0.480476 0.154543
0.93489 0.480888 0.154543
0.937804 0.481422 0.154574
0.0597391 0.388602 0.0613718
0.0739605 0.331548 0.0691844
0.081529 0.311376 0.0722515
0.0881514 0.305409 0.0736553
0.0948196 0.304585 0.0746929
0.102144 0.306859 0.0758068
0.110567 0.313054 0.076997
0.120211 0.322698 0.0783856
0.132265 0.336355 0.080766
0.147555 0.352865 0.0835584
0.169268 0.371786 0.0865644
0.199725 0.391592 0.0895399
0.239948 0.412558 0.0932479
0.28893 0.433585 0.0970932
0.345907 0.45243 0.100542
0.408499 0.46923 0.10312
0.469856 0.484733 0.105653
0.523476 0.499367 0.108751
0.570275 0.512932 0.112551
0.612604 0.525093 0.116197
0.651576 0.535363 0.119432
0.687846 0.54345 0.121981
0.722332 0.549828 0.123888
0.756161 0.554894 0.125368
0.788434 0.558801 0.126665
0.818692 0.56144 0.127977
0.846113 0.561593 0.129381
0.869245 0.557794 0.131441
0.887404 0.547555 0.134997
0.903456 0.529427 0.141039
0.914977 0.514519 0.146181
0.917891 0.515023 0.146242
0.920821 0.515419 0.146273
0.0595254 0.433036 0.0611429
0.0678569 0.374868 0.0631418
0.0746166 0.353521 0.0652018
0.0811475 0.346639 0.0666514
0.0877394 0.344976 0.0679789
0.094728 0.345953 0.0691386
0.103151 0.350408 0.070634
0.112581 0.358358 0.0725261
0.123827 0.36997 0.0749523
0.138369 0.38529 0.0785077
0.158495 0.403143 0.0828565
0.187381 0.423316 0.0878767
0.225528 0.44448 0.0931563
0.272541 0.465156 0.0987411
0.327581 0.484291 0.103532
0.389441 0.500328 0.106615
0.452461 0.514244 0.108904
0.509621 0.527611 0.11165
0.558022 0.540383 0.114672
0.600137 0.551446 0.117586
0.638605 0.560815 0.120195
0.674678 0.56849 0.122286
0.709087 0.575082 0.124025
0.742809 0.580148 0.125246
0.775555 0.584161 0.126299
0.806073 0.586603 0.127245
0.833951 0.587198 0.128374
0.857237 0.584268 0.129809
0.874784 0.575601 0.132143
0.889235 0.560006 0.136202
0.899336 0.547311 0.139712
0.902281 0.547768 0.139742
0.905257 0.548211 0.139803
0.0670329 0.485603 0.0687266
0.0660868 0.425467 0.0612345
0.0695659 0.40148 0.0602884
0.0749371 0.393027 0.0605783
0.0811017 0.390951 0.0615396
0.0881666 0.391012 0.0629892
0.0962692 0.393851 0.0649577
0.10602 0.399908 0.0675212
0.117281 0.409903 0.0706493
0.131334 0.423194 0.0749523
0.15079 0.440101 0.0810864
0.178531 0.459739 0.0880751
0.214862 0.479744 0.0951553
0.259846 0.499489 0.102007
0.312428 0.51754 0.107881
0.372305 0.532967 0.111818
0.435889 0.545129 0.113848
0.495888 0.556237 0.115572
0.546273 0.566506 0.11722
0.589059 0.576288 0.119371
0.627222 0.584894 0.121324
0.663142 0.592416 0.123201
0.6972 0.598932 0.124666
0.73077 0.604334 0.125887
0.763409 0.608347 0.126574
0.795239 0.611933 0.127291
0.825208 0.614984 0.128115
0.849882 0.614878 0.128985
0.867567 0.608728 0.13051
0.88043 0.595712 0.132982
0.888716 0.584573 0.13518
0.891646 0.584909 0.135241
0.894606 0.585153 0.135317
0.0801404 0.539635 0.0820172
0.0729381 0.483864 0.067628
0.0732433 0.461463 0.0628519
0.0780194 0.454124 0.0620737
0.0842145 0.451957 0.0628672
0.0915084 0.451942 0.06421
0.0999008 0.454261 0.0665751
0.109941 0.45919 0.0698405
0.122072 0.467903 0.074342
0.137499 0.479866 0.0803693
0.158099 0.495735 0.0880598
0.185657 0.512871 0.096025
0.221576 0.530358 0.103929
0.265156 0.547097 0.110994
0.314702 0.561532 0.116243
0.374914 0.57528 0.119951
0.436133 0.58407 0.12079
0.494102 0.591058 0.120577
0.544274 0.598428 0.120867
0.586526 0.605966 0.12192
0.623865 0.613474 0.123323
0.658915 0.620508 0.124727
0.691829 0.626291 0.125963
0.723949 0.631098 0.126726
0.755795 0.634699 0.127367
0.786847 0.637522 0.127962
0.815885 0.639536 0.128588
0.839979 0.638911 0.129351
0.857176 0.633509 0.130526
0.869566 0.622309 0.13228
0.877348 0.612634 0.133745
0.880278 0.612955 0.133822
0.883238 0.613397 0.133959
0.0949874 0.589837 0.0970474
0.0858015 0.538033 0.0808118
0.0844739 0.51667 0.0742046
0.0880293 0.508583 0.0722667
0.0936141 0.506188 0.0726024
0.100679 0.506035 0.0738994
0.108675 0.507774 0.076051
0.118379 0.511833 0.0792401
0.129992 0.518883 0.0838026
0.144549 0.528939 0.0897078
0.16318 0.541726 0.0970626
0.188022 0.555993 0.104845
0.220661 0.571084 0.112627
0.260899 0.585504 0.119219
0.307988 0.598184 0.12401
0.361532 0.608225 0.126619
0.4206 0.614832 0.126589
0.479744 0.619501 0.125231
0.532509 0.624521 0.124132
0.576822 0.630579 0.124239
0.615549 0.637003 0.125078
0.650477 0.643198 0.126207
0.682765 0.648676 0.127108
0.714305 0.65333 0.127993
0.745663 0.657053 0.128542
0.776654 0.659968 0.12903
0.805386 0.661768 0.12961
0.829389 0.661219 0.130236
0.846906 0.65687 0.13109
0.859358 0.647776 0.132326
0.866911 0.639796 0.133333
0.869886 0.640116 0.133455
0.872847 0.64033 0.133532
0.109789 0.638148 0.112078
0.102022 0.593683 0.0974746
0.100389 0.573785 0.0906386
0.103349 0.565881 0.0882582
0.108568 0.563088 0.0881666
0.115236 0.562692 0.0892958
0.122988 0.563943 0.0911116
0.131914 0.566995 0.0938125
0.14255 0.572229 0.097673
0.155489 0.579828 0.102663
0.172213 0.589837 0.10901
0.194034 0.601221 0.115892
0.222858 0.613214 0.12253
0.25922 0.624994 0.128389
0.301885 0.634272 0.131884
0.350759 0.641733 0.133562
0.406226 0.646052 0.132662
0.465156 0.648722 0.130205
0.520348 0.651713 0.128145
0.566781 0.655924 0.127245
0.606653 0.660624 0.12726
0.642542 0.665736 0.127886
0.675044 0.670756 0.128618
0.706157 0.675364 0.129442
0.736996 0.679194 0.130053
0.766903 0.681804 0.130358
0.794903 0.682994 0.130678
0.818677 0.682414 0.131273
0.836469 0.679103 0.132174
0.849149 0.671992 0.13315
0.856886 0.665614 0.133822
0.859815 0.665827 0.133883
0.862776 0.666041 0.133959
0.122805 0.68307 0.125383
0.118212 0.647272 0.114076
0.117342 0.629969 0.108186
0.120546 0.622675 0.106111
0.125582 0.619791 0.10573
0.13193 0.619394 0.106676
0.139284 0.620401 0.108232
0.147478 0.622339 0.110369
0.156802 0.625605 0.113176
0.168307 0.630671 0.117159
0.182696 0.637812 0.122118
0.201495 0.646586 0.127672
0.226413 0.655375 0.132906
0.258213 0.663371 0.136873
0.296834 0.670054 0.139437
0.341405 0.674907 0.13994
0.393133 0.677913 0.138842
0.450858 0.679026 0.135698
0.507088 0.679835 0.132372
0.555932 0.681941 0.13048
0.597467 0.685206 0.129778
0.634302 0.689189 0.129763
0.667903 0.693706 0.130343
0.699168 0.697902 0.131014
0.729107 0.701442 0.131579
0.758251 0.703838 0.13193
0.785321 0.704768 0.13228
0.808637 0.704173 0.13283
0.826215 0.701457 0.133501
0.839124 0.69572 0.13434
0.846983 0.690639 0.135042
0.849943 0.690837 0.135119
0.852918 0.691157 0.135241
0.13286 0.723262 0.135653
0.131563 0.695644 0.127901
0.13228 0.681468 0.123613
0.135882 0.675029 0.121935
0.140841 0.67245 0.121691
0.146883 0.671855 0.122301
0.153719 0.672007 0.1234
0.161395 0.673152 0.125124
0.169924 0.675258 0.127337
0.180011 0.678508 0.130129
0.192599 0.683452 0.133989
0.208957 0.68957 0.138308
0.229969 0.69514 0.141878
0.257984 0.700572 0.144793
0.292988 0.705165 0.146365
0.334188 0.708156 0.14641
0.382773 0.709957 0.144869
0.437858 0.709712 0.141299
0.494316 0.70869 0.137102
0.545281 0.708858 0.133974
0.588327 0.710674 0.132418
0.626703 0.713878 0.132128
0.661051 0.717372 0.132326
0.692821 0.720989 0.132677
0.722957 0.724224 0.133242
0.751415 0.72639 0.133623
0.777813 0.72752 0.133974
0.800443 0.726986 0.134524
0.817624 0.724834 0.135164
0.830182 0.720211 0.13579
0.837919 0.716075 0.136278
0.840894 0.716396 0.136385
0.84387 0.716518 0.136431
0.141253 0.765927 0.144106
0.143191 0.742046 0.138918
0.144076 0.728283 0.135531
0.147601 0.722042 0.134173
0.152575 0.719509 0.134005
0.158434 0.718456 0.134493
0.164965 0.718456 0.135393
0.172244 0.71902 0.136706
0.180209 0.720439 0.138323
0.189456 0.722759 0.140673
0.200427 0.72575 0.143404
0.214679 0.729305 0.146548
0.233143 0.73312 0.14934
0.258198 0.736751 0.151675
0.290166 0.739956 0.152789
0.328481 0.741711 0.15227
0.373388 0.742092 0.150301
0.425467 0.740826 0.14641
0.481666 0.73846 0.141634
0.534554 0.737209 0.137713
0.579599 0.737408 0.135134
0.618921 0.739345 0.13431
0.653986 0.741939 0.134127
0.686397 0.744854 0.134264
0.71725 0.747799 0.134844
0.745892 0.749966 0.135286
0.772625 0.751461 0.135561
0.79881 0.753704 0.136156
0.823606 0.757229 0.13698
0.84332 0.759045 0.137881
0.853651 0.758404 0.138582
0.856733 0.758602 0.138628
0.8598 0.758801 0.138689
0.147982 0.806027 0.150851
0.156268 0.791897 0.148653
0.163836 0.784634 0.147799
0.170413 0.779583 0.147555
0.17705 0.777401 0.148013
0.184054 0.776455 0.14876
0.191775 0.776455 0.150011
0.200458 0.777722 0.151705
0.210361 0.779355 0.15346
0.221653 0.780453 0.155062
0.235843 0.781476 0.156435
0.254093 0.782254 0.157412
0.277043 0.782727 0.15787
0.306096 0.783246 0.157595
0.339742 0.78265 0.156146
0.37966 0.781247 0.153536
0.425071 0.778485 0.14966
0.476783 0.775265 0.144656
0.525368 0.772824 0.140352
0.568185 0.77171 0.137636
0.605966 0.772 0.13608
0.640497 0.77319 0.135607
0.672496 0.775128 0.135592
0.702678 0.777401 0.135882
0.73138 0.7794 0.136355
0.758556 0.780957 0.136812
0.783566 0.782177 0.137362
0.807294 0.784253 0.138247
0.828733 0.78674 0.139315
0.845273 0.787793 0.140307
0.853986 0.787137 0.140948
0.856947 0.787259 0.140978
0.859953 0.787579 0.141131
0.15288 0.837201 0.155734
0.161212 0.826246 0.153872
0.168795 0.819547 0.153124
0.176684 0.816205 0.153292
0.18439 0.815 0.154055
0.192279 0.814862 0.155184
0.200702 0.815732 0.156741
0.209186 0.81651 0.158236
0.218692 0.817334 0.159655
0.229923 0.818067 0.161074
0.244175 0.818555 0.162127
0.26276 0.818723 0.162707
0.286091 0.818494 0.162753
0.314549 0.81767 0.161898
0.347951 0.81619 0.159884
0.387274 0.813703 0.156909
0.433188 0.810162 0.152468
0.483116 0.806058 0.147036
0.530602 0.802731 0.14255
0.572427 0.801083 0.139818
0.609171 0.800793 0.138247
0.643412 0.801572 0.137789
0.674754 0.802884 0.137835
0.704463 0.804364 0.13814
0.733074 0.80592 0.138659
0.76022 0.807324 0.139254
0.784939 0.808423 0.139956
0.806958 0.809644 0.140887
0.825971 0.81117 0.142031
0.840742 0.811917 0.14316
0.849241 0.81207 0.143969
0.852262 0.812192 0.144045
0.855207 0.812299 0.144076
0.157809 0.867872 0.160647
0.165774 0.859266 0.158633
0.173266 0.853208 0.157916
0.18117 0.849912 0.158114
0.189059 0.848829 0.158953
0.197055 0.84889 0.160159
0.205081 0.849149 0.161364
0.213504 0.84976 0.162676
0.222965 0.850385 0.164157
0.233875 0.851041 0.165515
0.247639 0.851362 0.166506
0.265171 0.851026 0.166964
0.28719 0.850202 0.166873
0.314122 0.848981 0.165927
0.346197 0.847135 0.163989
0.383658 0.84448 0.161303
0.427588 0.840482 0.156817
0.47599 0.835767 0.1514
