70 CGC LUTs/Look LUTs/Cubanismo.cube
#Created by: Denver Riddle
#Copyright: (C) Copyright Color Grading Central LLC
#LUT Size
LUT_3D_SIZE 9
0.0140078 0.0206912 0.013611
0.0668498 0.0247044 0.0144503
0.15787 0.0290227 0.0129397
0.348562 0.029984 0.00807202
0.589654 0.033341 0.00717174
0.74493 0.0351873 0.0114137
0.835462 0.0411536 0.0166018
0.902266 0.0520333 0.0214389
0.959442 0.0651713 0.0261845
0.0133364 0.0833906 0.0133822
0.0650797 0.0854505 0.0147402
0.162905 0.0856336 0.012726
0.367514 0.0857404 0.0100557
0.612528 0.0914778 0.0122835
0.764508 0.0988632 0.0183413
0.856931 0.111391 0.0247044
0.924727 0.127703 0.0312352
0.98294 0.14583 0.0367742
0.00613413 0.166064 0.00839246
0.0589151 0.177096 0.00856031
0.169146 0.174823 0.0126497
0.413535 0.174823 0.0077821
0.659159 0.186648 0.0137789
0.796277 0.202121 0.0191501
0.884993 0.222583 0.024094
0.948791 0.246769 0.028397
0.999863 0.267597 0.0320287
0.000411994 0.283192 0.00448615
0.0539406 0.302724 0.00505074
0.174868 0.312688 0.0111238
0.439506 0.304952 0.0102235
0.696666 0.304219 0.0117494
0.823911 0.326787 0.0165408
0.9037 0.357183 0.0191196
0.964416 0.39736 0.0201572
1 0.423774 0.0218814
0.000198367 0.442481 0.00573739
0.0559701 0.468025 0.004654
0.19147 0.492409 0.0074464
0.483589 0.508904 0.00703441
0.715724 0.505028 0.00733959
0.835554 0.500008 0.00767529
0.914229 0.526879 0.00993362
0.971893 0.567178 0.0134432
1 0.584512 0.0170291
0.00466926 0.618296 0.00579843
0.0744182 0.63978 0.00756847
0.223026 0.652857 0.0138857
0.507683 0.669078 0.0113222
0.724392 0.697749 0.00894179
0.841596 0.702892 0.00941482
0.918853 0.692485 0.0102083
0.970626 0.700236 0.0124361
1 0.707088 0.0148013
0.0331121 0.734493 0.0211337
0.109789 0.749981 0.0245212
0.271382 0.769772 0.0248417
0.556435 0.789502 0.0150149
0.741375 0.809369 0.0132601
0.843458 0.826642 0.0120546
0.920027 0.827878 0.0121462
0.969696 0.813291 0.0141146
1 0.810178 0.0157321
0.0355535 0.865629 0.0210269
0.123705 0.883207 0.0233768
0.29691 0.896254 0.0231785
0.588739 0.908873 0.0206149
0.755199 0.911604 0.0178683
0.851957 0.911574 0.0154421
0.919417 0.920455 0.0143282
0.972244 0.910384 0.0144656
1 0.898772 0.0147555
0.0444343 0.961379 0.0276951
0.127901 0.969512 0.0287022
0.318563 0.976104 0.0273289
0.605035 0.976013 0.0237125
0.761593 0.973938 0.0200809
0.855329 0.972534 0.0167849
0.918547 0.974044 0.0151675
0.972503 0.985458 0.014847
1 0.973739 0.0148165
0.0138399 0.0268864 0.0466468
0.0703288 0.027924 0.0486305
0.164553 0.0272374 0.045594
0.350668 0.0258183 0.0380102
0.590433 0.0301823 0.0372931
0.745678 0.0340276 0.0413367
0.836103 0.0411078 0.0465705
0.903304 0.052491 0.0516823
0.960632 0.0657054 0.0567788
0.0134432 0.0833753 0.0487831
0.0664225 0.0851911 0.0499886
0.163241 0.0899367 0.0485847
0.374228 0.0923629 0.0409857
0.619318 0.0962844 0.0409552
0.768872 0.101503 0.0483406
0.860273 0.113222 0.055436
0.92755 0.129488 0.0619669
0.984558 0.146685 0.0677195
0.00729381 0.168582 0.0419776
0.0588693 0.180667 0.045243
0.173159 0.180407 0.0482338
0.421607 0.180636 0.0401465
0.662867 0.192218 0.0425879
0.798718 0.206012 0.0487221
0.885496 0.223514 0.0542611
0.948775 0.244434 0.0597543
1 0.264942 0.0638437
0.00274662 0.287251 0.0354772
0.0559548 0.306035 0.0399176
0.176974 0.322164 0.0429084
0.456077 0.314092 0.0423285
0.708705 0.312749 0.0415198
0.826215 0.33463 0.0451057
0.905104 0.366308 0.0471962
0.965209 0.408194 0.0474708
1 0.434791 0.0487678
0.002533 0.447456 0.037995
0.0558633 0.475151 0.0374456
0.191943 0.501701 0.0397498
0.493736 0.51902 0.0369879
0.723308 0.517922 0.0375219
0.840635 0.511742 0.0375677
0.918303 0.538079 0.0398871
0.973358 0.576699 0.0433051
1 0.594156 0.0467231
0.00709544 0.620508 0.0411688
0.0728313 0.644053 0.0400854
0.220432 0.657588 0.0461738
0.515007 0.675517 0.0475013
0.730724 0.705653 0.0386511
0.844282 0.709453 0.038941
0.920684 0.698024 0.0400549
0.971572 0.705272 0.0417639
1 0.711101 0.044007
0.0337987 0.737072 0.0572366
0.107042 0.753948 0.0570077
0.267735 0.770199 0.0576181
0.556008 0.791531 0.0491646
0.743008 0.814191 0.0425422
0.844419 0.828428 0.0412146
0.920699 0.828534 0.0411841
0.970153 0.815305 0.0430457
1 0.81149 0.0445258
0.0352941 0.873884 0.0504463
0.112673 0.889082 0.0526131
0.29073 0.895872 0.0522927
0.583062 0.905745 0.0496071
0.754772 0.913954 0.0468299
0.851896 0.911574 0.0442206
0.9187 0.91931 0.0431067
0.97232 0.910063 0.0431373
1 0.899458 0.0433204
0.0450904 0.966934 0.0566415
0.107317 0.97293 0.0575265
0.30753 0.975128 0.0560769
0.595865 0.978531 0.0523842
0.759609 0.976577 0.0486915
0.854475 0.974502 0.0453498
0.918746 0.975357 0.0437018
0.972198 0.986221 0.0433661
1 0.97496 0.0433356
0.0126192 0.0387121 0.0937819
0.065095 0.0380865 0.0936599
0.177203 0.0373846 0.0941634
0.382971 0.0324865 0.086183
0.618296 0.0295872 0.0797131
0.753704 0.0339361 0.0817731
0.840177 0.041886 0.0859083
0.905379 0.0530251 0.090959
0.96199 0.0661936 0.0963302
0.0123445 0.0901198 0.0939651
0.0646525 0.0957809 0.0974289
0.180163 0.0961471 0.0987411
0.407172 0.0926528 0.0914168
0.651087 0.0931411 0.0868238
0.779171 0.101976 0.0901808
0.865049 0.113878 0.096437
0.929519 0.12874 0.103075
0.984955 0.14403 0.109056
0.00743114 0.168612 0.0962234
0.0585184 0.179782 0.101656
0.163958 0.187259 0.107622
0.419623 0.193652 0.102449
0.674891 0.187366 0.0955215
0.801572 0.193286 0.0937819
0.884642 0.210636 0.0983139
0.948837 0.232914 0.103182
1 0.252949 0.107454
0.00376898 0.305394 0.0959793
0.0569314 0.316213 0.0974289
0.141009 0.340429 0.0947585
0.450401 0.330587 0.0987106
0.703868 0.325658 0.0851606
0.823667 0.347738 0.0821698
0.901839 0.378119 0.0824292
0.9617 0.417884 0.0855726
1 0.446998 0.0925154
0.00358587 0.457282 0.0918746
0.0566262 0.467765 0.0931258
0.161028 0.515862 0.086656
0.482277 0.529809 0.0956283
0.720714 0.534371 0.0790417
0.83975 0.524544 0.0767529
0.915206 0.550698 0.0789044
0.97174 0.587564 0.0822156
1 0.605951 0.0855879
0.00828565 0.600885 0.097673
0.0612039 0.61593 0.100999
0.192798 0.666484 0.0923018
0.502892 0.679179 0.101625
0.733593 0.71342 0.0776379
0.843992 0.714443 0.0775769
0.91899 0.700008 0.0787518
0.971603 0.708034 0.0803845
1 0.716213 0.0826123
0.0208896 0.705898 0.114351
0.0763104 0.745708 0.114061
0.2318 0.780804 0.102007
0.542245 0.791333 0.103944
0.739651 0.816617 0.0957961
0.844266 0.829587 0.0796521
0.920211 0.827482 0.0794995
0.969696 0.814313 0.0811933
1 0.811246 0.0822309
0.0353246 0.868742 0.110002
0.0843214 0.888228 0.103975
0.251087 0.903929 0.0905623
0.564462 0.903792 0.0878767
0.748074 0.912825 0.0849622
0.849851 0.911604 0.0822156
0.916686 0.916609 0.0809796
0.971496 0.908248 0.0809491
1 0.898558 0.0810864
0.04448 0.963821 0.0947738
0.0918746 0.972992 0.0956588
0.262882 0.979477 0.0939956
0.576196 0.980346 0.0902266
0.752163 0.980102 0.0862593
0.85127 0.977325 0.0831006
0.918273 0.977142 0.0814527
0.970703 0.986954 0.0811322
1 0.976532 0.0894636
0.0103304 0.0549325 0.15349
0.0605936 0.054078 0.152865
0.151141 0.0510414 0.154208
0.407721 0.0483711 0.147036
0.646204 0.043122 0.139284
0.779568 0.0445106 0.137087
0.860121 0.0495766 0.137057
0.918868 0.0589914 0.13872
0.971588 0.0728771 0.142519
0.0103151 0.106264 0.154345
0.0587625 0.11014 0.156847
0.153948 0.10956 0.158465
0.436164 0.110369 0.15349
0.674693 0.108644 0.147784
0.802853 0.115175 0.148577
0.883391 0.126009 0.151934
0.943877 0.139696 0.156771
0.994919 0.157183 0.163485
0.00654612 0.176074 0.153368
0.0576791 0.1897 0.160998
0.144808 0.201816 0.16968
0.457893 0.204059 0.167056
0.696849 0.202777 0.162036
0.817578 0.208453 0.161929
0.89691 0.219409 0.164523
0.957107 0.234852 0.169162
1 0.256275 0.178012
0.00390631 0.300252 0.1626
0.057145 0.323171 0.171527
0.124514 0.34435 0.180423
0.400839 0.353826 0.186496
0.685283 0.356268 0.181476
0.816144 0.359518 0.178027
0.898238 0.373312 0.1785
0.96022 0.40174 0.182269
1 0.429679 0.190402
0.00378424 0.510094 0.17908
0.0568704 0.535348 0.185763
0.124193 0.532433 0.180026
0.388022 0.54873 0.168551
0.708247 0.558709 0.17084
0.832792 0.552331 0.169406
0.908476 0.580301 0.17229
0.965286 0.610681 0.177432
1 0.630274 0.18378
0.00831617 0.661234 0.182879
0.0611582 0.663676 0.182727
0.128588 0.658778 0.179004
0.442557 0.691234 0.166705
0.720317 0.715969 0.169924
0.839063 0.720943 0.156191
0.914733 0.706935 0.157427
0.969711 0.71986 0.159167
1 0.730571 0.164492
0.0205386 0.753201 0.192401
0.0715343 0.759991 0.19324
0.13959 0.764462 0.186099
0.481254 0.802823 0.168154
0.724895 0.814191 0.175082
0.842817 0.832227 0.165301
0.917021 0.826993 0.132357
0.968139 0.812421 0.137819
1 0.811429 0.161685
0.0342565 0.888014 0.200153
0.0830091 0.895293 0.196185
0.150072 0.895338 0.179919
0.482658 0.930877 0.157076
0.73254 0.914946 0.169436
0.842664 0.911406 0.173968
0.913039 0.913664 0.167788
0.969848 0.90576 0.128878
1 0.896391 0.165957
0.0428016 0.973983 0.204852
0.0898299 0.976745 0.197833
0.156024 0.977813 0.175097
0.491691 1 0.153994
0.735073 0.994797 0.162768
0.842237 0.980285 0.17293
0.914977 0.979599 0.171695
0.967559 0.986908 0.170504
1 0.977783 0.171939
0.00802625 0.0731365 0.214481
0.0541848 0.0720226 0.213642
0.140352 0.0660258 0.210925
0.375204 0.0647898 0.209094
0.667109 0.0580453 0.194842
0.788876 0.0553292 0.190921
0.866453 0.0635691 0.192813
0.924346 0.0762646 0.197192
0.97734 0.0929274 0.203342
0.0083772 0.124575 0.215778
0.0561074 0.127749 0.217838
0.144533 0.125719 0.216876
0.402991 0.127642 0.216327
0.695338 0.124971 0.20351
0.81207 0.127871 0.202762
0.889342 0.141527 0.207279
0.947387 0.15964 0.214282
0.992798 0.182254 0.23006
0.00575265 0.193088 0.214191
0.0573129 0.20502 0.221073
0.133852 0.219348 0.231128
0.40473 0.215 0.233661
0.713909 0.219684 0.218402
0.825254 0.224338 0.218509
0.901091 0.239902 0.223468
0.957977 0.260151 0.235233
0.9991 0.286625 0.249912
0.00395209 0.306523 0.22118
0.0571908 0.330251 0.231556
0.124437 0.351873 0.242054
0.354253 0.364904 0.25153
0.701961 0.36611 0.240787
0.822141 0.373434 0.241321
0.899962 0.387381 0.245823
0.958907 0.4047 0.25066
1 0.437156 0.262852
0.00375372 0.486473 0.236698
0.0569619 0.515328 0.246204
0.124498 0.541863 0.25536
0.304265 0.566308 0.26627
0.683116 0.575128 0.267857
0.818845 0.587228 0.26833
0.900725 0.598993 0.268849
0.959411 0.612039 0.270542
1 0.628656 0.276509
0.00862135 0.681819 0.258991
0.0613718 0.703395 0.267048
0.128725 0.721706 0.275349
0.251133 0.714336 0.268635
0.683009 0.716533 0.258244
0.830457 0.732723 0.252522
0.907332 0.729122 0.25893
0.961486 0.743572 0.262333
1 0.754376 0.26627
0.0204776 0.814359 0.289708
0.0712749 0.821164 0.290867
0.138125 0.813123 0.27982
0.300374 0.805035 0.264317
0.695186 0.819532 0.250889
0.832151 0.830228 0.256535
0.911116 0.831037 0.238758
0.966278 0.818463 0.245045
1 0.823453 0.251789
0.0333715 0.912856 0.299306
0.0817884 0.916289 0.291722
0.148104 0.913008 0.276127
0.25893 0.912123 0.258946
0.694667 0.924117 0.241703
0.831571 0.910246 0.254246
0.909957 0.913634 0.253254
0.967132 0.907118 0.227787
1 0.896834 0.251057
0.0409857 0.988739 0.303349
0.0879377 0.989502 0.29337
0.153429 0.987869 0.277974
0.263722 0.984588 0.254597
0.696223 1 0.239902
0.830625 0.990082 0.246983
0.90779 0.981277 0.252705
0.961929 0.983948 0.253132
1 0.979019 0.24947
0.00604257 0.0883345 0.269902
0.0522927 0.0874495 0.268803
0.131456 0.0813611 0.264591
0.327886 0.0740978 0.264561
0.639353 0.0776074 0.252094
0.799176 0.0722515 0.237827
0.87361 0.0790723 0.239445
0.92697 0.0891127 0.248005
0.975357 0.106752 0.263172
0.0068513 0.140108 0.271717
0.0550698 0.143847 0.273701
0.1364 0.141329 0.271138
0.353063 0.137514 0.27303
0.672679 0.14548 0.261555
0.822675 0.147036 0.251057
0.894774 0.158053 0.261341
0.947631 0.172137 0.272725
0.989914 0.201892 0.294331
0.0055848 0.211933 0.271626
0.057496 0.222843 0.278264
0.124758 0.234394 0.286656
0.352773 0.232502 0.28716
0.688563 0.243778 0.27924
0.832624 0.244373 0.275319
0.903304 0.260212 0.28574
0.956619 0.281773 0.299657
0.997559 0.313298 0.317235
0.00448615 0.325582 0.277699
0.0576638 0.34992 0.288441
0.124895 0.367453 0.29752
0.32462 0.379568 0.308873
0.683558 0.377432 0.303853
0.828168 0.393027 0.303075
0.901152 0.413382 0.310155
0.957809 0.440497 0.322576
0.999496 0.474922 0.335851
0.00419623 0.488167 0.290791
0.0574807 0.518364 0.30251
0.125093 0.544991 0.313985
0.298039 0.562844 0.324041
0.650385 0.577386 0.333623
0.825391 0.586633 0.328283
0.900069 0.605325 0.332357
0.955932 0.619364 0.337148
0.997894 0.63917 0.344594
0.00903334 0.668956 0.314427
0.061677 0.688365 0.322927
0.128878 0.704433 0.330724
0.235309 0.718776 0.339315
0.625147 0.730388 0.345342
0.819577 0.73843 0.341878
0.89868 0.744503 0.343221
0.954162 0.749767 0.343954
0.999268 0.756374 0.346502
0.0203708 0.800153 0.342824
0.070985 0.814801 0.349584
0.137697 0.827298 0.354192
0.24506 0.83743 0.356252
0.588388 0.832929 0.347127
0.819745 0.830671 0.334417
0.905821 0.837308 0.326863
0.95903 0.835126 0.334157
1 0.841825 0.337102
0.0327306 0.906004 0.369726
0.081239 0.917876 0.373968
0.147219 0.925948 0.375387
0.256199 0.921904 0.3608
0.583597 0.920729 0.335042
0.817212 0.916213 0.322835
0.903319 0.912444 0.329961
0.962142 0.910048 0.314336
1 0.902602 0.330404
0.0400092 0.978973 0.382742
0.0867781 0.987503 0.38468
0.152102 0.996307 0.38056
0.26067 0.991302 0.355489
0.57525 0.999832 0.325292
0.813046 0.99411 0.315511
0.900267 0.984955 0.322545
0.958587 0.983063 0.327428
1 0.980789 0.323201
0.00505074 0.101701 0.315862
0.0513924 0.101091 0.314839
0.12282 0.0955215 0.310155
0.304387 0.0893568 0.306676
0.625742 0.0939498 0.29836
0.788891 0.0885939 0.288167
0.87631 0.0937667 0.2925
0.929885 0.109148 0.306645
0.973907 0.126024 0.318898
0.00645457 0.155032 0.318563
0.0550546 0.159121 0.320699
0.127855 0.157198 0.317876
0.3308 0.154391 0.316121
0.66212 0.165194 0.30985
0.812299 0.166171 0.308858
0.897231 0.180865 0.321111
0.950027 0.199084 0.337972
0.990494 0.220539 0.351003
0.00654612 0.229145 0.320089
0.0587625 0.241001 0.327092
0.126131 0.251606 0.335225
0.335271 0.250614 0.332937
0.681132 0.260304 0.330892
0.821988 0.269047 0.335027
0.907454 0.283803 0.347417
0.961563 0.3037 0.361776
1 0.330724 0.373236
0.00602731 0.347051 0.326589
0.0590524 0.371344 0.337789
0.126467 0.384726 0.345129
0.293263 0.394446 0.356329
0.648371 0.383337 0.358526
0.82356 0.404501 0.359182
0.910735 0.425864 0.368612
0.963699 0.453223 0.377279
1 0.48719 0.388342
0.00575265 0.508659 0.340307
0.0589914 0.538613 0.352895
0.126711 0.5617 0.363439
0.258732 0.573785 0.371206
0.626307 0.586847 0.384054
0.817777 0.583581 0.384787
0.909972 0.601511 0.385977
0.960327 0.624964 0.388815
1 0.646738 0.39678
0.0102998 0.670573 0.36228
0.0627451 0.693156 0.373816
0.130007 0.707683 0.381689
0.236942 0.713588 0.386419
0.613184 0.720241 0.390875
0.808576 0.734539 0.393378
0.902846 0.740612 0.393713
0.953201 0.750713 0.39559
0.996094 0.760021 0.399954
0.0212406 0.794125 0.388312
0.0715953 0.806729 0.394766
0.138048 0.814786 0.398718
0.245365 0.819608 0.40058
0.578576 0.826291 0.40293
0.798993 0.834257 0.401724
0.898558 0.841001 0.399023
0.951827 0.842512 0.399222
0.997543 0.845457 0.399908
0.0328222 0.890547 0.413199
0.081117 0.90016 0.416953
0.146792 0.906584 0.417838
0.255192 0.91165 0.416144
0.520424 0.918105 0.412985
0.774701 0.917235 0.40061
0.897795 0.914885 0.392233
0.957015 0.914595 0.387045
1 0.912505 0.392981
0.0394141 0.959915 0.424796
0.0860456 0.966903 0.426429
0.151064 0.974411 0.42623
0.259449 0.984146 0.423789
0.428229 0.9897 0.413397
0.76524 0.993088 0.385916
0.892546 0.990051 0.382177
0.954192 0.984405 0.387945
0.999954 0.983276 0.386297
0.00485237 0.115526 0.355779
0.0513008 0.115084 0.35465
0.114733 0.109804 0.349401
0.292699 0.100587 0.342214
0.616632 0.108812 0.337118
0.778866 0.108492 0.337575
0.870161 0.115679 0.345159
0.931899 0.12929 0.360235
0.977646 0.151293 0.379904
0.00697337 0.170306 0.359396
0.0559396 0.175067 0.361959
0.121279 0.173831 0.358877
0.321584 0.169009 0.353567
0.658335 0.181842 0.354223
0.80589 0.189227 0.360967
0.894301 0.200793 0.373983
0.956924 0.215488 0.393301
0.999146 0.243519 0.412543
0.0084535 0.248325 0.363165
0.0608377 0.260533 0.370657
0.128603 0.271122 0.379004
0.328069 0.26981 0.37467
0.669596 0.266651 0.382391
0.823163 0.283284 0.386206
0.90988 0.297642 0.399145
0.97055 0.319142 0.418402
1 0.353887 0.434043
0.00833143 0.368826 0.368933
0.0611582 0.393683 0.380758
0.128954 0.404639 0.387381
0.265476 0.414435 0.398306
0.613519 0.401236 0.402869
0.820768 0.413916 0.41323
0.912077 0.434684 0.418738
0.974212 0.460883 0.433173
1 0.502388 0.44239
0.00810254 0.532494 0.384192
0.0612345 0.562173 0.397116
0.129198 0.582238 0.40647
0.237568 0.587777 0.41117
0.597101 0.597421 0.424186
0.798398 0.588495 0.425086
0.90779 0.603891 0.433585
0.970504 0.620157 0.440253
1 0.649195 0.442695
0.0124056 0.681987 0.404196
0.0647135 0.703532 0.415442
0.132036 0.715557 0.422171
0.239811 0.719478 0.425299
0.584649 0.722927 0.428977
0.796277 0.734951 0.435019
0.898512 0.737957 0.436713
0.960983 0.743435 0.439902
1 0.758679 0.439216
0.0228428 0.795087 0.427695
0.0729381 0.808804 0.435584
0.139254 0.815656 0.439155
0.246998 0.815473 0.438788
0.570764 0.81474 0.438056
0.789395 0.823072 0.438743
0.894896 0.838376 0.438315
0.95285 0.839124 0.440604
0.995544 0.845136 0.441306
0.0336004 0.886625 0.449042
0.0817121 0.894423 0.452476
0.147295 0.898009 0.453101
0.255634 0.897429 0.450797
0.524941 0.898741 0.448875
0.77615 0.902617 0.446448
0.888914 0.90985 0.44416
0.951095 0.916716 0.442634
0.998947 0.91931 0.443183
0.0395972 0.951797 0.459495
0.0860914 0.956771 0.460945
0.150973 0.9608 0.460578
0.259159 0.965072 0.458289
0.443229 0.97229 0.455879
0.754528 0.98143 0.451575
0.871275 0.989151 0.440864
0.950515 0.988785 0.437079
0.999954 0.986068 0.438056
0.00489815 0.130755 0.395132
0.0514687 0.130632 0.393774
0.111666 0.125261 0.388022
0.283726 0.116228 0.379248
0.606439 0.11667 0.380957
0.775814 0.125673 0.384192
0.867887 0.13283 0.394125
0.934401 0.143847 0.410422
0.985443 0.164858 0.43183
0.00787366 0.187594 0.399863
0.0569924 0.192508 0.402914
0.121569 0.191867 0.399359
0.31577 0.187366 0.392187
0.64445 0.189364 0.402869
0.809873 0.203113 0.410254
0.898344 0.214389 0.424216
0.96199 0.225925 0.441032
1 0.250706 0.454963
0.0104677 0.269535 0.405905
0.0629892 0.281361 0.413169
0.130831 0.2916 0.42092
0.32137 0.289662 0.41706
0.633661 0.276585 0.423758
0.825971 0.29247 0.436713
0.913527 0.307317 0.445533
0.975586 0.326192 0.460975
1 0.358053 0.47071
0.0106355 0.391806 0.410239
0.0632944 0.416175 0.421622
0.131472 0.424613 0.42678
0.248646 0.437049 0.438514
0.598566 0.427222 0.444297
0.804334 0.426474 0.453696
0.911299 0.447044 0.463798
0.976654 0.468025 0.474022
1 0.505089 0.480125
0.0104524 0.557198 0.426032
0.0634775 0.584833 0.437964
0.131701 0.600458 0.445869
0.241306 0.601236 0.448371
0.582391 0.610422 0.461631
0.786343 0.59617 0.46331
0.900832 0.612024 0.473121
0.969589 0.625177 0.479866
1 0.647959 0.482826
0.0147555 0.69633 0.443595
0.0668345 0.714717 0.453193
0.134279 0.725231 0.459022
0.242573 0.727474 0.461372
0.569253 0.728176 0.464347
0.787671 0.738613 0.472419
0.890074 0.739254 0.471168
0.95874 0.744106 0.478813
1 0.753719 0.481315
0.0243534 0.799847 0.46273
0.0743725 0.812039 0.469276
0.140703 0.817655 0.472328
0.248814 0.816556 0.472099
0.557885 0.814649 0.471397
0.779736 0.821714 0.473548
0.890425 0.836591 0.474388
0.951125 0.836927 0.477409
1 0.838453 0.480491
0.0345464 0.885023 0.480369
0.0823072 0.893965 0.484825
0.147936 0.897231 0.485985
0.256321 0.894163 0.483635
0.535576 0.888548 0.480461
0.774945 0.890166 0.47863
0.885176 0.901381 0.478141
0.950545 0.915755 0.477943
0.997681 0.915053 0.481437
0.0399176 0.949416 0.489158
0.0862898 0.954574 0.490883
0.151095 0.956725 0.490623
0.25922 0.95758 0.488914
0.465965 0.958373 0.486976
0.757321 0.962692 0.485161
0.876814 0.970291 0.483635
0.946426 0.978729 0.482872
0.999039 0.987793 0.483421
