70 CGC LUTs/Look LUTs/Cubanismo.cube
#Created by: Denver Riddle
#Copyright: (C) Copyright Color Grading Central LLC
#LUT Size
LUT_3D_SIZE 33
0.0140078 0.0206912 0.013611
0.0253605 0.0214084 0.0137789
0.0368658 0.0224918 0.0140383
0.0510719 0.0236057 0.0142672
0.0668498 0.0247044 0.0144503
0.0845655 0.0254826 0.014374
0.104952 0.0265812 0.0141146
0.12903 0.0278019 0.0136721
0.15787 0.0290227 0.0129397
0.193744 0.0296635 0.0118715
0.238483 0.0299229 0.0105745
0.29041 0.0299687 0.00924697
0.348562 0.029984 0.00807202
0.412146 0.0302586 0.00712596
0.472847 0.0320134 0.00643931
0.533562 0.0331273 0.00648508
0.589654 0.033341 0.00717174
0.637476 0.0334783 0.00799573
0.678584 0.0338445 0.00895705
0.714122 0.0344244 0.0100404
0.74493 0.0351873 0.0114137
0.77145 0.0363317 0.0126497
0.794858 0.0377661 0.0138552
0.816159 0.0394446 0.015259
0.835462 0.0411536 0.0166018
0.853803 0.0435645 0.017792
0.871061 0.0463111 0.0190433
0.887098 0.0489662 0.020264
0.902266 0.0520333 0.0214389
0.91693 0.055024 0.0226596
0.931105 0.05832 0.0239414
0.945235 0.0617227 0.0250858
0.959442 0.0651713 0.0261845
0.0139925 0.0357671 0.013611
0.0254673 0.0358892 0.0139315
0.0369116 0.0362707 0.0140078
0.051133 0.0372168 0.0142977
0.0667277 0.0381781 0.0145113
0.084535 0.0388037 0.0144198
0.104952 0.039353 0.0141146
0.129091 0.0399329 0.0136263
0.158007 0.0406653 0.0129397
0.194018 0.0418097 0.0119478
0.239017 0.0425116 0.0106813
0.291035 0.0426032 0.00936904
0.34966 0.0427253 0.00825513
0.413642 0.0431373 0.00735485
0.474632 0.0450599 0.0068513
0.535729 0.0463569 0.00701915
0.591989 0.0467994 0.00772107
0.639841 0.0471046 0.00865187
0.681193 0.0475776 0.00973526
0.716609 0.0484169 0.0110933
0.74757 0.0493935 0.0124971
0.774212 0.0508583 0.0138705
0.797986 0.0525826 0.0153506
0.819272 0.0543526 0.0168002
0.838987 0.0565499 0.018265
0.857481 0.0593576 0.0196841
0.874922 0.0621653 0.0209964
0.891035 0.0653239 0.0223392
0.90631 0.0686046 0.0237888
0.921111 0.071931 0.0251164
0.935576 0.0755169 0.0264591
0.949935 0.0791028 0.0278477
0.964385 0.082826 0.0290684
0.0140078 0.0510719 0.0136873
0.0254673 0.0511177 0.0140688
0.036759 0.0511482 0.0143587
0.0515908 0.0509041 0.0140536
0.0669871 0.0520485 0.0142061
0.0849775 0.0530709 0.0141451
0.10518 0.0539406 0.0141756
0.129488 0.0541848 0.0137484
0.158831 0.0542458 0.0130922
0.195331 0.0543832 0.0121462
0.24097 0.0549172 0.0109865
0.293751 0.0556191 0.00970474
0.353094 0.0559548 0.00868238
0.417227 0.0566567 0.00791943
0.478202 0.0584878 0.00762951
0.540169 0.0594949 0.00810254
0.595789 0.0603037 0.00889601
0.644083 0.0611734 0.0099031
0.685222 0.0620432 0.0112154
0.720913 0.0631876 0.0125887
0.751888 0.0644846 0.0141451
0.778576 0.0662852 0.0157321
0.802197 0.0683299 0.0172427
0.823606 0.0703593 0.0189212
0.843717 0.0730755 0.0204776
0.862394 0.0760662 0.0218509
0.879927 0.0794995 0.0233616
0.896284 0.0828565 0.0248264
0.911742 0.0865492 0.026276
0.926665 0.0903334 0.0278172
0.941375 0.0943465 0.0291905
0.955932 0.0983291 0.0305638
0.970443 0.102602 0.0319371
0.0138552 0.0668803 0.0136568
0.0253452 0.0669566 0.0140383
0.0370336 0.0672618 0.0145418
0.0508278 0.0673228 0.0147097
0.0671244 0.0670024 0.0137331
0.0864729 0.0669718 0.013611
0.10663 0.0681163 0.0138399
0.130449 0.0692454 0.013611
0.160159 0.0698405 0.0131685
0.197513 0.0695811 0.0123751
0.244297 0.0692302 0.011368
0.298711 0.0692302 0.0102541
0.359457 0.0696727 0.00939956
0.422751 0.0706188 0.00892653
0.485191 0.0723583 0.0089723
0.547158 0.073579 0.00965896
0.603052 0.0748455 0.0106355
0.650477 0.0759594 0.0117647
0.691524 0.077409 0.013077
0.726833 0.079057 0.0146334
0.75758 0.0807965 0.0162966
0.784146 0.0828107 0.0178531
0.807828 0.0852064 0.0195773
0.829526 0.0882277 0.0210727
0.849897 0.0912947 0.0225376
0.868589 0.0948501 0.0241855
0.886168 0.0983902 0.025742
0.902541 0.102266 0.0274052
0.91809 0.106157 0.0289311
0.932998 0.11046 0.0303807
0.947784 0.114687 0.0319219
0.962615 0.11899 0.0333104
0.977325 0.12369 0.0346075
0.0133364 0.0833906 0.0133822
0.024918 0.0835889 0.0137636
0.0365148 0.0849775 0.0142214
0.0502937 0.0852827 0.014725
0.0650797 0.0854505 0.0147402
0.0863355 0.0833906 0.0134432
0.10869 0.0827649 0.0132143
0.133135 0.084123 0.0131075
0.162905 0.0856336 0.012726
0.200717 0.0866865 0.0121614
0.248798 0.0866407 0.0115053
0.305013 0.0859236 0.0107118
0.367514 0.0857404 0.0100557
0.432105 0.0869001 0.00985733
0.495354 0.088716 0.0102083
0.557763 0.0900893 0.0112459
0.612528 0.0914778 0.0122835
0.659159 0.0931411 0.0135195
0.69958 0.0949264 0.0150607
0.73434 0.0968185 0.0166934
0.764508 0.0988632 0.0183413
0.791012 0.101625 0.0200046
0.814771 0.104585 0.0215
0.836561 0.107988 0.0231327
0.856931 0.111391 0.0247044
0.875639 0.11519 0.0263371
0.893034 0.119066 0.0280461
0.909239 0.123461 0.0296025
0.924727 0.127703 0.0312352
0.939864 0.13228 0.0327001
0.954726 0.136889 0.0341802
0.969497 0.141619 0.0355993
0.98294 0.14583 0.0367742
0.012314 0.101518 0.0128176
0.024033 0.102007 0.0131228
0.0357366 0.103975 0.0133516
0.049134 0.105119 0.0135348
0.0648203 0.105028 0.013962
0.0830396 0.10425 0.0140383
0.108598 0.101564 0.0132143
0.135424 0.100786 0.0126497
0.167239 0.102205 0.0120394
0.206592 0.103822 0.01149
0.255024 0.10547 0.0109407
0.312139 0.106264 0.0103914
0.376532 0.106645 0.00985733
0.444511 0.107668 0.00984207
0.507759 0.109224 0.0105287
0.570108 0.110475 0.0118715
0.623728 0.111742 0.0132296
0.669474 0.113527 0.0148318
0.708843 0.115541 0.0164034
0.743175 0.117723 0.0180972
0.772808 0.120317 0.0198215
0.798825 0.123507 0.0213474
0.822416 0.12665 0.0230411
0.844282 0.130266 0.0246738
0.864408 0.133944 0.0262913
0.883146 0.138277 0.027985
0.900191 0.142565 0.0295567
0.916381 0.147097 0.0312047
0.931762 0.151858 0.0326848
0.946517 0.156573 0.0341344
0.961425 0.161501 0.0356451
0.976257 0.166751 0.0368963
0.987991 0.170001 0.0379187
0.0106508 0.120974 0.0117647
0.0227817 0.121767 0.0120546
0.0345006 0.124636 0.0120241
0.0475624 0.126711 0.0119936
0.0635233 0.126711 0.0124819
0.0824445 0.126482 0.0132906
0.105287 0.125338 0.0139315
0.135744 0.12195 0.0123751
0.16994 0.120836 0.0116121
0.212604 0.122454 0.0106355
0.264607 0.124453 0.00973526
0.323339 0.126482 0.00907912
0.387808 0.12874 0.0089723
0.456611 0.130877 0.00917067
0.520302 0.132921 0.00987259
0.582589 0.134874 0.0114443
0.635264 0.136416 0.0131075
0.68014 0.138109 0.0149996
0.718776 0.139712 0.016846
0.752316 0.142046 0.0186618
0.781155 0.144961 0.0204013
0.806882 0.147982 0.022034
0.83035 0.151827 0.0236973
0.852079 0.155749 0.0252384
0.872236 0.160189 0.0268864
0.890379 0.164538 0.0284733
0.907332 0.169146 0.029984
0.923156 0.174121 0.0315862
0.938308 0.179141 0.0329747
0.953033 0.184161 0.0343328
0.967712 0.189502 0.0357366
0.982391 0.194659 0.0369421
0.992844 0.197574 0.0377508
0.00868238 0.14229 0.0101625
0.0208591 0.143786 0.0104982
0.0328679 0.14699 0.0102998
0.0454719 0.150179 0.00996414
0.0616617 0.150698 0.0105745
0.0816205 0.15111 0.0115969
0.105516 0.150317 0.0134432
0.132921 0.148165 0.0138857
0.170352 0.144686 0.0115663
0.215824 0.143465 0.0103151
0.272648 0.145525 0.00885023
0.335378 0.147768 0.00787366
0.40209 0.150759 0.00823987
0.469078 0.153918 0.00895705
0.534768 0.156649 0.0100252
0.594476 0.159457 0.0113985
0.645838 0.161669 0.0129854
0.689906 0.164034 0.014847
0.72781 0.166445 0.0166629
0.760555 0.169528 0.0182193
0.789136 0.17319 0.0198367
0.814771 0.177096 0.0213169
0.838087 0.181292 0.0229191
0.859602 0.18555 0.024445
0.879255 0.190173 0.0259861
0.897307 0.19501 0.0275425
0.91371 0.199954 0.0289464
0.929335 0.205341 0.0303044
0.944228 0.210498 0.0317235
0.958618 0.215747 0.032929
0.973007 0.221073 0.0340887
0.987427 0.22678 0.0352331
0.997482 0.229648 0.0359503
0.00613413 0.166064 0.00839246
0.0185702 0.167941 0.00872816
0.0308843 0.171466 0.00865187
0.0431983 0.175525 0.00823987
0.0589151 0.177096 0.00856031
0.0792554 0.178073 0.00965896
0.104295 0.177935 0.0116732
0.132738 0.175998 0.0147097
0.169146 0.174823 0.0126497
0.216449 0.170169 0.0109712
0.276097 0.169131 0.00889601
0.344305 0.171435 0.00700389
0.413535 0.174823 0.0077821
0.484688 0.177844 0.00921645
0.551873 0.181079 0.0107424
0.609964 0.183841 0.012192
0.659159 0.186648 0.0137789
0.700908 0.189639 0.0153964
0.737072 0.193317 0.0166629
0.768231 0.197589 0.0178073
0.796277 0.202121 0.0191501
0.821088 0.206897 0.0202335
0.844205 0.212146 0.0214542
0.865736 0.217288 0.022797
0.884993 0.222583 0.024094
0.902586 0.228458 0.0251621
0.91873 0.234485 0.0262455
0.934173 0.240665 0.0273899
0.948791 0.246769 0.028397
0.963149 0.252705 0.0294957
0.977569 0.259098 0.0305028
0.989914 0.263951 0.0314183
0.999863 0.267597 0.0320287
0.0037232 0.192203 0.00666819
0.0164797 0.194263 0.00729381
0.0291447 0.197833 0.0074464
0.0417334 0.202258 0.00720226
0.0559243 0.206302 0.00668345
0.0764019 0.207889 0.00788891
0.101961 0.208835 0.00958267
0.132952 0.206577 0.0129854
0.168246 0.205173 0.0154879
0.217563 0.203418 0.0110628
0.277577 0.198672 0.00981155
0.347768 0.197635 0.00729381
0.421592 0.200153 0.00704967
0.498558 0.203586 0.00907912
0.567498 0.206592 0.0111086
0.624735 0.209796 0.0127718
0.672084 0.213321 0.0141909
0.713115 0.216846 0.0158083
0.747341 0.221073 0.0168154
0.777691 0.225666 0.0178988
0.804273 0.230198 0.019028
0.828641 0.235554 0.0200961
0.850904 0.241016 0.0209812
0.871611 0.246815 0.0219425
0.890242 0.253193 0.0228733
0.907317 0.260212 0.0236667
0.92311 0.26743 0.0243687
0.938308 0.274983 0.0250401
0.952956 0.282399 0.0257877
0.967117 0.290211 0.0263371
0.98117 0.29781 0.0270237
0.991958 0.301976 0.0278019
1 0.305211 0.0285649
0.00183108 0.220462 0.00543221
0.014786 0.222522 0.00621042
0.0276799 0.226596 0.0065156
0.0405127 0.23122 0.00634775
0.054139 0.236835 0.00552377
0.0741588 0.240345 0.00601205
0.100328 0.242023 0.00773632
0.132128 0.240146 0.0111238
0.17026 0.236988 0.0148928
0.219715 0.238773 0.0134737
0.279393 0.234195 0.0112612
0.350866 0.229725 0.00872816
0.427512 0.228687 0.00686656
0.504921 0.23064 0.00791943
0.576699 0.233753 0.0105745
0.636484 0.237629 0.0126192
0.684291 0.241779 0.0142519
0.723598 0.246052 0.0155184
0.756725 0.250767 0.016434
0.785504 0.255344 0.017319
0.811139 0.260258 0.0182193
0.834791 0.265538 0.0192721
0.856931 0.271321 0.0202182
0.876905 0.277852 0.0210117
0.894972 0.285084 0.0216983
0.911803 0.292485 0.022385
0.92755 0.300435 0.0231632
0.942458 0.30898 0.0236515
0.957259 0.317937 0.024155
0.971267 0.327138 0.0243992
0.984497 0.33518 0.0247501
0.994629 0.338857 0.0255894
1 0.342382 0.0264286
0.000717174 0.250553 0.00479133
0.0138857 0.252949 0.00570687
0.0269932 0.257282 0.00607309
0.0399939 0.262257 0.00601205
0.053727 0.268666 0.00517281
0.0737926 0.273091 0.00547799
0.0993973 0.277424 0.00611887
0.132097 0.275898 0.00935378
0.172152 0.272206 0.0134432
0.225635 0.272023 0.0129702
0.287724 0.273899 0.0107881
0.35404 0.265949 0.0120699
0.433539 0.262791 0.00836194
0.511131 0.261067 0.0069276
0.583246 0.2636 0.00891127
0.642481 0.267414 0.011429
0.691356 0.271366 0.0133211
0.731258 0.27657 0.0147097
0.764431 0.281559 0.0157321
0.792569 0.286488 0.0166476
0.817746 0.292088 0.0174411
0.840635 0.297826 0.0182498
0.862074 0.30457 0.0190585
0.881514 0.311879 0.0197604
0.899336 0.3196 0.0204318
0.915877 0.327749 0.0210574
0.931533 0.336629 0.021561
0.946365 0.346242 0.021912
0.960739 0.356268 0.0221561
0.975158 0.36669 0.0223087
0.9879 0.374334 0.0227817
0.997879 0.378012 0.0236667
1 0.381903 0.0244144
0.000411994 0.283192 0.00448615
0.0137179 0.286213 0.00546273
0.0269474 0.290227 0.00608835
0.0400549 0.295705 0.00596628
0.0539406 0.302724 0.00505074
0.0746166 0.307393 0.00560006
0.100496 0.312291 0.00621042
0.132738 0.315633 0.00735485
0.174868 0.312688 0.0111238
0.226154 0.309453 0.0142367
0.296345 0.313344 0.00849927
0.367422 0.315587 0.00972
0.439506 0.304952 0.0102235
0.519036 0.301076 0.0069276
0.590097 0.299077 0.00694286
0.648692 0.300755 0.00914015
0.696666 0.304219 0.0117494
0.735988 0.308949 0.0133364
0.769329 0.314519 0.0145724
0.798337 0.320607 0.0156558
0.823911 0.326787 0.0165408
0.846784 0.333165 0.0173342
0.867445 0.34078 0.0178836
0.886137 0.348363 0.0184787
0.9037 0.357183 0.0191196
0.91989 0.36672 0.01944
0.935256 0.376257 0.019791
0.950057 0.38677 0.0200046
0.964416 0.39736 0.0201572
0.978851 0.408682 0.0201114
0.990539 0.415732 0.0204623
1 0.419745 0.0211795
1 0.423774 0.0218814
0.000320439 0.319783 0.0041352
0.0136873 0.323033 0.00515755
0.026978 0.326757 0.00608835
0.0401312 0.332174 0.00616464
0.0540627 0.339834 0.00511177
0.0747845 0.345006 0.00564584
0.101259 0.350347 0.00624094
0.135012 0.355413 0.00671397
0.177691 0.355703 0.00889601
0.229999 0.352026 0.0126192
0.299886 0.355947 0.00946059
0.37464 0.35816 0.00694286
0.450614 0.361181 0.00929274
0.526162 0.347692 0.00726329
0.597635 0.34406 0.00679026
0.655451 0.341878 0.00677501
0.701823 0.342565 0.00888075
0.740444 0.346975 0.0110018
0.773312 0.351888 0.0126497
0.802045 0.357504 0.0139315
0.827512 0.364355 0.0149386
0.850828 0.371847 0.0157778
0.872023 0.380102 0.0163729
0.890898 0.388632 0.0169223
0.907652 0.397818 0.017258
0.923537 0.407523 0.0175784
0.938552 0.417945 0.0177157
0.95314 0.429068 0.0176852
0.967453 0.440574 0.0175479
0.981659 0.452384 0.0171817
0.991699 0.458991 0.0169985
1 0.462791 0.017792
1 0.466682 0.0185702
0.00030518 0.359319 0.00410468
0.0136873 0.362783 0.00517281
0.026978 0.366812 0.00604257
0.0400854 0.371633 0.00642405
0.0539254 0.37969 0.00531014
0.0748302 0.385504 0.00555428
0.103746 0.391257 0.00610361
0.13785 0.397147 0.00650034
0.18088 0.400854 0.00775158
0.235233 0.397589 0.0114443
0.302235 0.399649 0.01178
0.386786 0.405997 0.00683604
0.462379 0.410513 0.00689708
0.534874 0.410483 0.00706493
0.604898 0.39678 0.00703441
0.661524 0.392706 0.00674449
0.706706 0.390814 0.00679026
0.744656 0.390692 0.00753796
0.777127 0.394339 0.00952163
0.805463 0.399969 0.0112001
0.830503 0.405859 0.0124819
0.853574 0.412634 0.0135805
0.87451 0.421195 0.0141756
0.893538 0.430594 0.0147555
0.910964 0.440543 0.0150759
0.926925 0.450889 0.0152285
0.94168 0.461341 0.0152743
0.955962 0.472145 0.0151369
0.970169 0.483513 0.0149081
0.981979 0.494942 0.0150912
0.991547 0.501091 0.0160525
1 0.504479 0.0170138
1 0.508156 0.0179599
0.000289921 0.400793 0.00456245
0.013611 0.404334 0.00564584
0.0268254 0.40827 0.00662242
0.0398566 0.413291 0.00704967
0.0537118 0.422522 0.00521859
0.0777447 0.428901 0.00540169
0.106996 0.435264 0.00598154
0.141451 0.441886 0.00636301
0.185748 0.447044 0.00737011
0.24184 0.444953 0.0107424
0.307683 0.445548 0.0129244
0.391394 0.454383 0.00688182
0.474693 0.458961 0.00691234
0.54934 0.46804 0.00694286
0.609415 0.463157 0.00724804
0.667216 0.448905 0.00704967
0.71165 0.445975 0.00682078
0.748669 0.444236 0.0069276
0.780377 0.44361 0.00708019
0.808301 0.44596 0.00753796
0.833509 0.451453 0.00885023
0.856291 0.458335 0.0100099
0.876783 0.465339 0.0111696
0.895567 0.47332 0.0119936
0.912825 0.48307 0.0123293
0.928786 0.494026 0.0122072
0.943954 0.504738 0.0121157
0.958404 0.515602 0.0127871
0.971954 0.526223 0.0137179
0.981674 0.536812 0.0148013
0.99115 0.541543 0.0157473
1 0.544915 0.0166476
1 0.54789 0.0175479
0.000198367 0.442481 0.00573739
0.0135042 0.446235 0.00695811
0.0267338 0.450202 0.00759899
0.039826 0.458244 0.00653086
0.0559701 0.468025 0.004654
0.082002 0.473747 0.00543221
0.110994 0.4804 0.00602731
0.14612 0.487282 0.00645457
0.19147 0.492409 0.0074464
0.249424 0.491737 0.0103761
0.316365 0.492164 0.0125429
0.396902 0.500618 0.00842298
0.483589 0.508904 0.00703441
0.554864 0.513573 0.00706493
0.62179 0.525261 0.00709544
0.668162 0.517754 0.00737011
0.715724 0.505028 0.00733959
0.752605 0.501366 0.00700389
0.783673 0.499901 0.00714122
0.810971 0.499199 0.00735485
0.835554 0.500008 0.00767529
0.858183 0.504372 0.00810254
0.878706 0.511574 0.00862135
0.897398 0.518914 0.00923171
0.914229 0.526879 0.00993362
0.930129 0.535805 0.0108492
0.945296 0.545968 0.0116732
0.960067 0.556771 0.0125582
0.971893 0.567178 0.0134432
0.981247 0.575372 0.0143893
0.990646 0.578668 0.0153506
1 0.581552 0.0162051
1 0.584512 0.0170291
0.00047303 0.485176 0.00608835
0.0138247 0.489342 0.00717174
0.0270848 0.496162 0.0068513
0.0406043 0.505592 0.00497444
0.0612192 0.512779 0.00489815
0.0867018 0.518639 0.00569161
0.115969 0.525246 0.00630198
0.151949 0.532067 0.00680552
0.198337 0.536477 0.00790417
0.25771 0.536355 0.0105135
0.325597 0.537346 0.0122988
0.403052 0.544625 0.0105592
0.489876 0.555383 0.00730907
0.567514 0.562173 0.00732433
0.623606 0.568276 0.00732433
0.677058 0.580652 0.00732433
0.714229 0.571923 0.00759899
0.754925 0.560372 0.00791943
0.786664 0.556832 0.00735485
0.813748 0.555337 0.00747692
0.838056 0.554696 0.00775158
0.860182 0.554803 0.00814832
0.880354 0.557153 0.00862135
0.898711 0.563241 0.00918593
0.915526 0.57055 0.00985733
0.931258 0.578347 0.0106813
0.946227 0.586206 0.01149
0.96051 0.594507 0.0122988
0.971496 0.603586 0.013138
0.980774 0.610208 0.0139773
0.990082 0.613291 0.0149081
0.999634 0.615793 0.0157015
1 0.618173 0.0164492
0.00129702 0.531807 0.005066
0.0146792 0.536126 0.00590524
0.0279545 0.54342 0.00512703
0.0446479 0.55079 0.00447089
0.0672618 0.556451 0.00541695
0.0924849 0.562203 0.00621042
0.121996 0.568597 0.00694286
0.158251 0.575341 0.00738537
0.206424 0.578302 0.00906386
0.266377 0.578988 0.0114137
0.334325 0.580224 0.0129549
0.411124 0.587137 0.011841
0.493507 0.597177 0.0077821
0.571206 0.606165 0.00776684
0.632288 0.612558 0.00773632
0.677134 0.620508 0.00770581
0.720989 0.631251 0.00769055
0.752682 0.623652 0.00787366
0.787549 0.613931 0.00863661
0.815396 0.60882 0.00833143
0.839963 0.607675 0.00810254
0.862181 0.606989 0.00827039
0.882109 0.606332 0.0087129
0.899931 0.606775 0.00921645
0.916625 0.611124 0.00982681
0.932097 0.61799 0.0105592
0.946883 0.62475 0.0113375
0.96083 0.631479 0.0120851
0.97113 0.63827 0.0128481
0.980316 0.642313 0.0135958
0.989517 0.644587 0.0143893
0.999008 0.646677 0.0151675
1 0.648783 0.0158389
0.00274662 0.576944 0.00428778
0.016144 0.581109 0.00511177
0.0298161 0.588205 0.00434882
0.0492714 0.593652 0.00529488
0.0711376 0.599496 0.00624094
0.0962234 0.605585 0.00715648
0.126223 0.611856 0.00775158
0.164248 0.616068 0.00909438
0.213855 0.61767 0.0113527
0.275441 0.61886 0.0130617
0.344244 0.620325 0.0142672
0.420249 0.626505 0.0129397
0.499077 0.634867 0.00881971
0.575631 0.644877 0.00840772
0.637079 0.652262 0.00836194
0.682567 0.657725 0.00827039
0.722103 0.667475 0.00820935
0.758083 0.676066 0.00819409
0.785183 0.669154 0.00822461
0.816846 0.662348 0.00914015
0.841047 0.65539 0.00932326
0.863447 0.654032 0.00906386
0.883558 0.652918 0.00898756
0.901549 0.652628 0.00935378
0.917815 0.652415 0.00987259
0.932967 0.654185 0.010544
0.947555 0.659388 0.0112459
0.961151 0.665171 0.011902
0.970825 0.671138 0.0125887
0.979889 0.673732 0.0132601
0.988998 0.675364 0.0139162
0.998444 0.677302 0.0146487
1 0.679225 0.015259
0.00466926 0.618296 0.00579843
0.0180362 0.622415 0.00665293
0.0319219 0.629191 0.00556954
0.0517586 0.634531 0.0065156
0.0744182 0.63978 0.00756847
0.100587 0.645365 0.00846876
0.132204 0.648875 0.00991836
0.17174 0.650843 0.0120699
0.223026 0.652857 0.0138857
0.285695 0.654658 0.0154269
0.355627 0.656397 0.0161135
0.431968 0.661891 0.0145113
0.507683 0.669078 0.0113222
0.581231 0.678325 0.00929274
0.641642 0.686915 0.00918593
0.690089 0.693584 0.00906386
0.724392 0.697749 0.00894179
0.759335 0.708141 0.00885023
0.789227 0.714763 0.00881971
0.814298 0.710369 0.00886549
0.841596 0.702892 0.00941482
0.86453 0.696818 0.0102693
0.884138 0.694789 0.0102846
0.90219 0.69337 0.0102846
0.918853 0.692485 0.0102083
0.933989 0.69192 0.0106661
0.948196 0.692058 0.0112459
0.96141 0.695399 0.011841
0.970626 0.700236 0.0124361
0.979629 0.702937 0.0130312
0.988708 0.704036 0.013611
0.99794 0.705547 0.0141604
1 0.707088 0.0148013
0.00801099 0.655131 0.00794995
0.0219577 0.658381 0.00877394
0.0385138 0.662074 0.00907912
0.058732 0.666346 0.0102083
0.0817884 0.671351 0.0113527
0.107927 0.676539 0.0120699
0.140047 0.67982 0.013611
0.180926 0.681743 0.0155947
0.233371 0.684092 0.0170443
0.297642 0.686503 0.0180362
0.369451 0.688807 0.0184024
0.444663 0.693431 0.0166934
0.519539 0.700572 0.0126955
0.587945 0.708293 0.0104067
0.646784 0.717159 0.0102083
0.693767 0.724071 0.0100252
0.732235 0.730007 0.00984207
0.760693 0.734386 0.00968948
0.790997 0.744625 0.00956741
0.817212 0.750698 0.00953689
0.839765 0.746654 0.00959792
0.864591 0.739818 0.00987259
0.885756 0.73373 0.011017
0.90277 0.730526 0.0116121
0.91902 0.728573 0.0115663
0.934371 0.727611 0.0115969
0.948791 0.726925 0.01178
0.961624 0.726513 0.0118868
0.97052 0.727642 0.0124361
0.979446 0.729625 0.0130007
0.988327 0.730373 0.0135348
0.997375 0.731731 0.0140383
1 0.733013 0.0146029
0.0155032 0.684153 0.0119936
0.0298009 0.686946 0.0128023
0.046952 0.690242 0.0133974
0.0673991 0.694728 0.0145876
0.0901961 0.699382 0.0155032
0.116365 0.704585 0.016144
0.149386 0.707576 0.0175631
0.191135 0.709895 0.0193332
0.245792 0.712489 0.0206302
0.311513 0.715053 0.0213169
0.384466 0.717891 0.0213779
0.459861 0.722316 0.0194247
0.532876 0.729427 0.0148013
0.596872 0.736233 0.0117494
0.652476 0.744152 0.01149
0.698833 0.751797 0.0112459
0.736294 0.757961 0.0109712
0.767605 0.763485 0.0107271
0.792172 0.767681 0.0104829
0.818631 0.777584 0.0103456
0.841978 0.782788 0.0103151
0.862226 0.77937 0.0103609
0.884932 0.772534 0.010605
0.904768 0.766537 0.0113527
0.92015 0.762753 0.0122683
0.934447 0.760204 0.0128939
0.94873 0.75874 0.0129702
0.960632 0.7579 0.0130312
0.969726 0.757229 0.0132448
0.978637 0.755871 0.0136416
0.987366 0.755566 0.0140993
0.996307 0.756985 0.0146181
1 0.75816 0.0150301
0.0237125 0.710246 0.0165713
0.038407 0.712901 0.0171054
0.0563973 0.716457 0.0180667
0.0766155 0.720562 0.0191958
0.0995499 0.725383 0.0199741
0.126284 0.730251 0.0204623
0.159991 0.733104 0.0219272
0.203311 0.735729 0.0234836
0.260029 0.738369 0.024445
0.327459 0.741436 0.0249638
0.400656 0.744701 0.0245975
0.475563 0.74934 0.0223239
0.546395 0.756313 0.0171969
0.607889 0.762997 0.0130922
0.658686 0.769863 0.0127718
0.702922 0.777447 0.0124208
0.739849 0.783825 0.0120699
0.771557 0.789563 0.0117647
0.797742 0.794232 0.0115053
0.819211 0.798321 0.0112917
0.843336 0.807752 0.0112001
0.864302 0.811856 0.0111543
0.882429 0.808026 0.0112154
0.903334 0.801617 0.011368
0.922026 0.796002 0.011841
0.936614 0.792111 0.0126955
0.949783 0.789303 0.0135348
0.960037 0.787274 0.0140841
0.968856 0.786007 0.0144045
0.977691 0.783703 0.0146639
0.986572 0.78294 0.0148775
0.995392 0.783917 0.0152132
1 0.785092 0.0155337
0.0331121 0.734493 0.0211337
0.0485695 0.737102 0.0219883
0.0668956 0.740749 0.0231479
0.0873426 0.744762 0.0240635
0.109789 0.749981 0.0245212
0.136278 0.755703 0.0245212
0.170535 0.759411 0.0254063
0.214679 0.764126 0.0256352
0.271382 0.769772 0.0248417
0.338949 0.775036 0.0234073
0.413687 0.779736 0.0207675
0.487007 0.783123 0.0175479
0.556435 0.789502 0.0150149
0.615885 0.795224 0.0146181
0.664683 0.800168 0.0140993
0.705455 0.804395 0.0136873
0.741375 0.809369 0.0132601
0.773373 0.814847 0.0128634
0.801205 0.819806 0.0125124
0.823499 0.822828 0.0122377
0.843458 0.826642 0.0120546
0.865568 0.835035 0.0119478
0.88423 0.837766 0.0119173
0.900572 0.833722 0.0119936
0.920027 0.827878 0.0121462
0.937835 0.822522 0.0124056
0.951995 0.818708 0.013077
0.961257 0.815915 0.013611
0.969696 0.813291 0.0141146
0.97792 0.809766 0.0148623
0.986328 0.808377 0.0152743
0.995087 0.809247 0.0155184
1 0.810178 0.0157321
0.0400244 0.762325 0.0242008
0.0550698 0.767208 0.0243534
0.071809 0.773709 0.024033
0.0904097 0.781338 0.023209
0.111971 0.789258 0.0218814
0.138262 0.796704 0.0205844
0.172778 0.801205 0.0202792
0.218662 0.804532 0.0200046
0.27744 0.807126 0.0191196
0.346532 0.808698 0.0175326
0.420645 0.810224 0.0171359
0.49691 0.816419 0.0167239
0.565713 0.821927 0.016434
0.62359 0.826246 0.0160983
0.670588 0.829725 0.01561
0.71017 0.832685 0.0151064
0.744518 0.83534 0.0145418
0.774639 0.838712 0.0139925
0.802487 0.842863 0.0135653
0.827283 0.846922 0.0132143
0.846632 0.848753 0.0129549
0.865431 0.852552 0.0127565
