70 CGC LUTs/Look LUTs/Cubanismo.cube
#Created by: Denver Riddle
#Copyright: (C) Copyright Color Grading Central LLC
#LUT Size
LUT_3D_SIZE 5
0.0140078 0.0206912 0.013611
0.15787 0.0290227 0.0129397
0.589654 0.033341 0.00717174
0.835462 0.0411536 0.0166018
0.959442 0.0651713 0.0261845
0.00613413 0.166064 0.00839246
0.169146 0.174823 0.0126497
0.659159 0.186648 0.0137789
0.884993 0.222583 0.024094
0.999863 0.267597 0.0320287
0.000198367 0.442481 0.00573739
0.19147 0.492409 0.0074464
0.715724 0.505028 0.00733959
0.914229 0.526879 0.00993362
1 0.584512 0.0170291
0.0331121 0.734493 0.0211337
0.271382 0.769772 0.0248417
0.741375 0.809369 0.0132601
0.920027 0.827878 0.0121462
1 0.810178 0.0157321
0.0444343 0.961379 0.0276951
0.318563 0.976104 0.0273289
0.761593 0.973938 0.0200809
0.918547 0.974044 0.0151675
1 0.973739 0.0148165
0.0126192 0.0387121 0.0937819
0.177203 0.0373846 0.0941634
0.618296 0.0295872 0.0797131
0.840177 0.041886 0.0859083
0.96199 0.0661936 0.0963302
0.00743114 0.168612 0.0962234
0.163958 0.187259 0.107622
0.674891 0.187366 0.0955215
0.884642 0.210636 0.0983139
1 0.252949 0.107454
0.00358587 0.457282 0.0918746
0.161028 0.515862 0.086656
0.720714 0.534371 0.0790417
0.915206 0.550698 0.0789044
1 0.605951 0.0855879
0.0208896 0.705898 0.114351
0.2318 0.780804 0.102007
0.739651 0.816617 0.0957961
0.920211 0.827482 0.0794995
1 0.811246 0.0822309
0.04448 0.963821 0.0947738
0.262882 0.979477 0.0939956
0.752163 0.980102 0.0862593
0.918273 0.977142 0.0814527
1 0.976532 0.0894636
0.00802625 0.0731365 0.214481
0.140352 0.0660258 0.210925
0.667109 0.0580453 0.194842
0.866453 0.0635691 0.192813
0.97734 0.0929274 0.203342
0.00575265 0.193088 0.214191
0.133852 0.219348 0.231128
0.713909 0.219684 0.218402
0.901091 0.239902 0.223468
0.9991 0.286625 0.249912
0.00375372 0.486473 0.236698
0.124498 0.541863 0.25536
0.683116 0.575128 0.267857
0.900725 0.598993 0.268849
1 0.628656 0.276509
0.0204776 0.814359 0.289708
0.138125 0.813123 0.27982
0.695186 0.819532 0.250889
0.911116 0.831037 0.238758
1 0.823453 0.251789
0.0409857 0.988739 0.303349
0.153429 0.987869 0.277974
0.696223 1 0.239902
0.90779 0.981277 0.252705
1 0.979019 0.24947
0.00505074 0.101701 0.315862
0.12282 0.0955215 0.310155
0.625742 0.0939498 0.29836
0.87631 0.0937667 0.2925
0.973907 0.126024 0.318898
0.00654612 0.229145 0.320089
0.126131 0.251606 0.335225
0.681132 0.260304 0.330892
0.907454 0.283803 0.347417
1 0.330724 0.373236
0.00575265 0.508659 0.340307
0.126711 0.5617 0.363439
0.626307 0.586847 0.384054
0.909972 0.601511 0.385977
1 0.646738 0.39678
0.0212406 0.794125 0.388312
0.138048 0.814786 0.398718
0.578576 0.826291 0.40293
0.898558 0.841001 0.399023
0.997543 0.845457 0.399908
0.0394141 0.959915 0.424796
0.151064 0.974411 0.42623
0.428229 0.9897 0.413397
0.892546 0.990051 0.382177
0.999954 0.983276 0.386297
0.00489815 0.130755 0.395132
0.111666 0.125261 0.388022
0.606439 0.11667 0.380957
0.867887 0.13283 0.394125
0.985443 0.164858 0.43183
0.0104677 0.269535 0.405905
0.130831 0.2916 0.42092
0.633661 0.276585 0.423758
0.913527 0.307317 0.445533
1 0.358053 0.47071
0.0104524 0.557198 0.426032
0.131701 0.600458 0.445869
0.582391 0.610422 0.461631
0.900832 0.612024 0.473121
1 0.647959 0.482826
0.0243534 0.799847 0.46273
0.140703 0.817655 0.472328
0.557885 0.814649 0.471397
0.890425 0.836591 0.474388
1 0.838453 0.480491
0.0399176 0.949416 0.489158
0.151095 0.956725 0.490623
0.465965 0.958373 0.486976
0.876814 0.970291 0.483635
0.999039 0.987793 0.483421
