70 CGC LUTs/Look LUTs/Drive.cube
#Created by: Denver Riddle
#Copyright: (C) Copyright Color Grading Central LLC
#LUT Size
LUT_3D_SIZE 9
0.00392157 0.00392157 0.00392157
0.057023 0.00392157 0.00392157
0.13991 0 0.00392157
0.232441 0 0.00392157
0.339681 0 0.00392157
0.459434 0 0
0.582864 0 0
0.71191 0 0
0.835294 0 0
0 0.0450599 0.00392157
0.043473 0.0380713 0.00392157
0.134401 0.0279545 0.00392157
0.230274 0.0150912 0.00392157
0.335882 0 0.00392157
0.449134 0 0
0.571038 0 0
0.692744 0 0
0.84065 0 0
0.011429 0.135821 0.000717174
0.0794385 0.124926 0.00402838
0.147311 0.119554 0.00392157
0.224475 0.100389 0.00392157
0.320943 0.0691539 0.00392157
0.440772 0.0224002 0
0.568383 0 0
0.695048 0 0
0.842161 0 0
0.0734722 0.211261 0
0.118593 0.20116 0.00215152
0.181857 0.198016 0
0.245258 0.18967 0
0.333074 0.163439 0
0.447486 0.12285 0
0.579538 0.0681315 0
0.722225 0.00105287 0
0.886961 0 0
0.125643 0.291463 0
0.152636 0.285634 0
0.21416 0.283589 0
0.280217 0.291447 0
0.367163 0.280934 0
0.481224 0.245197 0
0.602579 0.194217 0
0.747936 0.135225 0
0.92224 0.02533 0
0.166079 0.405859 0
0.189731 0.402457 0
0.258122 0.399008 0
0.332494 0.409689 0
0.414343 0.418433 0
0.515373 0.39913 0
0.633646 0.354635 0
0.775433 0.276234 0
0.953552 0.206683 0
0.22385 0.528389 0
0.241077 0.523842 0
0.299702 0.523934 0
0.384863 0.531746 0
0.472587 0.539635 0
0.551263 0.551492 0
0.649058 0.532113 0
0.805844 0.445014 0
0.980392 0.348043 0
0.11667 0.697429 0
0.165927 0.687663 0
0.262837 0.687434 0
0.362188 0.692027 0
0.475624 0.696147 0
0.581735 0.700221 0
0.676463 0.711543 0
0.789731 0.687984 0
0.968429 0.592813 0
0 0.827451 0
0 0.827741 0
0 0.827741 0
0.00607309 0.824033 0
0.295338 0.831739 0
0.502419 0.843473 0
0.697032 0.867247 0
0.84506 0.902388 0
0.976471 0.941176 0.113725
0.00392157 0.00392157 0.0406195
0.0513008 0.00486763 0.0397345
0.16112 0.00108339 0.0378576
0.270176 0 0.0377356
0.388891 0 0.0371252
0.51281 0 0.0328832
0.628305 0 0.0280003
0.748882 0 0.0203555
0.868574 0 0.00772107
0 0.0562753 0.0480659
0.0310674 0.0661784 0.057435
0.16083 0.0606088 0.0533303
0.263325 0.0508278 0.0466621
0.374868 0.0191348 0.0381628
0.491951 0 0.0277562
0.608179 0 0.0198367
0.72575 0 0.0109255
0.864286 0 0.00215152
0 0.178714 0.0306859
0.00579843 0.171206 0.031693
0.162722 0.150835 0.0432593
0.252506 0.134997 0.039765
0.354147 0.106737 0.0305791
0.474022 0.067277 0.0211643
0.598291 0.0061799 0.0134279
0.722774 0 0.00682078
0.863844 0 0.000946059
0.00015259 0.252659 0.0136721
0.042298 0.239551 0.0196384
0.178759 0.227176 0.0311894
0.265553 0.216556 0.0310063
0.36173 0.192218 0.024033
0.478157 0.150973 0.0193027
0.613901 0.1066 0.0118563
0.754589 0.0338293 0.00639353
0.912261 0 0.00202945
0.0437476 0.323156 0.00227359
0.112245 0.311955 0.00543221
0.211307 0.305089 0.0145724
0.29369 0.31632 0.0122225
0.393454 0.305562 0.00650034
0.507485 0.271946 0.00657664
0.631128 0.223316 0.00663767
0.775769 0.170962 0.00215152
0.941207 0.102754 0
0.137728 0.427466 0
0.169726 0.422477 0
0.255421 0.41828 0
0.341161 0.427085 0
0.429282 0.440681 0
0.534585 0.423468 0
0.654643 0.380148 0
0.798856 0.304143 0
0.966079 0.245686 0
0.204868 0.54316 0
0.227085 0.537728 0
0.294606 0.538979 0
0.386633 0.545846 0
0.481498 0.554177 0
0.56614 0.569635 0
0.66772 0.552453 0
0.820188 0.466361 0
0.989273 0.372778 0
0.0999161 0.705608 0
0.153735 0.697154 0
0.259953 0.695415 0
0.36318 0.700053 0
0.481956 0.704387 0
0.595041 0.712276 0
0.691112 0.723781 0
0.802243 0.70251 0
0.973495 0.601495 0
0 0.845182 0
0 0.839017 0
0 0.831724 0
0.00807202 0.826215 0
0.294133 0.831601 0
0.500832 0.843183 0
0.69514 0.865888 0
0.842802 0.900832 0
0.975677 0.939712 0.110201
0 0.00790417 0.0961471
0.0192569 0.0103914 0.104128
0.153994 0.00740063 0.110643
0.264485 0.00393683 0.114931
0.385657 0 0.114046
0.523384 0 0.106676
0.650919 0 0.10251
0.77319 0 0.095491
0.894957 0 0.0857252
0 0.0578775 0.110674
0.00273136 0.0681315 0.125795
0.136324 0.0701457 0.140581
0.263691 0.0678569 0.134981
0.38613 0.0367742 0.120455
0.515312 0 0.109926
0.635889 0 0.101534
0.754574 0 0.0907149
0.890196 0 0.0731518
0 0.176303 0.156786
0 0.180102 0.159289
0.101015 0.183017 0.16405
0.264698 0.171679 0.159106
0.387732 0.150652 0.14078
0.515724 0.121828 0.123064
0.639002 0.0776226 0.108354
0.759564 0.00515755 0.0953536
0.895109 0 0.0759899
0 0.294697 0.129809
0 0.292134 0.125765
0.0436103 0.286427 0.135714
0.247883 0.275395 0.141634
0.399695 0.250126 0.139651
0.524666 0.215213 0.128603
0.65594 0.187655 0.114351
0.787518 0.147601 0.103075
0.937713 0.0560159 0.0931258
0 0.400488 0.0690013
0 0.391394 0.0702373
0.029984 0.385504 0.0870222
0.27512 0.379507 0.117601
0.424552 0.366659 0.119219
0.550469 0.341176 0.113924
0.670237 0.294575 0.107866
0.808499 0.253513 0.092134
0.962325 0.218967 0.0845502
0 0.49839 0.0312047
0 0.491096 0.0391546
0.132586 0.481712 0.0706951
0.318883 0.482033 0.0875257
0.462562 0.489601 0.0902876
0.57377 0.478279 0.076524
0.691478 0.441123 0.0745556
0.828122 0.372793 0.0667887
0.981857 0.333822 0.0589303
0.0309453 0.594644 0
0.0766766 0.588891 0.000808728
0.231952 0.585245 0.0122683
0.370611 0.585275 0.047776
0.495079 0.591577 0.0472572
0.597543 0.609018 0.0107576
0.703029 0.599435 0
0.847578 0.525078 0.00874342
0.998993 0.447456 0.00437934
0 0.731319 0
0.0539712 0.725155 0
0.231586 0.722103 0
0.358953 0.725811 0
0.493248 0.727886 0
0.618616 0.735836 0
0.724025 0.75111 0
0.829679 0.741695 0
0.986954 0.639109 0
0 0.894972 0
0 0.889433 0
0 0.887633 0
0.0122835 0.888167 0
0.334249 0.882338 0
0.523857 0.860822 0
0.69929 0.866346 0
0.847059 0.901183 0
0.97792 0.939712 0.120012
0 0.0119783 0.139879
0.00500496 0.0157626 0.150576
0.100908 0.0196994 0.173037
0.251194 0.0124971 0.175555
0.382544 0.000549325 0.176226
0.509483 0 0.173281
0.654231 0 0.169024
0.789136 0 0.156313
0.907744 0 0.143893
0 0.065568 0.165591
0 0.0715953 0.174945
0.0763561 0.0766308 0.192889
0.237293 0.0721141 0.200534
0.377676 0.0607156 0.188785
0.5066 0.0206607 0.179217
0.641459 0 0.166415
0.766979 0 0.152728
0.904265 0 0.137438
0 0.163592 0.218677
0 0.165866 0.222721
0.0319066 0.178607 0.238911
0.212024 0.182284 0.243183
0.385855 0.169131 0.230213
0.52958 0.138766 0.207294
0.656703 0.0895399 0.188067
0.7776 0.0102693 0.170245
0.909972 0 0.150454
0 0.286717 0.249485
0 0.285206 0.247715
0 0.300786 0.257023
0.181323 0.303044 0.263523
0.407202 0.284566 0.256764
0.556191 0.260227 0.240238
0.687373 0.234974 0.222324
0.816464 0.199557 0.202243
0.952667 0.123323 0.17882
0 0.431861 0.204669
0 0.428687 0.198734
0 0.436454 0.205493
0.0868544 0.441993 0.22649
0.394171 0.43122 0.235142
0.579156 0.403494 0.239231
0.700328 0.368643 0.227359
0.829892 0.333959 0.203632
0.969421 0.294911 0.183825
0 0.556649 0.139727
0 0.551705 0.139956
0 0.555749 0.147936
0.0535439 0.555734 0.171481
0.458808 0.536309 0.212039
0.594583 0.529488 0.203571
0.716289 0.500633 0.195956
0.845426 0.442481 0.18349
0.984833 0.408225 0.167956
0 0.659297 0.0735027
0 0.653971 0.0810407
0 0.648066 0.110369
0.270024 0.637964 0.144808
0.479606 0.635019 0.167163
0.622354 0.645563 0.164706
0.727626 0.638422 0.14435
0.86067 0.576028 0.14406
1 0.517555 0.128237
0 0.76466 0
0 0.758892 0.000183108
0.0533303 0.756451 0.00292973
0.301915 0.75845 0.0286107
0.475898 0.754925 0.0815595
0.625315 0.755474 0.101244
0.746883 0.773861 0.0641794
0.8486 0.770748 0.00555428
0.995636 0.686519 0.000915541
0 0.910414 0
0 0.906538 0
0 0.906203 0
0 0.910277 0
0.319585 0.906386 0
0.552056 0.902647 0
0.739116 0.894606 0
0.849027 0.90251 0
0.980392 0.941176 0.137758
0 0.0197452 0.190906
0 0.0230716 0.198688
0.0553445 0.0301366 0.228779
0.188815 0.0337835 0.243915
0.361013 0.0124971 0.245319
0.51017 0 0.242954
0.640009 0 0.243519
0.788647 0 0.234058
0.920272 0 0.213092
0 0.073991 0.221302
0 0.0771344 0.229877
0.0249332 0.0816052 0.246937
0.16875 0.0825208 0.263005
0.355642 0.0659953 0.261814
0.507073 0.042649 0.253071
0.628656 0.00505074 0.245853
0.768994 0 0.22948
0.916655 0 0.204776
0 0.157961 0.277043
0 0.161975 0.281041
0 0.171893 0.298421
0.137011 0.176532 0.312398
0.339666 0.171603 0.312505
0.523262 0.157382 0.297246
0.648722 0.126772 0.276814
0.784344 0.0361028 0.25095
0.92195 0 0.221241
0 0.259968 0.333425
0 0.261219 0.333852
0 0.277867 0.355398
0.0701915 0.293736 0.371237
0.332509 0.298955 0.372534
0.553002 0.288136 0.361532
0.695659 0.262501 0.335744
0.828595 0.215686 0.304112
0.960678 0.135195 0.260975
0 0.419013 0.363882
0 0.417029 0.361791
0 0.438666 0.375952
0 0.465705 0.395361
0.32018 0.461891 0.403372
0.578302 0.442969 0.399329
0.719524 0.419303 0.379156
0.848844 0.387106 0.343938
0.976791 0.333272 0.297337
0 0.583947 0.321141
0 0.584527 0.320043
0 0.600122 0.318456
0 0.609476 0.331945
0.270222 0.60293 0.350439
0.55993 0.583597 0.36376
0.731487 0.55552 0.367361
0.856397 0.52018 0.343572
0.984588 0.478218 0.301106
0 0.704219 0.230488
0 0.700526 0.22916
0 0.702235 0.23508
0 0.711986 0.248005
0.273381 0.703655 0.280812
0.629343 0.680446 0.332082
0.742611 0.680583 0.311727
0.867765 0.633783 0.303914
0.996292 0.5879 0.268833
0 0.802625 0.126268
0 0.798184 0.12842
0 0.801572 0.13817
0 0.80119 0.163073
0.378454 0.790005 0.209262
0.609644 0.785794 0.244175
0.758648 0.789548 0.253178
0.864225 0.797452 0.21387
0.995911 0.73611 0.189944
0 0.922011 0
0 0.918929 0
0 0.918654 0
0 0.921874 0
0.180438 0.921904 9.15541e-05
0.509621 0.921294 0.00779736
0.735714 0.917952 0.0910506
0.879759 0.921767 0.038468
0.984314 0.945098 0.161425
0 0.0290684 0.247623
0 0.0329747 0.258625
0.00216678 0.0446479 0.288624
0.125399 0.0495918 0.320287
0.285435 0.0465095 0.328054
0.482139 0.00303655 0.323903
0.640284 0 0.324666
0.773648 0 0.320638
0.919066 0 0.297337
0 0.0824445 0.287312
0 0.082887 0.292332
0 0.0891127 0.309422
0.100114 0.0902266 0.335302
0.266438 0.0862593 0.34255
0.477104 0.0550546 0.333471
0.634714 0.0139467 0.329778
0.755978 0 0.320516
0.91783 0 0.290105
0 0.16112 0.344564
0 0.16321 0.349264
0 0.170916 0.363867
0.0253605 0.173373 0.379477
0.239918 0.172885 0.387411
0.490455 0.152285 0.38349
0.647669 0.141375 0.37052
0.76878 0.106401 0.351339
0.927367 0.00213626 0.312505
0 0.249027 0.401892
0 0.247547 0.402655
0 0.262425 0.420676
0 0.276799 0.444419
0.229892 0.283101 0.454337
0.494347 0.281041 0.452262
0.687449 0.281453 0.441047
0.816693 0.254246 0.413779
0.964675 0.162539 0.359487
0 0.382101 0.460182
0 0.382849 0.460868
0 0.402502 0.48043
0 0.433463 0.507485
0.186191 0.44622 0.516411
0.505364 0.449729 0.515755
0.704265 0.441794 0.50074
0.848737 0.406775 0.465354
0.980713 0.340795 0.407034
0 0.567956 0.497383
0 0.568826 0.498161
0 0.586313 0.509804
0 0.606714 0.524361
0.00766003 0.629557 0.536736
0.491814 0.613748 0.536278
0.726574 0.590555 0.531716
0.860044 0.559274 0.500694
0.988235 0.508659 0.44564
0 0.720455 0.457786
0 0.719829 0.453468
0 0.729335 0.453513
0 0.747021 0.453407
0 0.7467 0.461158
0.460945 0.735164 0.475227
0.720577 0.719127 0.492348
0.867399 0.684581 0.495628
0.987991 0.649821 0.437522
0 0.821164 0.300099
0 0.818036 0.300832
0 0.825727 0.299214
0 0.832227 0.307881
0.000289921 0.832792 0.326223
0.460777 0.824689 0.366308
0.761822 0.809354 0.420981
0.872053 0.817029 0.394293
0.995697 0.770626 0.358724
0 0.937255 0.122362
0 0.934325 0.120653
0 0.93434 0.126482
0 0.937545 0.136736
0.00425727 0.93724 0.160098
0.447532 0.933333 0.199298
0.720302 0.929412 0.258213
0.887663 0.9299 0.304753
0.988235 0.94902 0.277272
0 0.0410773 0.319921
0 0.047013 0.328618
0 0.0566873 0.357931
0.0142367 0.0681926 0.395987
0.189746 0.0726329 0.423804
0.380652 0.0568399 0.427756
0.593652 0.00129702 0.422919
0.766873 0 0.41532
0.905882 0 0.399023
0 0.0884718 0.35967
0 0.090135 0.363867
0 0.0974594 0.380499
0.00256352 0.101472 0.406806
0.173709 0.100191 0.427695
0.374258 0.0857557 0.431205
0.586618 0.0389258 0.420203
0.758053 0 0.41088
0.904341 0 0.390112
0 0.165301 0.422965
0 0.16495 0.423148
0 0.171801 0.433829
0 0.172717 0.448295
0.136858 0.170336 0.460685
0.354894 0.160113 0.464912
0.605005 0.137652 0.457603
0.771466 0.114397 0.446036
0.917464 0.0431525 0.421271
0 0.24062 0.470008
0 0.240314 0.469322
0 0.249531 0.485512
0 0.267918 0.506416
0.0656596 0.271687 0.525261
0.35877 0.272984 0.535241
0.647471 0.257862 0.527291
0.816266 0.262196 0.515389
0.952743 0.216388 0.473075
0 0.350027 0.522118
0 0.352697 0.524575
0 0.371283 0.543282
0 0.398596 0.571221
0 0.422705 0.59469
0.362692 0.425513 0.5944
0.644038 0.422217 0.586892
0.8365 0.422171 0.574334
0.97261 0.368383 0.520958
0 0.512612 0.586831
0 0.514687 0.586679
0 0.530327 0.600458
0 0.555428 0.621973
0 0.582361 0.641337
0.350668 0.590585 0.644968
0.657221 0.590524 0.641154
0.844938 0.578759 0.621576
0.988022 0.516442 0.563668
0 0.700221 0.625696
0 0.698039 0.62324
0 0.709621 0.630884
0 0.731731 0.648814
0 0.746883 0.660151
0.238041 0.757839 0.667887
0.681544 0.738643 0.664149
0.863844 0.719265 0.656382
0.984314 0.67631 0.598077
0 0.833005 0.54696
0 0.833432 0.544274
0 0.837507 0.544457
0 0.847654 0.54287
0 0.856153 0.539025
0.0146944 0.85948 0.543221
0.656107 0.844541 0.57438
0.875608 0.836454 0.609644
0.988174 0.805417 0.559091
0 0.94081 0.306371
0 0.938003 0.30486
0 0.940169 0.305348
0 0.945586 0.312749
0 0.949035 0.31722
0.250156 0.948989 0.32929
0.692226 0.937728 0.384054
0.891371 0.937636 0.469703
0.992157 0.953185 0.419364
0 0.0562142 0.435782
0 0.0590372 0.443519
0 0.0687419 0.469108
0 0.0840009 0.505272
0.00184634 0.0961013 0.538872
0.164614 0.103044 0.569223
0.387304 0.0895552 0.578164
0.66923 0.00457771 0.570779
0.883757 0 0.543389
0 0.0958267 0.465721
0 0.0956283 0.466331
0 0.104936 0.484184
0 0.113054 0.509255
0 0.119768 0.534142
0.169787 0.12166 0.552987
0.398215 0.103273 0.559197
0.667994 0.0271916 0.548257
0.88867 0 0.521767
0 0.165377 0.518395
0 0.165316 0.515511
0 0.172 0.52845
0 0.177813 0.545571
0 0.179339 0.559853
0.151934 0.175921 0.573465
0.413306 0.156619 0.579248
0.689174 0.122316 0.574884
0.907179 0.0673838 0.554955
0 0.232715 0.561959
0 0.232975 0.557794
0 0.241123 0.571908
0 0.259205 0.598596
0 0.268055 0.619577
0.109941 0.264897 0.632761
0.401663 0.253391 0.640558
0.733745 0.230716 0.640772
0.944945 0.231128 0.617777
0 0.322271 0.603952
0 0.326192 0.606638
0 0.342275 0.624933
0 0.363378 0.653223
0 0.391394 0.681254
0.00418097 0.398566 0.696178
0.401526 0.390402 0.696483
0.753796 0.375723 0.68838
0.961089 0.390967 0.665354
0 0.457221 0.665141
0 0.458228 0.662608
0 0.47216 0.676326
0 0.496529 0.69958
0 0.527245 0.722927
0 0.551293 0.738796
0.409033 0.546899 0.738735
0.79057 0.539651 0.730877
0.968627 0.543374 0.707774
0 0.614069 0.712337
0 0.614694 0.711711
0 0.624964 0.719783
0 0.645762 0.734783
0 0.672648 0.750378
0 0.699733 0.762234
0.435599 0.715496 0.769665
0.839246 0.703716 0.765896
0.97261 0.692271 0.742672
0 0.813718 0.747066
0 0.813626 0.745022
0 0.81976 0.750881
0 0.832517 0.761624
0 0.847898 0.769863
0 0.85977 0.781109
0.434669 0.867292 0.785489
0.848447 0.859388 0.796918
0.980529 0.836408 0.7738
0 0.941787 0.612207
0 0.940871 0.60647
0 0.942946 0.60679
0 0.949187 0.608804
0 0.953124 0.605509
0 0.960784 0.597375
0.34638 0.960983 0.585397
0.870787 0.949187 0.658274
0.992157 0.960784 0.674174
0 0.0666667 0.627451
0 0.0704814 0.635187
0 0.0804608 0.655207
0 0.0958267 0.677562
0 0.11284 0.704997
0 0.132113 0.732403
0.00273136 0.143908 0.759167
0.332723 0.135668 0.781186
0.721569 0 0.788235
0 0.103975 0.642664
0 0.10312 0.648432
0 0.110597 0.664546
0 0.123949 0.685863
0 0.134554 0.709911
0 0.148455 0.735912
0.0103761 0.159014 0.753491
0.264775 0.155978 0.769711
0.7149 0.0388495 0.770092
0 0.165011 0.676631
0 0.161639 0.678111
0 0.168475 0.682551
0 0.178805 0.700053
0 0.18822 0.717433
0 0.196765 0.736904
0.0124056 0.205524 0.75462
0.248005 0.20209 0.773892
0.724056 0.125597 0.785657
0 0.220096 0.712016
0 0.220661 0.708995
0 0.228946 0.71519
0 0.243809 0.736538
0 0.260746 0.760128
0 0.276677 0.784054
4.57771e-05 0.28867 0.803891
0.21207 0.288411 0.819638
0.769284 0.230304 0.830976
0 0.295186 0.747967
0 0.297902 0.746914
0 0.311635 0.757443
0 0.331441 0.777432
0 0.355566 0.796689
0 0.382712 0.812848
0 0.402686 0.832212
0.198505 0.398291 0.843778
0.827756 0.34786 0.851286
0 0.402472 0.792859
0 0.402213 0.787259
0 0.414099 0.793683
0 0.434195 0.808774
0 0.465019 0.824048
0 0.496727 0.839734
0 0.524086 0.855375
0.189517 0.527291 0.866941
0.863844 0.480644 0.866941
0 0.532479 0.831983
0 0.533288 0.826749
0 0.543267 0.830976
0 0.559121 0.839612
0 0.582742 0.847715
0 0.614343 0.859281
0 0.653544 0.871015
0.135393 0.671901 0.886152
0.917861 0.621973 0.882567
0 0.732845 0.867155
0 0.727886 0.862318
0 0.733974 0.862699
0 0.747478 0.870863
0 0.763058 0.874815
0 0.782498 0.878981
0 0.80589 0.890349
0.295781 0.828565 0.898314
0.94963 0.797925 0.898344
0 0.933333 0.890196
0 0.9308 0.886488
0 0.934722 0.890257
0 0.941649 0.894591
0 0.94934 0.89836
0 0.960784 0.905882
0 0.968627 0.910063
0.558633 0.972549 0.917647
0.992157 0.968627 0.92549
