70 CGC LUTs/Look LUTs/Drive.cube
#Created by: Denver Riddle
#Copyright: (C) Copyright Color Grading Central LLC
#LUT Size
LUT_3D_SIZE 33
0.00392157 0.00392157 0.00392157
0.00436408 0.00392157 0.00392157
0.0111086 0.00392157 0.00392157
0.0300908 0.00392157 0.00392157
0.057023 0.00392157 0.00392157
0.0803082 0.00392157 0.00392157
0.100999 0.000991836 0.00392157
0.120653 0 0.00392157
0.13991 0 0.00392157
0.16173 0 0.00392157
0.183932 0 0.00392157
0.20827 0 0.00392157
0.232441 0 0.00392157
0.256687 0 0.00392157
0.283375 0 0.00392157
0.311238 0 0.00392157
0.339681 0 0.00392157
0.36788 0 0.00282292
0.398688 0 0.000808728
0.428305 0 0
0.459434 0 0
0.491371 0 0
0.521431 0 0
0.551522 0 0
0.582864 0 0
0.614527 0 0
0.646052 0 0
0.678157 0 0
0.71191 0 0
0.746761 0 0
0.784512 0 0
0.824247 0 0
0.835294 0 0
0.00392157 0.00831617 0.00392157
0.00784314 0.00833143 0.00392157
0.0137636 0.00836194 0.00392157
0.0303044 0.00653086 0.00392157
0.0570382 0.00445563 0.00392157
0.0805982 0.00450141 0.00392157
0.101442 0.00172427 0.00392157
0.120638 0.000976577 0.00392157
0.14049 0.000274662 0.00392157
0.162371 0 0.00392157
0.184588 0 0.00392157
0.209003 0 0.00392157
0.232975 0 0.00392157
0.257755 0 0.00392157
0.284276 0 0.00392157
0.31136 0 0.00392157
0.339559 0 0.00392157
0.36762 0 0.00282292
0.397986 0 0.000823987
0.42945 0 0
0.459159 0 0
0.48986 0 0
0.519783 0 0
0.550103 0 0
0.580606 0 0
0.611627 0 0
0.643488 0 0
0.675105 0 0
0.707607 0 0
0.741863 0 0
0.77911 0 0
0.818677 0 0
0.835294 0 0
0.00392157 0.0140383 0.00392157
0.00444038 0.0141299 0.00392157
0.0110323 0.0141299 0.00392157
0.0270237 0.0122683 0.00392157
0.0512551 0.0102388 0.00392157
0.0771954 0.00943008 0.00392157
0.0999161 0.00726329 0.00392157
0.118166 0.00581369 0.00392157
0.139605 0.00404364 0.00392157
0.161761 0.00256352 0.00392157
0.183948 0.00218204 0.00392157
0.208286 0.00109865 0.00392157
0.233829 0 0.00392157
0.258335 0 0.00392157
0.283207 0 0.00392157
0.309773 0 0.00392157
0.339269 0 0.00392157
0.368658 0 0.0027924
0.39704 0 0.000854505
0.427176 0 0
0.456367 0 0
0.486122 0 0
0.517021 0 0
0.547387 0 0
0.578271 0 0
0.608804 0 0
0.639796 0 0
0.67155 0 0
0.702571 0 0
0.736171 0 0
0.773007 0 0
0.811963 0 0
0.83624 0 0
0.002121 0.0268406 0.00392157
0.00260929 0.0267185 0.00392157
0.00892653 0.0250706 0.00392157
0.0229801 0.0232547 0.00392157
0.0445869 0.02121 0.00392157
0.0700236 0.0186007 0.00392157
0.09308 0.0163119 0.00392157
0.114611 0.0147402 0.00392157
0.136797 0.0130922 0.00392157
0.160327 0.0102693 0.00392157
0.183383 0.00936904 0.00392157
0.207294 0.00773632 0.00392157
0.231434 0.00349432 0.00392157
0.255375 0 0.00392157
0.282689 0 0.00392157
0.310689 0 0.00392157
0.338842 0 0.00392157
0.368109 0 0.00282292
0.395819 0 0.000823987
0.423041 0 0
0.453346 0 0
0.483375 0 0
0.514488 0 0
0.544274 0 0
0.57377 0 0
0.605173 0 0
0.636301 0 0
0.665644 0 0
0.696941 0 0
0.730449 0 0
0.766751 0 0
0.805142 0 0
0.83798 0 0
0 0.0450599 0.00392157
0.000579843 0.0448768 0.00392157
0.00755322 0.0427558 0.00392157
0.0231022 0.0403601 0.00392157
0.043473 0.0380713 0.00392157
0.0661631 0.0344701 0.00392157
0.0888228 0.032639 0.00392157
0.111849 0.0308232 0.00392157
0.134401 0.0279545 0.00392157
0.157259 0.0249638 0.00392157
0.180911 0.0225376 0.00392157
0.205585 0.0197604 0.00392157
0.230274 0.0150912 0.00392157
0.254231 0.00933852 0.00392157
0.28014 0.00479133 0.00392157
0.308553 0 0.00392157
0.335882 0 0.00392157
0.363256 0 0.0037995
0.391241 0 0.00239567
0.420096 0 0
0.449134 0 0
0.480125 0 0
0.510674 0 0
0.541085 0 0
0.571038 0 0
0.601465 0 0
0.632441 0 0
0.661952 0 0
0.692744 0 0
0.726894 0 0
0.761349 0 0
0.799283 0 0
0.84065 0 0
0 0.0686809 0.00392157
0.000701915 0.0681163 0.00392157
0.00891127 0.0652934 0.00392157
0.0292821 0.0629129 0.00392157
0.0504311 0.0588235 0.00392157
0.0686961 0.0585031 0.00392157
0.0890364 0.0571145 0.00392157
0.111513 0.0519265 0.00392157
0.134142 0.0480812 0.00392157
0.157473 0.0449378 0.00392157
0.180499 0.040589 0.00392157
0.203647 0.0359655 0.00392157
0.227253 0.0323033 0.00392157
0.250721 0.0278325 0.00392157
0.277653 0.0201572 0.00392157
0.304982 0.0121157 0.00392157
0.332113 0.00520333 0.00392157
0.359258 0 0.00392157
0.386618 0 0.0031281
0.41471 0 0
0.445502 0 0
0.478431 0 0
0.509087 0 0
0.538949 0 0
0.566857 0 0
0.597543 0 0
0.630457 0 0
0.660731 0 0
0.691142 0 0
0.725048 0 0
0.759121 0 0
0.79675 0 0
0.837415 0 0
0.000396735 0.0910506 0.00392157
0.005066 0.0901198 0.00392157
0.0165408 0.0869001 0.00392157
0.0353857 0.0842908 0.00392157
0.0557717 0.0816358 0.00392157
0.0780804 0.0815747 0.00392157
0.096437 0.0787366 0.00392157
0.115618 0.0747539 0.00392157
0.134874 0.0713359 0.00392157
0.157519 0.068101 0.00392157
0.179965 0.0632792 0.00392157
0.201221 0.0582284 0.00392157
0.223743 0.0539254 0.00392157
0.248356 0.0472114 0.00392157
0.274968 0.0391546 0.00392157
0.300282 0.0306859 0.00392157
0.327199 0.0226139 0.00392157
0.354467 0.0143435 0.00392157
0.384054 0.00538643 0.00343328
0.411185 0 0
0.44181 0 0
0.473594 0 0
0.506615 0 0
0.537011 0 0
0.566278 0 0
0.596521 0 0
0.628153 0 0
0.660609 0 0
0.691157 0 0
0.724926 0 0
0.759014 0 0
0.796048 0 0
0.836103 0 0
0.00769055 0.112398 0.00392157
0.0117952 0.111666 0.00392157
0.0223239 0.110201 0.00392157
0.0437934 0.107042 0.00392157
0.0687114 0.102861 0.0041352
0.0908675 0.10135 0.00416571
0.10547 0.100465 0.00396735
0.118502 0.0997787 0.00392157
0.137316 0.0969253 0.00392157
0.158755 0.0918288 0.00392157
0.179828 0.085771 0.00392157
0.200702 0.0806897 0.00392157
0.222827 0.0762036 0.00392157
0.246891 0.0693065 0.00392157
0.271534 0.0613107 0.00392157
0.297765 0.0550698 0.00392157
0.322652 0.0468452 0.00392157
0.351965 0.0381476 0.00392157
0.37995 0.0258335 0.00363165
0.409308 0.012726 0
0.439872 0.00492866 0
0.472724 3.0518e-05 0
0.50695 0 0
0.537377 0 0
0.567666 0 0
0.59794 0 0
0.628107 0 0
0.661555 0 0
0.692866 0 0
0.726223 0 0
0.760311 0 0
0.798077 0 0
0.837552 0 0
0.011429 0.135821 0.000717174
0.0155489 0.134661 0.00241093
0.030045 0.131899 0.00392157
0.0547799 0.128771 0.00392157
0.0794385 0.124926 0.00402838
0.0978714 0.12314 0.00404364
0.115038 0.122713 0.00393683
0.129534 0.122393 0.00392157
0.147311 0.119554 0.00392157
0.16585 0.114031 0.00392157
0.182925 0.108934 0.00392157
0.201678 0.104921 0.00392157
0.224475 0.100389 0.00392157
0.246784 0.0931563 0.00392157
0.269993 0.0848249 0.00392157
0.294957 0.0772259 0.00392157
0.320943 0.0691539 0.00392157
0.351232 0.0605325 0.00373846
0.380102 0.0484169 0.00157168
0.410498 0.0345464 0
0.440772 0.0224002 0
0.473213 0.010193 0
0.507454 0.000610361 0
0.537987 0 0
0.568383 0 0
0.600061 0 0
0.630594 0 0
0.663035 0 0
0.695048 0 0
0.728756 0 0
0.763592 0 0
0.802655 0 0
0.842161 0 0
0.032578 0.154162 0.00205997
0.0372778 0.153323 0.00364691
0.0504463 0.150637 0.00392157
0.0690013 0.148241 0.00392157
0.0880293 0.145861 0.00392157
0.106722 0.144701 0.00392157
0.126055 0.14403 0.00392157
0.143221 0.141726 0.00392157
0.157412 0.140002 0.00392157
0.172122 0.136538 0.00392157
0.186603 0.132692 0.00291447
0.204486 0.128527 0.00256352
0.227451 0.122515 0.00392157
0.248783 0.115206 0.00392157
0.271916 0.106676 0.00392157
0.295613 0.0980697 0.00392157
0.322332 0.0898451 0.00392157
0.350988 0.0812695 0.00367742
0.381369 0.0708934 0
0.411765 0.0587472 0
0.442527 0.0481117 0
0.472923 0.0335699 0
0.506905 0.0138857 0
0.537621 0.00573739 0
0.568017 0.000671397 0
0.601907 0 0
0.633082 0 0
0.664302 0 0
0.697871 0 0
0.732403 0 0
0.769558 0 0
0.808545 0 0
0.849424 0 0
0.0415961 0.175158 0.000579843
0.0458686 0.174228 0.00102235
0.0578164 0.171298 0.00123598
0.0757153 0.168307 0.00144961
0.0953384 0.166522 0.00352483
0.11722 0.163699 0.00392157
0.136889 0.162829 0.00392157
0.152056 0.161059 0.00392157
0.164767 0.160418 0.00271611
0.178058 0.159182 0.00210575
0.192828 0.15581 0.00115969
0.21088 0.150774 0.000869764
0.232715 0.144961 0.00204471
0.253849 0.137697 0.00207523
0.27509 0.12929 0.00231937
0.298833 0.121798 0.00238041
0.325414 0.113222 0.00244144
0.352163 0.104601 0.00239567
0.381247 0.0948806 0
0.411887 0.0840314 0
0.442405 0.0744945 0
0.473045 0.0632486 0
0.507042 0.0446174 0
0.538567 0.0247807 0
0.569085 0.00781262 0
0.602564 0.00242618 0
0.634165 0.00030518 0
0.667964 0 0
0.70251 0 0
0.737636 0 0
0.776104 0 0
0.818738 0 0
0.86186 0 0
0.0511788 0.19379 0
0.0547951 0.192874 0
0.0667124 0.190951 0
0.0843824 0.187228 0
0.105745 0.184344 0.00328069
0.127794 0.180972 0.00392157
0.145937 0.180133 0.00392157
0.157824 0.179995 0.00273136
0.172152 0.179767 0.000915541
0.186358 0.17969 0.000122072
0.201785 0.176577 0
0.21976 0.171786 0
0.239429 0.167605 0
0.25893 0.161532 4.57771e-05
0.278492 0.154498 0.000213626
0.302235 0.147906 0.000122072
0.328832 0.139437 0
0.355734 0.13019 0
0.383185 0.118959 0
0.412833 0.109987 0
0.443381 0.0985428 0
0.473915 0.089601 0
0.508034 0.0741436 0
0.542718 0.0555123 0
0.573724 0.0361486 0
0.604654 0.0164034 0
0.638911 0.00303655 0
0.674235 0.000198367 0
0.710033 0 0
0.749691 0 0
0.789731 0 0
0.832837 0 0
0.875105 0 0
0.0734722 0.211261 0
0.0759594 0.209537 0
0.0859846 0.207385 0
0.100313 0.20441 0
0.118593 0.20116 0.00215152
0.137423 0.199207 0.00276188
0.152972 0.198322 0.00289921
0.166247 0.198169 0.000564584
0.181857 0.198016 0
0.196948 0.197864 0
0.212528 0.195941 0
0.228824 0.192676 0
0.245258 0.18967 0
0.262181 0.186084 0
0.281224 0.181537 0
0.306188 0.172076 0
0.333074 0.163439 0
0.359808 0.151583 0
0.389776 0.142794 0
0.416846 0.131182 0
0.447486 0.12285 0
0.478218 0.110811 0
0.512978 0.0952926 0
0.547875 0.0833143 0
0.579538 0.0681315 0
0.615045 0.0493477 0
0.65066 0.0264134 0
0.686427 0.00329595 0
0.722225 0.00105287 0
0.761654 0 0
0.80499 0 0
0.847578 0 0
0.886961 0 0
0.0958267 0.228641 0
0.0978408 0.226841 0
0.104906 0.224094 0
0.116548 0.222309 0
0.128939 0.221012 0
0.144152 0.219821 0
0.159884 0.219089 0
0.177523 0.21854 0
0.192538 0.218555 0
0.208499 0.218479 0
0.223682 0.216922 0
0.237385 0.215198 0
0.251194 0.214237 0
0.26566 0.21149 0
0.282383 0.209064 0
0.313054 0.197009 0
0.33994 0.188296 0
0.366796 0.176333 0
0.393652 0.164462 0
0.424475 0.15639 0
0.456123 0.14464 0
0.488151 0.133104 0
0.523507 0.121386 0
0.555352 0.106706 0
0.587335 0.098909 0
0.62237 0.0868391 0
0.657954 0.0674144 0
0.69337 0.0436408 0
0.728878 0.014313 0
0.769055 0.00178531 0
0.814984 0 0
0.854963 0 0
0.89836 0 0
0.107012 0.248432 0
0.1084 0.246906 0
0.112963 0.245396 0
0.122072 0.243717 0
0.134691 0.242344 0
0.149752 0.241245 0
0.168032 0.240406 0
0.186496 0.240024 0
0.201892 0.239826 0
0.215747 0.239887 0
0.22948 0.239948 0
0.243168 0.24004 0
0.25713 0.240131 0
0.271916 0.240162 0
0.291371 0.235615 0
0.318761 0.223331 0
0.346166 0.215167 0
0.377295 0.203647 0
0.401434 0.196155 0
0.433616 0.188617 0
0.465553 0.177203 0
0.497032 0.165606 0
0.528557 0.153841 0
0.559808 0.142458 0
0.591089 0.134325 0
0.623301 0.122423 0
0.658412 0.106477 0
0.697047 0.0867933 0
0.733303 0.0630808 0
0.776135 0.0290532 0
0.819104 0.00257877 0
0.862318 0 0
0.902754 0 0
0.112734 0.270405 0
0.113787 0.268971 0
0.118761 0.266987 0
0.126986 0.265324 0
0.13959 0.264027 0
0.155276 0.262913 0
0.17557 0.262287 0
0.195438 0.259785 0
0.209415 0.258137 0
0.221469 0.259602 0
0.235416 0.262196 0
0.249271 0.262379 0
0.263661 0.262745 0
0.2822 0.263355 0
0.305882 0.25951 0
0.330632 0.251835 0
0.358373 0.248081 0
0.386023 0.240711 0
0.410605 0.233036 0
0.442008 0.221653 0
0.473121 0.21326 0
0.501106 0.201221 0
0.532082 0.185855 0
0.563485 0.174456 0
0.59498 0.166232 0
0.629633 0.154269 0
0.661662 0.13846 0
0.700557 0.119524 0
0.739895 0.103319 0
0.783276 0.07953 0
0.826612 0.041474 0
0.869413 0.00492866 0
0.910887 0.00167849 0
0.125643 0.291463 0
0.125719 0.289967 0
0.129656 0.288304 0
0.138827 0.286915 0
0.152636 0.285634 0
0.168688 0.282719 0
0.186419 0.280674 0
0.201434 0.282078 0
0.21416 0.283589 0
0.228153 0.284138 0
0.243412 0.285878 0
0.261662 0.289876 0
0.280217 0.291447 0
0.29926 0.295842 0
0.319478 0.28864 0
0.343496 0.284459 0
0.367163 0.280934 0
0.394217 0.277134 0
0.418601 0.269001 0
0.449851 0.257008 0
0.481224 0.245197 0
0.51223 0.232944 0
0.540383 0.217639 0
0.571359 0.206043 0
0.602579 0.194217 0
0.633951 0.182269 0
0.669306 0.166369 0
0.708186 0.150805 0
0.747936 0.135225 0
0.791089 0.115373 0
0.837797 0.0886702 0
0.880598 0.0617075 0
0.92224 0.02533 0
0.143633 0.313024 0
0.146136 0.31162 0
0.147173 0.310124 0
0.156237 0.308797 0
0.170123 0.306157 0
0.184283 0.305028 0
0.19678 0.306157 0
0.208804 0.308431 0
0.223484 0.311254 0
0.240513 0.31371 0
0.256596 0.318654 0
0.274907 0.323186 0
0.293568 0.327092 0
0.315328 0.327504 0
0.335088 0.323568 0
0.355276 0.319997 0
0.375311 0.320104 0
0.399008 0.319402 0
0.427024 0.310994 0
0.458259 0.295918 0
0.48925 0.283955 0
0.520912 0.268589 0
0.551583 0.253529 0
0.579477 0.241779 0
0.61033 0.229801 0
0.641794 0.217395 0
0.677317 0.198474 0
0.716045 0.183001 0
0.755306 0.170611 0
0.798917 0.151034 0
0.845151 0.131411 0
0.888411 0.112047 0
0.930083 0.0899825 0
0.160784 0.33904 0
0.160784 0.337392 0
0.160876 0.33608 0
0.166476 0.33521 0
0.177188 0.334401 0
0.190158 0.336156 0
0.202335 0.338231 0
0.215915 0.33901 0
0.232837 0.341848 0
0.25095 0.346197 0
0.2701 0.34934 0
0.290837 0.350851 0
0.308766 0.354437 0
0.327214 0.355047 0
0.347112 0.351781 0
0.367178 0.351537 0
0.387335 0.351675 0
0.411307 0.351064 0
0.442237 0.34258 0
0.473106 0.331228 0
0.500999 0.319844 0
0.531746 0.307942 0
0.55938 0.296498 0
0.590265 0.284581 0
0.618128 0.268956 0
0.649775 0.253452 0
0.684932 0.237659 0
0.720287 0.221866 0
0.759716 0.205768 0
0.806409 0.186267 0
0.84979 0.166705 0
0.896422 0.150729 0
0.937926 0.132845 0
0.160861 0.373159 0
0.16083 0.372915 0
0.162524 0.372137 0
0.171389 0.37145 0
0.180194 0.370626 0
0.193042 0.37023 0
0.208728 0.370214 0
0.22414 0.37084 0
0.242756 0.373281 0
0.264347 0.376013 0
0.285863 0.376761 0
0.305623 0.377462 0
0.320562 0.378729 0
0.339193 0.382773 0
0.358831 0.382986 0
0.379187 0.383291 0
0.40267 0.386526 0
0.426398 0.385687 0
0.453834 0.374746 0
0.481102 0.367041 0
0.508522 0.358953 0
0.535683 0.348028 0
0.563272 0.339712 0
0.594415 0.32755 0
0.62623 0.312108 0
0.657572 0.29604 0
0.692454 0.276692 0
0.727916 0.260517 0
0.767498 0.240894 0
0.814542 0.220737 0
0.861173 0.201526 0
0.904265 0.182406 0
0.945739 0.171527 0
0.166079 0.405859 0
0.166217 0.405417 0
0.170932 0.404456 0
0.179385 0.403433 0
0.189731 0.402457 0
0.204242 0.401831 0
0.220401 0.401968 0
0.237797 0.400107 0
0.258122 0.399008 0
0.279896 0.399634 0
0.300175 0.401404 0
0.317403 0.405936 0
0.332494 0.409689 0
0.35082 0.410605 0
0.370581 0.414862 0
0.390814 0.418189 0
0.414343 0.418433 0
0.438285 0.418006 0
0.465171 0.413825 0
0.488884 0.406561 0
0.515373 0.39913 0
0.539208 0.394888 0
0.567086 0.386313 0
0.599023 0.370764 0
0.633646 0.354635 0
0.665049 0.33518 0
0.696727 0.315648 0
0.735607 0.296193 0
0.775433 0.276234 0
0.822248 0.249119 0
0.865202 0.233234 0
0.91191 0.214145 0
0.953552 0.206683 0
0.185321 0.433738 0
0.185031 0.432975 0
0.186679 0.432013 0
0.19501 0.431052 0
0.20531 0.430304 0
0.219913 0.427634 0
0.237964 0.425986 0
0.256947 0.42594 0
0.277501 0.426276 0
0.296254 0.426917 0
0.310872 0.429084 0
0.325963 0.43357 0
0.344137 0.437919 0
0.3626 0.442176 0
0.382559 0.449393 0
0.403021 0.453162 0
0.426535 0.456367 0
0.450034 0.452735 0
0.473167 0.449271 0
0.49633 0.448997 0
0.516075 0.444984 0
0.540124 0.440772 0
0.571954 0.428962 0
0.60647 0.413199 0
0.637919 0.39408 0
0.67274 0.374868 0
0.704372 0.355337 0
0.743801 0.33608 0
0.786648 0.31545 0
0.829892 0.284886 0
0.872786 0.269001 0
0.919264 0.249577 0
0.961074 0.24213 0
0.197421 0.461524 0
0.197498 0.460655 0
0.201312 0.459434 0
0.208362 0.458503 0
0.221042 0.457755 0
0.235538 0.456962 0
0.253742 0.454566 0
0.270726 0.455253 0
0.285847 0.457359 0
0.302144 0.459937 0
0.31873 0.464332 0
0.334691 0.468589 0
0.355871 0.472419 0
0.374792 0.473259 0
0.39881 0.477211 0
0.422522 0.480354 0
0.442405 0.480385 0
0.465385 0.480644 0
0.485115 0.480522 0
0.508049 0.480262 0
0.528099 0.476997 0
0.552178 0.476112 0
0.583398 0.464164 0
0.614252 0.44921 0
0.645716 0.437247 0
0.680034 0.421744 0
0.712261 0.402701 0
0.751415 0.382589 0
0.790799 0.358541 0
0.837415 0.327672 0
0.880217 0.311574 0
0.923445 0.288624 0
0.965347 0.281056 0
0.212726 0.493095 0
0.21294 0.492271 0
0.216907 0.49102 0
0.224109 0.48983 0
0.236667 0.488853 0
0.249042 0.488106 0
0.261387 0.487831 0
0.275303 0.488136 0
0.291997 0.490867 0
0.309926 0.493462 0
0.327794 0.495613 0
0.346532 0.499809 0
0.368246 0.503487 0
0.391058 0.504585 0
0.418494 0.508049 0
0.441764 0.507973 0
0.461143 0.508293 0
0.480629 0.511788 0
0.500237 0.512032 0
0.51989 0.512413 0
0.539788 0.512413 0
0.563851 0.511559 0
0.594232 0.500237 0
0.62179 0.492424 0
0.652232 0.480995 0
0.680293 0.469627 0
0.715938 0.453162 0
0.758968 0.429282 0
0.798413 0.401343 0
0.841154 0.37055 0
0.884657 0.350759 0
0.931197 0.327413 0
0.973098 0.315938 0
0.22385 0.528389 0
0.223758 0.527565 0
0.224704 0.526314 0
0.230472 0.524941 0
0.241077 0.523842 0
0.25359 0.523003 0
0.267735 0.522866 0
0.282963 0.523278 0
0.299702 0.523934 0
0.319326 0.526345 0
0.340688 0.529412 0
0.362188 0.530266 0
0.384863 0.531746 0
0.410666 0.535668 0
0.437247 0.53576 0
0.456611 0.539239 0
0.472587 0.539635 0
0.492302 0.543709 0
0.511864 0.547753 0
0.531365 0.551247 0
0.551263 0.551492 0
0.574762 0.550546 0
0.598352 0.54345 0
0.625345 0.539452 0
0.649058 0.532113 0
0.677073 0.527047 0
0.71664 0.503517 0
0.763043 0.476036 0
0.805844 0.445014 0
0.845411 0.414359 0
0.888533 0.390234 0
0.934997 0.363409 0
0.980392 0.348043 0
0.226108 0.564157 0
0.226627 0.562936 0
0.229374 0.561395 0
0.23827 0.560098 0
0.24686 0.558999 0
0.259815 0.558434 0
0.275578 0.55816 0
0.292943 0.558434 0
0.313115 0.558999 0
0.334798 0.559869 0
0.356466 0.560784 0
0.378454 0.562005 0
0.403265 0.563409 0
0.427893 0.567208 0
0.447425 0.567529 0
0.463996 0.571237 0
0.480323 0.575174 0
0.50016 0.579217 0
0.51989 0.582773 0
0.539651 0.586709 0
0.559686 0.589899 0
0.582895 0.586465 0
0.606256 0.58613 0
0.629572 0.582437 0
0.653162 0.578759 0
0.681407 0.573724 0
0.723964 0.550637 0
0.766552 0.52755 0
0.809598 0.500801 0
0.849088 0.47277 0
0.89189 0.441367 0
0.935012 0.414084 0
0.980392 0.395377 0
0.209613 0.603677 0
0.210925 0.602396 0
0.217472 0.600549 0
0.226932 0.599084 0
0.237888 0.598169 0
0.252949 0.597238 0
0.271122 0.596933 0
0.289967 0.597238 0
0.310109 0.597848 0
0.331533 0.598779 0
0.353887 0.6 0
0.378149 0.601007 0
0.401663 0.602029 0
0.419837 0.603067 0
0.440024 0.606836 0
0.46424 0.610681 0
0.484627 0.614404 0
0.508278 0.617853 0
0.532128 0.618372 0
0.555657 0.621897 0
0.578622 0.625681 0
0.598032 0.625406 0
0.617548 0.622248 0
0.637064 0.622446 0
0.660533 0.621988 0
0.688396 0.617456 0
0.727184 0.602594 0
0.765789 0.587457 0
0.80531 0.567086 0
0.848692 0.534874 0
0.891676 0.496422 0
0.934783 0.469169 0
0.980163 0.450736 0
0.17995 0.650553 0
0.182101 0.649241 0
0.188434 0.64773 0
0.197513 0.646143 0
0.213397 0.64448 0
0.23061 0.643565 0
0.249104 0.641016 0
0.270069 0.639765 0
0.29337 0.64094 0
