70 CGC LUTs/Look LUTs/Drive.cube
#Created by: Denver Riddle
#Copyright: (C) Copyright Color Grading Central LLC
#LUT Size
LUT_3D_SIZE 5
0.00392157 0.00392157 0.00392157
0.13991 0 0.00392157
0.339681 0 0.00392157
0.582864 0 0
0.835294 0 0
0.011429 0.135821 0.000717174
0.147311 0.119554 0.00392157
0.320943 0.0691539 0.00392157
0.568383 0 0
0.842161 0 0
0.125643 0.291463 0
0.21416 0.283589 0
0.367163 0.280934 0
0.602579 0.194217 0
0.92224 0.02533 0
0.22385 0.528389 0
0.299702 0.523934 0
0.472587 0.539635 0
0.649058 0.532113 0
0.980392 0.348043 0
0 0.827451 0
0 0.827741 0
0.295338 0.831739 0
0.697032 0.867247 0
0.976471 0.941176 0.113725
0 0.00790417 0.0961471
0.153994 0.00740063 0.110643
0.385657 0 0.114046
0.650919 0 0.10251
0.894957 0 0.0857252
0 0.176303 0.156786
0.101015 0.183017 0.16405
0.387732 0.150652 0.14078
0.639002 0.0776226 0.108354
0.895109 0 0.0759899
0 0.400488 0.0690013
0.029984 0.385504 0.0870222
0.424552 0.366659 0.119219
0.670237 0.294575 0.107866
0.962325 0.218967 0.0845502
0.0309453 0.594644 0
0.231952 0.585245 0.0122683
0.495079 0.591577 0.0472572
0.703029 0.599435 0
0.998993 0.447456 0.00437934
0 0.894972 0
0 0.887633 0
0.334249 0.882338 0
0.69929 0.866346 0
0.97792 0.939712 0.120012
0 0.0197452 0.190906
0.0553445 0.0301366 0.228779
0.361013 0.0124971 0.245319
0.640009 0 0.243519
0.920272 0 0.213092
0 0.157961 0.277043
0 0.171893 0.298421
0.339666 0.171603 0.312505
0.648722 0.126772 0.276814
0.92195 0 0.221241
0 0.419013 0.363882
0 0.438666 0.375952
0.32018 0.461891 0.403372
0.719524 0.419303 0.379156
0.976791 0.333272 0.297337
0 0.704219 0.230488
0 0.702235 0.23508
0.273381 0.703655 0.280812
0.742611 0.680583 0.311727
0.996292 0.5879 0.268833
0 0.922011 0
0 0.918654 0
0.180438 0.921904 9.15541e-05
0.735714 0.917952 0.0910506
0.984314 0.945098 0.161425
0 0.0410773 0.319921
0 0.0566873 0.357931
0.189746 0.0726329 0.423804
0.593652 0.00129702 0.422919
0.905882 0 0.399023
0 0.165301 0.422965
0 0.171801 0.433829
0.136858 0.170336 0.460685
0.605005 0.137652 0.457603
0.917464 0.0431525 0.421271
0 0.350027 0.522118
0 0.371283 0.543282
0 0.422705 0.59469
0.644038 0.422217 0.586892
0.97261 0.368383 0.520958
0 0.700221 0.625696
0 0.709621 0.630884
0 0.746883 0.660151
0.681544 0.738643 0.664149
0.984314 0.67631 0.598077
0 0.94081 0.306371
0 0.940169 0.305348
0 0.949035 0.31722
0.692226 0.937728 0.384054
0.992157 0.953185 0.419364
0 0.0666667 0.627451
0 0.0804608 0.655207
0 0.11284 0.704997
0.00273136 0.143908 0.759167
0.721569 0 0.788235
0 0.165011 0.676631
0 0.168475 0.682551
0 0.18822 0.717433
0.0124056 0.205524 0.75462
0.724056 0.125597 0.785657
0 0.295186 0.747967
0 0.311635 0.757443
0 0.355566 0.796689
0 0.402686 0.832212
0.827756 0.34786 0.851286
0 0.532479 0.831983
0 0.543267 0.830976
0 0.582742 0.847715
0 0.653544 0.871015
0.917861 0.621973 0.882567
0 0.933333 0.890196
0 0.934722 0.890257
0 0.94934 0.89836
0 0.968627 0.910063
0.992157 0.968627 0.92549
