70 CGC LUTs/Look LUTs/Emulsion.cube
#Created by: Denver Riddle
#Copyright: (C) Copyright Color Grading Central LLC
#LUT Size
LUT_3D_SIZE 33
0.105867 0.103182 0.0966812
0.133425 0.0983444 0.092546
0.163729 0.0930343 0.087541
0.197742 0.0868086 0.0818799
0.23505 0.0795605 0.0753185
0.273838 0.07187 0.068101
0.311727 0.064332 0.061265
0.34519 0.0579538 0.0553902
0.376516 0.0521859 0.0499275
0.405493 0.0472572 0.0455024
0.433005 0.0424048 0.0413062
0.461753 0.0373846 0.0371099
0.493629 0.0314336 0.0321508
0.533211 0.0233921 0.0254673
0.580865 0.0132601 0.0169528
0.632837 0.00207523 0.00749218
0.679454 0 0
0.722301 0 0
0.764935 0 0
0.807752 0 0
0.854475 0 0
0.90631 0 0
0.961395 0 0
1 0 0
1 0 0
1 0 0
1 0 0
1 0 0
1 0 0
1 0 0
1 0 0
1 0 0
1 0 0
0.0854505 0.12163 0.0789349
0.114199 0.116609 0.0753796
0.143038 0.111696 0.0706493
0.174243 0.10602 0.0650187
0.20882 0.099443 0.0576791
0.246357 0.0919814 0.05037
0.283558 0.0847944 0.043183
0.317571 0.0782635 0.0366369
0.349233 0.0726177 0.0313115
0.378668 0.0672007 0.026276
0.408042 0.062211 0.021622
0.436988 0.0570535 0.016495
0.468925 0.0515602 0.01178
0.505959 0.0446021 0.00552377
0.550698 0.0357824 0
0.602548 0.0248264 0
0.653117 0.014725 0
0.697032 0.00633249 0
0.739132 0 0
0.780453 0 0
0.824201 0 0
0.873365 0 0
0.927398 0 0
0.982589 0 0
1 0 0
1 0 0
1 0 0
1 0 0
1 0 0
1 0 0
1 0 0
1 0 0
1 0 0
0.0651102 0.140017 0.061265
0.094377 0.134524 0.0585794
0.122545 0.129458 0.0548104
0.150393 0.124636 0.0497139
0.181521 0.119051 0.0433661
0.2159 0.112749 0.0357671
0.252018 0.105867 0.0277256
0.28719 0.0994736 0.0204013
0.320043 0.09337 0.0137636
0.351858 0.0880751 0.00805676
0.381872 0.0829938 0.00224308
0.413077 0.0779736 0
0.445136 0.0725719 0
0.480491 0.066743 0
0.522942 0.0590066 0
0.573663 0.0491493 0
0.627588 0.03888 0
0.673106 0.0306859 0
0.714595 0.0240024 0
0.75462 0.0180972 0
0.796597 0.0116121 0
0.843336 0.00408942 0
0.895171 0 0
0.950118 0 0
1 0 0
1 0 0
1 0 0
1 0 0
1 0 0
1 0 0
1 0 0
1 0 0
1 0 0
0.0441291 0.158053 0.0428473
0.0748302 0.152102 0.0419318
0.102663 0.147051 0.0391852
0.130159 0.142306 0.0353246
0.15845 0.13756 0.029984
0.189334 0.132448 0.023209
0.222736 0.126772 0.0153658
0.256367 0.121096 0.00724804
0.290135 0.115526 0
0.323079 0.110033 0
0.356023 0.104891 0
0.388922 0.100359 0
0.421958 0.0954452 0
0.456733 0.0901656 0
0.497627 0.0836805 0
0.546578 0.0749828 0
0.602533 0.0648051 0
0.650996 0.0568246 0
0.692622 0.0505226 0
0.731991 0.0451057 0
0.772396 0.0396735 0
0.817136 0.0331273 0
0.866789 0.0257572 0
0.920317 0.0170596 0
0.974105 0.0084535 0
1 0.00123598 0
1 0 0
1 0 0
1 0 0
1 0 0
1 0 0
1 0.00135805 0
1 0.012604 0
0.0242008 0.17615 0.0254978
0.0548714 0.169924 0.0250858
0.0841077 0.164858 0.0235294
0.111543 0.160327 0.0204318
0.139376 0.156191 0.0162356
0.167681 0.151705 0.0107729
0.197757 0.147463 0.00454719
0.229221 0.142855 0
0.262242 0.138308 0
0.295842 0.133806 0
0.329747 0.129 0
0.36408 0.124453 0
0.398703 0.120012 0
0.433433 0.11574 0
0.472969 0.110048 0
0.520165 0.102678 0
0.576257 0.0928969 0
0.627451 0.0845197 0
0.669596 0.0787671 0
0.708568 0.0740673 0
0.747662 0.0693523 0
0.790951 0.0641184 0
0.838849 0.0575113 0
0.891386 0.0496986 0
0.944778 0.0417639 0
0.99556 0.0346685 0
1 0.0289616 0
1 0.0243839 0
1 0.0217594 0
1 0.0220951 0
1 0.026276 0
1 0.0343175 0
1 0.045182 0
0.00381476 0.195117 0.00747692
0.0361791 0.189029 0.00828565
0.065919 0.183703 0.00735485
0.0941024 0.179721 0.00502022
0.122072 0.175875 0.00170901
0.149935 0.172274 0
0.178943 0.168902 0
0.208408 0.16527 0
0.239292 0.161837 0
0.272129 0.158236 0
0.306035 0.154284 0
0.3411 0.150256 0
0.376486 0.146029 0
0.411841 0.14229 0
0.449851 0.137865 0
0.495109 0.131426 0
0.550469 0.12221 0
0.603647 0.113771 0
0.646769 0.108309 0
0.685588 0.104417 0
0.723568 0.100694 0
0.765042 0.0961471 0
0.81088 0.0907301 0
0.861677 0.084062 0
0.91519 0.0768597 0
0.967437 0.0703288 0
1 0.0649271 0
1 0.0606241 0
1 0.0580301 0
1 0.0581369 0
1 0.0618448 0
1 0.0695811 0
1 0.0796521 0
0 0.215412 0
0.0173037 0.210071 0
0.0487068 0.204913 0
0.0761425 0.20177 0
0.104494 0.19913 0
0.134188 0.196155 0
0.166415 0.192798 0
0.199817 0.189349 0
0.233509 0.185534 0
0.267826 0.181674 0
0.302876 0.177966 0
0.338262 0.174197 0
0.373327 0.170733 0
0.40853 0.167376 0
0.447776 0.162829 0
0.494545 0.156481 0
0.550408 0.14786 0
0.601602 0.14049 0
0.643503 0.136004 0
0.68246 0.132418 0
0.72134 0.129091 0
0.763684 0.12488 0
0.810987 0.119509 0
0.862852 0.113313 0
0.917098 0.106844 0
0.968978 0.100877 0
1 0.0959029 0
1 0.0918135 0
1 0.0889601 0
1 0.0881208 0
1 0.0892653 0
1 0.0931411 0
1 0.0999771 0
0 0.243214 0
0 0.235584 0
0.028397 0.229618 0
0.0608682 0.225345 0
0.0906386 0.222248 0
0.12018 0.219821 0
0.151736 0.217319 0
0.184115 0.214511 0
0.217395 0.211475 0
0.251789 0.208118 0
0.286473 0.204791 0
0.321889 0.201801 0
0.357382 0.198779 0
0.392325 0.195941 0
0.430671 0.192218 0
0.475868 0.186831 0
0.531228 0.179049 0
0.583749 0.172274 0
0.626017 0.168231 0
0.6645 0.165331 0
0.702678 0.162829 0
0.744091 0.15964 0
0.790051 0.155581 0
0.840574 0.15024 0
0.893751 0.144411 0
0.946731 0.139147 0
0.995987 0.134676 0
1 0.130953 0
1 0.12874 0
1 0.127947 0
1 0.129091 0
1 0.132509 0
1 0.138705 0
0 0.266926 0
0 0.259205 0
0.0164492 0.252934 0
0.0505684 0.248341 0
0.0817273 0.245487 0
0.110918 0.243412 0
0.140749 0.241535 0
0.171664 0.239612 0
0.203967 0.237507 0
0.237842 0.235126 0
0.272755 0.232578 0
0.308309 0.229709 0
0.344091 0.227222 0
0.379217 0.224964 0
0.417166 0.222095 0
0.46154 0.217731 0
0.515877 0.210925 0
0.568689 0.204639 0
0.611582 0.20119 0
0.649714 0.19913 0
0.687449 0.197421 0
0.72755 0.195651 0
0.772564 0.192676 0
0.82208 0.188357 0
0.874617 0.183459 0
0.9281 0.178607 0
0.978103 0.174929 0
1 0.171893 0
1 0.169207 0
1 0.16788 0
1 0.168719 0
1 0.171923 0
1 0.177813 0
0 0.292042 0
0 0.284321 0
0.00514229 0.277928 0
0.0412757 0.273289 0
0.0735485 0.269993 0
0.103853 0.267918 0
0.134005 0.266377 0
0.164172 0.265049 0
0.195163 0.263828 0
0.228611 0.262394 0
0.26305 0.260624 0
0.298756 0.258549 0
0.334798 0.256413 0
0.370336 0.254856 0
0.407996 0.253132 0
0.452155 0.249546 0
0.505516 0.243626 0
0.559091 0.237995 0
0.602106 0.235431 0
0.640391 0.234318 0
0.677745 0.233707 0
0.717403 0.232456 0
0.761532 0.230304 0
0.809918 0.2271 0
0.860853 0.223209 0
0.912947 0.219272 0
0.96286 0.21619 0
1 0.213474 0
1 0.211276 0
1 0.210208 0
1 0.210758 0
1 0.213748 0
1 0.219089 0
0 0.317403 0
0 0.309834 0
0 0.303685 0
0.0345312 0.298955 0
0.0678721 0.295735 0
0.0991684 0.29366 0
0.129961 0.292226 0
0.1608 0.291493 0
0.191455 0.290776 0
0.223087 0.290074 0
0.256352 0.289296 0
0.291814 0.28809 0
0.327657 0.28687 0
0.363195 0.286076 0
0.400626 0.284794 0
0.444358 0.282338 0
0.496864 0.277378 0
0.550698 0.272251 0
0.594202 0.270512 0
0.632456 0.270451 0
0.669459 0.270542 0
0.70837 0.270085 0
0.750393 0.268894 0
0.797177 0.266621 0
0.847181 0.263767 0
0.899062 0.260609 0
0.949538 0.25774 0
0.997787 0.25568 0
1 0.253956 0
1 0.253056 0
1 0.253834 0
1 0.256016 0
1 0.260609 0
0 0.344472 0
0 0.336675 0
0 0.330465 0
0.0289921 0.325856 0
0.0634928 0.322942 0
0.0955215 0.321187 0
0.127306 0.320211 0
0.158465 0.319539 0
0.189349 0.319265 0
0.220584 0.319142 0
0.253071 0.319036 0
0.287678 0.318822 0
0.323491 0.318868 0
0.35903 0.318654 0
0.395895 0.318288 0
0.439246 0.316503 0
0.490959 0.312749 0
0.545403 0.308614 0
0.589395 0.30692 0
0.627176 0.307088 0
0.66363 0.307897 0
0.701595 0.308461 0
0.74255 0.308309 0
0.788159 0.307454 0
0.836561 0.305547 0
0.88751 0.302968 0
0.938216 0.300526 0
0.986511 0.298787 0
1 0.297444 0
1 0.296925 0
1 0.297154 0
1 0.298817 0
1 0.302403 0
0 0.373068 0
0 0.365484 0
0 0.359594 0
0.0218051 0.355871 0
0.0591897 0.352758 0
0.0897383 0.352819 0
0.119982 0.353246 0
0.151308 0.353826 0
0.182742 0.354589 0
0.21622 0.354757 0
0.250568 0.355032 0
0.286687 0.354849 0
0.323201 0.354849 0
0.359548 0.355016 0
0.397391 0.354788 0
0.440955 0.353185 0
0.493385 0.349844 0
0.547677 0.34583 0
0.591638 0.344686 0
0.629419 0.345327 0
0.665736 0.346624 0
0.703578 0.347631 0
0.744579 0.348058 0
0.78854 0.347356 0
0.836744 0.34609 0
0.886351 0.344015 0
0.936507 0.341955 0
0.984726 0.340429 0
1 0.339315 0
1 0.338323 0
1 0.337972 0
1 0.338628 0
1 0.340551 0
0 0.408057 0
0 0.401709 0
0 0.395743 0
0.00910964 0.390829 0
0.0482795 0.387701 0
0.0837873 0.386328 0
0.116548 0.386236 0
0.147433 0.387289 0
0.178927 0.388815 0
0.212146 0.390204 0
0.246815 0.390967 0
0.283116 0.391119 0
0.320378 0.391104 0
0.356771 0.391653 0
0.394476 0.39205 0
0.438056 0.391455 0
0.489525 0.388525 0
0.544137 0.385 0
0.589014 0.384161 0
0.626535 0.385412 0
0.662898 0.387411 0
0.699641 0.389029 0
0.738888 0.389975 0
0.78143 0.390021 0
0.827329 0.38909 0
0.875578 0.387411 0
0.925887 0.385519 0
0.973236 0.383978 0
1 0.382467 0
1 0.381216 0
1 0.380407 0
1 0.380468 0
1 0.381903 0
0 0.441764 0
0 0.435859 0
0 0.430594 0
0.00303655 0.425849 0
0.0433661 0.42266 0
0.0799878 0.421302 0
0.11426 0.421332 0
0.145968 0.422751 0
0.17702 0.424735 0
0.209201 0.426535 0
0.243427 0.428031 0
0.280324 0.42884 0
0.317662 0.429572 0
0.355047 0.430777 0
0.392966 0.43183 0
0.435508 0.431647 0
0.485847 0.42945 0
0.540841 0.426123 0
0.586297 0.425437 0
0.623896 0.427268 0
0.659342 0.429358 0
0.694987 0.43125 0
0.732006 0.43267 0
0.772473 0.433066 0
0.816007 0.432441 0
0.86276 0.431388 0
0.910658 0.429145 0
0.958648 0.42681 0
1 0.424918 0
1 0.423041 0
1 0.421363 0
1 0.420539 0
1 0.420417 0
0 0.481041 0
0 0.475883 0
0 0.470802 0
0 0.466392 0
0.0320592 0.463035 0
0.0704967 0.461357 0
0.105867 0.461418 0
0.139254 0.462745 0
0.171908 0.464454 0
0.204959 0.466407 0
0.239643 0.468284 0
0.277256 0.469505 0
0.316014 0.470527 0
0.35346 0.471824 0
0.39202 0.473274 0
0.433982 0.473457 0
0.483986 0.471626 0
0.539269 0.468391 0
0.586023 0.467811 0
0.623316 0.469169 0
0.658274 0.471138 0
0.693065 0.473075 0
0.729503 0.474327 0
0.768521 0.474876 0
0.810452 0.47422 0
0.854658 0.472724 0
0.900298 0.470649 0
0.945068 0.46865 0
0.989151 0.466773 0
1 0.465171 0
1 0.463432 0
1 0.462119 0
1 0.461601 0
0 0.518669 0
0 0.513741 0
0 0.508873 0
0 0.504707 0
0.0276493 0.501549 0
0.0671702 0.500511 0
0.103319 0.500648 0
0.137423 0.501945 0
0.171328 0.503624 0
0.205097 0.505608 0
0.240665 0.5075 0
0.278141 0.509255 0
0.31606 0.510704 0
0.353384 0.512306 0
0.391012 0.513756 0
0.431907 0.514244 0
0.480552 0.512779 0
0.535653 0.50959 0
0.582696 0.508263 0
0.619745 0.509361 0
0.653712 0.511055 0
0.687282 0.512764 0
0.722087 0.514244 0
0.75935 0.515068 0
0.799084 0.514549 0
0.840742 0.513298 0
0.884276 0.511421 0
0.928939 0.509224 0
0.972549 0.507683 0
1 0.50605 0
1 0.504677 0
1 0.503426 0
1 0.502831 0
0 0.556924 0
0 0.552789 0
0 0.548104 0
0 0.54435 0
0.0262913 0.541802 0
0.0665141 0.540658 0
0.103258 0.540993 0
0.137926 0.542367 0
0.172244 0.544121 0
0.206912 0.546029 0
0.243122 0.547906 0
0.279957 0.549325 0
0.317571 0.550561 0
0.353994 0.552163 0
0.390356 0.553689 0
0.430259 0.554421 0
0.477577 0.552697 0
0.531716 0.54876 0
0.578973 0.546792 0
0.615839 0.547539 0
0.64921 0.549035 0
0.682048 0.550912 0
0.715434 0.552163 0
0.750561 0.552819 0
0.788647 0.552789 0
0.829038 0.55198 0
0.871351 0.55079 0
0.915434 0.549172 0
0.958968 0.547829 0
1 0.546761 0
1 0.545647 0
1 0.544762 0
1 0.544549 0
0 0.594751 0
0 0.591623 0
0 0.587503 0
0 0.584268 0
0.0265965 0.581811 0
0.0665141 0.581277 0
0.105409 0.581018 0
0.138369 0.583459 0
0.17229 0.58613 0
0.205905 0.588403 0
0.241703 0.590005 0
0.278981 0.591119 0
0.316289 0.591989 0
0.352834 0.592844 0
0.389075 0.594003 0
0.428244 0.594003 0
0.474907 0.591852 0
0.529122 0.587488 0
0.57641 0.584939 0
0.613519 0.585184 0
0.646708 0.586618 0
0.678721 0.588174 0
0.711559 0.589563 0
0.746303 0.590494 0
0.783398 0.590829 0
0.823209 0.590524 0
0.865263 0.589563 0
0.90811 0.588266 0
0.951186 0.587091 0
0.99266 0.586191 0
1 0.585473 0
1 0.584878 0
1 0.584573 0
0 0.633433 0
0 0.631464 0
0 0.628611 0
0 0.625864 0
0.0265354 0.623499 0
0.06804 0.622019 0
0.107057 0.621515 0
0.143755 0.622553 0
0.177996 0.624109 0
0.211673 0.625895 0
0.246052 0.627359 0
0.281971 0.628305 0
0.318624 0.628885 0
0.354101 0.630182 0
0.389136 0.630838 0
0.427665 0.630488 0
0.473899 0.628 0
0.527504 0.623575 0
0.574853 0.620935 0
0.611643 0.621408 0
0.64448 0.623087 0
0.676478 0.624704 0
0.709209 0.626291 0
0.743557 0.627482 0
0.780591 0.628412 0
0.819821 0.628305 0
0.860731 0.627695 0
0.903105 0.626703 0
0.945754 0.62565 0
0.987015 0.625208 0
1 0.62472 0
1 0.624109 0
1 0.623652 0
0 0.670207 0
0 0.668437 0
0 0.66566 0
0 0.662882 0
0.0353094 0.660365 0
0.0770733 0.658747 0
0.116732 0.657786 0
0.15378 0.657542 0
0.188144 0.658335 0
0.22118 0.659754 0
0.254246 0.661158 0
0.288548 0.662516 0
0.323156 0.663294 0
0.356786 0.66424 0
0.391333 0.66511 0
0.429572 0.664927 0
0.476066 0.662577 0
0.529732 0.658717 0
0.57615 0.656687 0
0.612238 0.657389 0
0.644785 0.659113 0
0.67686 0.661097 0
0.709651 0.663005 0
0.744381 0.664698 0
0.781231 0.665324 0
0.820142 0.665217 0
0.860777 0.664439 0
0.902525 0.66334 0
0.94464 0.662531 0
0.986068 0.662165 0
1 0.661387 0
1 0.660212 0
1 0.658686 0
0 0.713588 0
0 0.713054 0
0 0.711055 0
0 0.708125 0
0.0236515 0.705287 0
0.0662089 0.702922 0
0.106798 0.701091 0
0.145281 0.700053 0
0.181811 0.699733 0
0.217212 0.699962 0
0.252415 0.700679 0
0.287709 0.701274 0
0.322942 0.701976 0
0.357061 0.70309 0
0.391882 0.704097 0
0.430991 0.703914 0
0.478523 0.70193 0
0.532967 0.697765 0
0.578836 0.695842 0
0.615274 0.69659 0
0.648798 0.698238 0
0.68191 0.700008 0
0.716365 0.701762 0
0.752941 0.702449 0
0.791821 0.702388 0
0.832792 0.701595 0
0.874739 0.70016 0
0.916304 0.698802 0
0.955352 0.697383 0
0.992233 0.696574 0
1 0.695659 0
1 0.694682 0
1 0.693233 0
0 0.746517 0
0 0.746059 0
0 0.744228 0
0 0.741451 0
0.0339513 0.738308 0
0.076585 0.73547 0
0.11812 0.733303 0
0.157153 0.731868 0
0.193683 0.731395 0
0.229496 0.731731 0
0.263996 0.732586 0
0.298024 0.733547 0
0.33196 0.734707 0
0.365118 0.736187 0
0.399771 0.737758 0
0.439017 0.737987 0
0.486763 0.735851 0
0.539757 0.73228 0
0.583932 0.73109 0
0.619638 0.732082 0
0.653132 0.734005 0
0.686213 0.735668 0
0.720409 0.736934 0
0.757061 0.737194 0
0.796139 0.736568 0
0.836744 0.7355 0
0.878309 0.733898 0
0.918776 0.732021 0
0.95642 0.73048 0
0.992782 0.729351 0
1 0.728008 0
1 0.726741 0
1 0.725292 0
0 0.776471 0
0 0.776776 0
0 0.775525 0
0.00187686 0.773159 0
0.0449226 0.770001 0
0.0875563 0.767086 0
0.129839 0.76463 0
0.171023 0.763088 0
0.208881 0.763088 0
0.243595 0.763684 0
0.277623 0.764599 0
0.310597 0.765972 0
0.343328 0.767712 0
0.375891 0.769726 0
0.410163 0.77113 0
0.449287 0.771115 0
0.497169 0.768948 0
0.548424 0.765789 0
0.590784 0.764904 0
0.625803 0.766171 0
0.6589 0.767865 0
0.691539 0.769177 0
0.725872 0.769924 0
0.762478 0.76994 0
0.801419 0.7691 0
0.842145 0.767712 0
0.882368 0.76553 0
0.921752 0.763119 0
0.958511 0.761166 0
0.99382 0.759625 0
1 0.75845 0
1 0.756527 0
1 0.754437 0
0 0.803922 0
0 0.804685 0
0 0.804486 0
0.0183261 0.803113 0
0.0596628 0.801053 0
0.102586 0.798474 0
0.145937 0.796078 0
0.187167 0.794827 0
0.22388 0.794781 0
0.25745 0.795972 0
0.290135 0.797604 0
0.322179 0.799451 0
0.353796 0.801785 0
0.385519 0.803647 0
0.419471 0.804898 0
0.459083 0.80473 0
0.50724 0.802228 0
0.557214 0.799283 0
0.598352 0.798459 0
0.632532 0.799222 0
0.664988 0.800351 0
0.697826 0.801343 0
0.732052 0.801709 0
0.768673 0.801205 0
0.806882 0.799893 0
0.846525 0.797833 0
0.886336 0.795224 0
0.924636 0.79237 0
0.960311 0.790097 0
0.994919 0.788205 0
1 0.786084 0
1 0.783886 0
1 0.781643 0
0 0.832486 0
0 0.832944 0
0 0.833005 0
0.0377508 0.83241 0
0.0778515 0.83122 0
0.120272 0.829725 0
0.163531 0.827695 0
0.203876 0.826627 0
0.240574 0.82678 0
0.273884 0.827924 0
0.304784 0.829984 0
0.3355 0.832319 0
0.365621 0.834546 0
0.396033 0.836362 0
0.429511 0.837308 0
0.4692 0.836683 0
0.516991 0.83386 0
0.565682 0.8309 0
0.605478 0.829831 0
0.639094 0.83032 0
0.670832 0.830976 0
0.703212 0.831403 0
0.737331 0.83154 0
0.773037 0.830564 0
0.8103 0.828626 0
0.848692 0.826017 0
0.887312 0.823102 0
0.924941 0.820127 0
0.960342 0.817411 0
0.993286 0.814527 0
1 0.812039 0
1 0.809644 0
1 0.806912 0
0 0.862013 0
0 0.862547 0
0.0204929 0.862608 0
0.0592508 0.86183 0
0.100267 0.860685 0
0.142611 0.858747 0
0.185672 0.857069 0
0.224475 0.856367 0
0.259388 0.856809 0
0.290791 0.858412 0
0.320363 0.860883 0
0.348424 0.863264 0
0.376913 0.865476 0
0.4065 0.867399 0
0.439933 0.868193 0
0.479179 0.867491 0
0.526101 0.864164 0
0.573053 0.860746 0
0.611902 0.859403 0
0.644862 0.859419 0
0.676646 0.860059 0
0.708202 0.859922 0
0.741024 0.859129 0
0.775814 0.857649 0
0.812604 0.855619 0
0.850034 0.85275 0
0.887526 0.849378 0
0.924193 0.845594 0
0.959136 0.842191 0
0.990967 0.839399 0
1 0.836622 0
1 0.833692 0
1 0.831067 0
0 0.899474 0
0 0.903883 0
0.0056611 0.907637 0
0.0386664 0.909331 0
0.0757916 0.909438 0
0.116625 0.908217 0
0.159152 0.906401 0
0.201083 0.904662 0
0.240299 0.904021 0
