70 CGC LUTs/Look LUTs/Emulsion.cube
#Created by: Denver Riddle
#Copyright: (C) Copyright Color Grading Central LLC
#LUT Size
LUT_3D_SIZE 9
0.105867 0.103182 0.0966812
0.23505 0.0795605 0.0753185
0.376516 0.0521859 0.0499275
0.493629 0.0314336 0.0321508
0.679454 0 0
0.854475 0 0
1 0 0
1 0 0
1 0 0
0.0242008 0.17615 0.0254978
0.139376 0.156191 0.0162356
0.262242 0.138308 0
0.398703 0.120012 0
0.576257 0.0928969 0
0.747662 0.0693523 0
0.944778 0.0417639 0
1 0.0217594 0
1 0.045182 0
0 0.266926 0
0.0817273 0.245487 0
0.203967 0.237507 0
0.344091 0.227222 0
0.515877 0.210925 0
0.687449 0.197421 0
0.874617 0.183459 0
1 0.169207 0
1 0.177813 0
0 0.373068 0
0.0591897 0.352758 0
0.182742 0.354589 0
0.323201 0.354849 0
0.493385 0.349844 0
0.665736 0.346624 0
0.836744 0.34609 0
1 0.339315 0
1 0.340551 0
0 0.518669 0
0.0276493 0.501549 0
0.171328 0.503624 0
0.31606 0.510704 0
0.480552 0.512779 0
0.653712 0.511055 0
0.799084 0.514549 0
0.972549 0.507683 0
1 0.502831 0
0 0.670207 0
0.0353094 0.660365 0
0.188144 0.658335 0
0.323156 0.663294 0
0.476066 0.662577 0
0.644785 0.659113 0
0.781231 0.665324 0
0.94464 0.662531 0
1 0.658686 0
0 0.803922 0
0.0596628 0.801053 0
0.22388 0.794781 0
0.353796 0.801785 0
0.50724 0.802228 0
0.664988 0.800351 0
0.806882 0.799893 0
0.960311 0.790097 0
1 0.781643 0
0 0.930587 0
0.0932479 0.939284 0
0.25655 0.932372 0
0.380636 0.935302 0
0.524102 0.930678 0
0.678004 0.920684 0
0.811551 0.912276 0
0.960204 0.89369 0
1 0.875868 0
0.0440223 1 0.0434424
0.180621 1 0.0380255
0.305348 1 0.0175937
0.400793 1 0
0.526101 1 0
0.67483 1 0
0.791852 0.998199 0
0.927626 0.979202 0
1 0.956649 0
0.100023 0.0976577 0.208118
0.214786 0.0780652 0.189914
0.346899 0.0522011 0.175158
0.462806 0.0311284 0.16202
0.634668 0 0.135668
0.790158 0 0.115297
0.963317 0 0.0901045
1 0 0.0691844
1 0 0.0645914
0.0208896 0.169741 0.137652
0.134386 0.151659 0.121263
0.258015 0.134051 0.103761
0.387259 0.11754 0.0878309
0.550469 0.0944533 0.0679484
0.713878 0.0729076 0.0505837
0.874922 0.0555123 0.0346685
1 0.0409247 0.0196078
1 0.0562448 0.030396
0 0.25951 0.0742504
0.0806592 0.242741 0.0697795
0.201678 0.23473 0.0574044
0.338827 0.225589 0.0381018
0.508141 0.21062 0.0175021
0.677836 0.198032 0.00262455
0.852979 0.187625 0
1 0.176913 0
1 0.189609 0
0 0.366201 0.0376745
0.0609293 0.352514 0.0475929
0.188769 0.352361 0.0454108
0.323949 0.355718 0.0303197
0.49453 0.350759 0.011368
0.66775 0.348013 0
0.839567 0.347066 0
1 0.340002 0
1 0.343709 0
0 0.514275 4.57771e-05
0.0347295 0.502266 0.0259251
0.175433 0.507271 0.0361486
0.319356 0.514641 0.0301366
0.483131 0.515587 0.0178988
0.655268 0.512551 0
0.800793 0.514641 0
0.974731 0.507713 0
1 0.505699 0
0 0.675059 0
0.0373999 0.663813 0.030808
0.191272 0.661189 0.0475319
0.325887 0.664851 0.0446632
0.477424 0.665293 0.0278172
0.64651 0.662089 0.0105898
0.785992 0.667079 0.00277714
0.952544 0.663249 0
1 0.659586 0
0 0.805356 0.0432898
0.0686656 0.800076 0.0586099
0.226322 0.797635 0.0661784
0.355383 0.804196 0.0697795
0.507683 0.804898 0.0522927
0.665324 0.80238 0.0325322
0.808454 0.800778 0.019379
0.963287 0.789715 0.0167239
1 0.77995 0.0147707
0 0.930205 0.100511
0.126879 0.927825 0.109483
0.261463 0.93109 0.0915541
0.378103 0.935912 0.076936
0.52015 0.931014 0.0495308
0.674647 0.919676 0.0151522
0.807065 0.910231 0
0.956268 0.891066 0
1 0.873289 0.0243687
0.0355535 1 0.154513
0.163867 1 0.143359
0.28542 1 0.114916
0.391791 1 0.0955825
0.516732 1 0.0609293
0.668421 1 0.0158083
0.78468 0.995972 0
0.921645 0.976394 0
1 0.954345 0.0302434
0.0880903 0.0863966 0.393606
0.201389 0.0675364 0.372244
0.31841 0.0462501 0.355062
0.441154 0.0221866 0.352026
0.614572 0 0.334829
0.778027 0 0.316518
0.953445 0 0.294179
1 0 0.27013
1 0 0.251514
0.00889601 0.158938 0.324331
0.123781 0.141817 0.301152
0.239506 0.127245 0.28661
0.377234 0.108232 0.280934
0.546929 0.0834669 0.265476
0.713695 0.0619669 0.248173
0.879118 0.0439765 0.233051
1 0.03122 0.218204
1 0.0501564 0.219486
0 0.250523 0.266011
0.0727245 0.235279 0.249714
0.193957 0.227787 0.242374
0.329366 0.218936 0.234836
0.499428 0.2038 0.217746
0.675669 0.190936 0.202411
0.861143 0.178515 0.189502
1 0.169055 0.180224
1 0.18587 0.198108
0 0.35938 0.229999
0.0562753 0.347356 0.230594
0.186114 0.347524 0.232502
0.319234 0.350362 0.231708
0.489448 0.346929 0.212161
0.66775 0.343877 0.193912
0.845106 0.341573 0.184436
1 0.333135 0.172534
1 0.33901 0.192035
0 0.510643 0.19469
0.0364538 0.498192 0.21445
0.177157 0.503731 0.227115
0.319249 0.510063 0.231052
0.480003 0.512703 0.208026
0.654582 0.509224 0.18172
0.804471 0.509529 0.169848
0.98291 0.501152 0.157763
1 0.500435 0.17116
0 0.673686 0.193988
0.0404822 0.658167 0.224186
0.189792 0.657252 0.236103
0.323339 0.660349 0.235538
0.473335 0.661814 0.217823
0.64387 0.659327 0.193637
0.785916 0.664103 0.182071
0.958465 0.658442 0.167468
1 0.653925 0.16643
0 0.805264 0.234226
0.078172 0.791516 0.260044
0.234928 0.78941 0.269276
0.354879 0.798276 0.271305
0.504677 0.799283 0.254582
0.660349 0.797818 0.221744
0.802625 0.796124 0.20116
0.95964 0.784192 0.192935
1 0.772946 0.188464
0 0.931258 0.290105
0.132753 0.919631 0.30724
0.283314 0.914412 0.309606
0.380835 0.923781 0.294194
0.516564 0.920745 0.25919
0.666957 0.911391 0.206653
0.796231 0.903029 0.17464
0.944717 0.884108 0.164523
1 0.866056 0.191897
0.0177615 1 0.336309
0.166323 1 0.336538
0.30634 1 0.329763
0.384833 1 0.290471
0.504295 1 0.245655
0.657771 0.99826 0.188815
0.772931 0.989258 0.158968
0.908644 0.970047 0.155138
1 0.9467 0.205676
0.0822919 0.0809186 0.505257
0.195392 0.0617075 0.484581
0.30428 0.0439155 0.460792
0.420279 0.0229648 0.454078
0.581186 0 0.452766
0.751842 0 0.451972
0.925475 0 0.44303
1 0 0.421271
1 0 0.395026
0.00723278 0.152453 0.439307
0.117983 0.136751 0.426215
0.233005 0.123781 0.408484
0.361425 0.108721 0.39884
0.526558 0.0841077 0.399603
0.701778 0.0595102 0.398581
0.870253 0.0406348 0.390677
1 0.0285954 0.374319
1 0.0489052 0.36141
0 0.245686 0.399435
0.0691997 0.232151 0.378103
0.192218 0.225437 0.36701
0.321263 0.219516 0.359091
0.486824 0.204868 0.359121
0.667536 0.1897 0.361013
0.85008 0.178042 0.357885
1 0.168093 0.349157
1 0.188098 0.350896
0 0.357 0.368444
0.0569009 0.347173 0.358877
0.188724 0.348272 0.357305
0.320638 0.351705 0.357748
0.484993 0.348669 0.358282
0.662654 0.344518 0.358999
0.840177 0.341299 0.357198
1 0.331044 0.34728
1 0.339345 0.353307
0 0.509682 0.348608
0.0482032 0.496468 0.352804
0.18265 0.504692 0.35903
0.323308 0.511025 0.362295
0.479393 0.512459 0.3608
0.651591 0.507546 0.348486
0.804135 0.506157 0.339925
0.988434 0.496788 0.327718
1 0.498054 0.335546
0 0.674342 0.349035
0.0452277 0.657694 0.361212
0.197086 0.655924 0.364477
0.327794 0.660395 0.363577
0.477211 0.660792 0.362432
0.643107 0.65893 0.349599
0.786175 0.662272 0.340475
0.961135 0.655299 0.327367
1 0.649958 0.324285
0 0.809155 0.373114
0.0843214 0.791867 0.385168
0.250233 0.787152 0.389975
0.363241 0.797665 0.394461
0.510079 0.797726 0.387579
0.659709 0.795483 0.371176
0.79826 0.792782 0.355276
0.956954 0.780346 0.339834
1 0.767895 0.330175
0 0.936858 0.413169
0.134783 0.920851 0.421836
0.300206 0.909804 0.425299
0.393439 0.917556 0.424536
0.525353 0.912413 0.404639
0.666239 0.902602 0.376226
0.788769 0.89572 0.345449
0.935561 0.878325 0.32604
1 0.861112 0.329778
0.00402838 1 0.445701
0.159915 1 0.443992
0.316258 1 0.440436
0.399069 1 0.428885
0.510185 1 0.399207
0.654948 0.988632 0.359121
0.764614 0.981338 0.326406
0.897932 0.963653 0.315282
1 0.942763 0.332891
0.0763409 0.0756695 0.613382
0.190906 0.0577554 0.575448
0.298619 0.0416571 0.540917
0.406134 0.0246738 0.525673
0.552483 0 0.524346
0.723568 0 0.525444
0.882795 0 0.529656
1 0 0.51281
1 0 0.48484
0 0.149722 0.535195
0.116045 0.134859 0.510491
0.232258 0.123095 0.488319
0.354299 0.111513 0.474845
0.504814 0.0916762 0.476112
0.680415 0.0674601 0.48072
0.840665 0.0507668 0.484077
1 0.0370642 0.471382
1 0.0533761 0.451713
0 0.243763 0.48658
0.069749 0.233005 0.461479
0.194903 0.226642 0.448783
0.322072 0.222553 0.441749
0.474479 0.213016 0.443275
0.653468 0.198459 0.452735
0.826917 0.188617 0.460655
1 0.178958 0.455955
1 0.198657 0.449531
0 0.357015 0.459556
0.0603342 0.350301 0.443626
0.193957 0.352224 0.442588
0.325032 0.356374 0.444984
0.482017 0.356146 0.448127
0.65803 0.351461 0.457237
0.83035 0.348577 0.464317
1 0.338079 0.45832
1 0.347921 0.456535
0 0.510567 0.445869
0.0484016 0.504005 0.44033
0.191257 0.510185 0.445182
0.330129 0.516457 0.450355
0.483528 0.516777 0.451408
0.650553 0.511345 0.449409
0.798657 0.51043 0.449424
0.98645 0.500267 0.439368
1 0.503777 0.440696
0 0.676493 0.449851
0.0545052 0.661051 0.450217
0.204288 0.659464 0.450324
0.333593 0.664302 0.453361
0.484062 0.664469 0.453849
0.645747 0.662211 0.450248
0.787045 0.665537 0.445045
0.965118 0.657298 0.431449
1 0.651942 0.426871
0 0.812818 0.474754
0.0928206 0.79501 0.479606
0.258106 0.789868 0.487327
0.370413 0.799268 0.502068
0.51957 0.798032 0.491051
0.664836 0.795316 0.475959
0.798383 0.793378 0.455451
0.957229 0.780209 0.435508
1 0.766995 0.422873
0 0.942077 0.518639
0.140154 0.922072 0.524819
0.304662 0.909697 0.534142
0.400824 0.914122 0.543648
0.536065 0.907607 0.512688
0.671504 0.898146 0.48101
0.788327 0.891829 0.454154
0.930236 0.875959 0.431235
1 0.859495 0.419318
0 1 0.547677
0.156283 1 0.544701
0.317143 1 0.54403
0.40705 1 0.541222
0.525078 0.995972 0.505638
0.661921 0.981353 0.468147
0.766522 0.974502 0.444663
0.894026 0.960082 0.425422
1 0.94168 0.420218
0.0664988 0.0660258 0.774563
0.183291 0.0506294 0.705791
0.293263 0.036286 0.650401
0.400061 0.0205539 0.630838
0.53463 0 0.613108
0.701335 0 0.604654
0.82855 0 0.610224
0.996704 0 0.615549
1 0 0.599161
0 0.144045 0.660929
0.112169 0.131075 0.621225
0.23093 0.120897 0.587716
0.351186 0.110384 0.57702
0.48957 0.09691 0.564843
0.65951 0.0757153 0.564614
0.801816 0.0636912 0.584268
0.965499 0.0507973 0.583902
1 0.0594797 0.564263
0 0.239796 0.597864
0.0685435 0.232105 0.568582
0.196323 0.226459 0.553353
0.321309 0.222889 0.55378
0.4692 0.217441 0.546838
0.638972 0.207492 0.551217
0.792309 0.202304 0.574563
0.970062 0.19527 0.582101
1 0.210666 0.570184
0 0.354055 0.574685
0.062623 0.352026 0.552636
0.197467 0.353948 0.555215
0.32726 0.359014 0.566812
0.484047 0.360723 0.560754
0.650111 0.360052 0.562722
0.814084 0.35581 0.592721
0.993805 0.34844 0.595911
1 0.358251 0.586587
0 0.50779 0.560143
0.0560616 0.50782 0.544121
0.196689 0.513909 0.55285
0.333165 0.519615 0.56669
0.486931 0.519875 0.560281
0.646784 0.516777 0.548623
0.788846 0.516182 0.562799
0.973709 0.50605 0.564157
1 0.511086 0.565774
0 0.67129 0.576242
0.0638285 0.661967 0.560784
0.208667 0.661173 0.564599
0.335485 0.66598 0.579171
0.487327 0.666728 0.572595
0.647288 0.665537 0.561105
0.783566 0.668849 0.564263
0.957351 0.660151 0.556008
1 0.655344 0.553048
0 0.808881 0.627085
0.103456 0.79321 0.617685
0.26125 0.789532 0.630045
0.370733 0.798184 0.652232
0.52163 0.79617 0.632822
0.666163 0.793561 0.60853
0.79588 0.790997 0.591058
0.954131 0.778347 0.556298
1 0.765072 0.540597
0 0.938384 0.683024
0.147646 0.917205 0.676707
0.304158 0.906371 0.683818
0.398642 0.910079 0.693431
0.537545 0.9019 0.657649
0.673899 0.892546 0.613199
0.790661 0.885664 0.583749
0.925246 0.873014 0.540749
1 0.857252 0.514961
0 1 0.705257
0.156405 1 0.693523
0.313298 1 0.688594
0.404135 0.998459 0.686824
0.529992 0.987808 0.645075
0.667338 0.974838 0.585977
0.771786 0.968231 0.553307
0.893172 0.95642 0.5243
1 0.940536 0.503731
0.0605936 0.060502 0.883879
0.175433 0.0448463 0.827939
0.28629 0.0298619 0.782345
0.393759 0.014313 0.765133
0.524865 0 0.742412
0.682765 0 0.713924
0.795254 0 0.716869
0.93315 0 0.719356
1 0 0.740719
0 0.137789 0.798367
0.106447 0.125536 0.761456
0.226352 0.11632 0.724041
0.346258 0.106294 0.715038
0.483909 0.0945754 0.700587
0.644602 0.0789807 0.683177
0.768963 0.0737316 0.699962
0.911635 0.0689403 0.700114
1 0.063859 0.707958
0 0.234775 0.724102
0.065568 0.22826 0.711833
0.195346 0.223316 0.693416
0.319249 0.221393 0.694026
0.466819 0.217273 0.685466
0.627344 0.212772 0.674144
0.765789 0.212894 0.70277
0.925521 0.212055 0.71107
1 0.221027 0.709407
0 0.350149 0.703426
0.0619974 0.351446 0.700298
0.199023 0.353613 0.697581
0.327962 0.360342 0.707301
0.48539 0.3626 0.703624
0.645853 0.364416 0.699718
0.787045 0.366796 0.725811
0.954406 0.361074 0.735485
1 0.368795 0.725841
0 0.502678 0.693446
0.0598611 0.508202 0.688594
0.199847 0.514153 0.697749
0.334157 0.520531 0.709941
0.487312 0.520256 0.703761
0.644724 0.517678 0.687907
0.774334 0.521218 0.706615
0.945373 0.513405 0.722759
1 0.519539 0.719783
0 0.66212 0.715389
0.073106 0.659129 0.700679
0.210498 0.660853 0.707164
0.335821 0.667094 0.71783
0.488319 0.667704 0.714534
0.646235 0.666392 0.705562
0.774502 0.670619 0.713375
0.94168 0.661204 0.719921
1 0.658122 0.714992
0 0.799054 0.761074
0.11693 0.790555 0.749859
0.265263 0.790661 0.753872
0.372976 0.800107 0.766583
0.523278 0.796216 0.75787
0.66511 0.791806 0.745388
0.793149 0.787396 0.73843
0.940764 0.774746 0.722881
1 0.761868 0.706905
0 0.932021 0.807034
0.165011 0.913054 0.79266
0.306172 0.906432 0.789532
0.398627 0.910033 0.793774
0.536782 0.899168 0.77615
0.671489 0.887541 0.750546
0.788235 0.878935 0.731914
0.916915 0.86595 0.707408
1 0.851423 0.675227
0 1 0.825986
0.167498 1 0.809171
0.313008 0.998215 0.797055
0.401556 0.995773 0.794659
0.527077 0.982956 0.771511
0.665461 0.967468 0.73077
0.772396 0.959274 0.705821
0.891493 0.947265 0.680858
1 0.935317 0.637766
0.0599985 0.0600748 0.932342
0.170642 0.0437324 0.895155
0.282567 0.0266117 0.870619
0.391119 0.0118105 0.855985
0.521355 0 0.843778
0.675059 0 0.827405
0.781277 0 0.823468
0.906584 0 0.816526
1 0 0.828534
0 0.136538 0.859617
0.106065 0.124483 0.845823
0.226139 0.114672 0.822736
0.344869 0.105928 0.810224
0.48278 0.0945296 0.802609
0.63917 0.0804303 0.794247
0.754879 0.0802167 0.79736
0.889372 0.079408 0.793317
1 0.0770886 0.795499
0 0.233997 0.81181
0.0673533 0.228351 0.807645
0.198108 0.224414 0.789487
0.32134 0.224521 0.785595
0.469764 0.220584 0.784375
0.627253 0.21648 0.784176
0.755718 0.222904 0.79585
0.902754 0.227314 0.797757
1 0.234119 0.799298
0 0.350713 0.791394
0.0671244 0.35436 0.79646
0.205219 0.357336 0.791501
0.332845 0.365896 0.795407
0.490425 0.367407 0.800046
0.647471 0.369116 0.80473
0.77734 0.37673 0.814008
0.92932 0.37586 0.816342
1 0.379095 0.812451
0 0.503365 0.787655
0.0683299 0.511604 0.794446
0.206928 0.518303 0.798733
0.338216 0.524865 0.802075
0.490623 0.52343 0.802899
0.645899 0.520409 0.802075
0.771344 0.526757 0.810544
0.926085 0.525658 0.815351
1 0.530465 0.811749
0 0.659159 0.799512
0.0777447 0.661967 0.799954
0.216312 0.664668 0.798764
0.340429 0.67248 0.801144
0.492882 0.672084 0.804547
0.648035 0.6701 0.807279
0.776501 0.67454 0.811994
0.927306 0.669291 0.811551
1 0.666758 0.805508
0 0.793896 0.828214
0.13228 0.79353 0.825605
0.273152 0.795804 0.825315
0.37847 0.805631 0.832761
0.527642 0.800153 0.830793
0.66772 0.794125 0.827756
0.794888 0.788418 0.823087
0.931167 0.777371 0.813214
1 0.765637 0.803891
0.0130617 0.925124 0.867369
0.184344 0.913146 0.856153
0.311147 0.909773 0.852033
0.401587 0.912902 0.854871
0.538262 0.900572 0.845457
0.67158 0.887068 0.8336
0.78761 0.877256 0.823743
0.913573 0.863523 0.809552
1 0.84918 0.794736
0.0390173 1 0.885191
0.189029 1 0.871916
0.314748 0.999603 0.8607
0.402213 0.996429 0.858061
0.526574 0.982712 0.846342
0.664286 0.965103 0.827604
0.77116 0.95552 0.816129
0.889357 0.942718 0.800855
1 0.929549 0.781903
0.06215 0.0620584 0.952865
0.168765 0.0438697 0.941863
0.281895 0.0258335 0.925689
0.391287 0.0122377 0.91107
0.521508 0 0.903227
0.67425 0 0.896666
0.780407 0 0.892744
0.904524 0 0.882048
1 0 0.870207
0 0.13727 0.906767
0.108354 0.126421 0.895537
0.228794 0.116289 0.880491
0.346929 0.109102 0.866789
0.485023 0.0980545 0.862287
0.640864 0.0847028 0.861189
0.756283 0.0862593 0.862364
0.893141 0.0860304 0.857084
1 0.0873426 0.853697
0 0.236194 0.864073
0.0755169 0.232013 0.85713
0.204227 0.228412 0.847028
0.326802 0.230259 0.842084
0.475883 0.226978 0.844541
0.632349 0.223301 0.850401
0.75906 0.231479 0.858366
0.906126 0.236378 0.859434
1 0.242496 0.860365
0 0.356008 0.850004
0.0787213 0.35967 0.851133
0.21445 0.364446 0.849256
0.340597 0.374304 0.852888
0.498512 0.375753 0.860426
0.65362 0.376837 0.869398
0.78262 0.384054 0.875959
0.929442 0.384894 0.873213
1 0.386633 0.870161
0 0.51014 0.851896
0.0782025 0.518486 0.858396
0.216922 0.525063 0.859083
0.344945 0.532235 0.859663
0.496956 0.529763 0.863371
0.651041 0.527001 0.868223
0.777035 0.533837 0.874311
0.924025 0.535668 0.872175
1 0.53817 0.869886
0 0.66421 0.857954
0.0865339 0.668116 0.859251
0.226337 0.670893 0.855009
0.347295 0.68014 0.856214
0.499641 0.679271 0.861479
0.653498 0.677104 0.86865
0.782467 0.68043 0.871687
0.925811 0.67715 0.865995
1 0.673655 0.859968
0.00178531 0.797269 0.878248
0.144183 0.799664 0.878492
0.282445 0.802213 0.875914
0.384863 0.811948 0.882002
0.533394 0.805585 0.882124
0.671839 0.798428 0.88217
0.798566 0.791745 0.877913
0.93283 0.78027 0.867689
1 0.769635 0.858076
0.0518502 0.92221 0.909865
0.194232 0.91696 0.904128
0.316426 0.913878 0.899138
0.405341 0.916625 0.901335
0.541009 0.903517 0.894881
0.673869 0.889418 0.888136
0.788632 0.87863 0.880247
0.914076 0.864668 0.867903
1 0.851621 0.856336
0.0683757 1 0.928603
0.198611 1 0.918379
0.317357 1 0.908156
0.404547 0.998688 0.905516
0.527779 0.984558 0.897642
0.665049 0.965942 0.886107
0.771771 0.956054 0.87866
0.889372 0.943008 0.866712
1 0.929107 0.853773
