70 CGC LUTs/Look LUTs/Emulsion.cube
#Created by: Denver Riddle
#Copyright: (C) Copyright Color Grading Central LLC
#LUT Size
LUT_3D_SIZE 5
0.105867 0.103182 0.0966812
0.376516 0.0521859 0.0499275
0.679454 0 0
1 0 0
1 0 0
0 0.266926 0
0.203967 0.237507 0
0.515877 0.210925 0
0.874617 0.183459 0
1 0.177813 0
0 0.518669 0
0.171328 0.503624 0
0.480552 0.512779 0
0.799084 0.514549 0
1 0.502831 0
0 0.803922 0
0.22388 0.794781 0
0.50724 0.802228 0
0.806882 0.799893 0
1 0.781643 0
0.0440223 1 0.0434424
0.305348 1 0.0175937
0.526101 1 0
0.791852 0.998199 0
1 0.956649 0
0.0880903 0.0863966 0.393606
0.31841 0.0462501 0.355062
0.614572 0 0.334829
0.953445 0 0.294179
1 0 0.251514
0 0.250523 0.266011
0.193957 0.227787 0.242374
0.499428 0.2038 0.217746
0.861143 0.178515 0.189502
1 0.18587 0.198108
0 0.510643 0.19469
0.177157 0.503731 0.227115
0.480003 0.512703 0.208026
0.804471 0.509529 0.169848
1 0.500435 0.17116
0 0.805264 0.234226
0.234928 0.78941 0.269276
0.504677 0.799283 0.254582
0.802625 0.796124 0.20116
1 0.772946 0.188464
0.0177615 1 0.336309
0.30634 1 0.329763
0.504295 1 0.245655
0.772931 0.989258 0.158968
1 0.9467 0.205676
0.0763409 0.0756695 0.613382
0.298619 0.0416571 0.540917
0.552483 0 0.524346
0.882795 0 0.529656
1 0 0.48484
0 0.243763 0.48658
0.194903 0.226642 0.448783
0.474479 0.213016 0.443275
0.826917 0.188617 0.460655
1 0.198657 0.449531
0 0.510567 0.445869
0.191257 0.510185 0.445182
0.483528 0.516777 0.451408
0.798657 0.51043 0.449424
1 0.503777 0.440696
0 0.812818 0.474754
0.258106 0.789868 0.487327
0.51957 0.798032 0.491051
0.798383 0.793378 0.455451
1 0.766995 0.422873
0 1 0.547677
0.317143 1 0.54403
0.525078 0.995972 0.505638
0.766522 0.974502 0.444663
1 0.94168 0.420218
0.0605936 0.060502 0.883879
0.28629 0.0298619 0.782345
0.524865 0 0.742412
0.795254 0 0.716869
1 0 0.740719
0 0.234775 0.724102
0.195346 0.223316 0.693416
0.466819 0.217273 0.685466
0.765789 0.212894 0.70277
1 0.221027 0.709407
0 0.502678 0.693446
0.199847 0.514153 0.697749
0.487312 0.520256 0.703761
0.774334 0.521218 0.706615
1 0.519539 0.719783
0 0.799054 0.761074
0.265263 0.790661 0.753872
0.523278 0.796216 0.75787
0.793149 0.787396 0.73843
1 0.761868 0.706905
0 1 0.825986
0.313008 0.998215 0.797055
0.527077 0.982956 0.771511
0.772396 0.959274 0.705821
1 0.935317 0.637766
0.06215 0.0620584 0.952865
0.281895 0.0258335 0.925689
0.521508 0 0.903227
0.780407 0 0.892744
1 0 0.870207
0 0.236194 0.864073
0.204227 0.228412 0.847028
0.475883 0.226978 0.844541
0.75906 0.231479 0.858366
1 0.242496 0.860365
0 0.51014 0.851896
0.216922 0.525063 0.859083
0.496956 0.529763 0.863371
0.777035 0.533837 0.874311
1 0.53817 0.869886
0.00178531 0.797269 0.878248
0.282445 0.802213 0.875914
0.533394 0.805585 0.882124
0.798566 0.791745 0.877913
1 0.769635 0.858076
0.0683757 1 0.928603
0.317357 1 0.908156
0.527779 0.984558 0.897642
0.771771 0.956054 0.87866
1 0.929107 0.853773
