70 CGC LUTs/Look LUTs/Enemy.cube
#Created by: Denver Riddle
#Copyright: (C) Copyright Color Grading Central LLC
#LUT Size
LUT_3D_SIZE 33
0 0 0
0.00392157 0.000564584 0
0.0065919 0.00392157 0
0.0181582 0.00392157 0
0.0376287 0.00674449 0
0.0598306 0.00784314 0
0.0809796 0.00784314 0
0.0975052 0.00784314 0
0.113863 0.00784314 0
0.129885 0.00842298 0
0.146227 0.00877394 0
0.163668 0.00901808 0
0.180209 0.00926223 0
0.197681 0.0114748 0
0.215503 0.0117647 0
0.231907 0.0117647 0
0.247181 0.0117647 0
0.26183 0.0117647 0
0.276692 0.0135348 0
0.293095 0.0153353 0
0.311238 0.0156863 0
0.33167 0.0176089 0
0.351934 0.0188602 0
0.372549 0.01944 0
0.396048 0.0188296 0
0.420127 0.0161288 0
0.44744 0.0122683 0
0.475212 0.00830091 0
0.503288 0.000823987 0
0.534524 0 0
0.569131 0 0
0.60824 0 0
0.611765 0 0
0.00451667 0.00451667 0
0.00514229 0.00514229 0
0.0113375 0.00520333 0
0.0229343 0.00703441 0
0.0398108 0.00848402 0
0.0612497 0.00856031 0
0.0823682 0.00944533 0
0.0995651 0.00889601 0
0.115892 0.0091249 0
0.131975 0.0112459 0
0.149401 0.0117647 0
0.166018 0.0117647 0
0.183078 0.0117647 0
0.200488 0.0117647 0
0.217014 0.0139925 0
0.232166 0.0146029 0
0.248005 0.0148013 0
0.264256 0.0149996 0
0.279454 0.0155032 0
0.294453 0.0176242 0
0.31078 0.0194095 0
0.330739 0.019501 0
0.351202 0.0221866 0
0.371191 0.0233005 0
0.394125 0.0227207 0
0.418021 0.0201724 0
0.444755 0.0169985 0
0.472206 0.0132601 0
0.502083 0.00852979 0
0.533211 0.00164797 0
0.565469 0 0
0.602548 0 0
0.610925 0 0
0.00923171 0.0120241 0
0.0101625 0.0146487 0
0.0169528 0.0146181 0
0.0276951 0.0154269 0
0.0445258 0.016083 0
0.064622 0.0162661 0
0.0855879 0.0188144 0
0.104082 0.0172732 0
0.122164 0.0175021 0
0.138155 0.0161746 0
0.153903 0.0165713 0
0.170275 0.0169985 0
0.185763 0.0174868 0
0.204288 0.0178683 0
0.219776 0.0187839 0
0.23473 0.0191043 0
0.250935 0.0217288 0
0.266011 0.0231937 0
0.280125 0.0236667 0
0.29572 0.025742 0
0.313298 0.0279545 0
0.332586 0.0277714 0
0.352819 0.0276799 0
0.375219 0.0277256 0
0.396536 0.0276799 0
0.420981 0.0275883 0
0.447517 0.0251164 0
0.472801 0.0211032 0
0.501671 0.0156252 0
0.533028 0.00834669 0
0.565667 0.00205997 0
0.600031 0 0
0.613901 0 0
0.0117647 0.0283665 0
0.0149081 0.026276 0
0.0226444 0.0270848 0
0.0333715 0.0294499 0
0.0475013 0.0301976 0
0.0649729 0.0304723 0
0.0854353 0.0307927 0
0.105577 0.0312047 0
0.125261 0.0315099 0
0.143633 0.0312047 0
0.162097 0.0319829 0
0.18056 0.0326543 0
0.196216 0.0323644 0
0.211765 0.0326848 0
0.225711 0.034165 0
0.240055 0.035111 0
0.255985 0.0356603 0
0.271138 0.0362554 0
0.285328 0.0370489 0
0.29987 0.0386664 0
0.317052 0.0409857 0
0.338048 0.0405585 0
0.358495 0.0404364 0
0.380118 0.0403143 0
0.403555 0.0401923 0
0.426947 0.0400092 0
0.451118 0.0380713 0
0.478096 0.0340734 0
0.506615 0.0292668 0
0.536294 0.022385 0
0.569024 0.0111543 0
0.603449 0.00131228 0
0.624735 0 0
0.014725 0.0471046 0
0.0169223 0.0462501 0
0.026978 0.0465095 0
0.0405127 0.0470588 0
0.0539254 0.0470588 0
0.0681163 0.0497902 0
0.0853132 0.0505379 0
0.105196 0.0510719 0
0.124956 0.0516823 0
0.147204 0.0524453 0
0.166369 0.0526436 0
0.185702 0.0506294 0
0.203693 0.05066 0
0.219028 0.0510719 0
0.233845 0.0516365 0
0.248875 0.0522774 0
0.263859 0.0527352 0
0.278492 0.0545663 0
0.292714 0.0572518 0
0.307301 0.0580453 0
0.323919 0.0578164 0
0.344884 0.0573587 0
0.365759 0.0570535 0
0.388876 0.056733 0
0.41207 0.0565042 0
0.435355 0.05626 0
0.459937 0.054963 0
0.486137 0.0516518 0
0.512291 0.0493782 0
0.543099 0.0431525 0
0.574777 0.0311894 0
0.609155 0.0167391 0
0.635004 0 0
0.0156863 0.0653239 0
0.0173648 0.0653239 0
0.0283513 0.0652018 0
0.0444953 0.0650797 0
0.062211 0.0648966 0
0.0761273 0.0682841 0
0.0890211 0.0689403 0
0.108476 0.0726482 0
0.12813 0.0733654 0
0.147524 0.0738231 0
0.16907 0.0742046 0
0.188052 0.0746929 0
0.206378 0.0751507 0
0.224628 0.0756542 0
0.24271 0.0740063 0
0.259068 0.0728923 0
0.275532 0.0732586 0
0.292592 0.0737163 0
0.306981 0.074815 0
0.321813 0.0779583 0
0.34078 0.0777295 0
0.361105 0.0770428 0
0.381369 0.0766613 0
0.401373 0.0763409 0
0.421988 0.0760052 0
0.445167 0.0758831 0
0.468833 0.0749523 0
0.495567 0.073991 0
0.522911 0.0698558 0
0.553521 0.0654917 0
0.584421 0.0598917 0
0.618906 0.0467536 0
0.650446 0.0253147 0
0.0155489 0.087541 0
0.017792 0.0870069 0
0.0289769 0.0865492 0
0.0479744 0.0860456 0
0.0673991 0.0856641 0
0.0845197 0.0889296 0
0.0971237 0.0892805 0
0.112963 0.0932784 0
0.132021 0.0936599 0
0.150774 0.0939651 0
0.172519 0.0975357 0
0.191333 0.098497 0
0.209598 0.0963149 0
0.227802 0.0955825 0
0.245716 0.0959487 0
0.264027 0.0962387 0
0.28365 0.0965133 0
0.303197 0.0968795 0
0.320623 0.0975204 0
0.335958 0.0977951 0
0.35848 0.0974289 0
0.376516 0.096437 0
0.399054 0.0959029 0
0.415915 0.0954604 0
0.438697 0.0955367 0
0.458518 0.0981918 0
0.481529 0.0978256 0
0.508049 0.0974136 0
0.53492 0.0964981 0
0.565667 0.0923018 0
0.596109 0.0878309 0
0.630411 0.0757153 0
0.664256 0.059205 0
0.0113069 0.112657 0
0.0127871 0.112184 0
0.0237736 0.111299 0
0.0476234 0.110445 0
0.0712749 0.109712 0
0.0927138 0.109346 0
0.109117 0.10927 0
0.121035 0.113085 0
0.136156 0.116762 0
0.154559 0.117189 0
0.172946 0.117494 0
0.191302 0.117922 0
0.211978 0.118212 0
0.231144 0.118456 0
0.248966 0.118822 0
0.268437 0.119142 0
0.289021 0.119463 0
0.307912 0.119905 0
0.327947 0.120409 0
0.349142 0.120241 0
0.372854 0.119768 0
0.394156 0.118273 0
0.413886 0.117784 0
0.433448 0.117433 0
0.452949 0.117189 0
0.475425 0.120241 0
0.498039 0.120104 0
0.524254 0.119646 0
0.551064 0.119326 0
0.57818 0.118471 0
0.608515 0.114031 0
0.642618 0.105241 0
0.679438 0.0927749 0
0.00689708 0.13814 0
0.00900282 0.137316 0
0.0203403 0.135592 0
0.0444953 0.134005 0
0.0715648 0.133242 0
0.0970779 0.132509 0
0.117098 0.132143 0
0.132448 0.13225 0
0.147524 0.135973 0
0.159258 0.139574 0
0.176867 0.140261 0
0.194903 0.140444 0
0.215534 0.140917 0
0.234653 0.143221 0
0.252705 0.144884 0
0.272129 0.14519 0
0.293385 0.145464 0
0.314214 0.145647 0
0.334752 0.145846 0
0.355886 0.142596 0
0.382879 0.141817 0
0.404868 0.140795 0
0.428077 0.139879 0
0.447333 0.142718 0
0.469688 0.142367 0
0.49221 0.142397 0
0.517937 0.141955 0
0.544671 0.141604 0
0.571145 0.141054 0
0.597604 0.140505 0
0.627573 0.139162 0
0.65864 0.131411 0
0.698314 0.122469 0
0.00112917 0.163912 0
0.0053254 0.162997 0
0.0148318 0.161883 0
0.0401007 0.157977 0
0.0716716 0.156039 0
0.101259 0.155215 0
0.124971 0.154742 0
0.140352 0.154559 0
0.15877 0.154849 0
0.170336 0.158572 0
0.184802 0.161898 0
0.202167 0.165255 0
0.220356 0.1664 0
0.238254 0.166674 0
0.257908 0.167071 0
0.279042 0.167163 0
0.300282 0.167254 0
0.321111 0.167437 0
0.34165 0.167803 0
0.366125 0.167773 0
0.393332 0.167239 0
0.418296 0.166049 0
0.441855 0.16492 0
0.464134 0.168231 0
0.483452 0.167727 0
0.509102 0.167178 0
0.53579 0.166644 0
0.562234 0.166003 0
0.59147 0.165362 0
0.618173 0.162173 0
0.648005 0.161364 0
0.68072 0.158663 0
0.716503 0.151141 0
0 0.186999 0
0.00183108 0.186023 0
0.0115053 0.184634 0
0.0376898 0.183276 0
0.0688945 0.178546 0
0.102174 0.177447 0
0.129366 0.176898 0
0.148531 0.176806 0
0.166842 0.176623 0
0.181094 0.180117 0
0.195499 0.183734 0
0.210346 0.187411 0
0.225208 0.188388 0
0.243885 0.19057 0
0.26331 0.192111 0
0.282689 0.192218 0
0.304845 0.192218 0
0.328618 0.192325 0
0.352056 0.192752 0
0.376699 0.192966 0
0.403723 0.192218 0
0.431739 0.191043 0
0.458381 0.190127 0
0.478431 0.193133 0
0.499977 0.192676 0
0.523781 0.194842 0
0.550301 0.194247 0
0.579263 0.1935 0
0.611765 0.192645 0
0.641016 0.188434 0
0.67129 0.187503 0
0.704646 0.184726 0
0.738293 0.179202 0
0 0.212955 0
0 0.211948 0
0.00813306 0.210483 0
0.0347906 0.206073 0
0.0689097 0.203586 0
0.1028 0.202396 0
0.133669 0.198962 0
0.15581 0.198688 0
0.174304 0.201251 0
0.191775 0.202075 0
0.206424 0.205356 0
0.220691 0.208927 0
0.235187 0.212085 0
0.252079 0.213703 0
0.2701 0.215503 0
0.290257 0.21709 0
0.313741 0.21709 0
0.336339 0.217411 0
0.35967 0.217792 0
0.384436 0.220539 0
0.413748 0.219974 0
0.445502 0.2159 0
0.47306 0.217456 0
0.495018 0.218082 0
0.517433 0.219989 0
0.537789 0.222934 0
0.566217 0.222431 0
0.596399 0.221698 0
0.63032 0.220951 0
0.661372 0.218708 0
0.693355 0.215961 0
0.727123 0.211658 0
0.76231 0.208698 0
0 0.235019 0
0 0.233829 0
0.00579843 0.232532 0
0.0309453 0.230579 0
0.0688182 0.229068 0
0.103426 0.227817 0
0.134981 0.223331 0
0.160433 0.222843 0
0.181598 0.223728 0
0.202426 0.226108 0
0.219654 0.22739 0
0.234318 0.230579 0
0.248524 0.234134 0
0.263355 0.236927 0
0.279835 0.239887 0
0.299336 0.241871 0
0.322301 0.242802 0
0.345647 0.244846 0
0.369223 0.245106 0
0.39617 0.246311 0
0.426612 0.248005 0
0.456992 0.24538 0
0.487053 0.245853 0
0.5122 0.24506 0
0.534859 0.248081 0
0.555703 0.251087 0
0.581872 0.252369 0
0.613581 0.253346 0
0.64651 0.251347 0
0.67866 0.250187 0
0.713848 0.246006 0
0.749462 0.241474 0
0.78529 0.239994 0
0 0.263844 0
0 0.262257 0
0.00111391 0.26041 0
0.0253605 0.258579 0
0.0669871 0.254322 0
0.103944 0.252903 0
0.137789 0.250736 0
0.16434 0.250126 0
0.188876 0.249638 0
0.210941 0.251164 0
0.229221 0.251164 0
0.24741 0.254063 0
0.262623 0.257511 0
0.276722 0.261036 0
0.291524 0.26453 0
0.309606 0.267582 0
0.331807 0.270054 0
0.355978 0.273045 0
0.37969 0.273304 0
0.407507 0.275334 0
0.438651 0.276417 0
0.469749 0.27512 0
0.500801 0.276005 0
0.529488 0.27509 0
0.553918 0.277836 0
0.576623 0.280873 0
0.601022 0.284199 0
0.631571 0.287221 0
0.662089 0.284504 0
0.695918 0.283299 0
0.73341 0.280049 0
0.771557 0.274449 0
0.807279 0.273167 0
0 0.292531 0
0 0.290929 0
0 0.289219 0
0.0173037 0.287129 0
0.0593729 0.283711 0
0.0999924 0.280446 0
0.135637 0.279042 0
0.16643 0.278553 0
0.194385 0.278187 0
0.21796 0.277821 0
0.237888 0.277699 0
0.258869 0.280583 0
0.276112 0.284001 0
0.291997 0.287663 0
0.306874 0.291188 0
0.323201 0.294713 0
0.343664 0.298116 0
0.366537 0.301381 0
0.390463 0.303258 0
0.418265 0.307027 0
0.44918 0.306462 0
0.482078 0.306371 0
0.513512 0.307561 0
0.544182 0.308156 0
0.573617 0.309621 0
0.598154 0.312901 0
0.62446 0.31487 0
0.651789 0.318853 0
0.680903 0.318486 0
0.713787 0.318425 0
0.75111 0.317464 0
0.789166 0.310719 0
0.826322 0.30837 0
0 0.323964 0
0 0.322164 0
0 0.319966 0
0.00608835 0.317754 0
0.0411536 0.315541 0
0.0914321 0.312032 0
0.129137 0.30901 0
0.165179 0.308461 0
0.196307 0.307912 0
0.223316 0.307485 0
0.246448 0.30721 0
0.267948 0.310079 0
0.287602 0.312673 0
0.306767 0.315862 0
0.324361 0.319921 0
0.340871 0.324208 0
0.358602 0.327596 0
0.37966 0.33138 0
0.403052 0.336767 0
0.429023 0.338888 0
0.459739 0.339437 0
0.492653 0.341512 0
0.524163 0.340444 0
0.554925 0.343465 0
0.589517 0.342672 0
0.617395 0.345449 0
0.6448 0.344762 0
0.675242 0.349599 0
0.702434 0.349859 0
0.732052 0.352346 0
0.767758 0.351888 0
0.804974 0.347692 0
0.841825 0.345602 0
0 0.358602 0
0 0.356313 0
0 0.353857 0
0 0.351263 0
0.0164492 0.348959 0
0.0768292 0.347082 0
0.120073 0.343404 0
0.160494 0.342336 0
0.193973 0.340749 0
0.22536 0.340291 0
0.251835 0.339986 0
0.275731 0.343145 0
0.298116 0.343908 0
0.320348 0.345983 0
0.341817 0.350835 0
0.360815 0.355901 0
0.378241 0.359716 0
0.398154 0.364691 0
0.418051 0.370855 0
0.441062 0.371847 0
0.47126 0.374548 0
0.50399 0.376883 0
0.535668 0.376699 0
0.566186 0.378866 0
0.599802 0.378256 0
0.630243 0.380194 0
0.660639 0.379232 0
0.694163 0.377966 0
0.724849 0.379965 0
0.754513 0.382666 0
0.787396 0.385031 0
0.82118 0.384283 0
0.85478 0.382849 0
0 0.395636 0
0 0.393271 0
0 0.390417 0
0 0.387549 0
0.000671397 0.385183 0
0.0502022 0.383169 0
0.104738 0.381811 0
0.151827 0.380575 0
0.18764 0.376699 0
0.224765 0.375891 0
0.25539 0.375708 0
0.284459 0.378103 0
0.311192 0.378836 0
0.336187 0.380972 0
0.359152 0.384192 0
0.380774 0.387793 0
0.401221 0.392828 0
0.419013 0.398749 0
0.436133 0.402411 0
0.456565 0.406653 0
0.485786 0.409522 0
0.518166 0.411887 0
0.549065 0.414282 0
0.579416 0.413108 0
0.609628 0.415259 0
0.639735 0.414145 0
0.673228 0.412924 0
0.710201 0.414725 0
0.743893 0.41416 0
0.776761 0.413413 0
0.807889 0.415641 0
0.838926 0.41799 0
0.87042 0.420645 0
0 0.432074 0
0 0.429938 0
0 0.427726 0
0 0.425925 0
0.00030518 0.42327 0
0.0149538 0.421241 0
0.0826123 0.419684 0
0.136721 0.418235 0
0.182162 0.414633 0
0.22298 0.41413 0
0.259205 0.413779 0
0.291859 0.413596 0
0.323888 0.413443 0
0.35082 0.415885 0
0.37586 0.41767 0
0.399039 0.420905 0
0.420371 0.426459 0
0.440391 0.43006 0
0.45713 0.433753 0
0.475105 0.44036 0
0.500175 0.443397 0
0.528252 0.445289 0
0.559045 0.447517 0
0.58938 0.449531 0
0.619608 0.448737 0
0.652781 0.447547 0
0.686687 0.449042 0
0.721752 0.449195 0
0.758938 0.448402 0
0.796368 0.447791 0
0.828244 0.448157 0
0.859541 0.453773 0
0.88864 0.458442 0
0 0.468376 0
0 0.466194 0
0 0.464454 0
0 0.463752 0
0 0.461585 0
0.00527962 0.459586 0
0.0531777 0.457786 0
0.120592 0.453971 0
0.172457 0.453223 0
0.219791 0.452873 0
0.25922 0.449134 0
0.298085 0.448676 0
0.331197 0.448676 0
0.360586 0.451331 0
0.388281 0.452598 0
0.414252 0.454047 0
0.438224 0.457282 0
0.460243 0.461036 0
0.477043 0.467338 0
0.497459 0.470954 0
0.516945 0.47396 0
0.540993 0.478721 0
0.568444 0.481117 0
0.59881 0.483742 0
0.632334 0.483238 0
0.664302 0.482475 0
0.698894 0.48542 0
0.736156 0.485328 0
0.772915 0.485023 0
0.812619 0.485481 0
0.845899 0.486397 0
0.878569 0.495155 0
0.906889 0.500465 0
0 0.508659 0
0 0.506294 0
0 0.503594 0
0 0.50074 0
0 0.498207 0
7.62951e-05 0.496208 0
0.00781262 0.495262 0
0.0872206 0.494163 0
0.149813 0.493492 0
0.204196 0.493156 0
0.250706 0.48957 0
0.296223 0.488731 0
0.333745 0.488228 0
0.367773 0.488014 0
0.398596 0.487831 0
0.425055 0.488548 0
0.449226 0.491554 0
0.473259 0.495048 0
0.495308 0.498985 0
0.51603 0.50222 0
0.5355 0.507362 0
0.556191 0.511284 0
0.58027 0.517006 0
0.608301 0.518502 0
0.642573 0.520577 0
0.674708 0.523278 0
0.710338 0.525185 0
0.750484 0.528817 0
0.787793 0.530221 0
0.825711 0.531579 0
0.861021 0.532601 0
0.889906 0.540856 0
0.916274 0.542321 0
0 0.550103 0
0 0.547753 0
0 0.544884 0
0 0.542184 0
0 0.539834 0
0 0.537804 0
0 0.536461 0
0.0452735 0.535454 0
0.120836 0.534432 0
0.182147 0.533593 0
0.235691 0.530526 0
0.283757 0.528664 0
0.326925 0.528161 0
0.365225 0.527489 0
0.398764 0.527138 0
0.429175 0.526741 0
0.459037 0.527489 0
0.483055 0.530907 0
0.506996 0.534905 0
0.531106 0.53872 0
0.554818 0.542519 0
0.57644 0.546136 0
0.597879 0.553414 0
0.622599 0.558099 0
0.654871 0.56289 0
0.687755 0.567864 0
0.723812 0.569268 0
0.761242 0.574014 0
0.797345 0.574731 0
0.833249 0.575036 0
0.8692 0.578882 0
0.89366 0.587106 0
0.924514 0.587442 0
0 0.590723 0
0 0.588357 0
0 0.585489 0
0 0.582803 0
0 0.580102 0
0 0.577737 0
0 0.575891 0
0.00791943 0.574548 0
0.0843977 0.573526 0
0.160678 0.572854 0
0.219409 0.570153 0
0.271641 0.56759 0
0.318532 0.567086 0
0.361288 0.566217 0
0.398718 0.564218 0
0.433204 0.564523 0
0.467704 0.564675 0
0.495506 0.568444 0
0.522591 0.570977 0
0.549508 0.574914 0
0.576226 0.57998 0
0.601923 0.584482 0
0.623957 0.592584 0
0.645228 0.600885 0
0.670069 0.605798 0
0.701427 0.607172 0
0.734249 0.611017 0
0.769818 0.615412 0
0.805692 0.619181 0
0.841443 0.619486 0
0.869932 0.623316 0
0.897261 0.631296 0
0.925063 0.635477 0
0 0.630823 0
0 0.62829 0
0 0.625254 0
0 0.621897 0
0 0.61886 0
0 0.616327 0
0 0.614649 0
0 0.613291 0
0.0542763 0.612451 0
0.133242 0.611612 0
0.199344 0.610513 0
0.256916 0.608865 0
0.307057 0.607355 0
0.35668 0.607324 0
0.398032 0.604608 0
0.436637 0.605615 0
0.473625 0.607141 0
0.508721 0.610117 0
0.538933 0.612558 0
0.568841 0.617548 0
0.595895 0.6224 0
0.624506 0.626261 0
0.649439 0.630884 0
0.67013 0.638758 0
0.690486 0.643275 0
0.715175 0.650919 0
0.746456 0.655085 0
0.778302 0.65919 0
0.810346 0.659678 0
0.845792 0.663203 0
0.873808 0.667491 0
0.897765 0.671702 0
0.925063 0.675761 0
0 0.669749 0
0 0.667048 0
0 0.663844 0
0 0.660639 0
0 0.657618 0
0 0.655085 0
0 0.653407 0
0 0.652552 0
0.0303807 0.652216 0
0.100084 0.652049 0
0.175463 0.652216 0
0.237308 0.652293 0
0.292638 0.652247 0
0.346227 0.651804 0
0.392279 0.652796 0
0.438056 0.652293 0
0.477928 0.654322 0
0.517342 0.656504 0
0.552422 0.658534 0
0.583093 0.662928 0
0.612207 0.664317 0
0.641993 0.667262 0
0.670298 0.671199 0
0.694484 0.675608 0
0.714778 0.683162 0
0.734783 0.691051 0
0.755306 0.695232 0
0.786374 0.699184 0
0.81799 0.702892 0
0.84651 0.703578 0
0.874083 0.707439 0
0.897765 0.707729 0
0.921324 0.711727 0
0 0.708675 0
0 0.705638 0
0 0.702434 0
0 0.699397 0
0 0.69688 0
0 0.695354 0
0 0.694347 0
0 0.693843 0
0.0205844 0.694011 0
0.0861982 0.695186 0
0.167102 0.69688 0
0.227634 0.699229 0
0.28513 0.700923 0
0.336889 0.702144 0
0.386694 0.703136 0
0.433677 0.701534 0
0.480064 0.703182 0
0.522927 0.705211 0
0.55819 0.703944 0
0.591241 0.7075 0
0.626856 0.708461 0
0.658244 0.707637 0
0.686763 0.711208 0
0.714549 0.715206 0
0.734874 0.719371 0
0.754711 0.723552 0
0.774487 0.731044 0
0.794781 0.735149 0
0.818952 0.739422 0
0.846525 0.739528 0
0.870405 0.739696 0
0.897719 0.739712 0
0.921111 0.739879 0
0 0.747433 0
0 0.745235 0
0 0.742702 0
0 0.740185 0
0 0.738491 0
0 0.737484 0
0 0.737819 0
0 0.738994 0
0.0362707 0.74052 0
0.113558 0.742199 0
0.18175 0.74406 0
0.234363 0.745571 0
0.284306 0.746914 0
0.33344 0.748272 0
0.383368 0.748837 0
0.431022 0.747219 0
0.478096 0.748226 0
0.523705 0.749569 0
0.562081 0.747753 0
0.601297 0.748241 0
0.639292 0.748409 0
0.674098 0.747646 0
0.702846 0.750912 0
0.730617 0.751415 0
0.750973 0.754971 0
0.774273 0.758923 0
0.790799 0.76318 0.00358587
0.806821 0.767269 0.00376898
0.822934 0.767544 0.00376898
0.846601 0.771252 0.0111543
0.870222 0.771328 0.0113069
0.897719 0.767498 0.000137331
0.921202 0.767773 0
0 0.785657 0.0662394
0 0.784131 0.0627146
0 0.783062 0.0602426
0 0.782132 0.057557
0 0.781826 0.0549325
0 0.781826 0.0536507
0.0117494 0.782452 0.053727
0.0537118 0.783215 0.0537728
0.11696 0.784283 0.0532387
