70 CGC LUTs/Look LUTs/Enemy.cube
#Created by: Denver Riddle
#Copyright: (C) Copyright Color Grading Central LLC
#LUT Size
LUT_3D_SIZE 5
0 0 0
0.113863 0.00784314 0
0.247181 0.0117647 0
0.396048 0.0188296 0
0.611765 0 0
0.00689708 0.13814 0
0.147524 0.135973 0
0.293385 0.145464 0
0.469688 0.142367 0
0.698314 0.122469 0
0 0.358602 0
0.193973 0.340749 0
0.378241 0.359716 0
0.599802 0.378256 0
0.85478 0.382849 0
0 0.669749 0
0.0303807 0.652216 0
0.477928 0.654322 0
0.714778 0.683162 0
0.921324 0.711727 0
0.173037 0.935302 0.0254826
0.291829 0.930388 0.0846723
0.457176 0.931838 0.0177615
0.677333 0.925536 0.000808728
0.917525 0.90576 0
0.0152438 0.00784314 0.0113375
0.075761 0.023682 0.0355993
0.190005 0.0510719 0.0644236
0.349325 0.0673533 0.0776989
0.562005 0.0421607 0.0813764
0.0792401 0.127703 0.084184
0.158556 0.141299 0.0493782
0.311528 0.139803 0.0687114
0.474464 0.140322 0.0738079
0.677333 0.126665 0.0546883
0 0.363104 0.101762
0.171359 0.35523 0.0654765
0.391058 0.366125 0.0357671
0.626261 0.376135 0.0139925
0.854444 0.37995 0.00146487
0 0.666407 0.12604
0.0474098 0.653651 0.0819257
0.473945 0.664286 0.0627604
0.720729 0.685435 0.0500343
0.920699 0.706447 0.0860151
0.35845 0.923339 0.525338
0.38616 0.919371 0.491722
0.442481 0.927687 0.398169
0.6486 0.927733 0.0230411
0.915236 0.904173 0.000457771
0.0405585 0.0169833 0.0525216
0.0912337 0.0321965 0.0733501
0.190433 0.0727398 0.116274
0.314992 0.121386 0.160113
0.556878 0.105837 0.192096
0.128893 0.132235 0.138445
0.166918 0.142336 0.140627
0.251728 0.171252 0.162722
0.402945 0.19353 0.194751
0.641642 0.17731 0.206683
0.239704 0.337865 0.274739
0.270314 0.346975 0.218036
0.417762 0.374441 0.176501
0.64419 0.373709 0.217548
0.838941 0.385946 0.230838
0.112963 0.654215 0.369574
0.18555 0.658045 0.315419
0.468788 0.680735 0.268864
0.734951 0.69543 0.267475
0.929259 0.691508 0.281651
0.512276 0.904326 0.728786
0.509926 0.901778 0.705837
0.513191 0.909026 0.658152
0.59617 0.916777 0.496696
0.921019 0.905455 0.00376898
0.0775158 0.0324254 0.108003
0.120546 0.0483558 0.130159
0.210727 0.0848707 0.174624
0.349401 0.139666 0.232761
0.555276 0.198413 0.306615
0.16376 0.147814 0.203983
0.196521 0.153536 0.205737
0.27779 0.181888 0.234211
0.406317 0.221469 0.278752
0.613291 0.273259 0.342031
0.323003 0.347082 0.355917
0.341802 0.351919 0.346761
0.432273 0.383413 0.361028
0.556451 0.421164 0.393698
0.782315 0.455009 0.452811
0.522881 0.613077 0.572915
0.522713 0.623301 0.560861
0.598871 0.670192 0.503212
0.74818 0.703868 0.46479
0.913725 0.673686 0.528313
0.650019 0.881941 0.806592
0.647852 0.881682 0.795071
0.641367 0.889662 0.778286
0.642603 0.901961 0.713512
0.933333 0.913619 0.555581
0.109804 0.0431373 0.218326
0.148379 0.0565347 0.242496
0.235416 0.0902571 0.302052
0.378073 0.151781 0.405097
0.607828 0.221973 0.52314
0.207263 0.159762 0.368017
0.237568 0.167407 0.372213
0.322484 0.19617 0.417044
0.446326 0.241825 0.484413
0.666911 0.312139 0.57055
0.389334 0.380789 0.577569
0.410483 0.378103 0.571725
0.496712 0.40766 0.592493
0.616205 0.451545 0.619287
0.804471 0.535393 0.699779
0.617792 0.647822 0.734646
0.635828 0.654597 0.733577
0.695537 0.683146 0.74609
0.764157 0.708843 0.756451
0.858701 0.721202 0.760784
0.782544 0.838804 0.838788
0.779217 0.840009 0.835309
0.801801 0.846784 0.838041
0.839002 0.870481 0.85098
0.944549 0.92105 0.846571
