70 CGC LUTs/Look LUTs/Enemy.cube
#Created by: Denver Riddle
#Copyright: (C) Copyright Color Grading Central LLC
#LUT Size
LUT_3D_SIZE 9
0 0 0
0.0376287 0.00674449 0
0.113863 0.00784314 0
0.180209 0.00926223 0
0.247181 0.0117647 0
0.311238 0.0156863 0
0.396048 0.0188296 0
0.503288 0.000823987 0
0.611765 0 0
0.014725 0.0471046 0
0.0539254 0.0470588 0
0.124956 0.0516823 0
0.203693 0.05066 0
0.263859 0.0527352 0
0.323919 0.0578164 0
0.41207 0.0565042 0
0.512291 0.0493782 0
0.635004 0 0
0.00689708 0.13814 0
0.0715648 0.133242 0
0.147524 0.135973 0
0.215534 0.140917 0
0.293385 0.145464 0
0.382879 0.141817 0
0.469688 0.142367 0
0.571145 0.141054 0
0.698314 0.122469 0
0 0.235019 0
0.0688182 0.229068 0
0.181598 0.223728 0
0.248524 0.234134 0
0.322301 0.242802 0
0.426612 0.248005 0
0.534859 0.248081 0
0.64651 0.251347 0
0.78529 0.239994 0
0 0.358602 0
0.0164492 0.348959 0
0.193973 0.340749 0
0.298116 0.343908 0
0.378241 0.359716 0
0.47126 0.374548 0
0.599802 0.378256 0
0.724849 0.379965 0
0.85478 0.382849 0
0 0.508659 0
0 0.498207 0
0.149813 0.493492 0
0.333745 0.488228 0
0.449226 0.491554 0
0.5355 0.507362 0
0.642573 0.520577 0
0.787793 0.530221 0
0.916274 0.542321 0
0 0.669749 0
0 0.657618 0
0.0303807 0.652216 0
0.292638 0.652247 0
0.477928 0.654322 0
0.612207 0.664317 0
0.714778 0.683162 0
0.81799 0.702892 0
0.921324 0.711727 0
0.0636912 0.82034 0.172091
0.0975204 0.818509 0.16347
0.228809 0.81912 0.159564
0.367987 0.821698 0.159777
0.498878 0.824735 0.171633
0.638865 0.823743 0.180926
0.767346 0.815045 0.190585
0.846311 0.815152 0.16733
0.917296 0.811368 0.0552377
0.173037 0.935302 0.0254826
0.222995 0.930877 0.082414
0.291829 0.930388 0.0846723
0.37023 0.929259 0.053666
0.457176 0.931838 0.0177615
0.548531 0.933333 0
0.677333 0.925536 0.000808728
0.80763 0.913573 1.5259e-05
0.917525 0.90576 0
0.00675975 0.00392157 0.00283818
0.0281071 0.00784314 0.00784314
0.0871595 0.0156863 0.0185245
0.15462 0.023209 0.0232242
0.222995 0.0280919 0.0249027
0.292409 0.0317082 0.021912
0.382025 0.0319829 0.0189059
0.489006 0.0211032 0.0115663
0.59678 0 0.00689708
0.0263828 0.0439765 0.0169833
0.0611887 0.0497139 0.0107576
0.137377 0.0480964 0.0149691
0.203021 0.0536812 0.0188907
0.263706 0.0556497 0.0198825
0.324666 0.0606241 0.0131228
0.40177 0.0630045 0.00706493
0.504189 0.0564584 0.00302129
0.630472 0.00660716 0
0.00827039 0.139925 0.0194095
0.0656138 0.136202 0.0141909
0.150805 0.138323 0.00721752
0.224903 0.142702 0.00337224
0.3093 0.142809 0.00340276
0.391455 0.139712 0.000198367
0.469551 0.143297 0
0.574426 0.138201 0
0.695964 0.111315 0
0 0.237415 0.0141146
0.0559091 0.234348 0.00843824
0.184039 0.227466 0.00451667
0.251881 0.235599 0
0.330343 0.243534 0
0.435492 0.245716 0
0.558694 0.239658 0
0.664729 0.238895 0
0.78497 0.232502 0
0 0.35967 0.00450141
0.0144961 0.35079 0
0.186847 0.344656 0
0.301366 0.3458 0
0.383658 0.361196 0
0.477836 0.375036 0
0.606455 0.377966 0
0.733822 0.37261 0
0.854292 0.379034 0
0 0.509041 0.000503548
0 0.498589 0
0.134447 0.496925 0
0.325216 0.488594 0
0.449104 0.491432 0
0.535653 0.507118 0
0.647074 0.521019 0
0.793393 0.530434 0
0.912688 0.554986 0
0 0.665537 0
0 0.653407 0
0.0303349 0.649973 0
0.282856 0.653758 0
0.476692 0.656687 0
0.61445 0.665354 0
0.715068 0.681666 0
0.81677 0.701106 0
0.927504 0.69926 0
0.0922713 0.819852 0.214221
0.109682 0.817395 0.201877
0.235096 0.817777 0.195972
0.370459 0.820096 0.193973
0.49955 0.823285 0.201938
0.633371 0.822141 0.211246
0.765774 0.813535 0.215244
0.84268 0.81413 0.193286
0.912596 0.811551 0.106157
0.295613 0.931594 0.278309
0.313863 0.928557 0.242451
0.329107 0.928801 0.192889
0.374243 0.927871 0.0789349
0.459159 0.930159 0.0382239
0.551217 0.932723 0.00624094
0.679164 0.924025 0.0146639
0.807401 0.912154 0.0084535
0.915984 0.904189 0
0.0152438 0.00784314 0.0113375
0.0297093 0.0116732 0.0192874
0.075761 0.023682 0.0355993
0.125032 0.0401007 0.0519112
0.190005 0.0510719 0.0644236
0.260014 0.0584115 0.0733196
0.349325 0.0673533 0.0776989
0.455802 0.0673686 0.0817426
0.562005 0.0421607 0.0813764
0.0441596 0.0439307 0.0412757
0.0624094 0.0479896 0.0441444
0.103685 0.0599222 0.0530861
0.155444 0.0729839 0.0658579
0.222919 0.0759136 0.0759289
0.288441 0.0813001 0.0740673
0.37258 0.0867323 0.0723583
0.474723 0.0852369 0.0715648
0.59794 0.0607004 0.0701457
0.0792401 0.127703 0.084184
0.101656 0.130907 0.0659342
0.158556 0.141299 0.0493782
0.247517 0.138415 0.056199
0.311528 0.139803 0.0687114
0.38587 0.143069 0.073106
0.474464 0.140322 0.0738079
0.564004 0.142138 0.0625925
0.677333 0.126665 0.0546883
0.0306859 0.234867 0.104677
0.0640879 0.236149 0.0791333
0.183978 0.233371 0.0611429
0.261006 0.240528 0.0495155
0.35111 0.244724 0.0410163
0.464775 0.242695 0.04271
0.572015 0.236042 0.049958
0.658518 0.242405 0.0399481
0.769909 0.237903 0.032517
0 0.363104 0.101762
0.0302129 0.355962 0.0866712
0.171359 0.35523 0.0654765
0.306538 0.352789 0.0582284
0.391058 0.366125 0.0357671
0.495949 0.377951 0.0232242
0.626261 0.376135 0.0139925
0.744839 0.370077 0.0103761
0.854444 0.37995 0.00146487
0 0.511269 0.112261
0 0.501442 0.097322
0.132036 0.500908 0.0738079
0.312581 0.497124 0.0550393
0.455802 0.496361 0.0410163
0.543359 0.512306 0.00788891
0.662028 0.525551 0
0.807736 0.533562 0
0.923537 0.54258 0
0 0.666407 0.12604
0 0.655467 0.106981
0.0474098 0.653651 0.0819257
0.277638 0.661936 0.0636301
0.473945 0.664286 0.0627604
0.621241 0.67039 0.0709697
0.720729 0.685435 0.0500343
0.823743 0.70161 0.0694438
0.920699 0.706447 0.0860151
0.161044 0.820157 0.32256
0.165805 0.817655 0.30901
0.268879 0.817655 0.296544
0.389288 0.820676 0.291768
0.506935 0.823163 0.289784
0.626871 0.823087 0.291127
0.761868 0.813321 0.285939
0.84123 0.814054 0.26392
0.916213 0.803632 0.192218
0.35845 0.923339 0.525338
0.367376 0.919951 0.515648
0.38616 0.919371 0.491722
0.408148 0.923705 0.455756
0.442481 0.927687 0.398169
0.517784 0.933013 0.255818
0.6486 0.927733 0.0230411
0.786313 0.915846 0.0174563
0.915236 0.904173 0.000457771
0.0260777 0.0117647 0.028748
0.0415351 0.0155032 0.0375372
0.0830091 0.027863 0.054612
0.127977 0.0452735 0.0710002
0.177401 0.06598 0.0894942
0.238392 0.0850538 0.107713
0.336782 0.0911879 0.124193
0.452659 0.0895247 0.134279
0.560784 0.0696727 0.139345
0.0565347 0.0493019 0.0642252
0.0718547 0.0541848 0.067216
0.111116 0.0646982 0.0761883
0.153094 0.0800183 0.0911269
0.199329 0.0956588 0.103258
0.264149 0.107057 0.117861
0.357168 0.108385 0.126268
0.455756 0.111879 0.130663
0.581277 0.095201 0.134142
0.113466 0.127001 0.118273
0.114611 0.131029 0.105348
0.168536 0.13814 0.0967727
0.215885 0.149035 0.110262
0.268132 0.159777 0.127184
0.343526 0.163851 0.14168
0.438178 0.163287 0.142046
0.531456 0.167849 0.139574
0.648768 0.156542 0.137819
0.149874 0.220417 0.166354
0.153033 0.222538 0.146136
0.215808 0.22797 0.122667
0.271931 0.241047 0.105379
0.378286 0.241535 0.116045
0.467018 0.243748 0.134295
0.557885 0.244358 0.145083
0.649836 0.245731 0.147265
0.756588 0.24181 0.141848
0.107454 0.350393 0.214115
0.104631 0.350698 0.18732
0.175921 0.359304 0.14081
0.312459 0.358434 0.126635
0.403128 0.372122 0.112612
0.517647 0.379431 0.104952
0.647334 0.371237 0.110155
0.750362 0.364279 0.127382
0.848539 0.37528 0.121798
0 0.510689 0.21593
0.00131228 0.50399 0.194736
0.151919 0.504005 0.164675
0.303807 0.504891 0.142321
0.462684 0.500465 0.133516
0.554528 0.517006 0.112444
0.678828 0.529992 0.103105
0.822828 0.532067 0.109468
0.916976 0.560815 0.118456
0 0.662943 0.242344
0 0.655253 0.22356
0.107881 0.657542 0.198962
0.292607 0.66862 0.180972
0.467002 0.672358 0.173098
0.62826 0.675761 0.181125
0.727825 0.691844 0.17113
0.829816 0.702693 0.186786
0.934142 0.686229 0.186816
0.260838 0.817105 0.434684
0.262592 0.814038 0.418845
0.322148 0.815595 0.404517
0.41268 0.820951 0.390967
0.516854 0.824445 0.376196
0.624964 0.823301 0.369146
0.758404 0.814404 0.356451
0.841779 0.81062 0.330205
0.916747 0.801038 0.265461
0.432685 0.913787 0.653483
0.434943 0.910964 0.640131
0.439582 0.910811 0.623056
0.44358 0.916136 0.601511
0.463737 0.919661 0.55433
0.506767 0.923156 0.476463
0.613413 0.922225 0.346273
0.794995 0.91632 0.0195468
0.917998 0.90457 0.00733959
0.0405585 0.0169833 0.0525216
0.055787 0.0208591 0.057969
0.0912337 0.0321965 0.0733501
0.138399 0.0510109 0.0932174
0.190433 0.0727398 0.116274
0.240162 0.0958877 0.135363
0.314992 0.121386 0.160113
0.43447 0.126314 0.180209
0.556878 0.105837 0.192096
0.0714427 0.055436 0.0868849
0.0852369 0.0583505 0.0874952
0.118517 0.069398 0.0984207
0.159884 0.0829938 0.112047
0.202853 0.100694 0.127367
0.252445 0.121889 0.143313
0.325948 0.139696 0.161425
0.442176 0.140642 0.180865
0.583215 0.119066 0.187869
0.128893 0.132235 0.138445
0.136049 0.132311 0.134539
0.166918 0.142336 0.140627
0.205524 0.154986 0.151446
0.251728 0.171252 0.162722
0.308797 0.186633 0.17969
0.402945 0.19353 0.194751
0.519432 0.189944 0.204883
0.641642 0.17731 0.206683
0.19588 0.220844 0.205707
0.190204 0.221729 0.192554
0.230152 0.231266 0.167819
0.285252 0.242939 0.162585
0.346746 0.254917 0.178164
0.418357 0.267369 0.205737
0.517403 0.268162 0.226612
0.619699 0.270008 0.231907
0.730251 0.271931 0.228183
0.239704 0.337865 0.274739
0.233036 0.335714 0.253437
0.270314 0.346975 0.218036
0.349996 0.355108 0.195941
0.417762 0.374441 0.176501
0.549432 0.374273 0.192187
0.64419 0.373709 0.217548
0.736477 0.374029 0.231022
0.838941 0.385946 0.230838
0.228 0.487663 0.359899
0.213809 0.483955 0.337392
0.208789 0.499474 0.283482
0.307576 0.508827 0.225177
0.469017 0.5084 0.208347
0.566247 0.522454 0.192813
0.702571 0.531746 0.190967
0.835096 0.530312 0.216999
0.920378 0.531243 0.258045
0.112963 0.654215 0.369574
0.109651 0.649104 0.347753
0.18555 0.658045 0.315419
0.316701 0.672877 0.285832
0.468788 0.680735 0.268864
0.634882 0.681331 0.273503
0.734951 0.69543 0.267475
0.838499 0.703807 0.27628
0.929259 0.691508 0.281651
0.36434 0.811887 0.542992
0.358541 0.809277 0.527108
0.387076 0.812177 0.508431
0.445121 0.818708 0.488151
0.530053 0.821378 0.467247
0.62945 0.823636 0.444739
0.754559 0.815152 0.425193
0.838773 0.810758 0.394339
0.917937 0.791882 0.328389
0.512276 0.904326 0.728786
0.509636 0.902129 0.717906
0.509926 0.901778 0.705837
0.509102 0.906538 0.687709
0.513191 0.909026 0.658152
0.52665 0.916213 0.607736
0.59617 0.916777 0.496696
0.732631 0.913314 0.353201
0.921019 0.905455 0.00376898
0.0589914 0.0235752 0.0748455
0.0709087 0.0275425 0.0825818
0.104738 0.0391089 0.0968948
0.148943 0.0567941 0.118013
0.199313 0.0766766 0.141329
0.254612 0.100603 0.16434
0.326116 0.132479 0.192859
0.428229 0.161471 0.222827
0.54902 0.154879 0.245411
0.0904555 0.063035 0.110246
0.100649 0.0656748 0.112779
0.129824 0.0741894 0.124788
0.170306 0.0895857 0.13695
0.216022 0.104921 0.155795
0.269657 0.127779 0.174731
0.337255 0.154971 0.198444
0.42504 0.176516 0.224353
0.57145 0.165728 0.244846
0.143832 0.140276 0.167056
0.151308 0.139376 0.163317
0.180713 0.146838 0.169696
0.220081 0.160433 0.179919
0.263661 0.175509 0.195071
0.316854 0.193713 0.21265
0.389212 0.216693 0.232364
0.484199 0.232136 0.255222
0.632563 0.21384 0.270573
0.214206 0.228641 0.230396
0.215824 0.225574 0.224063
0.240848 0.234745 0.223484
0.284535 0.247913 0.230808
0.332464 0.264118 0.242954
0.39501 0.282948 0.26041
0.471672 0.302556 0.278965
0.580285 0.307164 0.301778
0.71986 0.29514 0.309682
0.301183 0.336278 0.317433
0.295186 0.334478 0.308019
0.297551 0.348989 0.28101
0.367758 0.3617 0.25832
0.436423 0.377768 0.251804
0.512383 0.390692 0.272816
0.590799 0.400412 0.313069
0.69453 0.401877 0.340261
0.814755 0.408042 0.348516
0.372961 0.471412 0.420432
0.359854 0.469108 0.403433
0.358022 0.481926 0.365682
0.420447 0.491096 0.325795
0.506325 0.503288 0.299657
0.581277 0.528222 0.27982
0.73286 0.530571 0.313222
0.827176 0.539757 0.364431
0.901549 0.556329 0.388022
0.375952 0.628305 0.516747
0.362356 0.622354 0.501503
0.352743 0.641062 0.479255
0.370092 0.669047 0.430365
0.477577 0.686748 0.37528
0.639506 0.68925 0.367086
0.740307 0.700587 0.358679
0.846555 0.701701 0.367132
0.930205 0.669856 0.392615
0.473457 0.802518 0.644175
0.462837 0.798978 0.629923
0.467842 0.803342 0.611856
0.497429 0.812558 0.59173
0.551415 0.819776 0.562722
0.627024 0.824262 0.525429
0.744152 0.815793 0.494011
0.836179 0.807919 0.459464
0.921569 0.785138 0.392767
0.583474 0.894591 0.770016
0.579812 0.892226 0.764355
0.577005 0.891966 0.756527
0.574426 0.896406 0.747539
0.569146 0.901488 0.731426
0.570459 0.905882 0.696727
0.606806 0.909804 0.610651
0.730861 0.909804 0.487434
0.928634 0.909026 0.275456
0.0775158 0.0324254 0.108003
0.0878309 0.0357824 0.112352
0.120546 0.0483558 0.130159
0.161837 0.0639353 0.150835
0.210727 0.0848707 0.174624
0.270176 0.107683 0.200885
0.349401 0.139666 0.232761
0.449332 0.17435 0.271015
0.555276 0.198413 0.306615
0.107195 0.071046 0.143542
0.117357 0.0734417 0.145663
0.145525 0.0817121 0.154528
0.182559 0.0939651 0.169345
0.223575 0.11078 0.187549
0.278523 0.132448 0.209216
0.350072 0.158251 0.238865
0.439048 0.192126 0.269749
0.565835 0.218509 0.309834
0.16376 0.147814 0.203983
0.170336 0.146899 0.199435
0.196521 0.153536 0.205737
0.231464 0.1673 0.219043
0.27779 0.181888 0.234211
0.331762 0.200504 0.254841
0.406317 0.221469 0.278752
0.489021 0.252216 0.306905
0.613291 0.273259 0.342031
0.233692 0.236927 0.271122
0.235447 0.234241 0.265141
0.259495 0.241245 0.269688
0.298573 0.25481 0.281117
0.350011 0.272618 0.295247
0.408484 0.290806 0.314595
0.476539 0.313664 0.334554
0.559365 0.342306 0.362005
0.683253 0.359304 0.392081
0.323003 0.347082 0.355917
0.32253 0.342199 0.345846
0.341802 0.351919 0.346761
0.380499 0.365881 0.350408
0.432273 0.383413 0.361028
0.487205 0.402228 0.376654
0.556451 0.421164 0.393698
0.639826 0.447166 0.418906
0.782315 0.455009 0.452811
0.430213 0.475319 0.461372
0.428794 0.468193 0.453239
0.436194 0.473442 0.446464
0.4477 0.494469 0.417136
0.524666 0.509255 0.39234
0.603723 0.529931 0.397787
0.688701 0.551507 0.432441
0.770703 0.576837 0.491051
0.875807 0.566247 0.51812
0.522881 0.613077 0.572915
0.516625 0.607492 0.564157
0.522713 0.623301 0.560861
0.531151 0.649668 0.536294
0.598871 0.670192 0.503212
0.690242 0.681193 0.4869
0.74818 0.703868 0.46479
0.854505 0.693172 0.508309
0.913725 0.673686 0.528313
0.62266 0.778866 0.72195
0.615778 0.776501 0.71574
0.616754 0.781369 0.710689
0.6177 0.792615 0.703609
0.615961 0.806882 0.680415
0.640223 0.819333 0.627115
0.73666 0.815473 0.568154
0.835111 0.803845 0.532525
0.925383 0.772442 0.473884
0.650019 0.881941 0.806592
0.648066 0.879545 0.801678
0.647852 0.881682 0.795071
0.644663 0.884398 0.789685
0.641367 0.889662 0.778286
0.635355 0.894102 0.758297
0.642603 0.901961 0.713512
0.733043 0.909789 0.618601
0.933333 0.913619 0.555581
0.099443 0.0415503 0.151675
0.107927 0.0449226 0.157549
0.136721 0.0560006 0.174533
0.171023 0.0706798 0.197391
0.212848 0.0896773 0.224475
0.269764 0.115358 0.255833
0.351568 0.147494 0.298161
0.464164 0.182971 0.350256
0.580957 0.214984 0.394797
0.128725 0.0793469 0.190005
0.13724 0.0814069 0.190677
0.161151 0.08925 0.198398
0.191959 0.100832 0.214939
0.230167 0.116411 0.236759
0.285725 0.138903 0.266224
0.364202 0.166186 0.299977
0.464698 0.199542 0.34136
0.590997 0.236805 0.392416
0.187228 0.155703 0.258106
0.190509 0.154345 0.254246
0.215442 0.160815 0.258915
0.250111 0.174502 0.272725
0.296956 0.189151 0.291707
0.355917 0.207462 0.315908
0.427497 0.230732 0.345724
0.513313 0.260395 0.381308
0.62536 0.299687 0.424842
0.257786 0.2477 0.339925
0.260746 0.244129 0.332815
0.28394 0.251453 0.334615
0.321721 0.265339 0.348196
0.372152 0.281422 0.364492
0.434089 0.301747 0.386007
0.507424 0.323064 0.408865
0.586038 0.353536 0.439994
0.685802 0.394705 0.478691
0.351507 0.36495 0.431601
0.349828 0.355947 0.420493
0.368734 0.3626 0.419379
0.406668 0.376394 0.428824
0.456245 0.39411 0.442252
0.513375 0.413626 0.457633
0.578683 0.434043 0.473579
0.653284 0.463401 0.502327
0.766842 0.50988 0.547143
0.461494 0.493019 0.525048
0.455436 0.482658 0.510948
0.469337 0.486778 0.505074
0.497292 0.49987 0.508644
0.542947 0.517449 0.519646
0.60296 0.545983 0.542565
0.665553 0.571908 0.564187
0.745617 0.604578 0.592966
0.825788 0.637156 0.628595
0.573938 0.624125 0.622675
0.571923 0.620096 0.615564
0.588296 0.631434 0.622599
0.61857 0.648417 0.628214
0.650019 0.667781 0.632898
0.697246 0.688884 0.612894
0.763333 0.700587 0.611276
0.811063 0.712886 0.642695
0.866316 0.709194 0.666285
0.7037 0.766705 0.743145
0.703136 0.762982 0.738903
0.713024 0.766217 0.738567
0.729549 0.770855 0.740612
0.73872 0.779217 0.738842
0.738003 0.791623 0.724224
0.775738 0.799725 0.678401
0.831281 0.799725 0.631144
0.913573 0.760647 0.635035
0.713817 0.865858 0.830533
0.716808 0.862516 0.827024
0.719234 0.862486 0.825833
0.722683 0.865919 0.824186
0.724895 0.870329 0.822293
0.72253 0.877485 0.81677
0.717876 0.886259 0.796262
0.752834 0.905852 0.745037
0.937255 0.913741 0.709926
0.109804 0.0431373 0.218326
0.120119 0.0470588 0.224247
0.148379 0.0565347 0.242496
0.187243 0.0716564 0.268818
0.235416 0.0902571 0.302052
0.296681 0.116548 0.3458
0.378073 0.151781 0.405097
0.487984 0.189776 0.470741
0.607828 0.221973 0.52314
0.142458 0.0797131 0.268269
0.152331 0.0817426 0.269963
0.175967 0.0892195 0.281544
0.209613 0.10071 0.304479
0.256138 0.119554 0.33463
0.311574 0.142367 0.374182
0.386313 0.172808 0.428031
0.487373 0.207111 0.482902
0.628611 0.248219 0.547189
0.207263 0.159762 0.368017
0.212909 0.15848 0.365942
0.237568 0.167407 0.372213
0.272435 0.177829 0.390723
0.322484 0.19617 0.417044
0.380819 0.214023 0.446067
0.446326 0.241825 0.484413
0.539467 0.273884 0.52314
0.666911 0.312139 0.57055
0.289616 0.257496 0.473182
0.292638 0.254871 0.470558
0.315755 0.262303 0.473594
0.356252 0.274067 0.486381
0.407492 0.292302 0.504402
0.468559 0.313787 0.526528
0.53875 0.339849 0.550546
0.615183 0.372061 0.586404
0.728832 0.410285 0.626078
0.389334 0.380789 0.577569
0.388525 0.373632 0.572351
0.410483 0.378103 0.571725
0.449653 0.392737 0.581094
0.496712 0.40766 0.592493
0.551095 0.429816 0.606485
0.616205 0.451545 0.619287
0.700816 0.481773 0.64715
0.804471 0.535393 0.699779
0.498527 0.514275 0.674815
0.495338 0.503792 0.665019
0.509438 0.50515 0.65687
0.541833 0.517845 0.66183
0.591546 0.537667 0.678782
0.649943 0.567041 0.699199
0.712444 0.592309 0.712367
0.777203 0.62031 0.728298
0.842695 0.64831 0.744213
0.617792 0.647822 0.734646
0.617472 0.647074 0.730663
0.635828 0.654597 0.733577
0.662486 0.66891 0.740322
0.695537 0.683146 0.74609
0.727794 0.697078 0.75285
0.764157 0.708843 0.756451
0.807385 0.716884 0.756603
0.858701 0.721202 0.760784
0.739498 0.767224 0.790021
0.736782 0.766766 0.785336
0.741466 0.76791 0.784497
0.751934 0.771252 0.785809
0.764111 0.77583 0.78645
0.779873 0.780819 0.788449
0.795911 0.784192 0.784253
0.823377 0.7841 0.780087
0.866621 0.780285 0.776333
0.782544 0.838804 0.838788
0.775753 0.837507 0.836454
0.779217 0.840009 0.835309
0.787671 0.841505 0.836347
0.801801 0.846784 0.838041
0.815 0.854902 0.843137
0.839002 0.870481 0.85098
0.882307 0.890166 0.858808
0.944549 0.92105 0.846571
