70 CGC LUTs/Look LUTs/Enhance.cube
#Created by: Denver Riddle
#Copyright: (C) Copyright Color Grading Central LLC
#LUT Size
LUT_3D_SIZE 5
0 0 0
0.3346 0 4.57771e-05
0.632364 0 0.0128176
0.91107 0 0.0407263
1 0 0.0787671
0 0.288823 0
0.299428 0.283665 0.00611887
0.64033 0.285283 0.0406195
0.940795 0.297688 0.0866102
1 0.311086 0.133471
0 0.64799 0
0.299992 0.653498 0
0.680369 0.635401 0.052491
0.952789 0.645838 0.100496
1 0.654215 0.130465
0.04094 0.976989 0
0.336873 0.967636 0
0.653529 0.945693 0.0315709
0.99379 0.912398 0.080766
1 0.905379 0.120836
0.0374456 1 0
0.323598 1 0
0.604746 1 0
0.965393 1 0.0235752
1 1 0.0757458
0 0 0.342428
0.346181 0 0.334386
0.664485 0 0.320714
0.92784 0 0.328695
1 0 0.353552
0 0.244343 0.182513
0.230793 0.230793 0.230793
0.611612 0.220676 0.260563
0.910948 0.232975 0.305715
1 0.247745 0.348669
0 0.604715 0.0960098
0.231174 0.602655 0.17879
0.612665 0.585946 0.258274
0.89752 0.596948 0.300282
1 0.600107 0.336965
0 0.939834 0.110842
0.269459 0.927626 0.178882
0.585199 0.909224 0.236805
0.93518 0.87512 0.28719
1 0.873884 0.316091
0 1 0.0767987
0.260182 1 0.133013
0.545052 1 0.185016
0.902327 1 0.230915
1 1 0.282658
0 0 0.653773
0.305821 0 0.651164
0.664485 0 0.649866
0.963165 0 0.655848
1 0 0.663981
0 0.175265 0.565454
0.186892 0.158984 0.600992
0.62179 0.131441 0.613458
0.938598 0.141146 0.639094
1 0.159442 0.665461
0 0.556481 0.43917
0.114549 0.555001 0.493141
0.532845 0.532845 0.532845
0.86836 0.531609 0.575296
1 0.534325 0.62182
0 0.905516 0.361898
0.169055 0.893385 0.405417
0.508476 0.871885 0.461769
0.871565 0.836789 0.51165
1 0.837964 0.530465
0 1 0.292561
0.179812 1 0.337377
0.482734 1 0.392081
0.838209 1 0.437842
1 1 0.489158
0 0 0.915068
0.268223 0 0.915022
0.636805 0 0.912108
0.946471 0 0.924376
1 0 0.934905
0 0.116655 0.838407
0.147097 0.0991989 0.862821
0.577585 0.0679332 0.868238
0.918608 0.0690013 0.904067
1 0.0760662 0.933593
0 0.487999 0.748653
0.0776837 0.483253 0.804791
0.495735 0.461906 0.84448
0.890242 0.445701 0.882933
1 0.446479 0.919249
0 0.857053 0.720668
0.0464485 0.851743 0.758389
0.382162 0.837888 0.788617
0.795666 0.795666 0.795666
1 0.785901 0.819745
0 1 0.641138
0.0455634 1 0.661692
0.366766 1 0.683833
0.755276 1 0.717296
1 1 0.766125
0 0 1
0.230594 0 1
0.609003 0 1
0.918517 0 1
1 0 1
0 0.0635386 1
0.109087 0.0432593 1
0.534081 0.00679026 1
0.877394 0.00428778 1
1 0.00730907 1
0 0.41767 1
0.0524453 0.412375 1
0.461265 0.393668 1
0.866209 0.375814 1
1 0.371786 1
0 0.797833 0.979812
0 0.793866 1
0.33785 0.782498 1
0.766354 0.739635 1
1 0.717845 1
0 1 0.942931
0 1 0.965942
0.274006 1 0.986145
0.649851 1 0.989914
1 1 1
