70 CGC LUTs/Look LUTs/Enhance.cube
#Created by: Denver Riddle
#Copyright: (C) Copyright Color Grading Central LLC
#LUT Size
LUT_3D_SIZE 33
0 0 0
0.0332341 0 0.00199893
0.0680552 0 0.00402838
0.106966 0 0.00489815
0.150805 0 0.0043946
0.196887 0 0.00326543
0.242741 0 0.0021973
0.28896 0 0.00103761
0.3346 0 4.57771e-05
0.378637 0 0
0.420142 0 0
0.458991 0 0.000717174
0.495384 0 0.0024567
0.530129 0 0.0047303
0.564126 0 0.00732433
0.598245 0 0.00999466
0.632364 0 0.0128176
0.666651 0 0.0157778
0.701091 0 0.0188602
0.735698 0 0.0221103
0.770443 0 0.0255131
0.805356 0 0.0290684
0.840436 0 0.0327916
0.875669 0 0.0366827
0.91107 0 0.0407263
0.946639 0 0.0449531
0.982376 0 0.0493172
1 0 0.0538643
1 0 0.0585641
1 0 0.0634318
1 0 0.0684367
1 0 0.0735332
1 0 0.0787671
0 0.0316014 0
0.0319677 0.0293736 0
0.0619516 0.0290074 0.00128176
0.0979782 0.0269932 0.00173953
0.139528 0.0234073 0.00148013
0.185046 0.0187381 0.000427253
0.230808 0.0140688 0
0.277028 0.009308 0
0.323171 0.004654 0
0.368215 0.000381476 0
0.411139 0 0
0.451423 0 0
0.489158 0 0
0.524895 0 0.00196841
0.559518 0 0.00489815
0.593957 0 0.00805676
0.628626 0 0.011368
0.663432 0 0.014847
0.69839 0 0.0184939
0.733532 0 0.0222934
0.768811 0 0.0262455
0.804273 0 0.0303807
0.839887 0 0.0346685
0.875685 0 0.0391241
0.91165 0 0.0437476
0.947768 0 0.0485389
0.984039 0 0.0534676
1 0 0.0585336
1 0 0.0636759
1 0 0.0689555
1 0.000717174 0.0742962
1 0.0024567 0.0796979
1 0.00424201 0.0851759
0 0.0634318 0
0.029572 0.0610208 0
0.0640421 0.0588998 0
0.0941787 0.0585489 0.00114443
0.13077 0.0566262 0.000900282
0.17435 0.052842 0
0.220386 0.0484321 0
0.266453 0.0440833 0
0.313008 0.039704 0
0.359014 0.0356146 0
0.403403 0.0321202 0
0.44535 0.0294804 0
0.484581 0.0278019 0
0.52166 0.0268711 0.000915541
0.55726 0.026566 0.00425727
0.592264 0.0266117 0.00796521
0.627558 0.0267948 0.0118105
0.662791 0.0271916 0.0158694
0.698268 0.0277409 0.0200656
0.733928 0.0284428 0.024445
0.769757 0.0293278 0.0289921
0.80647 0.0299687 0.0354467
0.841901 0.0315557 0.0385595
0.878187 0.0328679 0.0435492
0.914595 0.0343175 0.0486458
0.951125 0.0358587 0.0538643
0.987732 0.0374914 0.0591745
1 0.0392004 0.0645609
1 0.0409705 0.0700084
1 0.0427863 0.0754864
1 0.0446326 0.0810101
1 0.0464942 0.0865492
1 0.0483558 0.0920729
0 0.0959793 0
0.0263218 0.093492 0
0.0614633 0.0914015 0
0.0967422 0.0893721 0
0.130449 0.0882734 0.00190738
0.166842 0.087068 0.000427253
0.211688 0.0834974 0
0.257603 0.0797894 0
0.304341 0.0760204 0
0.351202 0.0723888 0
0.396994 0.0692149 0
0.44065 0.0668345 0
0.481727 0.0653391 0
0.520348 0.0647288 0.00238041
0.557076 0.0648356 0.00602731
0.592828 0.0654154 0.0101472
0.628519 0.0662242 0.0145571
0.664439 0.0671702 0.0191196
0.700359 0.0683452 0.0237278
0.736568 0.0696117 0.0286259
0.7729 0.0710002 0.0336614
0.809354 0.0724956 0.038819
0.845899 0.0740826 0.0440833
0.882521 0.0757763 0.0494087
0.919219 0.0775311 0.0548104
0.955978 0.0793164 0.0602884
0.992767 0.0811627 0.0657969
1 0.0830243 0.0713207
1 0.0849165 0.0768597
1 0.0867781 0.0823835
1 0.0886397 0.0879072
1 0.0909895 0.0909895
1 0.0919966 0.0999161
0 0.13019 0
0.0214542 0.127779 0
0.0577249 0.125765 0
0.0935225 0.124041 0
0.13106 0.122011 0
0.169558 0.120134 0.00299077
0.206439 0.119707 0.00111391
0.251148 0.117037 0.000793469
0.297597 0.114092 0.000183108
0.3449 0.111101 0
0.391821 0.1084 0
0.437217 0.106279 0.000915541
0.48014 0.105028 0.00306706
0.520562 0.104662 0.00619516
0.558724 0.105119 0.0101778
0.595468 0.106142 0.0147097
0.631678 0.1075 0.0195773
0.668208 0.108919 0.024506
0.704494 0.110536 0.0296483
0.741024 0.1122 0.0348363
0.77763 0.113939 0.040116
0.814313 0.11574 0.0454719
0.851057 0.117571 0.0508888
0.887877 0.119432 0.0563821
0.924529 0.12137 0.0617227
0.961364 0.123247 0.0672465
0.998184 0.125109 0.0727703
1 0.126955 0.0782635
1 0.128756 0.083711
1 0.130495 0.0891127
1 0.132189 0.0944533
1 0.133898 0.0998245
1 0.135653 0.105226
0 0.166598 0
0.0154726 0.164477 0
0.0529793 0.162692 0
0.0898451 0.161303 0
0.127214 0.159991 0
0.1682 0.157839 0
0.211521 0.155383 0.004654
0.249363 0.155581 0.00375372
0.292622 0.154314 0.00386053
0.339727 0.152071 0.00469978
0.387457 0.149905 0.00520333
0.434272 0.148165 0.00633249
0.479026 0.147143 0.00846876
0.521263 0.146944 0.0116732
0.561059 0.147539 0.0158236
0.598978 0.148775 0.020676
0.635904 0.150378 0.0258946
0.672679 0.152102 0.0312505
0.709514 0.153887 0.0366522
0.746334 0.155718 0.0420844
0.783154 0.157595 0.0475319
0.819959 0.159487 0.0529793
0.856748 0.161379 0.0584115
0.893507 0.163256 0.0638132
0.93022 0.165118 0.0691997
0.966888 0.166918 0.0745251
1 0.168643 0.0798199
1 0.170367 0.0850843
1 0.172107 0.0904097
1 0.173861 0.0958114
1 0.175723 0.101061
1 0.177539 0.106523
1 0.17937 0.111986
0 0.205356 0
0.00962844 0.203708 0
0.0480049 0.20238 0
0.0859998 0.201373 0
0.123781 0.200626 0
0.163684 0.199496 0
0.208606 0.197116 0
0.256016 0.194339 0.00720226
0.295293 0.194934 0.00857557
0.336996 0.195132 0.00857557
0.383673 0.19382 0.0104524
0.431159 0.192401 0.0124361
0.477363 0.191485 0.0146487
0.521187 0.191302 0.0177768
0.562509 0.191852 0.0217899
0.601617 0.193042 0.0266423
0.639338 0.194644 0.0320287
0.676509 0.196414 0.0376287
0.713726 0.198169 0.0432593
0.750866 0.199939 0.0488746
0.787915 0.201709 0.0544442
0.824872 0.203433 0.059968
0.861738 0.205142 0.0654154
0.898497 0.20679 0.0707713
0.935241 0.208484 0.0761273
0.971969 0.210224 0.0814832
1 0.211994 0.0868696
1 0.213809 0.092256
1 0.215656 0.0976425
1 0.217517 0.103044
1 0.219409 0.108461
1 0.221302 0.113878
1 0.223194 0.119341
0 0.246082 0
0.00546273 0.245029 0
0.0444495 0.244266 0
0.0833448 0.243748 0
0.121721 0.24358 0
0.160952 0.243336 0
0.204135 0.242115 0
0.252674 0.23949 0.00151064
0.302556 0.236667 0.0110628
0.343786 0.23711 0.0149844
0.38381 0.238422 0.0148013
0.42855 0.238209 0.0166171
0.474937 0.23743 0.0197604
0.519722 0.237125 0.0232242
0.562295 0.237461 0.0271763
0.602518 0.238422 0.0318456
0.640894 0.239857 0.0371252
0.678355 0.241474 0.0426642
0.715694 0.243061 0.0482338
0.752956 0.244602 0.0538186
0.790204 0.246098 0.0594339
0.827436 0.247654 0.0650797
0.864668 0.249226 0.0707561
0.901884 0.250858 0.076463
0.939055 0.252537 0.0821698
0.976211 0.254246 0.0878767
1 0.256001 0.0935378
1 0.257786 0.0991684
1 0.259602 0.104768
1 0.261448 0.110323
1 0.26331 0.115877
1 0.265171 0.121386
1 0.267033 0.126864
0 0.288823 0
0.00343328 0.288289 0
0.043061 0.288029 0
0.0825513 0.287968 0
0.12166 0.288151 0
0.160647 0.288472 0
0.202045 0.288212 0
0.248508 0.286549 0
0.299428 0.283665 0.00611887
0.350042 0.280964 0.0160678
0.393484 0.280827 0.0218967
0.432364 0.282643 0.0220188
0.474372 0.283391 0.023209
0.517968 0.283436 0.0264439
0.560845 0.283543 0.030808
0.601572 0.284169 0.035523
0.64033 0.285283 0.0406195
0.678035 0.286687 0.0459602
0.715404 0.288243 0.0515602
0.75285 0.289799 0.0572366
0.790387 0.291356 0.062974
0.82797 0.292912 0.0687877
0.865583 0.294484 0.0746777
0.903197 0.296086 0.0806287
0.940795 0.297688 0.0866102
0.978363 0.299306 0.0925765
1 0.300954 0.098558
1 0.302602 0.104509
1 0.30428 0.110414
1 0.305959 0.116289
1 0.307668 0.122072
1 0.309361 0.127825
1 0.311086 0.133471
0 0.33344 0
0.0027924 0.333303 0
0.0428473 0.333379 0
0.0827344 0.333608 0
0.122484 0.333913 0
0.161578 0.334478 0
0.201724 0.334768 0
0.246006 0.333883 0
0.295415 0.331487 0.00132753
0.347311 0.328374 0.0116579
0.398062 0.325567 0.0216526
0.442985 0.324758 0.0285801
0.481498 0.32636 0.029572
0.520348 0.327886 0.0300755
0.560662 0.328786 0.0328069
0.600763 0.329641 0.0372931
0.63978 0.33077 0.0427863
0.677485 0.332296 0.0486
0.714672 0.333989 0.0544137
0.752102 0.335653 0.0601053
0.789578 0.337316 0.0658732
0.827222 0.338933 0.0716716
0.864851 0.340566 0.0775769
0.902586 0.342153 0.0835126
0.940368 0.343709 0.0895094
0.978164 0.345251 0.095552
1 0.346777 0.101671
1 0.348272 0.10779
1 0.349767 0.113893
1 0.351247 0.119982
1 0.352728 0.126009
1 0.354192 0.131991
1 0.355642 0.137881
0 0.379171 0
0.00332647 0.379278 0
0.0435645 0.379553 0
0.0835889 0.379904 0
0.123461 0.380301 0
0.162875 0.380804 0
0.202228 0.381308 0
0.244266 0.380957 0
0.291386 0.37908 0
0.342535 0.375952 0.00619516
0.394141 0.372717 0.0164187
0.445396 0.369665 0.0264134
0.491356 0.368429 0.034287
0.530373 0.369833 0.0369573
0.566918 0.372183 0.0378119
0.604364 0.374136 0.0404059
0.641764 0.375937 0.044892
0.678706 0.377768 0.0505226
0.71545 0.379629 0.056733
0.752163 0.381491 0.0628672
0.789166 0.383307 0.0687724
0.826352 0.385061 0.0745861
0.863828 0.386725 0.0802777
0.901366 0.388357 0.0860304
0.939025 0.389929 0.0918288
0.976608 0.39147 0.097734
1 0.39295 0.103624
1 0.394369 0.10956
1 0.395727 0.115557
1 0.397055 0.121599
1 0.398306 0.127642
1 0.399527 0.133669
1 0.400702 0.139666
0 0.425269 0
0.00479133 0.425467 0
0.0449531 0.425772 0
0.0848859 0.426108 0
0.12462 0.426429 0
0.163989 0.42678 0
0.203006 0.427176 0
0.243275 0.427253 0
0.287968 0.426078 0
0.337774 0.423484 0.000671397
0.389685 0.420294 0.0109712
0.441321 0.417212 0.0212863
0.492943 0.414176 0.0314336
0.539528 0.412818 0.0401007
0.579126 0.413962 0.0445869
0.61413 0.416754 0.0464027
0.648692 0.419623 0.0489509
0.683528 0.422232 0.0531472
0.718502 0.424689 0.0586252
0.753902 0.426917 0.0647288
0.790311 0.428824 0.0710002
0.826902 0.43064 0.0772106
0.863722 0.43241 0.0831617
0.900725 0.434089 0.0889143
0.937865 0.435691 0.0944991
0.975158 0.437232 0.0999924
1 0.438697 0.105531
1 0.44007 0.111116
1 0.441382 0.116777
1 0.442603 0.122408
1 0.443732 0.128099
1 0.444785 0.133806
1 0.445762 0.139528
0 0.470924 0
0.00694286 0.471077 0
0.0467994 0.47129 0
0.0864881 0.471565 0
0.12607 0.471901 0
0.165591 0.472282 0
0.204669 0.472816 0
0.243977 0.47332 0
0.286397 0.472938 0
0.334066 0.471046 0
0.38555 0.468055 0.0061799
0.437201 0.465034 0.0164645
0.489158 0.461936 0.0267338
0.540612 0.458991 0.0368811
0.587228 0.457572 0.0460517
0.627024 0.458488 0.0521248
0.66128 0.461357 0.0552987
0.693492 0.464836 0.0580606
0.725887 0.468116 0.0619821
0.759014 0.471061 0.0668803
0.793133 0.473594 0.0724956
0.828305 0.475731 0.0784619
0.864332 0.477546 0.0846113
0.900786 0.479194 0.0906996
0.937423 0.480735 0.0965744
0.974136 0.482231 0.10219
1 0.483604 0.107683
1 0.484886 0.112947
1 0.486091 0.118181
1 0.48719 0.1234
1 0.488228 0.128603
1 0.489174 0.133791
1 0.489982 0.138964
0 0.515648 0
0.0100557 0.515877 0
0.0498054 0.516258 0
0.0894179 0.516716 0
0.128923 0.51722 0
0.168353 0.517754 0
0.207507 0.51838 0
0.246387 0.519081 0
0.286885 0.519326 0
0.332036 0.518212 0
0.382132 0.515663 0.00233463
0.433906 0.512612 0.0124361
0.485466 0.509606 0.0225528
0.537301 0.506493 0.0326543
0.588144 0.50367 0.04271
0.634165 0.502312 0.0521248
0.673762 0.503059 0.0594186
0.707668 0.505714 0.0640269
0.73846 0.509392 0.0674296
0.768765 0.513146 0.070985
0.800137 0.516442 0.0753033
0.833051 0.519173 0.0800488
0.866835 0.521523 0.0854353
0.90161 0.523461 0.0911269
0.937224 0.525063 0.0969558
0.973327 0.526421 0.1028
1 0.527687 0.108431
1 0.528832 0.113787
1 0.529885 0.118975
1 0.530816 0.12401
1 0.531609 0.128817
1 0.532296 0.133608
1 0.532876 0.138308
0 0.560067 0
0.014786 0.560479 0
0.0544289 0.561013 0
0.093904 0.561593 0
0.133272 0.562219 0
0.172549 0.56286 0
0.211734 0.563516 0
0.250446 0.564309 0
0.28957 0.56495 0
0.332174 0.564584 0
0.380026 0.562646 0
0.431327 0.559686 0.00955215
0.482597 0.556695 0.0193942
0.534188 0.553582 0.0291752
0.585458 0.550515 0.0389868
0.635187 0.54786 0.0488594
0.680095 0.546624 0.0582895
0.719036 0.54725 0.0663615
0.752758 0.549584 0.072221
0.782864 0.553109 0.0764019
0.811948 0.556909 0.0799268
0.841703 0.560433 0.0834516
0.873014 0.563378 0.0875105
0.905501 0.565805 0.0919661
0.939025 0.567788 0.0969253
0.973297 0.569421 0.102174
1 0.570672 0.107546
1 0.571664 0.112963
1 0.572503 0.118181
1 0.57322 0.123171
1 0.573816 0.127871
1 0.574304 0.132464
1 0.574639 0.136858
0 0.604212 0
0.0209964 0.604746 0
0.0604562 0.605371 0
0.0997482 0.606043 0
0.138933 0.606744 0
0.178012 0.607446 0
0.216999 0.608148 0
0.255695 0.608911 0
0.294118 0.609705 0
0.334478 0.609903 0
0.37966 0.608652 0
0.429603 0.605982 0.00798047
0.480797 0.602899 0.0174258
0.531838 0.599802 0.0268559
0.583032 0.596597 0.0362402
0.63331 0.593591 0.0456855
0.681437 0.59115 0.0552529
0.724865 0.590051 0.0645304
0.76289 0.59057 0.0729686
0.796292 0.592554 0.0796826
0.826261 0.595636 0.084596
0.854734 0.599207 0.0882277
0.883406 0.602655 0.0912184
0.913024 0.605707 0.094316
0.94406 0.608164 0.0979782
0.97615 0.610147 0.101946
1 0.611688 0.106371
1 0.612894 0.111055
1 0.613718 0.115862
1 0.614282 0.120729
1 0.614679 0.125475
1 0.614954 0.129992
1 0.615122 0.134264
0 0.64799 0
0.0283513 0.648554 0
0.0676432 0.649226 0
0.106737 0.649927 0
0.145708 0.650645 0
0.184558 0.651347 0
0.22327 0.652049 0
0.261921 0.65272 0
0.299992 0.653498 0
0.338735 0.654047 0
0.381216 0.653437 0
0.428946 0.65124 0.0075227
0.479698 0.648096 0.016556
0.530236 0.644923 0.0255741
0.581109 0.641596 0.0345159
0.63151 0.638315 0.0434577
0.680369 0.635401 0.052491
0.726543 0.633158 0.0617075
0.768322 0.632166 0.0706951
0.805188 0.632563 0.0791943
0.838117 0.634165 0.0862745
0.868162 0.636652 0.0916762
0.896574 0.639704 0.0954147
0.924453 0.642878 0.0981003
0.952789 0.645838 0.100496
0.982238 0.64831 0.103166
1 0.650263 0.106218
1 0.651774 0.109728
1 0.652888 0.113588
1 0.653651 0.117708
1 0.654078 0.12192
1 0.654246 0.126238
1 0.654215 0.130465
0 0.691356 0
0.0363622 0.69189 0
0.0754864 0.692531 0
0.114412 0.693187 0
0.153155 0.693843 0
0.191775 0.694484 0
0.230259 0.695109 0
0.26862 0.695705 0
0.306645 0.69633 0
0.344427 0.696941 0
0.384482 0.696818 0
0.429496 0.695186 0.00793469
0.478981 0.692164 0.0165866
0.529305 0.688792 0.0251164
0.579583 0.685359 0.0335851
0.629862 0.681804 0.0419928
0.679057 0.678462 0.0504463
0.72607 0.675639 0.0590372
0.770138 0.673548 0.0678111
0.810117 0.672587 0.0764019
0.845823 0.672801 0.0847028
0.878309 0.673976 0.0918898
0.908507 0.675868 0.0975204
0.936996 0.678325 0.101381
0.964508 0.681086 0.10396
0.991943 0.683818 0.105882
1 0.686244 0.107729
1 0.688167 0.109972
1 0.689632 0.112459
1 0.6907 0.115434
1 0.691371 0.118715
1 0.691737 0.122255
1 0.691768 0.125887
0.00521859 0.734279 0
0.0445411 0.734737 0
0.0834974 0.735256 0
0.12224 0.735805 0
0.1608 0.736339 0
0.199176 0.736858 0
0.23743 0.737331 0
0.275532 0.737758 0
0.313497 0.738155 0
0.35082 0.738628 0
0.389059 0.738766 0
0.431266 0.737636 0.00874342
0.47866 0.734905 0.0171054
0.528634 0.731289 0.0251621
0.578256 0.727672 0.0331579
0.628183 0.723873 0.041062
0.677501 0.720119 0.0489204
0.725124 0.716747 0.0568704
0.770016 0.714046 0.0650034
0.812009 0.712093 0.0733349
0.850217 0.711162 0.0815137
0.884932 0.711162 0.0894789
0.917052 0.711925 0.0965591
0.947478 0.713207 0.102205
0.976028 0.715114 0.106188
1 0.717388 0.108751
1 0.719799 0.110384
1 0.722057 0.111635
1 0.723949 0.112993
1 0.725338 0.114794
1 0.726329 0.116793
1 0.726925 0.119249
1 0.727184 0.12195
0.0132296 0.77673 0
0.0523995 0.77702 0
0.0912032 0.777371 0
0.129763 0.777737 0
0.168109 0.778088 0
0.206287 0.778393 0
0.244282 0.778653 0
0.282139 0.778866 0
0.319814 0.779019 0
0.357076 0.779187 0
0.394186 0.779278 0.000640879
0.43386 0.778515 0.00933852
0.478584 0.776165 0.0174868
0.527474 0.772503 0.0251774
0.576852 0.768582 0.0327459
0.626245 0.764538 0.0402075
0.675517 0.760433 0.0475776
0.723583 0.756573 0.0549935
0.769345 0.753262 0.0625467
0.812161 0.750683 0.0702831
0.852094 0.748852 0.0782177
0.888823 0.74786 0.0859998
0.922698 0.747646 0.0935531
0.954589 0.747967 0.100389
0.984939 0.74876 0.105898
1 0.750088 0.109911
1 0.751873 0.112444
1 0.753902 0.113878
1 0.755886 0.114733
1 0.757626 0.115434
1 0.759014 0.116335
1 0.759899 0.117754
1 0.760464 0.11931
0.0204013 0.818662 0
0.0594492 0.818723 0
0.0981155 0.81883 0
0.136492 0.818952 0
0.174655 0.819028 0
0.212604 0.819059 0
0.25037 0.819028 0
0.287953 0.818936 0
0.325353 0.818784 0
0.362387 0.818631 0
0.399115 0.818448 0.000747692
0.436835 0.817868 0.00924697
0.478798 0.815946 0.0172732
0.525811 0.812436 0.0247501
0.575036 0.808194 0.0319219
0.623835 0.803952 0.0390326
0.672923 0.799527 0.0460365
0.721248 0.795209 0.0529946
0.767773 0.791318 0.060029
0.81149 0.788113 0.0672465
0.852323 0.785657 0.0746471
0.89041 0.783886 0.0822156
0.925902 0.782788 0.0896162
0.959197 0.782269 0.0967575
0.991058 0.782116 0.103288
1 0.782467 0.108659
1 0.783276 0.112627
1 0.784588 0.115129
1 0.786221 0.116472
1 0.787961 0.117037
1 0.789563 0.117311
1 0.79089 0.117617
1 0.791791 0.118349
0.0271458 0.859693 0
0.0658732 0.859525 0
0.10425 0.859388 0
0.142321 0.85922 0
0.180194 0.859007 0
0.217838 0.858732 0
0.255192 0.858457 0
0.292546 0.85803 0
0.329732 0.857557 0
0.366735 0.857023 0
0.403235 0.856519 0
0.439765 0.855894 0.0081178
0.479194 0.854322 0.0160525
0.523766 0.851148 0.0234379
0.572168 0.846769 0.0303807
0.620768 0.842206 0.0371862
0.66949 0.837522 0.0438697
0.717937 0.832792 0.0504768
0.765057 0.828367 0.0570993
0.809735 0.824521 0.0638437
0.851469 0.821439 0.0707866
0.890364 0.819074 0.0778973
0.926925 0.817273 0.0851453
0.961517 0.816007 0.092195
0.994492 0.815137 0.0989548
1 0.814618 0.105226
1 0.814557 0.110445
1 0.814954 0.114427
1 0.815885 0.116976
1 0.817197 0.118318
1 0.818677 0.118776
1 0.820157 0.118776
1 0.821439 0.1187
0.0327916 0.89984 0
0.0712444 0.899367 0
0.109316 0.898924 0
0.147112 0.898451 0
0.184695 0.897932 0
0.222065 0.897353 0
0.259251 0.896712 0
0.296284 0.89601 0
0.33315 0.895262 0
0.369848 0.894423 0
0.40621 0.893584 0
0.442222 0.892744 0.00582895
0.479469 0.891447 0.013489
0.52137 0.88867 0.0208743
0.5682 0.884367 0.0276951
0.6168 0.879438 0.0342412
0.665019 0.87451 0.0407111
0.713436 0.869429 0.0470588
0.760967 0.8645 0.0533608
0.806592 0.860044 0.0597391
0.849332 0.856321 0.0662852
0.889204 0.853361 0.0730297
0.926421 0.851087 0.079942
0.961852 0.849256 0.0869459
0.995911 0.847776 0.0937362
1 0.846586 0.100206
1 0.845808 0.10631
1 0.845441 0.111467
1 0.845533 0.11545
1 0.846128 0.11812
1 0.84715 0.119554
1 0.848447 0.120012
1 0.84979 0.119936
0.0373693 0.938933 0
0.0755474 0.93817 0
0.113344 0.937407 0
0.150835 0.936629 0
0.188128 0.935805 0
0.225238 0.934936 0
0.262165 0.934005 0
0.298924 0.933013 0
0.335515 0.931945 0
0.371939 0.930816 0
0.40824 0.929641 0
0.443992 0.928496 0.00256352
0.480003 0.927169 0.0101778
0.519234 0.924804 0.0174258
0.563684 0.920821 0.024094
0.611658 0.915724 0.0303655
0.659586 0.910536 0.0365454
0.707744 0.905196 0.0426337
0.755428 0.899947 0.0484932
0.801846 0.894957 0.0546426
0.845731 0.890623 0.0609293
0.886702 0.887083 0.0673991
0.924834 0.884291 0.0740673
0.960784 0.882078 0.0808728
0.995499 0.880186 0.0877394
1 0.878508 0.0943465
1 0.877104 0.100679
1 0.876066 0.106645
1 0.875456 0.111818
1 0.875319 0.115877
1 0.875624 0.118746
1 0.876432 0.120348
1 0.877546 0.120958
0.04094 0.976989 0
0.0787976 0.975921 0
0.11632 0.974868 0
0.153552 0.973785 0
0.19057 0.972671 0
0.227405 0.971496 0
0.264042 0.970275 0
0.300542 0.968978 0
0.336873 0.967636 0
0.373037 0.966217 0
0.409064 0.964736 0
0.444755 0.963256 0
0.480095 0.961776 0.00567636
0.517174 0.959686 0.0128176
0.558953 0.956161 0.0194705
0.605554 0.951156 0.0256199
0.653529 0.945693 0.0315709
0.701259 0.940215 0.0374762
0.749126 0.93463 0.0432898
0.796078 0.929259 0.0491188
0.841001 0.924422 0.0550851
0.88307 0.920348 0.0612497
0.922255 0.917082 0.0676432
0.958892 0.914488 0.0742199
0.99379 0.912398 0.080766
1 0.910399 0.0875715
1 0.908476 0.0940871
1 0.90695 0.100389
1 0.905745 0.10634
1 0.904952 0.11162
1 0.904616 0.115846
1 0.904738 0.118959
1 0.905379 0.120836
0.0434577 1 0
0.0810559 1 0
0.118288 1 0
0.155245 1 0
0.191989 1 0
0.22855 1 0
0.264942 1 0
0.301167 1 0
0.337224 1 0
0.373144 1 0
0.408942 0.998901 0
0.444617 0.997116 0
0.479728 0.995407 0.000289921
0.515343 0.993484 0.00733959
0.554574 0.990448 0.0140078
0.599039 0.985824 0.0201419
0.646693 0.980209 0.0259403
0.694179 0.974594 0.031693
0.74197 0.968841 0.0373541
0.789303 0.963165 0.0430152
0.835142 0.9579 0.0487526
0.878386 0.953338 0.0546883
0.91873 0.949584 0.0608682
0.956329 0.946609 0.0672618
0.991836 0.944198 0.0738079
1 0.942092 0.0804608
1 0.940017 0.0870985
1 0.938079 0.0935378
1 0.936431 0.0997482
1 0.935134 0.105684
1 0.934279 0.110933
1 0.933822 0.115434
1 0.933822 0.118883
0.0449836 1 0
0.0823072 1 0
0.119265 1 0
0.155947 1 0
0.192416 1 0
0.228717 1 0
0.264851 1 0
0.300847 1 0
0.336706 1 0
0.372442 1 0
0.408042 1 0
0.443534 1 0
0.478706 1 0
0.513634 1 0.00114443
0.550668 1 0.00784314
0.592599 1 0.0140536
0.63917 1 0.019791
0.686748 1 0.0254063
0.734249 1 0.0309911
0.781826 0.99678 0.0365148
0.828367 0.99118 0.0420996
0.872801 0.986175 0.0478523
0.914366 0.981979 0.0538491
0.953094 0.978592 0.0600748
0.98938 0.975906 0.0665293
1 0.973648 0.073106
1 0.971572 0.0797284
1 0.969467 0.0863508
1 0.967514 0.0928054
1 0.96585 0.0990311
1 0.964523 0.105028
1 0.963592 0.110597
1 0.963119 0.115267
0.0455177 1 0
0.0825513 1 0
0.119249 1 0
0.155688 1 0
0.191943 1 0
0.228031 1 0
0.263981 1 0
0.299794 1 0
0.335485 1 0
