70 CGC LUTs/Look LUTs/Enhance.cube
#Created by: Denver Riddle
#Copyright: (C) Copyright Color Grading Central LLC
#LUT Size
LUT_3D_SIZE 9
0 0 0
0.150805 0 0.0043946
0.3346 0 4.57771e-05
0.495384 0 0.0024567
0.632364 0 0.0128176
0.770443 0 0.0255131
0.91107 0 0.0407263
1 0 0.0585641
1 0 0.0787671
0 0.13019 0
0.13106 0.122011 0
0.297597 0.114092 0.000183108
0.48014 0.105028 0.00306706
0.631678 0.1075 0.0195773
0.77763 0.113939 0.040116
0.924529 0.12137 0.0617227
1 0.128756 0.083711
1 0.135653 0.105226
0 0.288823 0
0.12166 0.288151 0
0.299428 0.283665 0.00611887
0.474372 0.283391 0.023209
0.64033 0.285283 0.0406195
0.790387 0.291356 0.062974
0.940795 0.297688 0.0866102
1 0.30428 0.110414
1 0.311086 0.133471
0 0.470924 0
0.12607 0.471901 0
0.286397 0.472938 0
0.489158 0.461936 0.0267338
0.66128 0.461357 0.0552987
0.793133 0.473594 0.0724956
0.937423 0.480735 0.0965744
1 0.486091 0.118181
1 0.489982 0.138964
0 0.64799 0
0.145708 0.650645 0
0.299992 0.653498 0
0.479698 0.648096 0.016556
0.680369 0.635401 0.052491
0.838117 0.634165 0.0862745
0.952789 0.645838 0.100496
1 0.652888 0.113588
1 0.654215 0.130465
0.0204013 0.818662 0
0.174655 0.819028 0
0.325353 0.818784 0
0.478798 0.815946 0.0172732
0.672923 0.799527 0.0460365
0.852323 0.785657 0.0746471
0.991058 0.782116 0.103288
1 0.786221 0.116472
1 0.791791 0.118349
0.04094 0.976989 0
0.19057 0.972671 0
0.336873 0.967636 0
0.480095 0.961776 0.00567636
0.653529 0.945693 0.0315709
0.841001 0.924422 0.0550851
0.99379 0.912398 0.080766
1 0.905745 0.10634
1 0.905379 0.120836
0.0451057 1 0
0.190738 1 0
0.333669 1 0
0.474952 1 0
0.624109 1 0.00639353
0.813123 1 0.0283665
0.983368 1 0.0519722
1 1 0.0786297
1 1 0.103914
0.0374456 1 0
0.18146 1 0
0.323598 1 0
0.464836 1 0
0.604746 1 0
0.780819 1 0.0011902
0.965393 1 0.0235752
1 1 0.0491493
1 1 0.0757458
0 0 0.14815
0.155077 0 0.149325
0.342535 0 0.130755
0.499168 0 0.126284
0.633341 0 0.13373
0.768658 0 0.143893
0.906889 0 0.156725
1 0 0.172335
1 0 0.190631
0 0.112871 0.0885023
0.101625 0.101625 0.101625
0.279515 0.0885786 0.104036
0.463493 0.0771496 0.107301
0.615686 0.0777447 0.122255
0.761013 0.0832227 0.142092
0.908019 0.0900893 0.163607
1 0.0974746 0.185687
1 0.104494 0.207385
0 0.267109 0.0263828
0.0914626 0.261784 0.0678416
0.266499 0.257267 0.111131
0.449744 0.254688 0.124315
0.625132 0.254261 0.140948
0.77641 0.259556 0.165515
0.926131 0.265797 0.189715
1 0.272709 0.213123
1 0.280003 0.23563
0 0.447318 0
0.0938277 0.445548 0.0448005
0.254856 0.446067 0.0895705
0.455802 0.435431 0.131594
0.623484 0.437049 0.151888
0.771847 0.444144 0.1738
0.921035 0.450401 0.196384
1 0.455467 0.219394
1 0.459068 0.24329
0 0.625635 0
0.108721 0.625864 0.0368963
0.265965 0.628107 0.0780346
0.443519 0.623713 0.1178
0.646281 0.610956 0.155077
0.801862 0.611582 0.185504
0.920867 0.623102 0.198627
1 0.627146 0.217029
1 0.627817 0.234043
0 0.797391 0.00695811
0.137224 0.796307 0.046479
0.29044 0.796246 0.0823835
0.443381 0.794476 0.117037
0.637095 0.779049 0.146883
0.820142 0.764981 0.176364
0.958511 0.762524 0.20473
1 0.768994 0.213428
1 0.772564 0.218326
0 0.957992 0.0111849
0.155352 0.952468 0.0463111
0.304128 0.94757 0.0775311
0.448936 0.942138 0.107637
0.619654 0.927535 0.134325
0.808621 0.906386 0.158114
0.964675 0.893782 0.184146
1 0.887922 0.20914
1 0.889525 0.219089
0.00622568 1 0
0.157427 1 0.0301061
0.30251 1 0.0574044
0.444862 1 0.0840467
0.591928 1 0.110079
0.780362 1 0.132174
0.953475 1 0.155489
1 1 0.181888
1 1 0.20708
0 1 0
0.148821 1 0.00320439
0.292653 1 0.0291447
0.434607 1 0.0549935
0.575143 1 0.08159
0.747921 1 0.104936
0.934005 1 0.12723
1 1 0.15259
1 1 0.179202
0 0 0.342428
0.13283 0 0.345174
0.346181 0 0.334386
0.527535 0 0.322896
0.664485 0 0.320714
0.795514 0 0.322484
0.92784 0 0.328695
1 0 0.339223
1 0 0.353552
0 0.0835126 0.273762
0.0825971 0.0717937 0.281498
0.283406 0.0509499 0.277546
0.473838 0.0373846 0.264637
0.620462 0.0386206 0.270695
0.761028 0.0443275 0.286473
0.904906 0.0514839 0.305333
1 0.0593729 0.325765
1 0.067155 0.346532
0 0.244343 0.182513
0.04271 0.238422 0.207416
0.230793 0.230793 0.230793
0.43238 0.222263 0.243061
0.611612 0.220676 0.260563
0.7626 0.226459 0.283604
0.910948 0.232975 0.305715
1 0.240208 0.327352
1 0.247745 0.348669
0 0.425345 0.114336
0.0509346 0.422202 0.15079
0.222797 0.419364 0.195361
0.422599 0.408881 0.237171
0.597208 0.40885 0.252842
0.755901 0.413108 0.273686
0.908049 0.418509 0.299184
1 0.423072 0.325536
1 0.426902 0.351232
0 0.604715 0.0960098
0.064683 0.603204 0.134874
0.231174 0.602655 0.17879
0.407874 0.598825 0.219669
0.612665 0.585946 0.258274
0.763867 0.589349 0.281788
0.89752 0.596948 0.300282
1 0.599588 0.31928
1 0.600107 0.336965
0 0.777386 0.105608
0.0927901 0.775509 0.142504
0.253681 0.773739 0.181384
0.407874 0.772519 0.216861
0.601236 0.758083 0.247883
0.787884 0.743801 0.278416
0.924498 0.742992 0.305058
1 0.750332 0.311238
1 0.750896 0.321294
0 0.939834 0.110842
0.113848 0.933898 0.144518
0.269459 0.927626 0.178882
0.416953 0.922286 0.209461
0.585199 0.909224 0.236805
0.775982 0.888136 0.261189
0.93518 0.87512 0.28719
1 0.870298 0.311208
1 0.873884 0.316091
0 1 0.100633
0.118517 1 0.130419
0.269566 1 0.160678
0.414054 1 0.18761
0.559899 1 0.213748
0.747463 1 0.235996
0.9234 1 0.259068
1 0.994003 0.285267
1 0.987991 0.31014
0 1 0.0767987
0.111208 1 0.104494
0.260182 1 0.133013
0.40383 1 0.158907
0.545052 1 0.185016
0.714946 1 0.208713
0.902327 1 0.230915
1 1 0.256046
1 1 0.282658
0 0 0.517754
0.111757 0 0.522148
0.324544 0 0.512734
0.520394 0 0.507378
0.674525 0 0.508812
0.817899 0 0.509148
0.95639 0 0.510353
1 0 0.514717
1 0 0.523095
0 0.0538033 0.465003
0.0626688 0.0419165 0.471519
0.258915 0.021088 0.468299
0.47245 0 0.462135
0.641993 0 0.464317
0.787823 0 0.471412
0.929793 0.0016022 0.481987
1 0.0108186 0.496239
1 0.0203555 0.513024
0 0.209339 0.387015
0.0235294 0.201465 0.408515
0.208621 0.193561 0.42739
0.43859 0.176349 0.432898
0.628565 0.172717 0.436286
0.774014 0.18143 0.450446
0.91606 0.190173 0.467323
1 0.198749 0.486015
1 0.207141 0.505882
0 0.398306 0.30454
0 0.396857 0.333761
0.164004 0.395132 0.362814
0.38143 0.38143 0.38143
0.579324 0.374426 0.39617
0.743557 0.376745 0.420264
0.897215 0.381765 0.447196
1 0.386572 0.473381
1 0.391089 0.498085
0 0.584314 0.239979
0.00270085 0.58262 0.267491
0.17966 0.580255 0.300038
0.367834 0.573388 0.34049
0.575967 0.559991 0.379171
0.732311 0.563134 0.396811
0.880156 0.567239 0.416663
1 0.569299 0.437461
1 0.569558 0.458534
0 0.758389 0.216327
0.0397498 0.756161 0.246082
0.208377 0.753307 0.280476
0.370962 0.750301 0.318654
0.565179 0.736522 0.350515
0.75555 0.721996 0.382116
0.887892 0.723949 0.403647
1 0.728695 0.41294
1 0.727047 0.425391
0 0.922484 0.215702
0.0662699 0.916396 0.245197
0.227909 0.909529 0.27718
0.383124 0.902541 0.310704
0.55024 0.890684 0.338827
0.742794 0.869795 0.363516
0.905455 0.856321 0.389731
1 0.853056 0.411749
1 0.857404 0.413153
0 1 0.20589
0.0745403 1 0.232746
0.230503 1 0.261341
0.381506 1 0.291081
0.527687 1 0.317479
0.714397 1 0.339773
0.893065 0.985763 0.362707
1 0.975692 0.388708
1 0.970352 0.412192
0 1 0.182086
0.0694591 1 0.207279
0.222309 1 0.234379
0.371527 1 0.262791
0.514565 1 0.288762
0.681758 1 0.312703
0.870359 1 0.334615
1 1 0.359518
1 1 0.38613
0 0 0.653773
0.0941939 0 0.659236
0.305821 0 0.651164
0.504768 0 0.645319
0.664485 0 0.649866
0.81619 0 0.653727
0.963165 0 0.655848
1 0 0.658701
1 0 0.663981
0 0.0271458 0.615854
0.0462959 0.0148928 0.62266
0.237736 0 0.620661
0.451759 0 0.614115
0.63064 0 0.619608
0.788632 0 0.629908
0.941665 0 0.639735
1 0 0.650721
1 0 0.663478
0 0.175265 0.565454
0.00842298 0.166567 0.584176
0.186892 0.158984 0.600992
0.413642 0.141604 0.60502
0.62179 0.131441 0.613458
0.787335 0.134279 0.627558
0.938598 0.141146 0.639094
1 0.149798 0.651057
1 0.159442 0.665461
0 0.361379 0.500755
0 0.358923 0.529335
0.14342 0.356817 0.557595
0.359792 0.343526 0.573861
0.589487 0.327276 0.584512
0.767117 0.326452 0.59968
0.917632 0.333318 0.618921
1 0.340612 0.639887
1 0.347494 0.660975
0 0.556481 0.43917
0 0.555825 0.46566
0.114549 0.555001 0.493141
0.301488 0.550301 0.518166
0.532845 0.532845 0.532845
0.7149 0.528893 0.550652
0.86836 0.531609 0.575296
1 0.533639 0.599268
1 0.534325 0.62182
0 0.738033 0.395636
0 0.737316 0.417533
0.135119 0.735286 0.439857
0.307637 0.731533 0.464698
0.519509 0.713771 0.494118
0.715221 0.698589 0.526314
0.849088 0.701701 0.541344
0.988251 0.701579 0.554665
1 0.698894 0.56849
0 0.905516 0.361898
0.000869764 0.900313 0.382513
0.169055 0.893385 0.405417
0.333303 0.885344 0.432181
0.508476 0.871885 0.461769
0.704906 0.850767 0.485786
0.871565 0.836789 0.51165
0.99205 0.836362 0.527703
1 0.837964 0.530465
0 1 0.324208
0.0225528 1 0.345235
0.183948 1 0.36878
0.34107 1 0.3953
0.493568 1 0.424002
0.68043 0.989105 0.445975
0.862043 0.967941 0.468452
1 0.957427 0.493858
1 0.953307 0.514611
0 1 0.292561
0.0227817 1 0.313634
0.179812 1 0.337377
0.333486 1 0.363729
0.482734 1 0.392081
0.647807 1 0.416022
0.838209 1 0.437842
0.998352 1 0.462531
1 1 0.489158
0 0 0.784451
0.0776074 0 0.790478
0.287053 0 0.783139
0.489128 0 0.776776
0.65066 0 0.781048
0.805402 0 0.78706
0.958053 0 0.791669
1 0 0.795209
1 0 0.799634
0 0.00187686 0.746609
0.0317998 0 0.753384
0.21857 0 0.752361
0.432898 0 0.744808
0.613886 0 0.748272
0.774746 0 0.760189
0.934707 0 0.772274
1 0 0.783886
1 0 0.795727
0 0.145052 0.704845
0 0.135805 0.720287
0.167071 0.128328 0.734752
0.389792 0.110689 0.73695
0.599725 0.0992599 0.743374
0.771695 0.0995651 0.760815
0.935088 0.1028 0.776699
1 0.107942 0.789227
1 0.11545 0.801251
0 0.325124 0.652735
0 0.32224 0.68069
0.129107 0.320287 0.708644
0.341726 0.308324 0.726482
0.572671 0.291341 0.737408
0.764706 0.285603 0.757534
0.931838 0.287449 0.777783
1 0.293004 0.793393
1 0.300755 0.807584
0 0.522423 0.611826
0 0.520729 0.639628
0.091249 0.518853 0.667979
0.278279 0.514168 0.694057
0.512871 0.496254 0.706966
0.725994 0.483864 0.721904
0.891356 0.484367 0.740093
1 0.488457 0.757763
1 0.491569 0.777157
0 0.709895 0.583429
0 0.710109 0.606271
0.0766918 0.709484 0.629145
0.245197 0.707897 0.652064
0.454124 0.69366 0.664973
0.674464 0.674464 0.674464
0.832288 0.671305 0.690837
0.977508 0.66981 0.709728
1 0.666758 0.727794
0 0.884291 0.554772
0 0.881178 0.573083
0.0929885 0.876554 0.58996
0.258473 0.870222 0.605737
0.439307 0.85771 0.618875
0.659098 0.831159 0.637232
0.831479 0.81619 0.663554
0.951858 0.816983 0.673747
1 0.813321 0.680659
0 1 0.507195
0 1 0.521508
0.111559 1 0.535698
0.274876 1 0.551324
0.436057 0.99707 0.571115
0.635523 0.971511 0.593423
0.822065 0.949218 0.614816
0.968994 0.938048 0.639963
1 0.936904 0.653269
0 1 0.447166
0 1 0.460761
0.119844 1 0.476432
0.279454 1 0.49546
0.435752 1 0.518593
0.606592 1 0.544152
0.800763 1 0.564828
0.964431 1 0.588266
1 1 0.614054
0 0 0.915068
0.0615549 0 0.921492
0.268223 0 0.915022
0.473381 0 0.908461
0.636805 0 0.912108
0.791516 0 0.918074
0.946471 0 0.924376
1 0 0.929839
1 0 0.934905
0 0 0.87744
0.0176547 0 0.884215
0.199634 0 0.884123
0.414267 0 0.875776
0.597604 0 0.877272
0.757519 0 0.887861
0.919417 0 0.901091
1 0 0.914717
1 0 0.927733
0 0.116655 0.838407
0 0.106844 0.850584
0.147097 0.0991989 0.862821
0.365698 0.0810559 0.863554
0.577585 0.0679332 0.868238
0.750805 0.0673381 0.884947
0.918608 0.0690013 0.904067
1 0.0715801 0.920348
1 0.0760662 0.933593
0 0.290501 0.787121
0 0.287022 0.813825
0.116518 0.284764 0.841413
0.324727 0.274418 0.860182
0.555901 0.257374 0.869978
0.749554 0.251133 0.887617
0.920378 0.251637 0.909606
1 0.254261 0.92726
1 0.259571 0.94052
0 0.487999 0.748653
0 0.485512 0.77644
0.0776837 0.483253 0.804791
0.262196 0.479301 0.831434
0.495735 0.461906 0.84448
0.712642 0.448798 0.859312
0.890242 0.445701 0.882933
1 0.44506 0.902968
1 0.446479 0.919249
0 0.678782 0.727275
0 0.67866 0.751629
0.0502022 0.677668 0.776226
0.221775 0.675685 0.800809
0.43093 0.662058 0.815763
0.657343 0.642176 0.824262
0.843091 0.631846 0.839399
0.998962 0.628717 0.852781
1 0.627726 0.865797
0 0.857053 0.720668
0 0.85507 0.74023
0.0464485 0.851743 0.758389
0.209583 0.846983 0.775311
0.382162 0.837888 0.788617
0.599939 0.814603 0.790021
0.795666 0.795666 0.795666
0.935943 0.791074 0.807553
1 0.785901 0.819745
0 1 0.694331
0 1 0.708766
0.0459144 1 0.721904
0.205875 0.99472 0.733837
0.365148 0.983886 0.745052
0.569574 0.959365 0.747021
0.780545 0.930831 0.761456
0.931197 0.9187 0.786511
1 0.917845 0.794507
0 1 0.641138
0 1 0.651667
0.0455634 1 0.661692
0.205875 1 0.671992
0.366766 1 0.683833
0.543572 1 0.697597
0.755276 1 0.717296
0.924804 1 0.740246
1 1 0.766125
0 0 1
0.0460212 0 1
0.249393 0 1
0.456916 0 1
0.622812 0 1
0.777676 0 1
0.932433 0 1
1 0 1
1 0 1
0 0 1
0.00340276 0 1
0.180957 0 1
0.395773 0 1
0.581781 0 1
0.740917 0 1
0.901564 0 1
1 0 1
1 0 1
0 0.089601 0.970245
0 0.0791943 0.979873
0.127489 0.0709544 0.990524
0.342031 0.0521859 0.9906
0.555627 0.0370947 0.993576
0.730282 0.0352026 1
0.898024 0.0366064 1
1 0.0382391 1
1 0.0404212 1
0 0.256474 0.921584
0 0.252003 0.947219
0.103639 0.249454 0.973648
0.306172 0.240833 0.99234
0.53695 0.224399 1
0.732021 0.217685 1
0.901411 0.218631 1
1 0.220249 1
1 0.223163 1
0 0.453056 0.881971
0 0.450324 0.909911
0.0649577 0.447791 0.937957
0.24712 0.444465 0.964843
0.478691 0.427756 0.978088
0.698741 0.414084 0.992279
0.878248 0.41088 1
1 0.408469 1
1 0.40679 1
0 0.646403 0.856794
0 0.645762 0.881819
0.0326696 0.644404 0.906996
0.206378 0.642298 0.93228
0.412955 0.630045 0.948974
0.641962 0.6103 0.957977
0.832486 0.599466 0.973953
1 0.592844 0.993866
1 0.587121 1
0 0.828214 0.851667
0 0.826673 0.871916
0.0196231 0.823789 0.891081
0.184771 0.819318 0.909072
0.356832 0.811154 0.924407
0.577493 0.787915 0.926497
0.780636 0.767895 0.930404
0.944793 0.757107 0.940978
1 0.750591 0.946654
0 0.994812 0.838697
0 0.988785 0.854368
0.00936904 0.981414 0.868757
0.16846 0.972732 0.881819
0.325719 0.963104 0.893874
0.520562 0.94197 0.89601
0.730175 0.915908 0.893645
0.900145 0.900145 0.900145
1 0.894392 0.909056
0 1 0.80705
0 1 0.818387
0 1 0.828855
0.150408 1 0.838804
0.30724 1 0.848356
0.476921 1 0.855085
0.696101 1 0.853071
0.888472 1 0.870298
1 1 0.896391
0 0 1
0.0309148 0 1
0.230594 0 1
0.440131 0 1
0.609003 0 1
0.76379 0 1
0.918517 0 1
1 0 1
1 0 1
0 0 1
0 0 1
0.162554 0 1
0.37734 0 1
0.566262 0 1
0.724926 0 1
0.884321 0 1
1 0 1
1 0 1
0 0.0635386 1
0 0.0524605 1
0.109087 0.0432593 1
0.319158 0.0240024 1
0.534081 0.00679026 1
0.710033 0.00335698 1
0.877394 0.00428778 1
1 0.0059205 1
1 0.00730907 1
0 0.223072 1
0 0.217655 1
0.0894179 0.214893 1
0.285451 0.20798 1
0.515404 0.192294 1
0.712367 0.185168 1
0.880964 0.186236 1
1 0.187961 1
1 0.1897 1
0 0.41767 1
0 0.415137 1
0.0524453 0.412375 1
0.232471 0.409537 1
0.461265 0.393668 1
0.684474 0.379278 1
0.866209 0.375814 1
1 0.373983 1
1 0.371786 1
0 0.612879 0.986206
0 0.611902 1
0.0169375 0.610391 1
0.192187 0.608225 1
0.395575 0.597406 1
0.626764 0.577813 1
0.821897 0.566567 1
0.991974 0.560418 1
1 0.553048 1
0 0.797833 0.979812
0 0.796506 1
0 0.793866 1
0.166278 0.789639 1
0.33785 0.782498 1
0.558602 0.760082 1
0.766354 0.739635 1
0.933577 0.728679 1
1 0.717845 1
0 0.968185 0.969863
0 0.962722 0.986175
0 0.955871 1
0.144594 0.947662 1
0.303502 0.938277 1
0.496178 0.918303 1
0.709941 0.891569 1
0.88571 0.874647 1
1 0.86302 1
0 1 0.942931
0 1 0.954879
0 1 0.965942
0.11812 1 0.976287
0.274006 1 0.986145
0.438117 1 0.993729
0.649851 1 0.989914
0.843214 1 0.990646
1 1 1
