70 CGC LUTs/Look LUTs/Glacier.cube
#Created by: Denver Riddle
#Copyright: (C) Copyright Color Grading Central LLC
#LUT Size
LUT_3D_SIZE 9
0.0289158 0.038819 0.0229648
0.104005 0.0438087 0.0260014
0.190402 0.0417334 0.0248875
0.345556 0.0183108 0.0107729
0.565484 0 0
0.70489 0 0
0.815503 0 0
0.910964 0 0
0.99826 0 0
0.01561 0.124132 0.0108797
0.0868238 0.123796 0.0105135
0.171832 0.120531 0.00805676
0.32517 0.0996872 0
0.547326 0.062974 0
0.692302 0.0512245 0
0.810178 0.0529183 0
0.913237 0.0647288 0
1 0.0842908 0
0 0.210468 0
0.0630808 0.215274 0
0.154177 0.221057 0
0.321828 0.211154 0
0.557916 0.188098 0
0.710765 0.194583 0
0.836835 0.213489 0
0.946487 0.23978 0
1 0.269581 0.0150301
0 0.354238 0
0.000823987 0.375463 0
0.101259 0.398825 0
0.279744 0.403861 0
0.52784 0.393149 0
0.684184 0.408011 0
0.809689 0.428977 0
0.915755 0.451133 0
1 0.470954 0
0 0.547127 0
0 0.576196 0
0.103243 0.602609 0
0.287388 0.605722 0
0.529122 0.588891 0
0.677699 0.591913 0
0.795895 0.599207 0
0.895048 0.608286 0
0.98613 0.617426 0
0 0.726802 0
0.0433814 0.747478 0
0.146059 0.761883 0
0.325429 0.750759 0
0.549828 0.724697 0
0.688411 0.720241 0
0.800626 0.721431 0
0.895689 0.726009 0
0.983566 0.731289 0
0 0.864332 0
0.071046 0.876463 0
0.168307 0.88278 0
0.345113 0.86569 0
0.561685 0.836286 0
0.695155 0.82884 0
0.804334 0.827329 0
0.897612 0.829541 0
0.983581 0.833265 0
0.00582895 0.977157 0
0.0837415 0.985672 0.00169375
0.1794 0.988449 0.00285344
0.355673 0.968368 0
0.567864 0.93753 0
0.698573 0.928389 0
0.806104 0.925597 0
0.897902 0.926619 0
0.983413 0.929366 0
0.0135805 1 0.00030518
0.0892805 1 0.00491341
0.183886 1 0.00469978
0.359564 1 0
0.569436 1 0
0.699397 1 0
0.80589 1 0
0.897307 1 0
0.982437 1 0
0.0297551 0.0396277 0.108186
0.103883 0.0432441 0.1131
0.189914 0.0407263 0.1084
0.345541 0.0179904 0.0840009
0.565194 0 0.0595407
0.705287 0 0.049958
0.816007 0 0.0456092
0.912337 0 0.0449836
1 0 0.0476692
0.0150912 0.123064 0.0928511
0.0865034 0.122744 0.0920882
0.171679 0.120089 0.0874495
0.326436 0.100206 0.0661021
0.549767 0.0644236 0.0415503
0.695827 0.0543984 0.0368658
0.814572 0.0578622 0.0395209
0.918517 0.071458 0.0485389
1 0.0926375 0.0646067
0 0.211795 0.0598154
0.0646067 0.21735 0.0650339
0.156451 0.22446 0.0729381
0.328573 0.21561 0.0635386
0.565972 0.194797 0.0457618
0.718395 0.203067 0.0531777
0.843381 0.222202 0.0762341
0.95137 0.247562 0.11426
1 0.274647 0.164279
0 0.360937 0.00521859
0.00508125 0.383932 0.0149233
0.106493 0.408545 0.0281529
0.28925 0.413794 0.0309758
0.536751 0.403372 0.0196994
0.691417 0.418204 0.0285801
0.81529 0.438041 0.0443122
0.919371 0.458228 0.0671092
1 0.475059 0.0901045
0 0.557031 0
0.00077821 0.586267 0.0152285
0.111513 0.611551 0.0345769
0.297642 0.612833 0.0344854
0.536645 0.595132 0.0182956
0.682872 0.597436 0.0200504
0.799771 0.603418 0.0254978
0.898131 0.611811 0.033463
0.988388 0.620295 0.0437934
0 0.734295 0.0389563
0.0485237 0.753079 0.0611582
0.149889 0.765423 0.0801251
0.330053 0.753582 0.0631266
0.554238 0.727855 0.0317082
0.691508 0.723201 0.0268406
0.803037 0.724025 0.0281224
0.897383 0.728054 0.0326238
0.985061 0.733059 0.0390936
0 0.867018 0.0787671
0.0716411 0.877592 0.100633
0.168246 0.882658 0.112947
0.346563 0.865965 0.0832685
0.563867 0.837919 0.0428779
0.697261 0.830564 0.0336461
0.805768 0.828901 0.0319524
0.898589 0.830823 0.0350042
0.984207 0.834089 0.0392767
0.00518807 0.976867 0.107301
0.0818799 0.984176 0.125368
0.177035 0.98616 0.133227
0.355337 0.967117 0.0975357
0.568978 0.938033 0.0502785
0.699809 0.929213 0.0381323
0.806912 0.926421 0.0350042
0.898634 0.927459 0.0366979
0.983764 0.929854 0.0403449
0.0113832 1 0.122866
0.0860914 1 0.138293
0.180255 1 0.143221
0.358495 1 0.103258
0.569909 1 0.0530861
0.700175 1 0.0400702
0.806348 1 0.0358129
0.897566 1 0.0369879
0.982651 1 0.040238
0.0187381 0.0273594 0.350103
0.0920729 0.0296941 0.353475
0.177752 0.0269322 0.346639
0.333806 0.00569161 0.306477
0.556863 0 0.237903
0.699748 0 0.204181
0.8121 0 0.188769
0.909194 0 0.18761
0.997864 0 0.19791
0.00201419 0.109514 0.329809
0.0742199 0.109453 0.329122
0.159625 0.107256 0.322759
0.31606 0.0897993 0.28719
0.543725 0.0572976 0.228962
0.691676 0.0493019 0.218128
0.81062 0.0537728 0.231479
0.913817 0.0675212 0.263844
1 0.0884108 0.306493
0 0.201266 0.285405
0.0547189 0.207568 0.30013
0.147036 0.215625 0.316091
0.322271 0.207935 0.305364
0.561532 0.189746 0.280186
0.713268 0.19852 0.299947
0.837919 0.217884 0.33254
0.946029 0.244327 0.365591
1 0.272816 0.391501
0 0.362188 0.160586
0.00209049 0.384482 0.198764
0.102678 0.407965 0.241505
0.297414 0.415 0.20322
0.534737 0.402655 0.239902
0.687053 0.415488 0.26363
0.808331 0.432944 0.292103
0.911238 0.451484 0.320363
1 0.46717 0.341085
0 0.561532 0.147784
0.00047303 0.586831 0.21207
0.107805 0.608606 0.266133
0.294163 0.608011 0.269078
0.531868 0.589715 0.239414
0.676295 0.590814 0.245014
0.791592 0.595346 0.256947
0.888747 0.602594 0.272145
0.978119 0.610147 0.287648
0 0.72932 0.272282
0.0404822 0.745418 0.310307
0.140566 0.756115 0.330205
0.320836 0.743877 0.310903
0.545159 0.718502 0.268376
0.682033 0.713634 0.261219
0.792859 0.713848 0.263523
0.886976 0.717388 0.27158
0.974044 0.721981 0.281147
0 0.857084 0.327947
0.061387 0.867308 0.346914
0.157763 0.872465 0.35436
0.33547 0.855055 0.329046
0.552804 0.826795 0.285878
0.686366 0.819425 0.273457
0.794812 0.8177 0.271595
0.887129 0.819409 0.275868
0.972732 0.822293 0.281804
0 0.966186 0.349905
0.071397 0.973678 0.360998
0.166232 0.976028 0.363317
0.343999 0.955825 0.337987
0.556893 0.926116 0.294804
0.688243 0.917418 0.280827
0.795117 0.914626 0.276661
0.886595 0.915618 0.278752
0.971801 0.917876 0.283604
0.000183108 1 0.358068
0.0755474 1 0.365698
0.169757 1 0.366384
0.346593 1 0.340078
0.557595 1 0.297597
0.688014 1 0.283253
0.794415 1 0.278294
0.885542 1 0.279866
0.970642 1 0.284398
0.0125734 0.0187228 0.537881
0.0866712 0.0200504 0.538552
0.171298 0.016556 0.534356
0.32369 0 0.517342
0.54165 0 0.494041
0.684977 0 0.48365
0.797894 0 0.4795
0.896071 0 0.480308
0.986404 0 0.485573
0 0.0995041 0.519432
0.0674449 0.0993515 0.518654
0.152193 0.097673 0.516075
0.306096 0.0803388 0.500328
0.532799 0.0458381 0.480613
0.682567 0.0384985 0.478721
0.803815 0.045243 0.484199
0.910018 0.062501 0.495476
1 0.0867323 0.512703
0 0.19205 0.49482
0.0490272 0.200504 0.501503
0.143023 0.21091 0.510323
0.320455 0.204303 0.504036
0.559548 0.187015 0.491539
0.713146 0.198062 0.501122
0.839185 0.219074 0.519936
0.948135 0.246525 0.545876
1 0.27422 0.572839
0 0.35259 0.448676
0 0.378485 0.462089
0.0987411 0.404532 0.477638
0.285435 0.410819 0.479759
0.563394 0.393057 0.453483
0.685191 0.41352 0.477821
0.807233 0.431189 0.490517
0.909743 0.448753 0.504891
1 0.463966 0.519081
0 0.554147 0.446632
0 0.582574 0.467063
0.105486 0.606195 0.484443
0.290471 0.604944 0.481025
0.535561 0.584878 0.434669
0.669825 0.5841 0.462852
0.785153 0.588754 0.466133
0.882948 0.596078 0.472068
0.972763 0.603845 0.478691
0 0.725231 0.484962
0.0372625 0.741924 0.500664
0.136248 0.752392 0.510811
0.313939 0.739651 0.495308
0.537392 0.712154 0.469581
0.674647 0.706477 0.464332
0.785794 0.706432 0.464393
0.88011 0.710063 0.46717
0.967575 0.714733 0.471153
0 0.852598 0.508232
0.0567788 0.862638 0.520912
0.152026 0.867536 0.52639
0.327794 0.850248 0.504845
0.544915 0.82034 0.474311
0.678508 0.812207 0.466514
0.787259 0.810147 0.464454
0.880018 0.811856 0.465599
0.965927 0.814771 0.467964
0 0.960815 0.522042
0.0659495 0.968231 0.53196
0.159792 0.970611 0.534371
0.335027 0.950851 0.509712
0.54876 0.919676 0.476463
0.680293 0.910323 0.467247
0.787671 0.907149 0.464012
0.879591 0.908064 0.464454
0.965026 0.910567 0.466255
0 1 0.528176
0.0693828 1 0.536385
0.162768 1 0.537102
0.337163 1 0.511009
0.549462 1 0.476097
0.679774 1 0.466133
0.786648 1 0.462425
0.87837 1 0.462486
0.963806 1 0.464469
0.00741588 0.0115816 0.70219
0.0820325 0.0119936 0.702296
0.166354 0.00810254 0.700206
0.315999 0 0.685435
0.533272 0 0.655161
0.679652 0 0.640589
0.794263 0 0.635462
0.89369 0 0.636652
0.985107 0 0.643992
0 0.0919966 0.682704
0.0621347 0.0918135 0.682017
0.146822 0.0907149 0.681132
0.299931 0.0746319 0.667857
0.529427 0.0421607 0.642329
0.681483 0.0364538 0.638224
0.803769 0.0448463 0.644495
0.911086 0.0637827 0.658488
1 0.0893568 0.677958
0 0.186999 0.660014
0.0460975 0.196796 0.666712
0.141238 0.208865 0.675685
0.318654 0.204807 0.671794
0.561181 0.188724 0.65658
0.715373 0.200504 0.66453
0.841993 0.222889 0.681025
0.951141 0.250401 0.701854
1 0.277546 0.723232
0 0.353887 0.605127
0 0.381247 0.619699
0.101472 0.408316 0.637629
0.288869 0.41413 0.642344
0.56466 0.394354 0.632166
0.68751 0.415991 0.636011
0.808499 0.43241 0.647074
0.910155 0.448371 0.659358
1 0.46244 0.671138
0 0.55848 0.598779
0 0.585367 0.622309
0.107118 0.607828 0.64303
0.290196 0.605035 0.641154
0.52433 0.583566 0.620295
0.693324 0.57702 0.597589
0.783001 0.586069 0.622293
0.880339 0.592828 0.628565
0.969894 0.600137 0.635462
0 0.72491 0.643427
0.0359808 0.740322 0.658045
0.134188 0.75024 0.667964
0.309789 0.73695 0.655543
0.532937 0.709072 0.627802
0.679698 0.70457 0.58407
0.781491 0.702464 0.621073
0.876295 0.705547 0.624506
0.963363 0.710033 0.628672
0 0.849531 0.665965
0.053666 0.859373 0.675715
0.148165 0.864042 0.680369
0.321691 0.84651 0.663188
0.539361 0.816236 0.632944
0.673533 0.807706 0.624567
0.782361 0.805402 0.622354
0.87509 0.806714 0.623438
0.960952 0.809796 0.626581
0 0.956863 0.676768
0.0619211 0.964218 0.683864
0.155474 0.96643 0.686366
0.328359 0.946456 0.666941
0.542626 0.914961 0.635325
0.674861 0.905272 0.625864
0.782528 0.902068 0.6224
0.874754 0.902632 0.623301
0.960067 0.905104 0.625605
0 1 0.681208
0.0650187 1 0.686992
0.157794 1 0.688167
0.330266 1 0.667552
0.542763 1 0.634989
0.674067 1 0.624735
0.781079 0.996674 0.621256
0.873075 0.997269 0.621729
0.958541 0.999725 0.624506
0.00660716 0.0099031 0.796231
0.0811017 0.00967422 0.796094
0.165011 0.0059968 0.794385
0.313375 0 0.781811
0.530465 0 0.753689
0.678065 0 0.740108
0.79382 0 0.735576
0.894667 0 0.737377
0.987289 0 0.745022
0 0.0903029 0.776425
0.0610513 0.0902876 0.776089
0.146502 0.0902724 0.776196
0.300145 0.0749981 0.764462
0.53138 0.0438849 0.740215
0.684489 0.0400549 0.736629
0.808103 0.0505226 0.743389
0.916365 0.0711376 0.758114
1 0.0976883 0.777508
0 0.188342 0.756374
0.0484474 0.199619 0.763516
0.144686 0.21326 0.772946
0.325292 0.210498 0.770352
0.56849 0.195712 0.755871
0.722286 0.208942 0.764599
0.848676 0.231678 0.781109
0.957443 0.258869 0.802777
1 0.284871 0.824048
0 0.361028 0.705577
0.00289921 0.389242 0.719509
0.107729 0.417121 0.736812
0.298283 0.422446 0.741909
0.542977 0.411399 0.728191
0.693202 0.42266 0.734386
0.813336 0.437629 0.744991
0.913954 0.452476 0.756527
1 0.465126 0.767346
0 0.566522 0.699962
0.00631724 0.592844 0.722683
0.113558 0.614008 0.742092
0.295705 0.609384 0.738888
0.528161 0.586984 0.717311
0.693629 0.577325 0.717159
0.784878 0.588266 0.717754
0.881956 0.594491 0.723507
0.970932 0.60148 0.730114
0 0.729 0.740963
0.0391546 0.743313 0.75462
0.136767 0.752667 0.763836
0.311955 0.738811 0.751019
0.5346 0.710552 0.723064
0.671412 0.703822 0.716381
0.804486 0.698756 0.697459
0.876966 0.706279 0.718807
0.963684 0.710491 0.722805
0 0.851148 0.761181
0.0550546 0.860639 0.770565
0.149508 0.864897 0.775143
0.322469 0.847196 0.757794
0.539925 0.816739 0.727443
0.673838 0.808118 0.718822
0.78854 0.807202 0.688487
0.875212 0.80679 0.717525
0.961059 0.80972 0.7205
0 0.957504 0.771405
0.0625772 0.964675 0.778302
0.155932 0.966613 0.780484
0.328313 0.946578 0.761166
0.542504 0.915084 0.72932
0.674739 0.905287 0.719722
0.782437 0.901961 0.716197
0.874708 0.902602 0.717113
0.95993 0.904936 0.719646
0 1 0.775372
0.0652628 1 0.781079
0.157931 1 0.781994
0.329931 1 0.761685
0.542458 1 0.729183
0.673655 1 0.7187
0.780926 0.996551 0.715129
0.872984 0.997147 0.715877
0.958618 0.999649 0.718578
0.00552377 0.00828565 0.890974
0.0799725 0.00743114 0.890257
0.163943 0.00367742 0.888029
0.311421 0 0.873381
0.528511 0 0.843626
0.677958 0 0.829709
0.794522 0 0.825833
0.896406 0 0.829252
0.990036 0 0.838727
0 0.0886091 0.869963
0.0601358 0.0890211 0.870115
0.146349 0.0901198 0.870756
0.301701 0.0762493 0.8589
0.534493 0.0466316 0.834791
0.688014 0.0445106 0.832975
0.81268 0.0567025 0.84268
0.921309 0.0785382 0.859815
1 0.10576 0.881758
0 0.190082 0.852094
0.0505684 0.202976 0.862028
0.148821 0.218235 0.87396
0.332937 0.216297 0.871992
0.576013 0.203143 0.858824
0.729213 0.216953 0.86952
0.855039 0.240162 0.888029
0.963104 0.266423 0.909926
1 0.290791 0.931044
0 0.368612 0.803113
0.00808728 0.397406 0.819959
0.113863 0.425895 0.840375
0.306264 0.430274 0.844556
0.549249 0.418677 0.831022
0.698131 0.428901 0.837552
0.816754 0.441962 0.847745
0.916213 0.455848 0.859312
1 0.46746 0.869688
0 0.57438 0.801694
0.012726 0.599634 0.82562
0.118883 0.619394 0.845457
0.300496 0.613184 0.839902
0.531106 0.589548 0.816419
0.672648 0.587106 0.813901
0.786679 0.589914 0.816541
0.883131 0.595758 0.822187
0.971618 0.602243 0.828611
0 0.732464 0.841688
0.0415503 0.745739 0.855375
0.138842 0.754391 0.864576
0.31397 0.740032 0.85037
0.535866 0.71165 0.821088
0.672358 0.704662 0.813993
0.802625 0.697002 0.818616
0.877165 0.706554 0.816022
0.963973 0.710613 0.820615
0 0.852277 0.860883
0.0555886 0.861341 0.870527
0.150271 0.865446 0.874983
0.323186 0.847486 0.856504
0.540093 0.817029 0.824887
0.67393 0.808225 0.815793
0.782361 0.805463 0.812985
0.885344 0.804425 0.806775
0.960922 0.8094 0.817243
0 0.957671 0.870787
0.0627298 0.964645 0.877928
0.155917 0.966461 0.880079
0.328191 0.946365 0.859434
0.542412 0.914839 0.826505
0.674449 0.905043 0.816464
0.782162 0.901564 0.81297
0.874998 0.902525 0.809781
0.959487 0.904524 0.816068
0 1 0.874342
0.0649271 1 0.880537
0.157519 1 0.881376
0.329412 1 0.859831
0.542214 1 0.826352
0.673304 0.999832 0.815442
0.780575 0.996216 0.811704
0.872694 0.996841 0.812467
0.958404 0.999405 0.81529
0.00375372 0.00595102 0.990738
0.0786297 0.00469978 0.989502
0.162234 0.000915541 0.987396
0.30901 0 0.972412
0.526635 0 0.942351
0.67747 0 0.929229
0.795056 0 0.926192
0.897887 0 0.930968
0.992401 0 0.942443
0 0.0865949 0.969406
0.0588083 0.0876173 0.969985
0.145846 0.089601 0.971389
0.303502 0.0772412 0.960632
0.537926 0.0491035 0.937728
0.69192 0.0487984 0.937697
0.817227 0.0628824 0.94873
0.926513 0.0861372 0.967391
1 0.113893 0.989746
0 0.191577 0.954681
0.0526436 0.205997 0.96556
0.152682 0.223468 0.979431
0.340215 0.222324 0.977737
0.582742 0.209827 0.965927
0.736034 0.225071 0.977493
0.861021 0.248066 0.995773
0.9682 0.273442 1
1 0.296986 1
0 0.375875 0.908721
0.0133211 0.40589 0.92726
0.119387 0.434272 0.947845
0.314504 0.437552 0.951324
0.555566 0.425238 0.937682
0.702449 0.434394 0.943481
0.819593 0.445975 0.952575
0.918212 0.458442 0.962982
1 0.469596 0.97261
0 0.581048 0.909773
0.0180972 0.605463 0.932982
0.123156 0.623697 0.951247
0.30518 0.61619 0.944533
0.533639 0.59176 0.920165
0.674327 0.588739 0.91696
0.787701 0.591073 0.919478
0.88368 0.596613 0.924804
0.972259 0.602686 0.931044
0 0.734859 0.945983
0.0435035 0.747936 0.959426
0.140429 0.755856 0.967773
0.315618 0.740917 0.952529
0.536446 0.712108 0.923201
0.672801 0.705013 0.916136
0.783078 0.703853 0.914885
0.876875 0.706508 0.917601
0.963668 0.710338 0.921645
0 0.853208 0.963455
0.0561532 0.86183 0.972641
0.150546 0.865599 0.976715
0.323476 0.847501 0.957961
0.540002 0.816907 0.926314
0.673686 0.807935 0.917052
0.781903 0.80502 0.914061
0.88217 0.803311 0.919585
0.960296 0.808789 0.918105
0 0.957626 0.972091
0.0626841 0.964431 0.979141
0.155398 0.965988 0.980911
0.327718 0.945922 0.960433
0.541863 0.914275 0.927581
0.673854 0.904433 0.917357
0.781415 0.900923 0.913634
0.87364 0.901564 0.914351
0.95877 0.903914 0.916884
0 1 0.975357
0.0644083 1 0.981277
0.156954 1 0.981964
0.328817 1 0.960525
0.541299 1 0.927123
0.672557 0.9991 0.916167
0.779919 0.99556 0.912505
0.872068 0.996216 0.913298
0.957839 0.99884 0.916152
0.00199893 0.0034638 1
0.0773022 0.00228885 1
0.161028 0 1
0.30721 0 1
0.524971 0 1
0.677119 0 1
0.795972 0 1
0.899794 0 1
0.995392 0 1
0 0.0848249 1
0.0581369 0.0868544 1
0.145922 0.0898146 1
0.305348 0.0787518 1
0.541466 0.0520638 1
0.696452 0.0540017 1
0.822431 0.0697185 1
0.931701 0.093843 1
1 0.122484 1
0 0.194095 1
0.0552987 0.210422 1
0.157534 0.229084 1
0.348806 0.228687 1
0.590478 0.217838 1
0.742809 0.233371 1
0.86714 0.256245 1
0.973388 0.280629 1
1 0.302831 1
0 0.383658 1
0.018265 0.414481 1
0.125658 0.443 1
0.321843 0.444419 1
0.561013 0.431479 1
0.706371 0.439231 1
0.822354 0.449928 1
0.920272 0.461082 1
1 0.471626 1
0 0.588098 1
0.0237278 0.611215 1
0.127306 0.627909 1
0.308949 0.618952 1
0.5364 0.593881 1
0.676097 0.590372 1
0.7888 0.59234 1
0.884337 0.597543 1
0.972656 0.60322 1
0 0.737392 1
0.0455787 0.749996 1
0.142184 0.757382 1
0.317479 0.741894 1
0.537453 0.712749 1
0.673213 0.705425 1
0.783261 0.704189 1
0.876936 0.706584 1
0.963561 0.710292 1
0 0.854002 1
0.0568399 0.862486 1
0.151019 0.866087 1
0.323919 0.847669 1
0.540169 0.816907 1
0.673487 0.807706 1
0.781659 0.804776 1
0.874205 0.805814 1
0.959976 0.808499 1
0 0.957839 1
0.0625315 0.964248 1
0.155215 0.965896 1
0.327535 0.945678 1
0.541451 0.913939 1
0.673426 0.90399 1
0.780941 0.900587 1
0.873121 0.901045 1
0.958068 0.903304 1
0 1 1
0.0641031 1 1
0.156619 1 1
0.328435 1 1
0.540887 1 1
0.672099 0.998627 1
0.779477 0.995117 1
0.871702 0.995865 1
0.956786 0.997757 1
