70 CGC LUTs/Look LUTs/Glacier.cube
#Created by: Denver Riddle
#Copyright: (C) Copyright Color Grading Central LLC
#LUT Size
LUT_3D_SIZE 5
0.0289158 0.038819 0.0229648
0.190402 0.0417334 0.0248875
0.565484 0 0
0.815503 0 0
0.99826 0 0
0 0.210468 0
0.154177 0.221057 0
0.557916 0.188098 0
0.836835 0.213489 0
1 0.269581 0.0150301
0 0.547127 0
0.103243 0.602609 0
0.529122 0.588891 0
0.795895 0.599207 0
0.98613 0.617426 0
0 0.864332 0
0.168307 0.88278 0
0.561685 0.836286 0
0.804334 0.827329 0
0.983581 0.833265 0
0.0135805 1 0.00030518
0.183886 1 0.00469978
0.569436 1 0
0.80589 1 0
0.982437 1 0
0.0187381 0.0273594 0.350103
0.177752 0.0269322 0.346639
0.556863 0 0.237903
0.8121 0 0.188769
0.997864 0 0.19791
0 0.201266 0.285405
0.147036 0.215625 0.316091
0.561532 0.189746 0.280186
0.837919 0.217884 0.33254
1 0.272816 0.391501
0 0.561532 0.147784
0.107805 0.608606 0.266133
0.531868 0.589715 0.239414
0.791592 0.595346 0.256947
0.978119 0.610147 0.287648
0 0.857084 0.327947
0.157763 0.872465 0.35436
0.552804 0.826795 0.285878
0.794812 0.8177 0.271595
0.972732 0.822293 0.281804
0.000183108 1 0.358068
0.169757 1 0.366384
0.557595 1 0.297597
0.794415 1 0.278294
0.970642 1 0.284398
0.00741588 0.0115816 0.70219
0.166354 0.00810254 0.700206
0.533272 0 0.655161
0.794263 0 0.635462
0.985107 0 0.643992
0 0.186999 0.660014
0.141238 0.208865 0.675685
0.561181 0.188724 0.65658
0.841993 0.222889 0.681025
1 0.277546 0.723232
0 0.55848 0.598779
0.107118 0.607828 0.64303
0.52433 0.583566 0.620295
0.783001 0.586069 0.622293
0.969894 0.600137 0.635462
0 0.849531 0.665965
0.148165 0.864042 0.680369
0.539361 0.816236 0.632944
0.782361 0.805402 0.622354
0.960952 0.809796 0.626581
0 1 0.681208
0.157794 1 0.688167
0.542763 1 0.634989
0.781079 0.996674 0.621256
0.958541 0.999725 0.624506
0.00552377 0.00828565 0.890974
0.163943 0.00367742 0.888029
0.528511 0 0.843626
0.794522 0 0.825833
0.990036 0 0.838727
0 0.190082 0.852094
0.148821 0.218235 0.87396
0.576013 0.203143 0.858824
0.855039 0.240162 0.888029
1 0.290791 0.931044
0 0.57438 0.801694
0.118883 0.619394 0.845457
0.531106 0.589548 0.816419
0.786679 0.589914 0.816541
0.971618 0.602243 0.828611
0 0.852277 0.860883
0.150271 0.865446 0.874983
0.540093 0.817029 0.824887
0.782361 0.805463 0.812985
0.960922 0.8094 0.817243
0 1 0.874342
0.157519 1 0.881376
0.542214 1 0.826352
0.780575 0.996216 0.811704
0.958404 0.999405 0.81529
0.00199893 0.0034638 1
0.161028 0 1
0.524971 0 1
0.795972 0 1
0.995392 0 1
0 0.194095 1
0.157534 0.229084 1
0.590478 0.217838 1
0.86714 0.256245 1
1 0.302831 1
0 0.588098 1
0.127306 0.627909 1
0.5364 0.593881 1
0.7888 0.59234 1
0.972656 0.60322 1
0 0.854002 1
0.151019 0.866087 1
0.540169 0.816907 1
0.781659 0.804776 1
0.959976 0.808499 1
0 1 1
0.156619 1 1
0.540887 1 1
0.779477 0.995117 1
0.956786 0.997757 1
