70 CGC LUTs/Look LUTs/Glacier.cube
#Created by: Denver Riddle
#Copyright: (C) Copyright Color Grading Central LLC
#LUT Size
LUT_3D_SIZE 33
0.0289158 0.038819 0.0229648
0.0506142 0.0395361 0.0233768
0.0695964 0.0409705 0.0243839
0.0869154 0.0425574 0.0253452
0.104005 0.0438087 0.0260014
0.121508 0.0446784 0.0264744
0.141176 0.0448463 0.0265354
0.163684 0.0438544 0.0260471
0.190402 0.0417334 0.0248875
0.221103 0.0382544 0.0225528
0.256474 0.033402 0.0198672
0.297581 0.0268864 0.0158846
0.345556 0.0183108 0.0107729
0.401221 0.00769055 0.00469978
0.461189 0 0
0.517632 0 0
0.565484 0 0
0.605524 0 0
0.641184 0 0
0.674052 0 0
0.70489 0 0
0.734554 0 0
0.762707 0 0
0.789685 0 0
0.815503 0 0
0.840696 0 0
0.864744 0 0
0.888182 0 0
0.910964 0 0
0.933196 0 0
0.954955 0 0
0.976669 0 0
0.99826 0 0
0.0250095 0.0639353 0.0194247
0.0462043 0.06392 0.019379
0.0644999 0.0646067 0.0198062
0.081529 0.0654154 0.0204471
0.0981765 0.0660258 0.0208133
0.115587 0.0663615 0.0210117
0.134798 0.0661631 0.0209201
0.156786 0.0650034 0.019852
0.183215 0.0626688 0.0183261
0.213413 0.0590524 0.0161898
0.248112 0.0543526 0.0127565
0.288396 0.0479591 0.00877394
0.3355 0.0397192 0.00325017
0.389944 0.0294194 0
0.448264 0.0179751 0
0.505394 0.00717174 0
0.554376 0 0
0.596124 0 0
0.632334 0 0
0.665782 0 0
0.697536 0 0
0.72752 0 0
0.756024 0 0
0.783459 0 0
0.809796 0 0
0.835492 0 0
0.860273 0 0
0.884184 0 0
0.907164 0 0
0.929702 0 0
0.952346 0 0
0.974731 0 0
0.996674 0 0
0.0220188 0.0853285 0.0166476
0.0429694 0.0848707 0.0163424
0.0607309 0.0850385 0.0164034
0.0773938 0.0855573 0.0167086
0.0938582 0.0859388 0.0169223
0.111177 0.0860914 0.016968
0.130266 0.0857404 0.0166171
0.152224 0.0844282 0.0157321
0.178378 0.0821393 0.0140688
0.208469 0.0785687 0.0115816
0.243122 0.0738689 0.0084535
0.283024 0.0676127 0.0040589
0.330083 0.0595254 0
0.383917 0.0496071 0
0.442359 0.0383307 0
0.499107 0.027863 0
0.547997 0.0194553 0
0.589426 0.0133516 0
0.625818 0.00874342 0
0.659724 0.00474556 0
0.691676 0.0016022 0
0.722484 0 0
0.751675 0 0
0.779614 0 0
0.806531 0 0
0.832593 0 0
0.857603 0 0
0.881895 0 0
0.905379 0 0
0.928389 0.000686656 0
0.950866 0.00350958 0
0.973678 0.00669871 0
0.996139 0.0102235 0
0.019028 0.105089 0.0139315
0.0398718 0.104311 0.0133974
0.0573739 0.104265 0.0133669
0.0739147 0.104631 0.01355
0.0902876 0.104891 0.0136873
0.107698 0.105104 0.0137789
0.126787 0.104662 0.0134279
0.148714 0.103395 0.0126345
0.175021 0.101061 0.0110018
0.204959 0.0976883 0.00834669
0.239689 0.0931716 0.00526436
0.279744 0.087068 0.000854505
0.327031 0.0792096 0
0.381262 0.0694743 0
0.440436 0.0586099 0
0.497353 0.0484932 0
0.545907 0.040528 0
0.587366 0.0347753 0
0.624109 0.0308995 0
0.658122 0.0278782 0
0.690211 0.0254826 0
0.72105 0.023621 0
0.750515 0.0228733 0
0.778958 0.022797 0
0.806256 0.0232547 0
0.832776 0.0240482 0
0.857969 0.0254368 0
0.882826 0.0273899 0
0.906996 0.0302281 0
0.93077 0.033753 0
0.954437 0.0371099 0
0.977829 0.0409552 0
1 0.0454871 0
0.01561 0.124132 0.0108797
0.036408 0.123262 0.0103456
0.0540932 0.12314 0.0102235
0.0704662 0.123552 0.0103914
0.0868238 0.123796 0.0105135
0.104295 0.124117 0.0106508
0.12343 0.123812 0.0103761
0.145449 0.122667 0.00968948
0.171832 0.120531 0.00805676
0.202182 0.117266 0.00575265
0.237018 0.113161 0.00260929
0.277699 0.107332 0
0.32517 0.0996872 0
0.380697 0.0901045 0
0.44062 0.0796979 0
0.497963 0.0700389 0
0.547326 0.062974 0
0.588403 0.0581216 0
0.624918 0.0548257 0
0.65951 0.0525368 0
0.692302 0.0512245 0
0.724086 0.050782 0
0.75375 0.0509346 0
0.782437 0.0515145 0
0.810178 0.0529183 0
0.837354 0.0549783 0
0.863157 0.0576638 0
0.888457 0.0606394 0
0.913237 0.0647288 0
0.937804 0.0691539 0
0.96199 0.0740673 0
0.986404 0.0789654 0
1 0.0842908 0
0.0116121 0.143343 0.0075227
0.032166 0.142489 0.00666819
0.0499886 0.142443 0.0065919
0.0667582 0.142901 0.00695811
0.0832532 0.143297 0.00720226
0.100603 0.143725 0.0074464
0.119966 0.143771 0.00737011
0.142245 0.143008 0.00677501
0.168673 0.141375 0.00518807
0.199268 0.13843 0.00302129
0.234668 0.13434 0.000228885
0.275853 0.129244 0
0.325002 0.121996 0
0.38201 0.112871 0
0.442741 0.102922 0
0.500618 0.0939498 0
0.549828 0.0878157 0
0.591562 0.0841382 0
0.628641 0.0819715 0
0.663371 0.0805982 0
0.696666 0.0803998 0
0.728801 0.0807965 0
0.758999 0.0821698 0
0.788449 0.0838636 0
0.816434 0.086244 0
0.8439 0.0895552 0
0.870817 0.0935225 0
0.896498 0.0981918 0
0.92192 0.102876 0
0.946853 0.108171 0
0.971756 0.114 0
0.996902 0.119982 0
1 0.126223 0
0.00564584 0.163622 0.00236515
0.0265812 0.162814 0.00169375
0.04477 0.162997 0.00172427
0.0615091 0.163729 0.00213626
0.0782635 0.164538 0.00262455
0.0961013 0.165377 0.00311284
0.115419 0.165698 0.00325017
0.137972 0.165316 0.00289921
0.165103 0.164187 0.00195315
0.196445 0.16202 0.000228885
0.232502 0.158572 0
0.274311 0.153765 0
0.325185 0.147082 0
0.38381 0.138796 0
0.446342 0.129503 0
0.504585 0.121553 0
0.55346 0.116381 0
0.595239 0.11368 0
0.632929 0.112688 0
0.668574 0.112764 0
0.702174 0.113527 0
0.734432 0.114931 0
0.765621 0.117296 0
0.795285 0.120607 0
0.824445 0.124132 0
0.85211 0.128344 0
0.879393 0.133654 0
0.905638 0.139239 0
0.93164 0.145037 0
0.957198 0.151202 0
0.982727 0.157733 0
1 0.164614 0
1 0.171649 0.00335698
0 0.185748 0
0.0190585 0.185245 0
0.0375219 0.185626 0
0.0545357 0.186755 0
0.0716869 0.18819 0
0.0899062 0.189548 0
0.109926 0.1906 0
0.132952 0.190921 0
0.16025 0.19028 0
0.191989 0.188891 0
0.229175 0.186435 0
0.272557 0.182559 0
0.324437 0.176791 0
0.384604 0.168795 0
0.448142 0.160311 0
0.507561 0.15349 0
0.556664 0.149691 0
0.598428 0.148119 0
0.636851 0.14847 0
0.673198 0.14963 0
0.707607 0.15169 0
0.740322 0.154314 0
0.771756 0.157641 0
0.802197 0.161791 0
0.831586 0.166659 0
0.859968 0.172 0
0.887404 0.177752 0
0.914 0.18407 0
0.940337 0.190646 0
0.966217 0.197604 0
0.992325 0.204807 0.00225834
1 0.212375 0.00640879
1 0.219623 0.0106966
0 0.210468 0
0.00875868 0.210483 0
0.0280461 0.211536 0
0.0454871 0.213245 0
0.0630808 0.215274 0
0.0816663 0.217426 0
0.102296 0.219303 0
0.126101 0.220691 0
0.154177 0.221057 0
0.186419 0.220447 0
0.224262 0.218891 0
0.268849 0.216083 0
0.321828 0.211154 0
0.383658 0.203891 0
0.448142 0.196216 0
0.508049 0.190585 0
0.557916 0.188098 0
0.600641 0.188159 0
0.639353 0.189364 0
0.676066 0.191455 0
0.710765 0.194583 0
0.744045 0.198322 0
0.776104 0.202564 0
0.806851 0.207584 0
0.836835 0.213489 0
0.865644 0.219455 0
0.893111 0.226017 0
0.92015 0.232822 0
0.946487 0.23978 0
0.972869 0.247486 0.00205997
0.998932 0.25478 0.00627146
1 0.262104 0.0105135
1 0.269581 0.0150301
0 0.239109 0
0 0.239277 0
0.0161593 0.241047 0
0.0346075 0.244129 0
0.0531319 0.247074 0
0.0720531 0.25005 0
0.0928664 0.25272 0
0.117021 0.255009 0
0.145708 0.256626 0
0.179049 0.257176 0
0.21767 0.256794 0
0.263005 0.254673 0
0.317403 0.250706 0
0.38056 0.244816 0
0.446403 0.238224 0
0.506691 0.233509 0
0.55729 0.232441 0
0.600214 0.233402 0
0.639612 0.235492 0
0.676448 0.238544 0
0.711635 0.24239 0
0.745129 0.246616 0
0.777493 0.252125 0
0.808728 0.257771 0
0.838361 0.263996 0
0.867109 0.270451 0
0.894774 0.277272 0
0.921447 0.284443 0
0.948074 0.29218 0
0.974182 0.299413 0.00257877
0.999893 0.306676 0.00672923
1 0.313512 0.0104829
1 0.320562 0.0148928
0 0.272099 0
0 0.273411 0
0.00132753 0.276066 0
0.0206455 0.279637 0
0.0392004 0.283864 0
0.0589761 0.288045 0
0.0802625 0.292012 0
0.104967 0.295247 0
0.134218 0.297993 0
0.168444 0.300099 0
0.208087 0.30071 0
0.254353 0.299626 0
0.309438 0.296513 0
0.373297 0.291417 0
0.440253 0.285634 0
0.501534 0.282261 0
0.552026 0.281712 0
0.595392 0.283375 0
0.634867 0.28632 0
0.671931 0.29012 0
0.707439 0.294606 0
0.741405 0.299992 0
0.773465 0.305592 0
0.804196 0.311559 0
0.833539 0.317815 0
0.862028 0.324529 0
0.889525 0.331395 0
0.916197 0.338903 0
0.942412 0.345769 0
0.967742 0.352743 0
0.99292 0.35964 0.0011902
1 0.366125 0.00489815
1 0.373022 0.0087129
0 0.310246 0
0 0.31342 0
0 0.317052 0
0.00216678 0.321431 0
0.0212711 0.326513 0
0.0415045 0.331914 0
0.0637369 0.337285 0
0.0889906 0.341985 0
0.1187 0.346029 0
0.153033 0.348821 0
0.193347 0.350378 0
0.240085 0.350393 0
0.295949 0.348104 0
0.360525 0.343771 0
0.428916 0.339178 0
0.490806 0.336004 0
0.54168 0.33611 0
0.584665 0.338338 0
0.62443 0.341695 0
0.661677 0.345983 0
0.697078 0.351064 0
0.730739 0.356283 0
0.762753 0.361944 0
0.79324 0.36791 0
0.822614 0.373983 0
0.850996 0.380438 0
0.87805 0.387121 0
0.904067 0.393759 0
0.929702 0.400061 0
0.95465 0.406195 0
0.979248 0.412131 0
1 0.418311 0
1 0.423987 0
0 0.354238 0
0 0.358557 0
0 0.363806 0
0 0.369329 0
0.000823987 0.375463 0
0.0220951 0.381674 0
0.0450294 0.38822 0
0.0712444 0.394095 0
0.101259 0.398825 0
0.136019 0.402441 0
0.17615 0.404685 0
0.223255 0.405371 0
0.279744 0.403861 0
0.345357 0.400366 0
0.413764 0.39585 0
0.47631 0.39295 0
0.52784 0.393149 0
0.571374 0.395651 0
0.61149 0.399222 0
0.648936 0.403433 0
0.684184 0.408011 0
0.718029 0.412711 0
0.749706 0.417868 0
0.780087 0.423331 0
0.809689 0.428977 0
0.837812 0.434745 0
0.864302 0.44036 0
0.890089 0.445853 0
0.915755 0.451133 0
0.9402 0.456519 0
0.964767 0.461921 0
0.989029 0.466468 0
1 0.470954 0
0 0.402487 0
0 0.407691 0
0 0.413947 0
0 0.420508 0
0 0.427161 0
0.00608835 0.434012 0
0.0301823 0.441199 0
0.0577096 0.447288 0
0.0885023 0.452598 0
0.123598 0.456931 0
0.164034 0.460014 0
0.211688 0.461204 0
0.268376 0.460075 0
0.333989 0.456382 0
0.403143 0.451804 0
0.466148 0.44889 0
0.518227 0.448875 0
0.562295 0.451499 0
0.602213 0.454475 0
0.639597 0.458045 0
0.675364 0.461906 0
0.708827 0.466133 0
0.740627 0.470542 0
0.771206 0.475212 0
0.80029 0.479637 0
0.82829 0.484154 0
0.85452 0.488807 0
0.88011 0.493233 0
0.904997 0.497765 0
0.929381 0.501854 0
0.953185 0.505837 0
0.976944 0.509636 0
1 0.51339 0
0 0.451392 0
0 0.457557 0
0 0.464317 0
0 0.471565 0
0 0.478981 0
0.000228885 0.485893 0
0.0259251 0.492912 0
0.0539101 0.499474 0
0.0853285 0.505135 0
0.120912 0.509621 0
0.161975 0.513207 0
0.210361 0.514351 0
0.267338 0.513039 0
0.333196 0.509148 0
0.40206 0.504265 0
0.464759 0.500893 0
0.516579 0.500679 0
0.560357 0.502327 0
0.599817 0.504631 0
0.636957 0.507347 0
0.67219 0.510231 0
0.705608 0.513695 0
0.737362 0.517342 0
0.767346 0.520882 0
0.796002 0.524361 0
0.823194 0.527718 0
0.84921 0.531151 0
0.874372 0.535012 0
0.898909 0.538521 0
0.922683 0.541848 0
0.946166 0.544991 0
0.969818 0.548089 0
0.99266 0.551232 0
0 0.499519 0
0 0.506096 0
0 0.513268 0
0 0.521233 0
0 0.528466 0
0.00529488 0.53576 0
0.0314488 0.542901 0
0.0598917 0.549477 0
0.0915694 0.554971 0
0.127855 0.55964 0
0.169253 0.562524 0
0.217853 0.563119 0
0.275044 0.561227 0
0.34081 0.556878 0
0.408835 0.551675 0
0.471229 0.54815 0
0.521569 0.547066 0
0.564111 0.54786 0
0.603235 0.549386 0
0.639658 0.551308 0
0.674281 0.553811 0
0.706798 0.555978 0
0.737636 0.558221 0
0.766918 0.560876 0
0.794903 0.563607 0
0.821988 0.566491 0
0.847456 0.569345 0
0.872038 0.572015 0
0.895903 0.574762 0
0.91931 0.577569 0
0.942962 0.580377 0
0.966079 0.583215 0
0.988464 0.585702 0
0 0.547127 0
0 0.553872 0
0 0.561547 0
0 0.568963 0
0 0.576196 0
0.0164797 0.583688 0
0.0425727 0.590784 0
0.071046 0.597314 0
0.103243 0.602609 0
0.139406 0.606424 0
0.181094 0.608591 0
0.229709 0.608576 0
0.287388 0.605722 0
0.353384 0.600687 0
0.420081 0.594888 0
0.480308 0.590494 0
0.529122 0.588891 0
0.570397 0.588937 0
0.608316 0.589532 0
0.644083 0.590707 0
0.677699 0.591913 0
0.709361 0.593484 0
0.739467 0.595163 0
0.768109 0.597177 0
0.795895 0.599207 0
0.82208 0.601328 0
0.84712 0.603616 0
0.871458 0.605875 0
0.895048 0.608286 0
0.918242 0.610758 0
0.941405 0.613016 0
0.963958 0.615228 0
0.98613 0.617426 0
0 0.594385 0
0 0.601526 0
0 0.608713 0
0 0.615686 0
0.00541695 0.622797 0
0.0296178 0.62977 0
0.0554055 0.636606 0
0.0837568 0.642603 0
0.115312 0.647089 0
0.151568 0.649958 0
0.193164 0.651087 0
0.242069 0.650004 0
0.300053 0.646555 0
0.364935 0.640467 0
0.430594 0.633814 0
0.488563 0.628916 0
0.535744 0.626535 0
0.576257 0.62591 0
0.613611 0.626108 0
0.648188 0.626444 0
0.680812 0.627008 0
0.711986 0.627863 0
0.741543 0.629129 0
0.770123 0.630716 0
0.797192 0.632151 0
0.822797 0.633799 0
0.847517 0.635523 0
0.871504 0.637491 0
0.895171 0.63978 0
0.917876 0.641733 0
0.940475 0.64361 0
0.962982 0.645411 0
0.984955 0.64741 0
0 0.640925 0
0 0.647181 0
0 0.653498 0
0 0.660304 0
0.019501 0.667185 0
0.0432441 0.674205 0
0.0681621 0.680003 0
0.0956588 0.684886 0
0.127214 0.688472 0
0.16318 0.690486 0
0.204913 0.690867 0
0.253315 0.688792 0
0.310399 0.683848 0
0.374121 0.676905 0
0.43856 0.669749 0
0.495338 0.664347 0
0.541634 0.661692 0
0.581033 0.660319 0
0.617258 0.659663 0
0.65127 0.65951 0
0.683696 0.659663 0
0.714626 0.660548 0
0.743725 0.661158 0
0.771191 0.662089 0
0.797986 0.663142 0
0.823606 0.664378 0
0.848188 0.666224 0
0.871962 0.667857 0
0.895033 0.669474 0
0.917601 0.671168 0
0.940002 0.672847 0
0.96257 0.674723 0
0.984298 0.676539 0
0 0.68542 0
0 0.690913 0
0 0.696529 0
0.00978103 0.702754 0
0.0324712 0.709194 0
0.0551461 0.715068 0
0.079408 0.720165 0
0.106584 0.724025 0
0.137392 0.726513 0
0.172961 0.727733 0
0.214008 0.727016 0
0.262181 0.724041 0
0.318563 0.718502 0
0.381933 0.710994 0
0.445151 0.703105 0
0.500954 0.697337 0
0.546059 0.694102 0
0.584848 0.692424 0
0.620752 0.691279 0
0.654383 0.690837 0
0.686366 0.690852 0
0.71667 0.690913 0
0.745266 0.691295 0
0.772641 0.691875 0
0.799161 0.692775 0
0.824643 0.694072 0
0.848798 0.695338 0
0.872251 0.696651 0
0.895323 0.697993 0
0.917647 0.699672 0
0.939834 0.701396 0
0.962249 0.70277 0
0.983795 0.704265 0
0 0.726802 0
0 0.731044 0
0 0.7364 0
0.0218509 0.742214 0
0.0433814 0.747478 0
0.0654002 0.752483 0
0.0887312 0.756649 0
0.115221 0.759777 0
0.146059 0.761883 0
0.181216 0.762051 0
0.221607 0.760494 0
0.269291 0.756741 0
0.325429 0.750759 0
0.388495 0.742947 0
0.450828 0.734722 0
0.505516 0.728344 0
0.549828 0.724697 0
0.588037 0.722652 0
0.62385 0.721721 0
0.657038 0.72079 0
0.688411 0.720241 0
0.718181 0.720043 0
0.746715 0.720134 0
0.774273 0.720913 0
0.800626 0.721431 0
0.82565 0.722194 0
0.849515 0.723217 0
0.872694 0.724453 0
0.895689 0.726009 0
0.917967 0.727337 0
0.939986 0.728573 0
0.962066 0.729763 0
0.983566 0.731289 0
0 0.76527 0
0 0.769009 0
0.0103609 0.77348 0
0.0314641 0.778164 0
0.052079 0.782834 0
0.07364 0.787213 0
0.0967422 0.790875 0
0.122698 0.793301 0
0.152743 0.794369 0
0.187579 0.794018 0
0.227848 0.792004 0
0.275624 0.788052 0
0.331395 0.781552 0
0.393378 0.772976 0
0.455375 0.764355 0
0.50901 0.757946 0
0.55314 0.754208 0
0.591226 0.752071 0
0.626291 0.750408 0
0.659098 0.749294 0
0.690181 0.748577 0
0.720058 0.748287 0
0.748577 0.748363 0
0.775311 0.748592 0
0.801282 0.748959 0
0.8262 0.749569 0
0.850187 0.750546 0
0.873365 0.751766 0
0.895933 0.752804 0
0.918181 0.753872 0
0.940063 0.755184 0
0.961868 0.756313 0
0.983459 0.757717 0
0 0.800534 0
0 0.803708 0
0.019089 0.807675 0
0.0395972 0.811749 0
0.0594339 0.815824 0
0.0805371 0.819669 0
0.102998 0.822705 0
0.128923 0.824537 0
0.158724 0.825101 0
0.193317 0.824292 0
0.233661 0.822003 0
0.281025 0.817502 0
0.336446 0.810529 0
0.398184 0.801648 0
0.459388 0.792859 0
0.512978 0.786358 0
0.556558 0.782467 0
0.593774 0.780041 0
0.628367 0.778195 0
0.661173 0.776913 0
0.691966 0.77615 0
0.721828 0.775677 0
0.749676 0.775433 0
0.776394 0.775418 0
0.802319 0.775769 0
0.827008 0.776287 0
0.850797 0.777173 0
0.874052 0.777874 0
0.896635 0.778943 0
0.918395 0.779965 0
0.940276 0.781018 0
0.962066 0.782177 0
0.983459 0.783246 0
0 0.833341 0
0.00515755 0.835966 0
0.0262455 0.839475 0
0.0465095 0.843503 0
0.0658732 0.847135 0
0.086305 0.850187 0
0.108309 0.852674 0
0.133822 0.854139 0
0.163821 0.854566 0
0.198444 0.853529 0
0.23827 0.850675 0
0.285267 0.845731 0
0.340841 0.838407 0
0.402716 0.829435 0
0.463706 0.820676 0
0.516121 0.813901 0
0.559075 0.809659 0
0.596185 0.807004 0
0.63061 0.80531 0
0.663233 0.803967 0
0.693858 0.802869 0
0.723064 0.80209 0
0.751034 0.801801 0
0.777737 0.801724 0
0.803525 0.801953 0
0.827985 0.802274 0
0.851667 0.802884 0
0.874464 0.803632 0
0.897063 0.80444 0
0.918837 0.805524 0
0.940658 0.806516 0
0.962219 0.807431 0
0.983444 0.808362 0
0 0.864332 0
0.0117647 0.86688 0
0.032517 0.87013 0
0.0516213 0.873396 0
0.071046 0.876463 0
0.0908675 0.879332 0
0.112764 0.881605 0
0.138476 0.882933 0
0.168307 0.88278 0
0.202564 0.8813 0
0.242359 0.878187 0
0.28925 0.873213 0
0.345113 0.86569 0
0.406806 0.856397 0
0.466957 0.847349 0
0.518822 0.840528 0
0.561685 0.836286 0
0.598657 0.833585 0
0.632898 0.831525 0
0.664897 0.829953 0
0.695155 0.82884 0
0.724529 0.828 0
0.752255 0.827588 0
0.77879 0.827375 0
0.804334 0.827329 0
0.82887 0.827665 0
0.852323 0.828046 0
0.87512 0.82884 0
0.897612 0.829541 0
0.919264 0.830488 0
0.940658 0.831327 0
0.962325 0.832059 0
0.983581 0.833265 0
0 0.89398 0
0.0170596 0.896376 0
0.0371099 0.899107 0
0.0559091 0.902052 0
0.0749371 0.904845 0
0.0948043 0.907561 0
0.117037 0.909667 0
0.142184 0.910536 0
0.171649 0.910124 0
0.205768 0.90837 0
0.245747 0.90518 0
0.293004 0.900008 0
0.348394 0.89218 0
0.409567 0.882689 0
0.469551 0.873625 0
0.521141 0.866651 0
0.563882 0.862364 0
0.600275 0.85948 0
0.634226 0.857343 0
0.666377 0.855589 0
0.696284 0.854337 0
0.725643 0.853483 0
0.752972 0.852872 0
0.779431 0.852628 0
0.804776 0.852461 0
0.829099 0.852552 0
0.852796 0.85304 0
0.875502 0.853697 0
0.897612 0.854292 0
0.91931 0.854978 0
0.940749 0.855833 0
0.962585 0.856733 0
0.98352 0.857557 0
0 0.922606 0
0.0213931 0.924453 0
0.0411383 0.926955 0
0.0597238 0.929732 0
0.0787213 0.932754 0
0.0985122 0.934966 0.000274662
0.119997 0.93666 0.00128176
0.145144 0.937301 0.00141909
0.174899 0.936782 0.000579843
0.209171 0.935103 0
0.248798 0.931533 0
0.295903 0.925856 0
0.351064 0.917983 0
0.412589 0.90837 0
0.47219 0.899336 0
0.523415 0.892241 0
0.56524 0.887755 0
0.601877 0.88481 0
0.635615 0.88246 0
0.66772 0.880781 0
0.69781 0.879377 0
0.726558 0.878431 0
0.753811 0.877699 0
0.780118 0.877195 0
0.8056 0.87715 0
0.829984 0.877302 0
0.853361 0.877485 0
0.875807 0.877928 0
0.897902 0.878538 0
0.919799 0.879438 0
0.94107 0.880125 0
0.9626 0.88072 0
0.983597 0.881605 0
0.00270085 0.95021 0
0.0249485 0.951827 0
0.0445258 0.954238 0
0.0629892 0.957046 0
0.081651 0.959426 0.000518807
0.100954 0.961593 0.00184634
0.122774 0.963165 0.00282292
0.147829 0.963577 0.0028687
0.177508 0.962966 0.00215152
