70 CGC LUTs/Look LUTs/Godfather.cube
#Created by: Denver Riddle
#Copyright: (C) Copyright Color Grading Central LLC
#LUT Size
LUT_3D_SIZE 5
0 0 0
0.0852827 0.0180209 0.00784314
0.173098 0.0572518 0.0228122
0.307713 0.0866102 0.0292515
0.65864 0 0
0.136339 0.12047 0.0374456
0.193668 0.1131 0.0360418
0.268635 0.113664 0.0300908
0.441352 0.0959487 0.00823987
0.720623 0.000518807 0
0.264057 0.246204 0
0.354589 0.232624 0
0.508797 0.236851 0
0.74165 0.244709 0
0.941787 0.337987 0.00277714
0.539879 0.575463 0.24416
0.566354 0.578775 0.150484
0.68661 0.611749 0.0723888
0.841657 0.620081 0.115679
0.97879 0.648081 0.17879
0.817258 0.848112 0.468711
0.815351 0.840574 0.508446
0.848402 0.866667 0.38027
0.904311 0.888869 0.276478
0.999817 0.920913 0.435874
0.0100404 0.00416571 0.0120089
0.101167 0.0272221 0.0542153
0.176562 0.066804 0.0821698
0.350103 0.0867628 0.0847486
0.698009 0 0.0400244
0.125399 0.125429 0.11342
0.163302 0.122576 0.0912947
0.254978 0.129747 0.0778821
0.451682 0.116487 0.0481727
0.764706 0.0501106 0.0187991
0.236698 0.253681 0.157595
0.26598 0.261143 0.0713207
0.442283 0.271458 0.0607614
0.669871 0.300526 0.0979477
0.841291 0.40116 0.170291
0.547524 0.574319 0.424247
0.552651 0.579904 0.340795
0.647181 0.62359 0.22414
0.815503 0.632807 0.221164
0.959289 0.660594 0.28452
0.810788 0.842344 0.713756
0.809857 0.836515 0.708034
0.840223 0.856565 0.728115
0.898009 0.885618 0.321019
0.998611 0.916228 0.420096
0.0451972 0.0167239 0.0516518
0.120424 0.0408179 0.0920729
0.200229 0.0722515 0.125856
0.395132 0.072694 0.143771
0.764797 0 0.116915
0.134264 0.134646 0.130282
0.164004 0.124834 0.129366
0.248447 0.134813 0.130343
0.457404 0.124681 0.114519
0.777035 0.0792554 0.107729
0.253223 0.272419 0.230304
0.271717 0.272435 0.180941
0.430716 0.300542 0.174243
0.660578 0.350652 0.19382
0.870481 0.449271 0.25449
0.564553 0.595926 0.497917
0.571344 0.5897 0.496468
0.625025 0.634577 0.438895
0.790661 0.654917 0.350225
0.935576 0.681193 0.407843
0.817258 0.856474 0.754238
0.815351 0.849302 0.749126
0.844526 0.866819 0.773114
0.885191 0.885069 0.798291
0.999634 0.921202 0.458396
0.0852369 0.0382239 0.100923
0.141299 0.0563211 0.141741
0.22208 0.0794995 0.18996
0.47895 0.0187533 0.27129
0.812024 0 0.275364
0.149905 0.143481 0.160067
0.177325 0.132433 0.187808
0.29131 0.129274 0.241932
0.512337 0.108186 0.251514
0.794949 0.0967269 0.251759
0.281254 0.300038 0.289097
0.288487 0.291279 0.282948
0.401923 0.338415 0.32845
0.60618 0.395132 0.349798
0.863386 0.479011 0.402411
0.579156 0.618372 0.555489
0.584161 0.614267 0.551995
0.635981 0.646479 0.583947
0.762737 0.672084 0.501839
0.916381 0.700404 0.520409
0.825238 0.864454 0.785641
0.822538 0.856336 0.779156
0.851102 0.874632 0.801755
0.889555 0.893416 0.826444
0.976364 0.933318 0.779706
0.101961 0.0591287 0.149325
0.140078 0.0722667 0.196643
0.212467 0.0871748 0.288487
0.48455 0 0.629953
0.87451 0 0.788235
0.168139 0.154894 0.256367
0.184573 0.146349 0.282368
0.25536 0.149935 0.439033
0.512749 0.118151 0.654643
0.86128 0.0608835 0.71371
0.331243 0.35404 0.443381
0.339254 0.345342 0.448402
0.432151 0.407294 0.539818
0.615885 0.461433 0.70074
0.89691 0.48661 0.796567
0.617227 0.656443 0.678584
0.621912 0.65359 0.668147
0.669261 0.683818 0.700313
0.723293 0.707179 0.729809
0.909331 0.712612 0.822782
0.848142 0.87657 0.84033
0.842206 0.870924 0.831327
0.870588 0.890196 0.85098
0.905303 0.909224 0.870008
0.972183 0.952392 0.909224
