70 CGC LUTs/Look LUTs/Godfather.cube
#Created by: Denver Riddle
#Copyright: (C) Copyright Color Grading Central LLC
#LUT Size
LUT_3D_SIZE 33
0 0 0
0 0 0
0.00323491 0 0
0.00999466 0.00392157 0
0.0259403 0.00646983 0.00257877
0.0460212 0.00784314 0.00392157
0.062623 0.0117342 0.00404364
0.0737163 0.0150454 0.00727855
0.0852827 0.0180209 0.00784314
0.0968185 0.0212253 0.0090486
0.108873 0.0254978 0.0115206
0.119478 0.0320897 0.0121004
0.130098 0.0371405 0.0137484
0.141268 0.0421759 0.0171511
0.153079 0.0480812 0.0196078
0.162966 0.0528725 0.0220188
0.173098 0.0572518 0.0228122
0.187869 0.0623636 0.026566
0.204395 0.067628 0.0268864
0.219501 0.071931 0.0284276
0.232456 0.076173 0.0313725
0.247074 0.0805982 0.0315709
0.2654 0.084596 0.0317693
0.283986 0.0866407 0.031693
0.307713 0.0866102 0.0292515
0.339712 0.0841077 0.0249332
0.37908 0.0778058 0.0191043
0.42681 0.0645914 0.0122072
0.482612 0.0408331 0.00621042
0.543938 0.0141909 0.00209049
0.608316 0 0
0.659617 0 0
0.65864 0 0
0.00163272 0.00163272 0
0.00331121 0.00164797 0.000701915
0.0104219 0.00317388 0.00170901
0.0176242 0.00587472 0.00268559
0.0320287 0.00717174 0.00392157
0.0500191 0.0108492 0.00445563
0.0662242 0.0138705 0.00665293
0.0801709 0.0177615 0.0077821
0.0921035 0.0218967 0.00929274
0.103731 0.0265354 0.0118257
0.114366 0.0315099 0.0136873
0.125505 0.0367895 0.0148623
0.136782 0.0426184 0.016968
0.148623 0.0477913 0.0204471
0.1608 0.0539712 0.0217899
0.171176 0.0582742 0.0226596
0.181369 0.0625162 0.0254368
0.196017 0.0674449 0.0275273
0.211093 0.072343 0.027924
0.224582 0.0758679 0.030869
0.238636 0.0801709 0.0310063
0.254002 0.0833906 0.0311131
0.270085 0.0846876 0.0311284
0.288167 0.0874189 0.0301366
0.312306 0.0870985 0.0264744
0.341985 0.0851911 0.0224918
0.376501 0.0794842 0.0177615
0.418845 0.0684367 0.0114748
0.465812 0.0514076 0.00770581
0.520989 0.0216831 0.00141909
0.579339 0.00468452 3.0518e-05
0.642344 0 0
0.671321 0 0
0.0145876 0.0110323 0.00355535
0.0164645 0.0111849 0.00375372
0.0292515 0.011429 0.00392157
0.0427405 0.0151064 0.00755322
0.058732 0.0181735 0.00769055
0.071046 0.0206149 0.00817884
0.0829938 0.0244297 0.0103914
0.0936294 0.0299077 0.0137026
0.103212 0.0357824 0.0153811
0.113161 0.040528 0.0168002
0.122255 0.0446326 0.0188907
0.131273 0.0495003 0.0222171
0.142596 0.0545968 0.0239567
0.154543 0.0594644 0.0247654
0.166644 0.062501 0.028687
0.174472 0.066804 0.0297246
0.184802 0.0712139 0.0306554
0.199939 0.0757763 0.0300908
0.21561 0.0782025 0.0309911
0.228153 0.0814374 0.0318456
0.242084 0.0832532 0.0327916
0.255924 0.0860304 0.031693
0.27068 0.0879072 0.0305333
0.288411 0.088716 0.0294957
0.308675 0.0888685 0.0271916
0.333776 0.0865949 0.0233158
0.365133 0.0818189 0.0189517
0.400778 0.074876 0.0141146
0.444144 0.0607767 0.00823987
0.491218 0.0408637 0.00428778
0.544671 0.00738537 0.000549325
0.604532 0.000900282 0
0.666636 0 0
0.0353399 0.0298466 0.00941482
0.0395514 0.0300298 0.00946059
0.0525521 0.0299077 0.00943008
0.0673533 0.0328222 0.0110018
0.0814069 0.0358129 0.0133822
0.096376 0.0388647 0.0136263
0.10753 0.0423285 0.015259
0.116793 0.0470893 0.0182193
0.125841 0.0517281 0.0192721
0.133883 0.056199 0.0210117
0.141024 0.0599832 0.0255589
0.14931 0.0645914 0.0284123
0.157809 0.069398 0.0296788
0.168109 0.0721141 0.0310674
0.177127 0.0752575 0.0338293
0.184497 0.0789654 0.0360113
0.193317 0.0819104 0.0366369
0.205753 0.0830243 0.0373541
0.216556 0.0864271 0.035996
0.228336 0.0883345 0.035172
0.241535 0.0889906 0.0343633
0.252399 0.0909133 0.0346075
0.266133 0.0910048 0.0336309
0.280888 0.0920577 0.0303349
0.298116 0.0915847 0.028275
0.320104 0.0901503 0.0255131
0.34667 0.0868849 0.0224308
0.376196 0.0822309 0.0162051
0.415885 0.0724651 0.0124208
0.460624 0.058854 0.00590524
0.512367 0.0335546 0.00163272
0.569436 0.00758373 0.000259403
0.629129 0 0
0.0636759 0.0526284 0.0151217
0.0657206 0.0526894 0.0151369
0.0724041 0.0523842 0.0150607
0.0852979 0.0524453 0.0166934
0.101152 0.0554971 0.0189212
0.113085 0.0573281 0.01944
0.126299 0.0614481 0.0229496
0.136446 0.0633555 0.023682
0.144411 0.0677195 0.0244297
0.153979 0.0715648 0.0263828
0.163851 0.0751965 0.028687
0.172107 0.0767376 0.0294957
0.180011 0.0803235 0.0307774
0.186892 0.0829633 0.0325475
0.193301 0.0858625 0.035874
0.200412 0.0886854 0.0387121
0.207309 0.0898909 0.0394293
0.214801 0.0915084 0.0392309
0.223682 0.0919661 0.0384222
0.233326 0.0934462 0.0379034
0.243763 0.0948653 0.0366369
0.25417 0.0948348 0.0344854
0.26627 0.0954147 0.0340581
0.279423 0.095613 0.0322118
0.295674 0.0954147 0.0289006
0.314702 0.0944686 0.0264744
0.339727 0.0914778 0.0222782
0.369421 0.0873884 0.0173495
0.403403 0.0797589 0.0133364
0.444541 0.066804 0.00791943
0.492744 0.0482185 0.00236515
0.545602 0.0201419 0.000213626
0.603693 0.00164797 0
0.0859083 0.070222 0.0206302
0.0875868 0.0717479 0.0205539
0.0934157 0.0728618 0.021561
0.104021 0.0729839 0.0241245
0.117525 0.0724804 0.024033
0.12871 0.0759442 0.0249943
0.141558 0.0776074 0.0280919
0.151675 0.0814374 0.0284886
0.160571 0.0838483 0.0297246
0.168994 0.086305 0.0316167
0.177661 0.0882429 0.033341
0.187259 0.0887465 0.0335088
0.195117 0.0913863 0.0335851
0.202609 0.0928511 0.0335699
0.209552 0.0929122 0.0336004
0.215625 0.0950027 0.0345159
0.22118 0.0968338 0.0359045
0.227619 0.096788 0.0369421
0.235355 0.0974899 0.0374762
0.243763 0.0984054 0.0373236
0.254002 0.0989853 0.0363317
0.263615 0.0994125 0.0339361
0.275731 0.0992599 0.0323949
0.290944 0.0987411 0.0308537
0.307912 0.0982528 0.0275883
0.329992 0.097673 0.0238804
0.354452 0.094316 0.0204471
0.38378 0.0887007 0.0162661
0.418036 0.0809644 0.0125277
0.458549 0.0707713 0.00709544
0.502815 0.0551156 0.00180056
0.5505 0.0297246 0
0.601831 0.00741588 0
0.105333 0.0896468 0.0280308
0.105959 0.0891585 0.0277714
0.112398 0.0895552 0.0289158
0.121843 0.0909285 0.028687
0.133684 0.0903792 0.0291142
0.146258 0.0903487 0.0322118
0.156985 0.0928664 0.0321965
0.16466 0.0943313 0.0324102
0.173266 0.0970626 0.0331273
0.181735 0.0985275 0.0341039
0.18967 0.0984817 0.0352941
0.197086 0.0991836 0.035584
0.203754 0.100206 0.0356603
0.21059 0.101167 0.0355383
0.219623 0.100435 0.0352941
0.226566 0.102159 0.0352941
0.233387 0.103243 0.0351568
0.241718 0.10248 0.0350195
0.251621 0.101854 0.0352789
0.260471 0.102037 0.0340276
0.270741 0.102693 0.0323033
0.284153 0.103105 0.0317693
0.298375 0.102632 0.0296483
0.314992 0.10132 0.0267338
0.337163 0.0995346 0.0234836
0.363104 0.0964218 0.0184329
0.392782 0.0919356 0.0147097
0.425528 0.0858778 0.0103609
0.461082 0.0773327 0.00614939
0.500252 0.0645457 0.00259403
0.541497 0.0466773 0
0.584421 0.0236973 0
0.629175 0 0
0.12224 0.106554 0.0335088
0.122621 0.105455 0.0332189
0.128862 0.104692 0.0328069
0.136797 0.105791 0.0323644
0.148836 0.104356 0.0327306
0.158938 0.10312 0.0352941
0.169512 0.103853 0.0353094
0.177478 0.106157 0.0353246
0.184451 0.106249 0.0353246
0.19144 0.106188 0.0353094
0.198413 0.105837 0.0352941
0.204456 0.107988 0.0358892
0.211353 0.108644 0.0360113
0.219776 0.108202 0.0357824
0.230594 0.107362 0.0353094
0.23798 0.107683 0.0352941
0.246494 0.108034 0.0345006
0.260655 0.107286 0.0318303
0.276204 0.106615 0.0299077
0.289235 0.106615 0.0286107
0.303075 0.105592 0.0277562
0.318654 0.105272 0.0255589
0.337392 0.104936 0.0215152
0.360296 0.102937 0.0183261
0.386145 0.0993973 0.0151522
0.414878 0.0938582 0.0117952
0.445197 0.087602 0.00851453
0.478981 0.080293 0.00477607
0.515038 0.0687114 0.00172427
0.552163 0.0551156 0.000259403
0.59118 0.0365911 0
0.631647 0.0138857 0
0.674464 0 0
0.136339 0.12047 0.0374456
0.138521 0.1187 0.0360266
0.143236 0.116548 0.0352941
0.150332 0.117891 0.0352941
0.159426 0.115496 0.0349584
0.170016 0.113298 0.0352941
0.179431 0.11252 0.0356298
0.186923 0.1131 0.0360418
0.193668 0.1131 0.0360418
0.200656 0.113542 0.0357977
0.20798 0.114717 0.0353246
0.215808 0.115434 0.0355688
0.223972 0.115648 0.0348974
0.233967 0.115267 0.0337682
0.247608 0.114748 0.0335393
0.257145 0.11397 0.0323186
0.268635 0.113664 0.0300908
0.286564 0.112688 0.0264744
0.308812 0.111284 0.023331
0.328222 0.109285 0.0211795
0.346578 0.106996 0.0189059
0.367117 0.106615 0.0151675
0.388907 0.104921 0.0127718
0.413443 0.101625 0.0105592
0.441352 0.0959487 0.00823987
0.470283 0.0899214 0.00521859
0.501198 0.0831311 0.00270085
0.534798 0.0747387 0.0012665
0.568322 0.0641337 6.10361e-05
0.60354 0.0493477 0
0.640726 0.0283055 0
0.680308 0.00970474 0
0.720623 0.000518807 0
0.149538 0.132662 0.0382849
0.151263 0.129961 0.037232
0.153552 0.126955 0.0352941
0.159991 0.125551 0.0352941
0.168002 0.124559 0.0352941
0.178729 0.122911 0.0349432
0.18822 0.121447 0.0347295
0.196124 0.121019 0.035111
0.203494 0.12108 0.035111
0.211734 0.121752 0.0347906
0.220554 0.123873 0.0337224
0.231373 0.123674 0.0330663
0.242267 0.123293 0.0315557
0.254307 0.123064 0.0296941
0.27039 0.122621 0.028809
0.284001 0.121248 0.0255894
0.299733 0.120455 0.0224918
0.321798 0.11902 0.0193027
0.349935 0.114794 0.0154116
0.374945 0.111147 0.0118868
0.400977 0.10779 0.00865187
0.425177 0.104982 0.00588998
0.447944 0.102602 0.00396735
0.472908 0.0979019 0.00358587
0.49868 0.0928054 0.00195315
0.525628 0.0878462 7.62951e-05
0.554894 0.081529 0.000106813
0.585199 0.073579 0
0.616846 0.0638285 0
0.650294 0.052018 0
0.683864 0.0345922 0
0.718868 0.0205081 0
0.753307 0.00991836 0
0.162219 0.143206 0.0324712
0.161196 0.140444 0.0332494
0.164355 0.137316 0.0321508
0.169726 0.134188 0.0328985
0.176776 0.132662 0.034226
0.186709 0.13315 0.0345769
0.197009 0.132052 0.0319219
0.207904 0.132174 0.0317388
0.218036 0.132723 0.0315404
0.228824 0.133028 0.0310063
0.240513 0.133288 0.0281071
0.252979 0.131518 0.0249638
0.267613 0.130282 0.0232395
0.283803 0.129961 0.0220188
0.299123 0.1299 0.0185702
0.318013 0.130129 0.0154269
0.337041 0.128328 0.0128481
0.362203 0.12607 0.0114748
0.391974 0.121386 0.00790417
0.422248 0.117433 0.0041352
0.451652 0.110063 0.0018616
0.478859 0.106462 0.000534066
0.506676 0.101183 4.57771e-05
0.532692 0.0951858 0
0.557351 0.0899214 0
0.582254 0.0869764 0
0.606516 0.0827802 0
0.632776 0.0756542 0
0.661463 0.0697948 0
0.690745 0.0626383 0
0.719478 0.0530709 0
0.748379 0.0446326 0
0.778073 0.0337072 0
0.175586 0.155978 0.0248417
0.172686 0.152377 0.0270085
0.17528 0.148775 0.0278172
0.181949 0.145403 0.0272679
0.192035 0.143114 0.0284581
0.202792 0.142245 0.0263218
0.212924 0.141695 0.0257725
0.224689 0.14197 0.0235294
0.23711 0.142657 0.0220493
0.251179 0.143221 0.0213169
0.263905 0.143633 0.0179751
0.27892 0.143816 0.0165866
0.295781 0.142809 0.0147402
0.313069 0.140719 0.01149
0.331716 0.140261 0.00883497
0.351064 0.137987 0.00779736
0.370398 0.138186 0.00497444
0.399542 0.134157 0.00387579
0.43061 0.128466 0.00062562
0.460716 0.124254 0.000381476
0.490608 0.117571 0.000122072
0.52311 0.112718 0
0.554437 0.105577 0
0.583551 0.0999924 0
0.611444 0.0954299 0
0.637415 0.0916457 0
0.659113 0.0881971 0
0.680888 0.085008 0
0.704631 0.0815595 0
0.72752 0.0803998 0
0.750637 0.0795911 0
0.775448 0.0786145 0
0.80415 0.0762188 0
0.189822 0.169116 0.0162966
0.188952 0.166735 0.0180972
0.191394 0.164096 0.0192569
0.197971 0.161105 0.0178531
0.207813 0.158724 0.0171206
0.221775 0.154803 0.0163729
0.234821 0.154284 0.0166323
0.247242 0.154894 0.01355
0.260502 0.156008 0.011429
0.275822 0.156893 0.0107271
0.291646 0.155474 0.00955215
0.308217 0.155261 0.00717174
0.32517 0.155306 0.00512703
0.343359 0.154528 0.00381476
0.364843 0.151827 0.000762951
0.384054 0.152285 0.000335698
0.403754 0.150683 0
0.434699 0.145159 0.000213626
0.467155 0.138994 0
0.496788 0.134707 0
0.525673 0.13019 0
0.557794 0.125811 0
0.589944 0.120684 0
0.620188 0.117235 0
0.648402 0.112245 0
0.673869 0.10808 0
0.697185 0.105501 0
0.720073 0.103471 0
0.742382 0.103883 0
0.764248 0.106188 0
0.786587 0.109178 0
0.810132 0.112123 0
0.835187 0.115999 0
0.205142 0.181613 0.00735485
0.205646 0.179355 0.00862135
0.208789 0.177264 0.00958267
0.216587 0.175311 0.00773632
0.2271 0.173648 0.00762951
0.242802 0.170535 0.00596628
0.257725 0.170123 0.00616464
0.27071 0.169726 0.00421149
0.284108 0.170275 0.00309758
0.299626 0.171298 0.00254826
0.315663 0.171344 0.00218204
0.333928 0.170092 0.0012665
0.353124 0.16936 0.000793469
0.373312 0.168582 0.000518807
0.394858 0.165805 0
0.413794 0.166537 0
0.434409 0.164508 0
0.466163 0.161166 0
0.497963 0.154788 0
0.527169 0.152422 0
0.556237 0.149767 0
0.585519 0.144717 0
0.614572 0.141253 0
0.643809 0.139483 0
0.671794 0.136385 0
0.699474 0.133593 0
0.728008 0.133715 0
0.755459 0.134661 0
0.781048 0.136019 0
0.804547 0.13933 0
0.826337 0.145205 0
0.848264 0.152453 0
0.870512 0.162005 0
0.221302 0.197772 0.000885023
0.222614 0.19556 0.00177005
0.226841 0.193256 0.00231937
0.235157 0.19089 0.00181582
0.248768 0.188968 0.00221256
0.264454 0.187671 0
0.280797 0.186908 0
0.293843 0.185183 0
0.308049 0.186297 0
0.323781 0.18735 0
0.341466 0.18819 0
0.360784 0.187778 0
0.37998 0.186969 0
0.400977 0.185519 0
0.424063 0.183886 0
0.443885 0.184512 0
0.464576 0.184314 0
0.495369 0.181109 0
0.525719 0.175372 0
0.553262 0.173526 0
0.580743 0.171496 0
0.609796 0.16759 0
0.637751 0.166247 0
0.667063 0.166476 0
0.696239 0.165896 0
0.725704 0.166323 0
0.756466 0.169299 0
0.78648 0.171328 0
0.814069 0.175418 0
0.839414 0.181796 0
0.861692 0.190219 0
0.883558 0.202182 0
0.902724 0.214603 0
0.241642 0.218112 0
0.24062 0.215808 0
0.246937 0.212955 0
0.255222 0.210712 0
0.271214 0.208209 0
0.286183 0.20647 0
0.303838 0.205524 0
0.317678 0.205173 0
0.332082 0.206744 0
0.347997 0.207767 0
0.366201 0.208515 0
0.384756 0.209049 0
0.404761 0.208637 0
0.426444 0.207675 0
0.449073 0.206256 0
0.46746 0.206622 0
0.487068 0.206867 0
0.518608 0.203677 0
0.550835 0.201114 0
0.577981 0.199878 0
0.605173 0.198871 0
0.63476 0.198444 0
0.661555 0.197986 0
0.691966 0.201175 0
0.721569 0.201755 0
0.7514 0.205692 0
0.780606 0.209857 0
0.810117 0.214954 0
0.838285 0.224155 0
0.865019 0.233204 0
0.889723 0.244846 0
0.911406 0.259144 0
0.92842 0.275608 0
0.264057 0.246204 0
0.263951 0.242893 0
0.269093 0.239399 0
0.278187 0.237156 0
0.293111 0.233906 0
0.310094 0.231022 0
0.325734 0.229603 0
0.340764 0.230701 0
0.354589 0.232624 0
0.369696 0.234012 0
0.38732 0.234562 0
0.406134 0.234836 0
0.425513 0.234562 0
0.446708 0.233875 0
0.469642 0.233051 0
0.488258 0.235019 0
0.508797 0.236851 0
0.541802 0.234104 0
0.57409 0.234043 0
0.601419 0.233005 0
0.62916 0.233066 0
0.656565 0.236027 0
0.684474 0.236957 0
0.714672 0.240375 0
0.74165 0.244709 0
0.771084 0.251514 0
0.797009 0.258778 0
0.826322 0.265949 0
0.852476 0.27686 0
0.878035 0.291112 0
0.902373 0.30515 0.000488289
0.923308 0.321324 0.00138857
0.941787 0.337987 0.00277714
0.28925 0.278889 0
0.289738 0.274891 0
0.292576 0.270909 0
0.301137 0.268513 0
0.313924 0.265446 0
0.329717 0.262135 0
0.347234 0.260761 0
0.361669 0.261509 0
0.374716 0.262959 0
0.388403 0.263874 0
0.405936 0.264485 0
0.425864 0.264958 0
0.446616 0.265766 0
0.467735 0.266743 0
0.492073 0.266926 0
0.513207 0.271168 0
0.533654 0.27454 0
0.565454 0.272984 0
0.596338 0.272923 0
0.623987 0.272633 0
0.651286 0.275868 0
0.679088 0.28011 0
0.70605 0.286336 0
0.732815 0.290349 0
0.759518 0.297002 0
0.78587 0.304265 0
0.812146 0.315145 0
0.838163 0.325902 0.000122072
0.864149 0.336614 0.000137331
0.88661 0.350545 0
0.90866 0.365011 0.00920119
0.930602 0.382223 0.0208591
0.951537 0.398123 0.0315404
0.314702 0.313176 0
0.314092 0.308278 0
0.315923 0.303273 0
0.32256 0.301015 0
0.334752 0.295933 0
0.349889 0.291768 0
0.363638 0.289845 0
0.379416 0.292409 0
0.39501 0.296208 0
0.409873 0.298207 0
0.42829 0.300008 0
0.44744 0.301534 0
0.468147 0.303914 0
0.49192 0.308034 0
0.514199 0.308812 0
0.536294 0.311955 0
0.557961 0.317128 0
0.588708 0.318608 0
0.62179 0.318883 0
0.649363 0.32221 0
0.673213 0.325521 0
0.700252 0.332174 0
0.727291 0.33576 0
0.7505 0.34612 0
0.777203 0.349386 0
0.800183 0.360281 0
0.823209 0.371359 0
0.845792 0.381964 0.00727855
0.871946 0.392859 0.0179141
0.894636 0.407019 0.0317082
0.916854 0.421592 0.0434424
0.939284 0.433829 0.054963
0.95874 0.446036 0.063798
0.341985 0.350729 0
0.339757 0.344305 0
0.338293 0.336797 0
0.343816 0.333333 0
0.352865 0.330327 0
0.367773 0.327825 0
0.384695 0.326802 0
0.400763 0.330907 0
0.415991 0.335958 0
0.433783 0.338643 0
0.452964 0.342992 0
0.472816 0.346944 0
0.493889 0.349905 0
0.51838 0.354635 0
0.540108 0.355566 0
0.561639 0.36141 0
0.581674 0.367056 0
0.610864 0.368475 0
0.643229 0.368185 0
0.671153 0.375158 0
0.694575 0.377829 0
0.717845 0.384573 0
0.744884 0.391272 0
0.768017 0.398291 0
0.791608 0.405768 0
0.814618 0.41648 0.0110323
0.833982 0.427558 0.0253758
0.856809 0.438407 0.0398871
0.879881 0.446052 0.0512245
0.902785 0.457496 0.0629435
0.922408 0.469322 0.0744488
0.944411 0.477653 0.0827649
0.963684 0.485527 0.0875715
0.371969 0.389883 0.0114137
0.368612 0.383642 0.00572213
0.365545 0.377462 0.00062562
0.370993 0.372702 0
0.379843 0.372488 0
0.394186 0.370901 0
0.410285 0.372442 0
0.425559 0.376501 0
0.441047 0.381186 0
0.45951 0.386862 0
0.479026 0.392584 0
0.499107 0.398154 0
0.519997 0.402823 0
0.543755 0.404242 0
0.565469 0.408286 0
0.584421 0.414206 0
0.604868 0.420127 0
0.635798 0.423529 0
0.665202 0.424674 0
0.692271 0.431037 3.0518e-05
0.715999 0.433951 0
0.739239 0.440497 0
0.762783 0.447684 0.0107271
0.782696 0.4551 0.0217594
0.805814 0.462226 0.0323796
0.825605 0.466392 0.0437476
0.848371 0.477333 0.0554665
0.868208 0.48542 0.0673228
0.888014 0.493233 0.0790112
0.907744 0.498039 0.0873732
0.930098 0.50573 0.0953841
0.949783 0.513375 0.103014
0.968551 0.521126 0.107454
0.40882 0.433829 0.0521248
0.405203 0.427817 0.0428931
0.405066 0.424308 0.0306554
0.406622 0.41973 0.0186007
0.413977 0.420478 0.00759899
0.426902 0.419364 0.000900282
0.442191 0.421561 0
0.456245 0.426841 0
0.4701 0.433082 0
0.488731 0.43949 0
0.508461 0.445502 0
0.528374 0.45095 0
0.548348 0.455833 0
0.569024 0.460456 0
0.590646 0.464256 0
0.609583 0.469978 0
0.628931 0.475944 0.000442512
0.65716 0.47686 0.00114443
0.686702 0.477256 0
0.710353 0.483452 0.00671397
0.733974 0.486824 0.0174868
0.757565 0.490211 0.0283055
0.777905 0.497658 0.0400244
0.80087 0.501762 0.0515908
0.820935 0.509194 0.0632334
0.837049 0.512978 0.071397
0.856657 0.517403 0.0794842
0.876417 0.525368 0.087892
0.895918 0.529717 0.0992905
0.912108 0.533639 0.107347
0.931456 0.541054 0.115068
0.95079 0.545617 0.119631
0.972763 0.552911 0.126574
0.453498 0.485405 0.11519
0.448768 0.480217 0.108232
0.446693 0.474372 0.0973678
0.448081 0.469627 0.0800488
0.454276 0.469963 0.0614633
0.464103 0.47039 0.0444648
0.476585 0.473121 0.034165
0.489128 0.478828 0.0277104
0.502205 0.485679 0.0209964
0.519066 0.492332 0.013489
0.53576 0.497871 0.00535592
0.553521 0.50309 0
0.57351 0.508202 0
0.594293 0.51284 0
0.616205 0.517082 0
0.635142 0.522591 0.00180056
0.653925 0.526894 0.00607309
0.680278 0.525795 0.0154116
0.708675 0.52636 0.0249027
0.72932 0.529809 0.0356298
0.752911 0.533516 0.0474861
0.773449 0.537148 0.0559396
0.793194 0.541054 0.0640116
0.809812 0.544686 0.075349
0.829221 0.548806 0.0837873
0.845136 0.549462 0.0916152
0.864668 0.553429 0.0996719
0.880858 0.557534 0.107408
0.900145 0.564767 0.115572
0.916121 0.568948 0.12343
0.935286 0.573175 0.131212
0.954726 0.580331 0.138659
0.974365 0.585092 0.146502
0.498833 0.534127 0.179934
0.495995 0.529931 0.173327
0.493156 0.524239 0.16289
0.492164 0.521416 0.14844
0.495384 0.518776 0.129793
0.502754 0.520073 0.111086
0.512749 0.523125 0.0975052
0.524102 0.528847 0.0904402
0.535607 0.535607 0.0856794
0.549325 0.541543 0.07953
0.56466 0.546899 0.0715801
0.581582 0.552193 0.0631418
0.598733 0.557153 0.0538949
0.616663 0.562127 0.0427558
0.63827 0.56321 0.035523
0.656962 0.56791 0.0340429
0.674174 0.573129 0.0356603
0.698909 0.573465 0.0420386
0.724712 0.569802 0.0517128
0.745068 0.573022 0.0599832
0.765301 0.573373 0.0680705
0.785306 0.576638 0.0759747
0.801846 0.577188 0.0838331
0.817655 0.580697 0.0920119
0.836988 0.584497 0.0998398
0.853162 0.585061 0.107881
0.869093 0.588571 0.115618
0.884749 0.592477 0.12343
0.904067 0.596735 0.131273
0.920043 0.603983 0.139116
0.939467 0.608454 0.150454
0.958999 0.61268 0.158511
0.978302 0.616678 0.163043
0.539879 0.575463 0.24416
0.537484 0.572747 0.237659
0.534936 0.569665 0.226856
0.534035 0.565347 0.213458
0.535439 0.563989 0.195346
0.540383 0.564004 0.176684
0.548745 0.567544 0.163363
0.557778 0.572839 0.155825
0.566354 0.578775 0.150484
0.577173 0.584405 0.141634
0.589761 0.589578 0.131624
0.603693 0.593881 0.121111
0.618006 0.596231 0.108125
0.635538 0.600839 0.0962997
0.654154 0.604929 0.082948
0.669917 0.608286 0.0763561
0.68661 0.611749 0.0723888
0.71223 0.612497 0.0673228
0.736812 0.609461 0.0718853
0.753887 0.609247 0.0797742
0.773404 0.612177 0.0876783
0.790188 0.612619 0.0923323
0.809308 0.61561 0.0997787
0.825589 0.616403 0.107805
0.841657 0.620081 0.115679
0.857374 0.623682 0.123522
0.87306 0.624262 0.131365
0.888685 0.627909 0.139178
0.904692 0.63183 0.150332
0.923888 0.636362 0.158648
0.940108 0.640299 0.166796
0.959411 0.644205 0.17464
0.97879 0.648081 0.17879
0.573785 0.613001 0.308095
0.570138 0.609079 0.297551
0.568734 0.605142 0.287648
0.566979 0.601068 0.274876
0.569009 0.60148 0.257313
0.572808 0.601434 0.239521
0.578149 0.604883 0.225238
0.584253 0.609735 0.216968
0.591363 0.615228 0.211765
0.600961 0.620478 0.202686
0.611704 0.624384 0.191577
0.622858 0.627222 0.179522
0.633661 0.631449 0.166033
0.651133 0.636072 0.151431
0.666606 0.640253 0.134356
0.681422 0.645441 0.124926
0.696956 0.649546 0.116732
0.720073 0.649775 0.100893
0.744778 0.648524 0.0935073
0.7617 0.648219 0.0962844
0.781216 0.651194 0.103609
0.797665 0.65153 0.111254
0.813977 0.651835 0.119203
0.829877 0.655192 0.123827
0.845609 0.655634 0.131365
0.861295 0.659297 0.139208
0.876982 0.659571 0.147066
0.892607 0.663203 0.154879
0.908522 0.667582 0.166659
0.924483 0.668116 0.174762
0.943511 0.671794 0.182574
0.959716 0.675715 0.190417
0.978943 0.679728 0.197986
0.607569 0.646784 0.368139
0.603983 0.643198 0.361334
0.600381 0.639063 0.351141
0.597177 0.635065 0.338216
0.599405 0.634211 0.321584
0.601175 0.635493 0.304707
0.604852 0.638315 0.291829
0.611078 0.642069 0.28542
0.617197 0.647349 0.281468
0.625208 0.652476 0.273426
0.634791 0.657298 0.261952
0.644785 0.661707 0.24799
0.652644 0.666575 0.235218
0.66717 0.671214 0.217578
0.679133 0.675532 0.197314
0.691218 0.68098 0.186191
0.705028 0.684779 0.176196
0.727871 0.685069 0.150149
0.74966 0.684215 0.132494
0.768978 0.68687 0.124651
0.785946 0.687541 0.123964
0.80209 0.687434 0.127779
0.818006 0.690608 0.135332
0.833814 0.691203 0.139605
0.846204 0.691081 0.147127
0.861708 0.694743 0.155001
0.877455 0.69514 0.162936
0.893141 0.695689 0.170901
0.908827 0.699382 0.182422
0.927916 0.703029 0.190509
0.944106 0.703532 0.198352
0.963211 0.707225 0.206195
0.982773 0.711498 0.214191
0.641627 0.680842 0.439933
0.638041 0.677256 0.431724
0.636042 0.673533 0.420996
0.633112 0.66981 0.408957
0.632395 0.667689 0.394339
0.633188 0.669413 0.379446
0.635782 0.671229 0.368444
0.641779 0.675319 0.363882
0.647471 0.681407 0.361379
