70 CGC LUTs/Look LUTs/Godfather.cube
#Created by: Denver Riddle
#Copyright: (C) Copyright Color Grading Central LLC
#LUT Size
LUT_3D_SIZE 9
0 0 0
0.0259403 0.00646983 0.00257877
0.0852827 0.0180209 0.00784314
0.130098 0.0371405 0.0137484
0.173098 0.0572518 0.0228122
0.232456 0.076173 0.0313725
0.307713 0.0866102 0.0292515
0.482612 0.0408331 0.00621042
0.65864 0 0
0.0636759 0.0526284 0.0151217
0.101152 0.0554971 0.0189212
0.144411 0.0677195 0.0244297
0.180011 0.0803235 0.0307774
0.207309 0.0898909 0.0394293
0.243763 0.0948653 0.0366369
0.295674 0.0954147 0.0289006
0.403403 0.0797589 0.0133364
0.603693 0.00164797 0
0.136339 0.12047 0.0374456
0.159426 0.115496 0.0349584
0.193668 0.1131 0.0360418
0.223972 0.115648 0.0348974
0.268635 0.113664 0.0300908
0.346578 0.106996 0.0189059
0.441352 0.0959487 0.00823987
0.568322 0.0641337 6.10361e-05
0.720623 0.000518807 0
0.189822 0.169116 0.0162966
0.207813 0.158724 0.0171206
0.260502 0.156008 0.011429
0.32517 0.155306 0.00512703
0.403754 0.150683 0
0.525673 0.13019 0
0.648402 0.112245 0
0.742382 0.103883 0
0.835187 0.115999 0
0.264057 0.246204 0
0.293111 0.233906 0
0.354589 0.232624 0
0.425513 0.234562 0
0.508797 0.236851 0
0.62916 0.233066 0
0.74165 0.244709 0
0.852476 0.27686 0
0.941787 0.337987 0.00277714
0.371969 0.389883 0.0114137
0.379843 0.372488 0
0.441047 0.381186 0
0.519997 0.402823 0
0.604868 0.420127 0
0.715999 0.433951 0
0.805814 0.462226 0.0323796
0.888014 0.493233 0.0790112
0.968551 0.521126 0.107454
0.539879 0.575463 0.24416
0.535439 0.563989 0.195346
0.566354 0.578775 0.150484
0.618006 0.596231 0.108125
0.68661 0.611749 0.0723888
0.773404 0.612177 0.0876783
0.841657 0.620081 0.115679
0.904692 0.63183 0.150332
0.97879 0.648081 0.17879
0.676219 0.711772 0.501961
0.666804 0.700511 0.466377
0.678828 0.711559 0.443198
0.699245 0.726299 0.413504
0.729686 0.744549 0.353033
0.786343 0.754452 0.22237
0.850065 0.762142 0.182986
0.91281 0.762982 0.214252
0.986908 0.771084 0.242359
0.817258 0.848112 0.468711
0.804364 0.831769 0.542519
0.815351 0.840574 0.508446
0.83183 0.855009 0.429923
0.848402 0.866667 0.38027
0.872694 0.876875 0.332677
0.904311 0.888869 0.276478
0.948775 0.904524 0.259297
0.999817 0.920913 0.435874
0.00300603 0 0.00392157
0.0352483 0.00758373 0.013962
0.0910506 0.022858 0.0314641
0.132342 0.0447242 0.0466621
0.173617 0.0649577 0.0581369
0.232349 0.0864118 0.0661936
0.323659 0.0918288 0.0604715
0.50544 0.0437324 0.0334325
0.671107 0 0.0106966
0.0599222 0.0565499 0.051667
0.0867323 0.0645762 0.0494392
0.131212 0.0783093 0.0530556
0.166873 0.0900435 0.0603647
0.19942 0.0988174 0.0632181
0.244038 0.102007 0.0588388
0.318303 0.100145 0.0457008
0.45069 0.0757458 0.0222171
0.652399 0.000640879 0.00144961
0.121874 0.121874 0.0915694
0.123308 0.121065 0.0724956
0.159731 0.122988 0.0628824
0.209247 0.120546 0.0648508
0.247959 0.125093 0.063386
0.323339 0.122866 0.0502174
0.436133 0.10988 0.0293431
0.584482 0.0772564 0.00877394
0.763973 0.00656138 0
0.167132 0.170001 0.0724346
0.187335 0.164294 0.0454566
0.239734 0.163958 0.0378271
0.3037 0.163928 0.03299
0.376104 0.16228 0.0263828
0.481697 0.153735 0.0215457
0.558419 0.159045 0.0278477
0.657603 0.166186 0.024445
0.779751 0.17705 0.0191806
0.238041 0.250645 0.057969
0.260426 0.241779 0.0145418
0.324681 0.241108 0.00296025
0.391531 0.242725 0.00601205
0.480323 0.249302 0.00816358
0.599222 0.248081 0.0114137
0.708064 0.266545 0.0206149
0.793484 0.309941 0.0587625
0.86154 0.368475 0.110567
0.354391 0.385641 0.116106
0.357092 0.372137 0.0523079
0.415015 0.388663 0.0104982
0.494911 0.411521 0.00222782
0.582361 0.429618 0.0188602
0.694347 0.442756 0.0567941
0.786984 0.467903 0.0970474
0.872114 0.497459 0.131853
0.949691 0.52726 0.161639
0.537972 0.573175 0.321859
0.526024 0.559335 0.262974
0.553826 0.574121 0.217243
0.601007 0.596414 0.176074
0.667063 0.61384 0.134936
0.759274 0.614054 0.132998
0.829175 0.621149 0.15967
0.895964 0.633814 0.190372
0.969482 0.649973 0.220203
0.677485 0.707591 0.535012
0.666041 0.69575 0.500847
0.678325 0.707515 0.483497
0.69659 0.722225 0.46424
0.722194 0.740612 0.414282
0.775296 0.752758 0.27512
0.841398 0.75845 0.219989
0.906538 0.763058 0.248707
0.978317 0.770779 0.286549
0.808042 0.83386 0.656077
0.796582 0.823682 0.646723
0.804593 0.83035 0.594751
0.822446 0.844694 0.532982
0.847135 0.865827 0.387564
0.865736 0.871046 0.374777
0.896651 0.88365 0.307897
0.943832 0.899107 0.261753
0.998459 0.913954 0.401068
0.0100404 0.00416571 0.0120089
0.048661 0.0115511 0.0325475
0.101167 0.0272221 0.0542153
0.140093 0.047776 0.068986
0.176562 0.066804 0.0821698
0.241779 0.0888685 0.0895399
0.350103 0.0867628 0.0847486
0.534127 0.0244602 0.0615396
0.698009 0 0.0400244
0.0667735 0.0667582 0.0612802
0.0906386 0.0693065 0.0675059
0.128359 0.0814832 0.0747692
0.161212 0.0927138 0.0807507
0.194446 0.10135 0.0827649
0.246998 0.104997 0.0799573
0.32987 0.101274 0.0665599
0.466865 0.076524 0.0466773
0.665415 0.000732433 0.0208591
0.125399 0.125429 0.11342
0.136095 0.122057 0.0895552
0.163302 0.122576 0.0912947
0.204822 0.125765 0.0847486
0.254978 0.129747 0.0778821
0.340505 0.12639 0.0643626
0.451682 0.116487 0.0481727
0.59585 0.0927291 0.0306859
0.764706 0.0501106 0.0187991
0.163729 0.169192 0.131426
0.175906 0.169574 0.0860914
0.188861 0.180743 0.0826581
0.227909 0.193912 0.0536202
0.365362 0.172503 0.0598459
0.450126 0.176257 0.0632181
0.548043 0.177371 0.0616159
0.665888 0.184527 0.0559396
0.812528 0.202289 0.0514839
0.236698 0.253681 0.157595
0.24094 0.24979 0.0948806
0.26598 0.261143 0.0713207
0.33576 0.271031 0.0457313
0.442283 0.271458 0.0607614
0.578317 0.272145 0.0703288
0.669871 0.300526 0.0979477
0.747936 0.347158 0.1346
0.841291 0.40116 0.170291
0.363333 0.393149 0.234684
0.352605 0.381109 0.178515
0.39707 0.405341 0.124102
0.472114 0.43154 0.0911727
0.565454 0.453361 0.107317
0.678523 0.466148 0.138048
0.773083 0.48925 0.168826
0.856886 0.515114 0.20296
0.921599 0.54406 0.238544
0.547524 0.574319 0.424247
0.533639 0.562158 0.37879
0.552651 0.579904 0.340795
0.589303 0.60383 0.289342
0.647181 0.62359 0.22414
0.743145 0.625467 0.197864
0.815503 0.632807 0.221164
0.886168 0.644709 0.25211
0.959289 0.660594 0.28452
0.684428 0.708751 0.574945
0.673228 0.699977 0.556573
0.683711 0.707607 0.552987
0.703044 0.723445 0.548165
0.722271 0.741848 0.512413
0.764508 0.755901 0.368032
0.82884 0.764233 0.284611
0.898955 0.768521 0.306645
0.97293 0.776226 0.350469
0.810788 0.842344 0.713756
0.800748 0.831632 0.701427
0.809857 0.836515 0.708034
0.825589 0.848493 0.721508
0.840223 0.856565 0.728115
0.851194 0.862791 0.635966
0.898009 0.885618 0.321019
0.943328 0.901488 0.280385
0.998611 0.916228 0.420096
0.0247349 0.00909438 0.0286412
0.06421 0.0161898 0.0516213
0.109468 0.032166 0.0730755
0.149233 0.0514534 0.0892042
0.18854 0.0713054 0.102846
0.250263 0.0897536 0.111971
0.373404 0.080354 0.11017
0.5664 0.00799573 0.0925002
0.730922 0 0.0779736
0.0766461 0.0733349 0.0727245
0.102098 0.074876 0.0896162
0.137758 0.0847334 0.0959793
0.166873 0.0941176 0.101396
0.195514 0.100237 0.103746
0.250019 0.104356 0.102129
0.344289 0.0983597 0.092546
0.492195 0.066392 0.0739452
0.695171 0 0.0558938
0.12813 0.130327 0.121752
0.132708 0.124437 0.110552
0.159213 0.124941 0.109026
0.193606 0.129198 0.106935
0.241779 0.135958 0.103868
0.335775 0.131273 0.0906081
0.455573 0.120562 0.0769513
0.60032 0.104204 0.066865
0.765362 0.0730297 0.06215
0.168933 0.173007 0.149325
0.170367 0.171756 0.132464
0.222019 0.177218 0.105653
0.275151 0.181292 0.107057
0.355886 0.185809 0.0955825
0.458991 0.184344 0.0868696
0.557671 0.19057 0.0861982
0.672251 0.202884 0.0908064
0.821088 0.229984 0.098909
0.246845 0.260975 0.208392
0.241596 0.250446 0.179492
0.282872 0.265888 0.108446
0.343755 0.276646 0.103914
0.433768 0.286641 0.117662
0.562524 0.296849 0.123156
0.648463 0.328817 0.151308
0.747143 0.371893 0.179141
0.860685 0.427893 0.209079
0.381476 0.405005 0.312428
0.368612 0.388983 0.283162
0.394781 0.413748 0.240375
0.456641 0.447105 0.186786
0.54995 0.474769 0.175982
0.666056 0.486076 0.206561
0.762219 0.508751 0.230106
0.835706 0.533013 0.270161
0.889601 0.56379 0.307927
0.558114 0.581643 0.474281
0.547509 0.568948 0.456596
0.562493 0.582101 0.444282
0.587243 0.606226 0.407492
0.630533 0.62977 0.32784
0.72697 0.63682 0.262394
0.80293 0.6439 0.285451
0.875517 0.652934 0.315068
0.949187 0.669474 0.347341
0.686397 0.717769 0.59617
0.678309 0.706035 0.58468
0.690257 0.712871 0.592813
0.708904 0.725093 0.602975
0.72752 0.742458 0.595468
0.755932 0.757671 0.474128
0.819516 0.770962 0.356817
0.890379 0.773663 0.366598
0.966369 0.78175 0.413397
0.812131 0.850904 0.739178
0.802823 0.837674 0.724468
0.811307 0.843214 0.73225
0.827146 0.854383 0.746212
0.843961 0.863569 0.756436
0.859785 0.867887 0.764111
0.877943 0.879637 0.732235
0.944427 0.903212 0.292348
0.998367 0.919158 0.445411
0.0451972 0.0167239 0.0516518
0.0779583 0.0236515 0.0718242
0.120424 0.0408179 0.0920729
0.158068 0.0566415 0.110811
0.200229 0.0722515 0.125856
0.265827 0.0867933 0.137682
0.395132 0.072694 0.143771
0.588235 0 0.130602
0.764797 0 0.116915
0.0873884 0.0807202 0.0868544
0.109667 0.0803998 0.105135
0.145953 0.086717 0.117144
0.177066 0.0937362 0.123018
0.203677 0.0990311 0.125292
0.256229 0.102922 0.124102
0.355138 0.0953384 0.120607
0.515068 0.0545815 0.108843
0.728908 0 0.0965744
0.134264 0.134646 0.130282
0.135576 0.127306 0.12694
0.164004 0.124834 0.129366
0.199451 0.129259 0.130022
0.248447 0.134813 0.130343
0.335637 0.134905 0.124102
0.457404 0.124681 0.114519
0.609567 0.108431 0.108186
0.777035 0.0792554 0.107729
0.17293 0.180865 0.162631
0.173831 0.174899 0.159274
0.213611 0.182208 0.140978
0.265827 0.188968 0.144015
0.322591 0.197803 0.142596
0.419333 0.200397 0.132189
0.538567 0.206882 0.127855
0.665476 0.222202 0.132387
0.818753 0.252964 0.148806
0.253223 0.272419 0.230304
0.249729 0.258579 0.218997
0.271717 0.272435 0.180941
0.341878 0.284916 0.157
0.430716 0.300542 0.174243
0.560265 0.315297 0.173358
0.660578 0.350652 0.19382
0.75848 0.397498 0.22327
0.870481 0.449271 0.25449
0.39205 0.423423 0.345571
0.383795 0.405478 0.332082
0.411902 0.424491 0.340887
0.455283 0.462165 0.299992
0.541711 0.493492 0.24831
0.654917 0.50573 0.274311
0.74995 0.526009 0.289601
0.811582 0.551965 0.331182
0.883055 0.578439 0.35436
0.564553 0.595926 0.497917
0.555169 0.580163 0.486534
0.571344 0.5897 0.496468
0.595682 0.608362 0.49865
0.625025 0.634577 0.438895
0.714015 0.648173 0.330526
0.790661 0.654917 0.350225
0.865156 0.663767 0.373922
0.935576 0.681193 0.407843
0.687861 0.726741 0.616938
0.680247 0.71371 0.604685
0.692027 0.720531 0.613657
0.710704 0.733379 0.627817
0.733104 0.74519 0.642512
0.751461 0.758846 0.575769
0.807034 0.774624 0.435569
0.885176 0.779004 0.425376
0.95993 0.787259 0.47602
0.817258 0.856474 0.754238
0.806104 0.843244 0.742199
0.815351 0.849302 0.749126
0.832074 0.859861 0.764721
0.844526 0.866819 0.773114
0.861448 0.873503 0.783017
0.885191 0.885069 0.798291
0.90956 0.901625 0.733486
0.999634 0.921202 0.458396
0.0651408 0.0269169 0.0769055
0.0924544 0.0339208 0.0942855
0.131762 0.0462806 0.116487
0.167269 0.0614939 0.135195
0.210925 0.0767987 0.152972
0.293141 0.082414 0.175494
0.428626 0.0561227 0.191806
0.609506 0 0.187671
0.793362 0 0.180621
0.0995041 0.0879072 0.107103
0.118242 0.0865949 0.122164
0.153124 0.0899062 0.14052
0.182345 0.0939956 0.148486
0.214572 0.0973068 0.153582
0.280217 0.097322 0.161501
0.379553 0.0881208 0.164263
0.533913 0.0452583 0.158694
0.756283 0 0.155291
0.140856 0.137255 0.140063
0.1393 0.129458 0.141421
0.174182 0.126894 0.160601
0.218448 0.128069 0.172244
0.274647 0.130037 0.180499
0.361334 0.12813 0.175982
0.472282 0.121035 0.170748
0.61062 0.115404 0.169467
0.788556 0.0817426 0.17055
0.180331 0.185473 0.178866
0.181369 0.18233 0.175784
0.208392 0.188235 0.189197
0.25771 0.19527 0.192538
0.318441 0.204578 0.193439
0.415305 0.20618 0.187488
0.520546 0.217914 0.188769
0.654475 0.236561 0.196963
0.824384 0.272404 0.218769
0.264973 0.285161 0.259266
0.258839 0.270726 0.243885
0.275441 0.277241 0.252323
0.329274 0.29955 0.225345
0.412558 0.318578 0.243275
0.512917 0.340825 0.2495
0.61149 0.376394 0.266011
0.735561 0.423896 0.294423
0.866102 0.467628 0.318395
0.410651 0.442374 0.386526
0.398703 0.427024 0.369696
0.427405 0.444923 0.387655
0.468696 0.472892 0.411856
0.526497 0.511528 0.351431
0.642771 0.524102 0.356085
0.743252 0.541588 0.364111
0.819089 0.562051 0.384909
0.897154 0.59028 0.395117
0.568139 0.607065 0.524834
0.559991 0.592554 0.513954
0.577218 0.602457 0.523919
0.601022 0.619104 0.540612
0.630671 0.636072 0.54435
0.694957 0.65893 0.413275
0.778851 0.663355 0.42298
0.853651 0.673289 0.438483
0.905791 0.693217 0.477638
0.691783 0.731258 0.639872
0.683024 0.721706 0.627558
0.695308 0.728389 0.635248
0.714778 0.741238 0.650446
0.734417 0.751537 0.662806
0.755138 0.759075 0.658701
0.795071 0.77879 0.536019
0.873976 0.786648 0.494957
0.955154 0.794659 0.542184
0.821317 0.860533 0.770321
0.808209 0.847166 0.757733
0.81857 0.853925 0.764324
0.833066 0.864057 0.777874
0.84715 0.87068 0.788495
0.865538 0.877684 0.798611
0.885512 0.889342 0.81445
0.913512 0.905638 0.825818
0.984741 0.925277 0.645274
0.0852369 0.0382239 0.100923
0.105882 0.0449378 0.118044
0.141299 0.0563211 0.141741
0.176196 0.0691386 0.162676
0.22208 0.0794995 0.18996
0.323156 0.0751812 0.229572
0.47895 0.0187533 0.27129
0.646586 0 0.279866
0.812024 0 0.275364
0.112749 0.0949874 0.127169
0.127779 0.0928817 0.141329
0.157717 0.0960555 0.162448
0.187671 0.0965438 0.174945
0.22182 0.097673 0.187762
0.303273 0.0914778 0.208423
0.421012 0.0695048 0.226795
0.570489 0.0162203 0.232502
0.772244 0 0.235264
0.149905 0.143481 0.160067
0.148791 0.134829 0.160296
0.177325 0.132433 0.187808
0.225879 0.131395 0.219623
0.29131 0.129274 0.241932
0.399374 0.116991 0.251392
0.512337 0.108186 0.251514
0.632166 0.109651 0.250782
0.794949 0.0967269 0.251759
0.191669 0.195499 0.201709
0.190814 0.189837 0.196902
0.21355 0.19588 0.222553
0.272435 0.199786 0.265675
0.348013 0.202167 0.282445
0.449393 0.202808 0.27277
0.547936 0.216403 0.273487
0.666056 0.244846 0.283787
0.826093 0.292165 0.310185
0.281254 0.300038 0.289097
0.271855 0.283406 0.271687
0.288487 0.291279 0.282948
0.325078 0.314504 0.304158
0.401923 0.338415 0.32845
0.503258 0.35935 0.330343
0.60618 0.395132 0.349798
0.716182 0.439612 0.378805
0.863386 0.479011 0.402411
0.433646 0.465431 0.425681
0.419516 0.447868 0.408911
0.444816 0.4645 0.425055
0.484062 0.494682 0.455543
0.527382 0.521645 0.473579
0.624079 0.540856 0.441596
0.702953 0.556924 0.453971
0.784741 0.579843 0.458412
0.886778 0.60415 0.459342
0.579156 0.618372 0.555489
0.569146 0.604761 0.54313
0.584161 0.614267 0.551995
0.607889 0.630884 0.568505
0.635981 0.646479 0.583947
0.676265 0.666728 0.525673
0.762737 0.672084 0.501839
0.84445 0.68397 0.510384
0.916381 0.700404 0.520409
0.695964 0.739101 0.663706
0.68893 0.728801 0.650599
0.699901 0.734905 0.657847
0.718318 0.746273 0.671199
0.737041 0.75906 0.684718
0.759213 0.763333 0.692012
0.787213 0.779141 0.649119
0.866056 0.790982 0.565911
0.944533 0.799558 0.608713
0.825238 0.864454 0.785641
0.813931 0.851087 0.771435
0.822538 0.856336 0.779156
0.837034 0.868223 0.793027
0.851102 0.874632 0.801755
0.869169 0.881727 0.811048
0.889555 0.893416 0.826444
0.917235 0.909178 0.846052
0.976364 0.933318 0.779706
0.097673 0.0509499 0.128679
0.116579 0.0575418 0.143725
0.146105 0.0666819 0.173068
0.177707 0.0775616 0.206073
0.223957 0.083772 0.250935
0.344793 0.0645151 0.35465
0.514015 0.000854505 0.439155
0.708095 0 0.479194
0.856504 0 0.483238
0.12726 0.103807 0.154681
0.136034 0.10074 0.162722
0.158953 0.102281 0.186023
0.188632 0.102007 0.208301
0.229221 0.0997024 0.238682
0.323507 0.0851759 0.287221
0.459876 0.0434577 0.337636
0.630121 0 0.375158
0.808118 0 0.390707
0.159731 0.149493 0.193881
0.158877 0.138109 0.190829
0.182422 0.139178 0.22002
0.224323 0.138125 0.269734
0.288914 0.132418 0.329961
0.417624 0.111925 0.38088
0.553994 0.090425 0.405356
0.682536 0.0784466 0.409567
0.822583 0.0890974 0.408011
0.204166 0.207706 0.242557
0.204242 0.199939 0.238895
0.225818 0.207401 0.268269
0.264561 0.215167 0.318379
0.33489 0.216861 0.38381
0.474739 0.204135 0.429099
0.598474 0.211902 0.441169
0.717708 0.24271 0.453086
0.844404 0.309316 0.468925
0.30309 0.322103 0.34255
0.288701 0.299565 0.318471
0.309987 0.312367 0.33193
0.346975 0.338003 0.366827
0.407233 0.364904 0.427512
0.5449 0.373785 0.497536
0.655741 0.405753 0.515892
0.757549 0.447303 0.531975
0.866911 0.486885 0.540383
0.464485 0.495918 0.484443
0.450034 0.476432 0.463294
0.473106 0.49163 0.478691
0.507134 0.517998 0.505669
0.54638 0.545327 0.531228
0.603784 0.560418 0.561791
0.683757 0.573144 0.566201
0.769131 0.592676 0.569711
0.875212 0.613489 0.573587
0.594568 0.633402 0.594339
0.584909 0.619272 0.582345
0.599954 0.629908 0.590875
0.623667 0.643717 0.607446
0.647257 0.66183 0.623041
0.675837 0.671748 0.636011
0.735241 0.687434 0.615091
0.806241 0.699306 0.619547
0.893782 0.715801 0.612711
0.707301 0.750164 0.691569
0.699199 0.738415 0.682597
0.710094 0.745525 0.689128
0.726284 0.754482 0.702525
0.744793 0.766949 0.713756
0.762448 0.771237 0.719585
0.787198 0.782635 0.731533
0.849958 0.798611 0.668696
0.934585 0.810544 0.689204
0.832822 0.868605 0.805127
0.820356 0.856199 0.791485
0.830228 0.862196 0.798047
0.844617 0.872358 0.812497
0.856809 0.880171 0.820218
0.873503 0.889189 0.830274
0.893568 0.897551 0.842496
0.921202 0.913314 0.862211
0.976455 0.941176 0.83917
0.101961 0.0591287 0.149325
0.11368 0.0631418 0.168185
0.140078 0.0722667 0.196643
0.170092 0.0823377 0.232822
0.212467 0.0871748 0.288487
0.322896 0.0681926 0.463584
0.48455 0 0.629953
0.690349 0 0.749813
0.87451 0 0.788235
0.133944 0.111025 0.183276
0.139773 0.107759 0.1953
0.156786 0.109697 0.217548
0.177035 0.108492 0.253056
0.213001 0.106798 0.315679
0.306416 0.0899672 0.441367
0.449317 0.0379339 0.569436
0.640177 0 0.669505
0.847471 0 0.709545
0.168139 0.154894 0.256367
0.166461 0.144823 0.248341
0.184573 0.146349 0.282368
0.2103 0.149477 0.347509
0.25536 0.149935 0.439033
0.365545 0.138262 0.567437
0.512749 0.118151 0.654643
0.676188 0.0850538 0.697643
0.86128 0.0608835 0.71371
0.218235 0.225528 0.339239
0.218265 0.215442 0.335882
0.240314 0.22388 0.370047
0.270817 0.235477 0.418494
0.314321 0.246464 0.481117
0.418357 0.246082 0.582483
0.554391 0.253346 0.672465
0.713542 0.276158 0.727214
0.878706 0.326406 0.752987
0.331243 0.35404 0.443381
0.316014 0.330831 0.424582
0.339254 0.345342 0.448402
0.381933 0.377417 0.490761
0.432151 0.407294 0.539818
0.513359 0.434974 0.617777
0.615885 0.461433 0.70074
0.752407 0.47628 0.763027
0.89691 0.48661 0.796567
0.505272 0.536645 0.586892
0.49131 0.518715 0.562692
0.511421 0.532982 0.576043
0.541573 0.553063 0.601862
0.572824 0.575692 0.627375
0.611322 0.588327 0.659998
0.668055 0.603235 0.708919
0.769009 0.609949 0.772686
0.903395 0.609415 0.807919
0.617227 0.656443 0.678584
0.608194 0.644739 0.659403
0.621912 0.65359 0.668147
0.643778 0.670192 0.687709
0.669261 0.683818 0.700313
0.69485 0.692027 0.70959
0.723293 0.707179 0.729809
0.788006 0.71458 0.780255
0.909331 0.712612 0.822782
0.726345 0.76556 0.752972
0.716167 0.753674 0.737255
0.726726 0.760388 0.745281
0.742382 0.769833 0.757092
0.760235 0.782422 0.76762
0.774884 0.78677 0.77409
0.798627 0.798444 0.782284
0.830182 0.814054 0.798291
0.922515 0.815625 0.842786
0.848142 0.87657 0.84033
0.833829 0.866911 0.825528
0.842206 0.870924 0.831327
0.859419 0.883513 0.844282
0.870588 0.890196 0.85098
0.885466 0.897292 0.858213
0.905303 0.909224 0.870008
0.933059 0.925216 0.886
0.972183 0.952392 0.909224
