70 CGC LUTs/Look LUTs/Grand Budapest.cube
#Created by: Denver Riddle
#Copyright: (C) Copyright Color Grading Central LLC
#LUT Size
LUT_3D_SIZE 5
0 0 0
0.0313725 0.00392157 0.00392157
0.345098 0 0
0.721569 0 0
0.976471 0 0.00392157
0.109804 0.105882 0
0.235294 0.109804 0
0.466667 0.0823529 0
0.729412 0 0
0.984314 0 0.0156863
0.333333 0.286275 0
0.392157 0.286275 0
0.560784 0.27451 0
0.780392 0.254902 0.0196078
1 0.223529 0.0627451
0.603922 0.498039 0
0.635294 0.501961 0
0.741176 0.509804 0
0.878431 0.517647 0.0352941
1 0.517647 0.141176
0.764706 0.827451 0
0.803922 0.831373 0
0.890196 0.839216 0
0.956863 0.866667 0.243137
1 0.921569 0.72549
9.15541e-05 0 0.00392157
0.0234684 0.00392157 0.0196536
0.360815 0 0.1028
0.63154 0 0.0750744
0.905516 0 0.0666667
0 0.17229 0.0835126
0.176333 0.140856 0.103456
0.423163 0.117678 0.0943465
0.670146 0.0395972 0.0942702
0.940871 0 0.0903639
0.265782 0.313924 0.0629129
0.344656 0.309819 0.0866255
0.521309 0.302068 0.11809
0.744869 0.286259 0.145541
1 0.246983 0.165042
0.568215 0.517723 0.0632181
0.607507 0.517723 0.0828107
0.713481 0.529366 0.118196
0.854719 0.533303 0.161334
1 0.533288 0.2318
0.552209 0.84715 0
0.646418 0.843229 0
0.823178 0.839399 0
0.956832 0.866651 0.246906
1 0.921569 0.729412
0.00755322 0.00392157 0.0114748
0.0468757 0.00784314 0.0931716
0.318715 0 0.366323
0.682475 0 0.338216
0.940887 0 0.240803
0.054963 0.15697 0.190997
0.145525 0.144884 0.304433
0.401358 0.113191 0.346654
0.674647 0.0125277 0.290822
0.936675 0 0.221485
0 0.411902 0.222934
0 0.396216 0.242252
0.453071 0.337057 0.273045
0.726253 0.313558 0.266163
0.976791 0.289738 0.254398
0.319509 0.598642 0.133944
0.431235 0.583535 0.17261
0.659876 0.560632 0.265568
0.820005 0.564553 0.339452
1 0.552804 0.386831
0.359503 0.882063 0
0.507759 0.878141 0.000106813
0.761761 0.87422 0.192966
0.913771 0.886 0.342641
1 0.92549 0.744808
0.0306554 0.0117647 0.161486
0.0747082 0.00462348 0.318563
0.271855 0 0.58735
0.588586 0 0.621683
0.94902 0 0.563867
0.040238 0.165133 0.370489
0.126696 0.149447 0.485161
0.357382 0.121813 0.566674
0.612238 0.0522011 0.582391
0.952987 0 0.541085
0.210605 0.376257 0.376272
0.240467 0.372274 0.391943
0.410086 0.344808 0.540078
0.711986 0.306355 0.570809
0.988342 0.275898 0.50425
0 0.714321 0.413779
0 0.703319 0.425605
0.0417945 0.671153 0.46479
0.754345 0.595087 0.521706
0.996796 0.576364 0.492332
0 0.920851 0.161822
0.215717 0.91693 0.206592
0.648127 0.90515 0.359762
0.887251 0.90518 0.600809
0.988235 0.940459 0.819211
0 0.156863 0.439216
0 0.14519 0.602823
0.139803 0.106065 0.850614
0.465843 0 0.905791
0.763516 0 0.921477
0 0.304875 0.68545
0 0.269947 0.736614
0.210483 0.195621 0.854719
0.512627 0.105516 0.898131
0.79881 0 0.917556
0.363699 0.591424 0.811673
0.340444 0.556313 0.811582
0.379385 0.474052 0.842954
0.614679 0.376013 0.897948
0.912718 0.281621 0.917556
0.665751 0.791699 0.843046
0.646143 0.779934 0.843046
0.595346 0.736614 0.835294
0.665843 0.670039 0.870588
0.964157 0.567803 0.913634
0.890471 0.952209 0.905241
0.890471 0.952209 0.905241
0.894301 0.952117 0.905241
0.901961 0.955947 0.905241
0.983124 0.959686 0.917098
