70 CGC LUTs/Look LUTs/Grand Budapest.cube
#Created by: Denver Riddle
#Copyright: (C) Copyright Color Grading Central LLC
#LUT Size
LUT_3D_SIZE 9
0 0 0
0.00392157 0 0
0.0313725 0.00392157 0.00392157
0.141176 0.00392157 0.00392157
0.345098 0 0
0.545098 0 0
0.721569 0 0
0.854902 0 0
0.976471 0 0.00392157
0.0117647 0.0117647 0.00392157
0.0352941 0.0156863 0.00392157
0.113725 0.0196078 0
0.25098 0.00392157 0
0.403922 0 0
0.576471 0 0
0.72549 0 0
0.858824 0 0
0.976471 0 0.00784314
0.109804 0.105882 0
0.141176 0.109804 0
0.235294 0.109804 0
0.34902 0.101961 0
0.466667 0.0823529 0
0.6 0.027451 0
0.729412 0 0
0.854902 0 0.00392157
0.984314 0 0.0156863
0.223529 0.207843 0
0.239216 0.207843 0
0.301961 0.207843 0
0.396078 0.196078 0
0.498039 0.180392 0
0.615686 0.164706 0.00392157
0.737255 0.133333 0.00784314
0.866667 0.0784314 0.0156863
0.996078 0 0.0313725
0.333333 0.286275 0
0.345098 0.286275 0
0.392157 0.286275 0
0.466667 0.282353 0
0.560784 0.27451 0
0.666667 0.262745 0.00784314
0.780392 0.254902 0.0196078
0.894118 0.243137 0.0392157
1 0.223529 0.0627451
0.470588 0.384314 0
0.478431 0.384314 0
0.513726 0.384314 0
0.572549 0.388235 0
0.65098 0.388235 0
0.741176 0.384314 0.00784314
0.835294 0.384314 0.0352941
0.929412 0.380392 0.0666667
1 0.376471 0.105882
0.603922 0.498039 0
0.611765 0.498039 0
0.635294 0.501961 0
0.682353 0.501961 0
0.741176 0.509804 0
0.807843 0.513726 0
0.878431 0.517647 0.0352941
0.952941 0.521569 0.0862745
1 0.517647 0.141176
0.721569 0.65098 0
0.72549 0.65098 0
0.745098 0.654902 0
0.772549 0.658824 0
0.807843 0.662745 0
0.847059 0.67451 0
0.894118 0.682353 0
0.94902 0.690196 0.0196078
1 0.698039 0.160784
0.764706 0.827451 0
0.772549 0.827451 0
0.803922 0.831373 0
0.847059 0.835294 0
0.890196 0.839216 0
0.92549 0.85098 0.0901961
0.956863 0.866667 0.243137
0.984314 0.890196 0.427451
1 0.921569 0.72549
0 0 0
0.00392157 0 0.00392157
0.031342 0.00392157 0.0078584
0.156909 0.00782788 0.0157321
0.32546 0 0.0157168
0.513649 0 0.0235599
0.690105 0 0.0274815
0.831296 0 0.0274968
0.960739 0 0.0274968
1.5259e-05 0.0235142 0.01178
0.0313573 0.0235294 0.0196689
0.129427 0.0235294 0.0196536
0.250935 0.0117952 0.0235294
0.392081 0 0.0274662
0.556786 0 0.0274968
0.705806 0 0.0314183
0.835233 0 0.0314336
0.96466 0 0.0314183
0.0782788 0.125536 0.00787366
0.121492 0.125521 0.0157168
0.215671 0.125505 0.0235904
0.325475 0.117662 0.0314488
0.447044 0.0980545 0.0353704
0.584298 0.0549172 0.0353704
0.71371 0 0.0353704
0.847028 0 0.039292
0.976455 0 0.0471046
0.207797 0.215702 0.00787366
0.223499 0.215702 0.00790417
0.282322 0.215702 0.0157473
0.376425 0.207858 0.0235904
0.482322 0.192187 0.0314488
0.596063 0.176486 0.039292
0.725475 0.149035 0.0471351
0.858808 0.0980545 0.0510567
0.992157 0 0.0628214
0.321538 0.290211 0.00396735
0.333303 0.290211 0.0039826
0.376455 0.294133 0.0118257
0.454871 0.290211 0.0157626
0.552911 0.282383 0.0275425
0.658793 0.274525 0.0471351
0.768612 0.262776 0.0628214
0.890181 0.251011 0.0745861
1 0.231388 0.0941787
0.46273 0.388251 3.0518e-05
0.470573 0.388251 4.57771e-05
0.501945 0.392172 7.62951e-05
0.564691 0.396094 0.011841
0.643122 0.396094 0.0275425
0.733318 0.392172 0.0471504
0.827436 0.388251 0.0745861
0.921553 0.388251 0.0981155
1 0.384314 0.129473
0.599985 0.501976 0
0.603906 0.501976 0
0.627436 0.505882 1.5259e-05
0.674495 0.509804 9.15541e-05
0.733318 0.513741 0.0196994
0.803906 0.517662 0.0432288
0.870588 0.521584 0.0745861
0.945098 0.52549 0.113802
1 0.521584 0.160845
0.71371 0.654917 0
0.721538 0.654917 0
0.73724 0.658824 0
0.768612 0.658839 0
0.803906 0.666682 0
0.843137 0.674525 0
0.890181 0.686275 0.000137331
0.945098 0.694133 0.0746166
1 0.701961 0.184375
0.705653 0.815732 0
0.725261 0.815732 0
0.803647 0.831327 0
0.847059 0.835294 0
0.890196 0.839216 0
0.92549 0.85098 0.0901961
0.956863 0.866667 0.243137
0.984314 0.890196 0.427451
1 0.921569 0.72549
9.15541e-05 0 0.00392157
0.00392157 0 0.00392157
0.0234684 0.00392157 0.0196536
0.191836 1.5259e-05 0.102449
0.360815 0 0.1028
0.510033 0 0.0870222
0.63154 0 0.0750744
0.741451 0 0.0593729
0.905516 0 0.0666667
0.0117494 0.0234836 0.0275883
0.0273594 0.0235752 0.0628214
0.125124 0.0196841 0.118044
0.266545 0.00383001 0.118471
0.392157 0 0.0988785
0.517891 0 0.0830243
0.62771 0 0.0711528
0.764279 0 0.0745556
0.913069 0 0.0703899
0 0.17229 0.0835126
0 0.168368 0.0946365
0.176333 0.140856 0.103456
0.313588 0.129198 0.094789
0.423163 0.117678 0.0943465
0.548562 0.0904097 0.0943618
0.670146 0.0395972 0.0942702
0.803494 0 0.0943618
0.940871 0 0.0903639
0.0572213 0.255314 0.0351568
0.12607 0.247395 0.0508278
0.242496 0.231495 0.0865187
0.344747 0.223545 0.102419
0.450843 0.21178 0.114153
0.58027 0.192172 0.121904
0.713497 0.164706 0.125811
0.846937 0.121599 0.125841
0.980163 0.0435187 0.129549
0.265782 0.313924 0.0629129
0.285451 0.313832 0.0669413
0.344656 0.309819 0.0866255
0.423163 0.309804 0.102403
0.521309 0.302068 0.11809
0.631113 0.294224 0.133761
0.744869 0.286259 0.145541
0.874495 0.270542 0.153384
1 0.246983 0.165042
0.426841 0.407935 0.0670329
0.434775 0.407935 0.0709544
0.47808 0.407935 0.0866255
0.537011 0.411749 0.102403
0.615427 0.415671 0.118181
0.713375 0.411749 0.141604
0.807507 0.407828 0.161318
0.90576 0.403998 0.180926
1 0.396033 0.200412
0.568215 0.517723 0.0632181
0.576059 0.517723 0.0671397
0.607507 0.517723 0.0828107
0.654658 0.521553 0.102403
0.713481 0.529366 0.118196
0.78407 0.533288 0.137789
0.854719 0.533303 0.161334
0.933211 0.537209 0.196628
1 0.533288 0.2318
0.686 0.66685 9.15541e-05
0.693828 0.66685 0.000183108
0.717342 0.666758 0.000732433
0.752712 0.67068 0.0360723
0.791928 0.674601 0.0751049
0.831235 0.686351 0.106493
0.874372 0.694209 0.13785
0.933333 0.705882 0.184863
1 0.709895 0.267216
0.552209 0.84715 0
0.571771 0.843336 0
0.646418 0.843229 0
0.740719 0.839399 0
0.823178 0.839399 0
0.924453 0.850828 0.0915541
0.956832 0.866651 0.246906
0.984314 0.890196 0.431373
1 0.921569 0.729412
0.00392157 0.00392157 0.00784314
0.00392157 0.00392157 0.00784314
0.0274815 0.00782788 0.0433204
0.168383 1.5259e-05 0.192493
0.368063 0 0.243854
0.545037 0 0.22829
0.678431 0 0.189059
0.788418 0 0.157595
0.913909 0 0.137804
0.015671 0.0312963 0.0747234
0.0312963 0.0312963 0.121614
0.113542 0.0234989 0.196201
0.238682 0.0118257 0.24361
0.407446 0 0.243977
0.549111 0 0.216632
0.674617 0 0.18114
0.780682 0 0.153597
0.910002 0 0.133883
0.0471199 0.148989 0.133669
0.0704814 0.148989 0.141512
0.156649 0.14107 0.231739
0.301625 0.121569 0.239887
0.427451 0.105653 0.216678
0.552941 0.0820935 0.17734
0.659113 0.0543221 0.157519
0.772824 0.00381476 0.141833
0.909987 0 0.126055
0 0.293812 0.154467
0 0.289876 0.158373
0.0205692 0.270375 0.173098
0.2981 0.238819 0.17818
0.442878 0.219532 0.169192
0.564446 0.207843 0.168856
0.685725 0.188434 0.168566
0.811612 0.160861 0.168765
0.948898 0.109773 0.161013
0 0.376776 0.0670481
0 0.369055 0.0786755
0.224933 0.345525 0.121477
0.383536 0.329519 0.168856
0.501564 0.321553 0.196506
0.611734 0.313695 0.212192
0.741146 0.301823 0.219928
0.870466 0.286229 0.223758
0.995941 0.266712 0.21973
0.312123 0.447349 0.109773
0.335927 0.447333 0.113817
0.407034 0.43949 0.137423
0.505425 0.431556 0.172778
0.591989 0.431464 0.200336
0.690013 0.427543 0.223987
0.784222 0.427543 0.247517
0.894026 0.419699 0.263203
1 0.407935 0.274876
0.50132 0.545373 0.121752
0.513069 0.545373 0.125765
0.560174 0.545281 0.145342
0.627008 0.541268 0.172885
0.693874 0.545174 0.200443
0.764523 0.549111 0.223987
0.839033 0.549111 0.25153
0.917556 0.549111 0.286824
1 0.545098 0.310262
0.630823 0.690379 0.0827192
0.638743 0.690288 0.0866255
0.670192 0.686458 0.106233
0.721248 0.686366 0.141497
0.77232 0.690181 0.172976
0.811673 0.698039 0.204471
0.858732 0.705974 0.239765
0.921477 0.713817 0.286824
0.999908 0.72166 0.361334
0.477791 0.866758 0
0.501381 0.866758 0
0.591592 0.862837 0
0.701579 0.858915 0
0.795804 0.858915 0
0.862745 0.862837 0
0.921477 0.870588 0
0.984314 0.890196 0.435386
1 0.921569 0.733425
0.00755322 0.00392157 0.0114748
0.00784314 0.00392157 0.0153964
0.0468757 0.00784314 0.0931716
0.157321 0 0.272923
0.318715 0 0.366323
0.53077 0 0.373526
0.682475 0 0.338216
0.804044 0 0.287221
0.940887 0 0.240803
0.0196078 0.0354009 0.147677
0.0353552 0.0314794 0.187274
0.113863 0.023621 0.272953
0.212253 0.0196841 0.335622
0.357977 7.62951e-05 0.374151
0.546136 0 0.365637
0.678553 0 0.326421
0.800137 0 0.275746
0.940581 0 0.236866
0.054963 0.15697 0.190997
0.0667735 0.15697 0.206439
0.145525 0.144884 0.304433
0.282765 0.125582 0.343343
0.401358 0.113191 0.346654
0.553063 0.0670481 0.326741
0.674647 0.0125277 0.290822
0.803784 0 0.252216
0.936675 0 0.221485
0.0470283 0.263767 0.215152
0.0941176 0.255924 0.215152
0.17261 0.251072 0.226368
0.283375 0.231174 0.3234
0.428534 0.215457 0.319219
0.565148 0.19646 0.290517
0.690059 0.181094 0.252537
0.811322 0.165408 0.233234
0.944823 0.122347 0.217563
0 0.411902 0.222934
0 0.407965 0.226871
0 0.396216 0.242252
0.183276 0.376287 0.261845
0.453071 0.337057 0.273045
0.604395 0.325307 0.26978
0.726253 0.313558 0.266163
0.851438 0.305409 0.265843
0.976791 0.289738 0.254398
3.0518e-05 0.524102 0.104997
6.10361e-05 0.520195 0.112856
0.0728771 0.504204 0.141238
0.377615 0.473411 0.200397
0.558251 0.450782 0.265568
0.663493 0.44686 0.308095
0.765164 0.439338 0.328008
0.890333 0.431189 0.335866
1 0.41944 0.33254
0.319509 0.598642 0.133944
0.342794 0.594995 0.141802
0.431235 0.583535 0.17261
0.551293 0.571786 0.219074
0.659876 0.560632 0.265568
0.741604 0.564538 0.30808
0.820005 0.564553 0.339452
0.902342 0.564538 0.37113
1 0.552804 0.386831
0.520394 0.721126 0.128801
0.53579 0.720821 0.136339
0.582589 0.717189 0.156268
0.66041 0.709377 0.195224
0.737942 0.705745 0.241993
0.79646 0.706065 0.288792
0.843503 0.717525 0.331655
0.906249 0.725383 0.37879
0.98851 0.733227 0.449653
0.359503 0.882063 0
0.394583 0.882063 0
0.507759 0.878141 0.000106813
0.648341 0.87422 0.105531
0.761761 0.87422 0.192966
0.851331 0.878141 0.278355
0.913771 0.886 0.342641
0.96112 0.897765 0.178439
1 0.92549 0.744808
0.0146944 0.0068513 0.0420996
0.0187991 0.00688182 0.0504921
0.0661326 0.00784314 0.1785
0.157397 0 0.373205
0.289113 0 0.475685
0.470619 0 0.505745
0.65977 0 0.484977
0.807462 0 0.444694
0.94609 0 0.389044
0.0166629 0.0386969 0.241596
0.0316167 0.0347753 0.277363
0.107652 0.0240482 0.370489
0.204868 0.0200656 0.436667
0.320577 0.0121614 0.483314
0.483436 0 0.494881
0.663661 0 0.47306
0.803555 0 0.435798
0.945174 0 0.381125
0.0513008 0.161318 0.2645
0.0670481 0.161227 0.288212
0.137881 0.145632 0.387213
0.268284 0.126024 0.447868
0.366567 0.121935 0.455543
0.506935 0.0885176 0.458412
0.673289 0.000991836 0.444678
0.804639 0 0.412253
0.951965 0 0.357534
0.121935 0.259342 0.262837
0.133776 0.259266 0.266819
0.162463 0.255283 0.301259
0.25771 0.238621 0.406821
0.421393 0.212222 0.435111
0.545144 0.19939 0.435172
0.690959 0.169131 0.424231
0.824414 0.142855 0.386648
0.967712 0.0894942 0.33901
0.0172122 0.386435 0.312367
0.0750286 0.382422 0.312352
0.205692 0.363806 0.312291
0.295689 0.360388 0.335698
0.445869 0.330098 0.439948
0.595148 0.314336 0.436927
0.726284 0.307591 0.401328
0.854597 0.303716 0.365332
0.975555 0.292027 0.336141
0 0.561456 0.306584
0 0.55761 0.30956
0 0.549615 0.32137
0.000411994 0.532876 0.341039
0.345037 0.505379 0.36466
0.619211 0.462272 0.397864
0.758679 0.450614 0.393378
0.88011 0.446586 0.385657
0.996155 0.434913 0.373785
0 0.681682 0.141665
0 0.677791 0.146715
0.00129702 0.665949 0.168566
0.242451 0.641398 0.215976
0.535424 0.60705 0.296681
0.709697 0.582879 0.380468
0.79765 0.580011 0.426505
0.890806 0.573297 0.449042
1 0.560571 0.448356
0.236027 0.769039 0.116854
0.271366 0.765194 0.124849
0.383597 0.758312 0.163134
0.524269 0.746563 0.223819
0.658976 0.73196 0.287465
0.764385 0.725185 0.354101
0.828977 0.729152 0.413977
0.895491 0.737102 0.469032
0.981292 0.742153 0.5252
0.183642 0.900969 0.098909
0.24007 0.899916 0.110826
0.397024 0.897047 0.155123
0.571496 0.89305 0.21886
0.721233 0.889143 0.297429
0.828855 0.889204 0.391638
0.903181 0.894194 0.506294
0.950225 0.90988 0.624765
0.99707 0.92842 0.708934
0.0306554 0.0117647 0.161486
0.0385748 0.0117037 0.177661
0.0747082 0.00462348 0.318563
0.153384 0 0.500679
0.271855 0 0.58735
0.417762 0 0.622477
0.588586 0 0.621683
0.773007 0 0.600519
0.94902 0 0.563867
0.000701915 0.0396887 0.370306
0.00631724 0.0357824 0.402045
0.0915847 0.0271153 0.488975
0.197589 0.0199283 0.552239
0.302647 0.0160678 0.594263
0.43035 0.000289921 0.610574
0.592554 0 0.609842
0.776257 0 0.592615
0.94902 0 0.556725
0.040238 0.165133 0.370489
0.0560464 0.16437 0.394949
0.126696 0.149447 0.485161
0.24506 0.132982 0.551766
0.357382 0.121813 0.566674
0.461006 0.109346 0.57142
0.612238 0.0522011 0.582391
0.795041 0 0.573068
0.952987 0 0.541085
0.118013 0.267079 0.347967
0.125826 0.266331 0.355932
0.157321 0.259236 0.40293
0.240543 0.243488 0.497642
0.394339 0.21915 0.551812
0.519112 0.204227 0.555093
0.654704 0.183139 0.566781
0.82501 0.125933 0.56527
0.968704 0.0542916 0.523919
0.210605 0.376257 0.376272
0.215381 0.376181 0.37702
0.240467 0.372274 0.391943
0.283101 0.364492 0.435172
0.410086 0.344808 0.540078
0.596704 0.314214 0.566125
0.711986 0.306355 0.570809
0.858732 0.287541 0.563684
0.988342 0.275898 0.50425
0 0.538491 0.442954
0 0.534539 0.442191
0.170779 0.518853 0.441398
0.358099 0.496269 0.444465
0.455375 0.486778 0.469734
0.613626 0.454749 0.575326
0.754299 0.443626 0.576211
0.878981 0.436622 0.533837
0.999283 0.432639 0.48217
0 0.714321 0.413779
0 0.710399 0.417655
0 0.703319 0.425605
0 0.690791 0.441306
0.0417945 0.671153 0.46479
0.473259 0.642145 0.489082
0.754345 0.595087 0.521706
0.887297 0.584207 0.511849
0.996796 0.576364 0.492332
0 0.829511 0.156298
0 0.828702 0.161013
0 0.820951 0.178332
0.0245518 0.809125 0.216785
0.368429 0.788769 0.279591
0.643656 0.758297 0.382391
0.802701 0.74107 0.487739
0.879515 0.745815 0.560113
0.980224 0.749798 0.604852
0 0.920851 0.161822
0 0.920836 0.170504
0.215717 0.91693 0.206592
0.447257 0.912291 0.270176
0.648127 0.90515 0.359762
0.790875 0.901244 0.46743
0.887251 0.90518 0.600809
0.945281 0.917006 0.73402
0.988235 0.940459 0.819211
0 0.0315862 0.478645
0 0.0279698 0.508858
0 0.00863661 0.617823
0.0897993 0 0.723995
0.240589 0 0.776165
0.373983 0 0.796048
0.495521 0 0.796384
0.643503 0 0.800305
0.869337 0 0.808148
0 0.0610666 0.563073
0 0.0574197 0.593225
0 0.0413977 0.676234
0.136263 0.0220798 0.747494
0.270985 0.00753796 0.776745
0.389334 0 0.78854
0.503349 0 0.788846
0.64715 0 0.796353
0.873259 0 0.804532
0 0.186206 0.55024
0 0.182574 0.569238
0.0424811 0.167193 0.63949
0.17319 0.14699 0.717617
0.302937 0.123995 0.753277
0.431861 0.104051 0.765347
0.538369 0.084123 0.772885
0.674296 0.0204623 0.784619
0.896178 0 0.800031
0.0837262 0.29604 0.544976
0.0912642 0.292134 0.552789
0.122637 0.280644 0.588357
0.193484 0.261311 0.662501
0.322271 0.237446 0.729442
0.478553 0.206378 0.76051
0.604105 0.190036 0.768658
0.728649 0.170764 0.780423
0.931838 0.030808 0.796414
0.205142 0.417334 0.580026
0.205447 0.413703 0.580362
0.220798 0.405264 0.592096
0.2636 0.389822 0.634836
0.361242 0.366598 0.709224
0.52137 0.335195 0.764096
0.678279 0.307713 0.780118
0.796292 0.299809 0.784619
0.968383 0.253162 0.796719
0.346349 0.539239 0.607813
0.34995 0.538903 0.608118
0.357778 0.531044 0.611994
0.377356 0.519554 0.627329
0.424659 0.503822 0.670405
0.538277 0.480293 0.741176
0.721019 0.448875 0.784314
0.85214 0.436149 0.788571
0.996475 0.406043 0.796445
0.453635 0.660456 0.631586
0.457527 0.660441 0.631586
0.468925 0.656214 0.635142
0.491722 0.645014 0.635477
0.526909 0.636576 0.651102
0.574548 0.625055 0.686961
0.703258 0.597925 0.76408
0.876249 0.569772 0.781338
0.997848 0.553826 0.778088
0.00273136 0.840558 0.736233
0.00282292 0.840558 0.736233
0.00315862 0.836637 0.735912
0.00733959 0.831769 0.735912
0.0356298 0.826291 0.725399
0.252354 0.813886 0.707744
0.644831 0.78143 0.700969
0.846952 0.7505 0.769955
0.967102 0.760082 0.723705
0.546975 0.947829 0.507805
0.543648 0.947829 0.504219
0.539788 0.947829 0.503899
0.540978 0.94754 0.503868
0.56701 0.944213 0.514351
0.648692 0.939986 0.551156
0.798154 0.931304 0.655207
0.924575 0.926421 0.797452
0.982116 0.945342 0.877546
0 0.156863 0.439216
0 0.156863 0.458366
0 0.14519 0.602823
0 0.129503 0.763973
0.139803 0.106065 0.850614
0.320562 0.0591897 0.890013
0.465843 0 0.905791
0.599176 0 0.913725
0.763516 0 0.921477
0 0.191791 0.512718
0 0.187961 0.543816
0 0.172457 0.657435
0 0.14902 0.78732
0.163333 0.117647 0.858457
0.336065 0.0632029 0.893843
0.477607 0 0.905974
0.606836 0 0.913634
0.771267 0 0.921477
0 0.304875 0.68545
0 0.297215 0.693385
0 0.269947 0.736614
0.0336614 0.234653 0.799725
0.210483 0.195621 0.854719
0.367437 0.156313 0.886091
0.512627 0.105516 0.898131
0.645869 0.0274357 0.905974
0.79881 0 0.917556
0.178927 0.461921 0.776104
0.175189 0.45417 0.776104
0.171176 0.422889 0.783948
0.202731 0.383764 0.807568
0.285176 0.332784 0.846967
0.422248 0.281804 0.88217
0.567437 0.230915 0.897948
0.712535 0.179843 0.909621
0.857542 0.104967 0.917556
0.363699 0.591424 0.811673
0.356039 0.583673 0.811582
0.340444 0.556313 0.811582
0.336522 0.517189 0.819425
0.379385 0.474052 0.842954
0.477333 0.426902 0.874327
0.614679 0.376013 0.897948
0.779202 0.321111 0.909804
0.912718 0.281621 0.917556
0.505058 0.705242 0.831281
0.501228 0.697581 0.831281
0.485451 0.681712 0.827359
0.466026 0.646601 0.827451
0.477699 0.611124 0.839124
0.532509 0.571908 0.862654
0.646143 0.525032 0.890105
0.822339 0.466209 0.909712
0.952117 0.42298 0.917647
0.665751 0.791699 0.843046
0.661921 0.791608 0.843046
0.646143 0.779934 0.843046
0.618784 0.760418 0.839124
0.595346 0.736614 0.835294
0.603189 0.705333 0.847059
0.665843 0.670039 0.870588
0.822614 0.611215 0.901869
0.964157 0.567803 0.913634
0.818875 0.87013 0.866575
0.818784 0.87013 0.866484
0.814771 0.866209 0.862745
0.799176 0.858457 0.858732
0.783398 0.850431 0.854719
0.76379 0.834653 0.847059
0.755947 0.815045 0.84715
0.807111 0.791333 0.874418
0.952392 0.767346 0.898131
0.890471 0.952209 0.905241
0.890471 0.952209 0.905241
0.890471 0.952209 0.905241
0.890471 0.952209 0.905241
0.894301 0.952117 0.905241
0.894301 0.955947 0.905241
0.901961 0.955947 0.905241
0.913451 0.955856 0.90515
0.983124 0.959686 0.917098
