70 CGC LUTs/Look LUTs/Grime.cube
#Created by: Denver Riddle
#Copyright: (C) Copyright Color Grading Central LLC
#LUT Size
LUT_3D_SIZE 33
0.0248112 0.0324254 0.0216526
0.0316777 0.0337835 0.0227512
0.0479744 0.0331884 0.0235294
0.0677501 0.0356756 0.026154
0.0900587 0.038407 0.0274357
0.113237 0.0402686 0.0273747
0.133761 0.04094 0.0260471
0.157717 0.0412146 0.0237583
0.185992 0.0409094 0.0199741
0.219104 0.0400397 0.0147555
0.258183 0.0383917 0.00770581
0.304372 0.0360113 0
0.357168 0.0345464 0
0.40972 0.0366674 0
0.454734 0.0406653 0
0.490929 0.0439002 0
0.521645 0.0466621 0
0.549508 0.0491798 0
0.575097 0.0514687 0
0.597757 0.0535286 0
0.618341 0.055436 0
0.635554 0.057084 0
0.650721 0.0585794 0
0.665324 0.0600137 0
0.679469 0.0614176 0
0.692943 0.0627298 0
0.706142 0.0640269 0
0.718898 0.0652934 0
0.731304 0.0664988 0
0.74345 0.067689 0
0.75552 0.068864 0
0.765728 0.0698863 0
0.770001 0.0702983 0
0.0301366 0.0433356 0.025803
0.0345006 0.0460517 0.0277104
0.0424811 0.048188 0.0252232
0.0595254 0.0483101 0.020798
0.0813306 0.0466011 0.0236057
0.104128 0.0443427 0.0275731
0.126558 0.0430762 0.0274968
0.149233 0.0424353 0.025452
0.176242 0.0413825 0.0216068
0.208408 0.0404212 0.0165713
0.246143 0.0389868 0.00999466
0.290822 0.0367437 0.00143435
0.343069 0.0345922 0
0.397223 0.0355688 0
0.445167 0.0398108 0
0.483619 0.0432441 0
0.515343 0.0461128 0
0.543908 0.0486763 0
0.570108 0.0510262 0
0.593439 0.0531472 0
0.614649 0.0551003 0
0.632746 0.0568246 0
0.648142 0.0583352 0
0.662928 0.0597848 0
0.677226 0.0611887 0
0.690867 0.0625315 0
0.704128 0.0638285 0
0.717006 0.065095 0
0.729503 0.0663157 0
0.741726 0.0675212 0
0.753857 0.0687114 0
0.764126 0.0697185 0
0.770001 0.0702983 0
0.0361181 0.0551614 0.0309911
0.0403906 0.057496 0.0334936
0.0442206 0.0599527 0.0355077
0.0507362 0.0622568 0.0314336
0.0673228 0.0632639 0.0195163
0.0907759 0.0616312 0.0206912
0.115236 0.0589456 0.0236515
0.137285 0.0568856 0.0258946
0.162493 0.0550698 0.0268559
0.191302 0.0534066 0.02533
0.225589 0.0514076 0.0214847
0.266346 0.0487221 0.0151522
0.314122 0.0455024 0.00669871
0.369223 0.0423743 0
0.421454 0.0412451 0
0.465064 0.0418097 0
0.49987 0.0447089 0
0.530312 0.0474556 0
0.558175 0.0499428 0
0.58349 0.0522316 0
0.606134 0.0543069 0
0.626352 0.056199 0
0.642313 0.0577554 0
0.657557 0.059266 0
0.672282 0.0607156 0
0.686381 0.062089 0
0.700008 0.0634165 0
0.713146 0.0647135 0
0.725902 0.0659648 0
0.738445 0.0672007 0
0.750774 0.0684062 0
0.761151 0.0694285 0
0.769665 0.0702678 0
0.0417945 0.0658885 0.0368048
0.0452735 0.0683757 0.0392767
0.0487373 0.0708324 0.0412451
0.0525216 0.0731212 0.0432136
0.0585336 0.0755016 0.0394903
0.0730297 0.0769513 0.0231174
0.0949264 0.0766613 0.0193027
0.119539 0.0741741 0.0200351
0.14667 0.0707256 0.0221408
0.176562 0.0674601 0.0243076
0.21117 0.0649271 0.0249485
0.250584 0.06215 0.0225071
0.294331 0.059205 0.0183261
0.341878 0.0563211 0.0128023
0.391653 0.0536049 0.005066
0.437461 0.0514382 0
0.475441 0.050309 0
0.507561 0.0504311 0
0.536202 0.0509651 0
0.563149 0.0517739 0
0.587701 0.0529946 0
0.609232 0.0545968 0
0.629191 0.0564736 0
0.645518 0.0580758 0
0.661387 0.0596475 0
0.67715 0.0611734 0
0.691752 0.062623 0
0.705699 0.0639811 0
0.719158 0.0653239 0
0.732357 0.0668803 0
0.745602 0.0687724 0
0.756893 0.0705425 0
0.768307 0.072343 0
0.0464027 0.076463 0.0422827
0.0496681 0.0787366 0.0448615
0.0534218 0.0811322 0.0470741
0.0573587 0.0834363 0.0493477
0.0613413 0.0857557 0.0514076
0.0668956 0.0883497 0.048249
0.0789044 0.0904097 0.0343175
0.0981003 0.0911727 0.0183108
0.122667 0.0893721 0.0183566
0.153658 0.0853132 0.019089
0.188983 0.0807202 0.0212558
0.229007 0.0771038 0.0231022
0.273869 0.0736706 0.0242771
0.323262 0.0702525 0.0227817
0.377066 0.0670787 0.0176699
0.427344 0.0644999 0.011017
0.467658 0.0628824 0.00497444
0.500374 0.0621042 0.000228885
0.529107 0.0620127 0
0.555947 0.0622568 0
0.581369 0.0627298 0
0.604166 0.0635233 0
0.625635 0.0648661 0
0.643137 0.0663005 0
0.658824 0.0677653 0
0.674083 0.0693065 0
0.688701 0.0709392 0
0.703105 0.0727703 0
0.717296 0.0747997 0
0.731334 0.0771038 0
0.745449 0.0798505 0
0.758099 0.0830854 0
0.770733 0.0866102 0
0.0514687 0.0867933 0.0480507
0.0551003 0.0891432 0.0509194
0.0587472 0.0914931 0.053193
0.0625467 0.0939498 0.0556039
0.066392 0.0963302 0.0580453
0.0702983 0.0987869 0.0606088
0.0751049 0.101411 0.0584573
0.0856336 0.103838 0.0451514
0.102388 0.104906 0.0316472
0.12752 0.104158 0.0173495
0.161456 0.100359 0.0168307
0.201038 0.0950637 0.0184329
0.245029 0.090425 0.0219883
0.294957 0.0864576 0.0269322
0.351522 0.0825666 0.0273747
0.408408 0.0794842 0.0236362
0.457053 0.0774243 0.018555
0.495277 0.076463 0.0142367
0.526772 0.0764019 0.0108186
0.555413 0.076936 0.00805676
0.582528 0.0779889 0.00587472
0.607401 0.0793011 0.00416571
0.630701 0.0810101 0.00302129
0.650172 0.0826734 0.00228885
0.666941 0.084535 0.00210575
0.682857 0.086656 0.00225834
0.698405 0.0890974 0.0027924
0.713619 0.0917525 0.00360113
0.728725 0.0947127 0.00469978
0.743801 0.098146 0.0062562
0.758938 0.101808 0.00802625
0.772473 0.105669 0.0101472
0.786023 0.109773 0.0124666
0.0568246 0.0972 0.0541085
0.0603952 0.0995956 0.0573587
0.063859 0.102159 0.0602731
0.0672007 0.104784 0.0637064
0.0706493 0.107347 0.0670024
0.074342 0.110002 0.0701915
0.0786755 0.112596 0.0731518
0.0839704 0.115465 0.0723125
0.0944076 0.118563 0.0570382
0.110842 0.120089 0.0426642
0.135073 0.119524 0.0300298
0.170581 0.11667 0.015259
0.21416 0.111116 0.0162509
0.263691 0.105455 0.0225834
0.319417 0.100786 0.0293736
0.381033 0.0969406 0.0320439
0.439323 0.0940719 0.0301366
0.485634 0.0929122 0.0270695
0.522148 0.0930495 0.0245212
0.553948 0.093843 0.0224918
0.583764 0.0951095 0.0209354
0.612009 0.0970474 0.0197757
0.638239 0.0992599 0.0189822
0.660471 0.101656 0.0187533
0.679393 0.104128 0.0189517
0.695964 0.106889 0.0196384
0.712352 0.110033 0.020676
0.728573 0.113558 0.0220493
0.744411 0.117296 0.0236362
0.760143 0.121218 0.0253758
0.775906 0.125505 0.0273899
0.790311 0.130114 0.0297704
0.804654 0.13492 0.0321813
0.0611582 0.108537 0.0606241
0.0646067 0.111086 0.0654612
0.0681468 0.113619 0.0700694
0.0714885 0.116381 0.0735485
0.0751659 0.119142 0.0767681
0.0794385 0.12195 0.079881
0.0838483 0.12491 0.0843671
0.0886091 0.127825 0.0890822
0.093904 0.130999 0.0901808
0.104189 0.134615 0.0744945
0.12137 0.137316 0.055848
0.146715 0.137392 0.0416571
0.182254 0.134752 0.029221
0.230274 0.129381 0.0167849
0.285374 0.123354 0.02327
0.34641 0.117769 0.0314031
0.411963 0.114031 0.0366064
0.468101 0.1122 0.0371405
0.511742 0.112093 0.036286
0.548257 0.113207 0.0354467
0.58146 0.115068 0.0347601
0.612848 0.117418 0.0342718
0.642283 0.120104 0.0340276
0.669688 0.123308 0.0341955
0.692287 0.126711 0.0348821
0.710613 0.130053 0.0358587
0.728161 0.133791 0.0371557
0.745602 0.138125 0.0388647
0.762341 0.142641 0.0407416
0.778729 0.147173 0.042649
0.795117 0.152117 0.0447547
0.810758 0.158221 0.0475776
0.82475 0.164965 0.0507515
0.0656138 0.120256 0.0698253
0.0689403 0.123125 0.0744182
0.0725567 0.125872 0.0796826
0.0762188 0.128969 0.0847944
0.0802319 0.132082 0.0899977
0.0844587 0.135225 0.0950027
0.0890364 0.138521 0.0996567
0.0935836 0.14197 0.104204
0.0985885 0.145632 0.108766
0.105257 0.149371 0.112245
0.116793 0.153887 0.0968948
0.135988 0.157855 0.0714275
0.163851 0.159197 0.0543221
0.202457 0.1579 0.0411078
0.252323 0.153246 0.0295872
0.31313 0.146426 0.025391
0.380377 0.139788 0.0332952
0.444221 0.1355 0.0404669
0.495689 0.134203 0.0434577
0.537072 0.135164 0.0446632
0.57377 0.137682 0.0456092
0.608316 0.140673 0.0463722
0.642374 0.144579 0.0472725
0.675059 0.148882 0.048249
0.702892 0.153643 0.0495918
0.724941 0.158709 0.0512856
0.744701 0.16408 0.0532235
0.763989 0.170077 0.0554208
0.782696 0.17644 0.0577249
0.801129 0.183307 0.0601968
0.81944 0.190646 0.0628061
0.83624 0.198337 0.0658732
0.849165 0.20618 0.0694591
0.0697642 0.133318 0.078996
0.0732891 0.136309 0.0864271
0.0775311 0.13933 0.0937362
0.0813764 0.143084 0.0989548
0.0855268 0.14699 0.103899
0.089662 0.15082 0.110445
0.0940108 0.15465 0.118029
0.098909 0.158648 0.124971
0.105058 0.162692 0.132326
0.111757 0.167041 0.139956
0.120195 0.171801 0.144701
0.13254 0.177798 0.128878
0.154223 0.183276 0.098024
0.184298 0.186481 0.0708934
0.225788 0.186496 0.0542153
0.280751 0.182925 0.0408637
0.34725 0.176196 0.0319524
0.419684 0.169207 0.0344701
0.486183 0.16614 0.0428931
0.537728 0.167529 0.0482338
0.580499 0.171069 0.0517739
0.619837 0.175448 0.0545663
0.657145 0.180606 0.057023
0.69131 0.186175 0.059266
0.717159 0.19173 0.061265
0.739681 0.197925 0.0632944
0.761624 0.204944 0.0654307
0.78265 0.212222 0.0675059
0.802808 0.219776 0.0695964
0.822538 0.227619 0.0716869
0.841688 0.235645 0.0740673
0.859449 0.244358 0.0773327
0.874372 0.253269 0.0812238
0.0744793 0.148272 0.0920272
0.0783398 0.151965 0.0994583
0.0826734 0.15552 0.108171
0.0864576 0.159594 0.116335
0.0902113 0.163775 0.124758
0.094667 0.168765 0.132357
0.099855 0.173938 0.140032
0.106081 0.178927 0.147753
0.112856 0.1841 0.156085
0.119524 0.189242 0.165454
0.12607 0.194461 0.175357
0.13669 0.199847 0.184192
0.151415 0.20734 0.167895
0.175525 0.214206 0.1346
0.208072 0.219669 0.0950027
0.25304 0.221683 0.0719158
0.311925 0.219532 0.0537575
0.383154 0.214054 0.0421149
0.455726 0.208637 0.0380255
0.515373 0.207309 0.0415808
0.563394 0.211139 0.0471199
0.605951 0.216968 0.0515908
0.645472 0.223087 0.0555886
0.683055 0.229664 0.059205
0.718898 0.236881 0.0625315
0.749172 0.244297 0.0653086
0.774197 0.252094 0.0675364
0.796582 0.259937 0.0694896
0.818006 0.268223 0.0713054
0.838666 0.276997 0.0729686
0.859113 0.286534 0.0744793
0.877684 0.296132 0.0774395
0.895125 0.305898 0.0812848
0.0793469 0.165148 0.106371
0.0832837 0.169879 0.117784
0.08748 0.174655 0.128908
0.0915389 0.180194 0.136522
0.0962692 0.185443 0.144564
0.101518 0.190921 0.154833
0.107347 0.196216 0.165454
0.11397 0.202304 0.175967
0.120775 0.20856 0.185916
0.129213 0.214984 0.1953
0.139666 0.221256 0.204135
0.149569 0.22768 0.21413
0.161242 0.23418 0.224063
0.175509 0.243214 0.215244
0.201907 0.251514 0.181323
0.238422 0.2589 0.130526
0.287037 0.262745 0.0952926
0.34902 0.262531 0.0704967
0.420066 0.259419 0.0532235
0.487709 0.257298 0.0438239
0.541482 0.258564 0.0391241
0.585 0.263264 0.0432593
0.625193 0.269245 0.047364
0.66479 0.277302 0.0512856
0.702968 0.285756 0.0549935
0.738918 0.29427 0.0584115
0.772045 0.303105 0.0614328
0.798245 0.312291 0.0635843
0.821454 0.321935 0.0653391
0.843565 0.331868 0.0669108
0.865095 0.342016 0.0683452
0.884535 0.351675 0.069688
0.902281 0.361654 0.0712596
0.0842603 0.186618 0.125277
0.088365 0.191836 0.136507
0.0934462 0.197208 0.150668
0.0981613 0.203769 0.161318
0.103487 0.21033 0.171862
0.10985 0.216815 0.182284
0.116335 0.22356 0.19205
0.122896 0.230381 0.201938
0.133013 0.236988 0.213382
0.142504 0.24477 0.223682
0.151644 0.252781 0.233494
0.16408 0.260456 0.242969
0.176898 0.268544 0.252857
0.191409 0.276356 0.262867
0.207935 0.285557 0.26009
0.236118 0.295125 0.225376
0.27779 0.303426 0.167956
0.3252 0.309087 0.124971
0.386786 0.311421 0.0914168
0.45182 0.312047 0.0674601
0.509911 0.314092 0.0529641
0.55697 0.318349 0.0441901
0.599039 0.324102 0.0413977
0.63888 0.330861 0.0428779
0.677592 0.338476 0.0460059
0.715419 0.348165 0.0490883
0.751339 0.35906 0.0519112
0.780987 0.369406 0.0541848
0.805936 0.379995 0.0559701
0.829587 0.390158 0.0576486
0.851881 0.400076 0.059205
0.872343 0.409308 0.0606394
0.891127 0.417884 0.0619516
0.0894942 0.211841 0.146517
0.0944839 0.218235 0.161456
0.100618 0.224216 0.177264
0.106325 0.231281 0.187274
0.112444 0.238911 0.19791
0.118761 0.246937 0.209003
0.126452 0.255146 0.219654
0.135561 0.263188 0.230198
0.144244 0.271595 0.241276
0.154604 0.279805 0.252247
0.167697 0.28835 0.262318
0.17966 0.297978 0.271046
0.19353 0.307149 0.280232
0.209384 0.316106 0.288792
0.225711 0.32517 0.296864
0.247074 0.334447 0.291203
0.279683 0.343343 0.258946
0.321874 0.352209 0.204517
0.364569 0.359289 0.170535
0.42327 0.364584 0.118318
0.479438 0.369757 0.0867933
0.526986 0.376577 0.0665599
0.568734 0.384237 0.0538643
0.608576 0.392248 0.0458228
0.647272 0.400397 0.0434119
0.685222 0.409094 0.0430152
0.721538 0.417899 0.045243
0.751842 0.427207 0.0471809
0.778881 0.43772 0.0489662
0.804211 0.447364 0.0507057
0.82797 0.455726 0.0523995
0.849943 0.463218 0.0540169
0.870192 0.470405 0.0555276
0.0955825 0.240757 0.172061
0.101289 0.248524 0.186831
0.10869 0.255787 0.203387
0.114824 0.264256 0.21474
0.121294 0.272969 0.22623
0.129854 0.28159 0.238132
0.137957 0.291005 0.248859
0.145678 0.300969 0.258701
0.156497 0.31075 0.268788
0.168673 0.320333 0.278767
0.181201 0.330144 0.28896
0.196887 0.339178 0.298146
0.212329 0.349096 0.307179
0.22858 0.358862 0.315022
0.248035 0.367712 0.32079
0.267903 0.376959 0.325612
0.29398 0.386114 0.318517
0.328664 0.39527 0.288106
0.370855 0.404898 0.241535
0.406912 0.413062 0.231037
0.457801 0.42237 0.171054
0.503685 0.432578 0.125154
0.544915 0.442954 0.0932326
0.583368 0.45272 0.0721294
0.620584 0.46157 0.061326
0.657069 0.469596 0.0523232
0.692363 0.477028 0.0464942
0.723613 0.484291 0.0464027
0.751278 0.490547 0.047303
0.77763 0.497154 0.049073
0.802655 0.50399 0.0508278
0.825925 0.510857 0.0525521
0.847349 0.517052 0.0541695
0.102495 0.274723 0.198703
0.109422 0.282887 0.215808
0.11693 0.291859 0.232441
0.123491 0.302037 0.243488
0.131136 0.312123 0.254246
0.138933 0.322423 0.265324
0.147692 0.332494 0.275517
0.15903 0.342672 0.286213
0.170794 0.353155 0.297612
0.184497 0.363531 0.30779
0.199298 0.373953 0.315465
0.213977 0.384115 0.324224
0.231617 0.393835 0.331151
0.25127 0.403159 0.335744
0.271962 0.412985 0.342962
0.295857 0.421485 0.353033
0.32105 0.430518 0.358175
0.349157 0.439994 0.352697
0.384237 0.450248 0.328786
0.424781 0.46096 0.287739
0.451896 0.469993 0.293431
0.490227 0.480949 0.249516
0.529076 0.492424 0.19791
0.565881 0.503487 0.152377
0.601724 0.51313 0.116091
0.636484 0.52076 0.0946365
0.670146 0.527291 0.0784924
0.701198 0.533074 0.0665293
0.729564 0.538064 0.0579995
0.756512 0.542748 0.055436
0.782223 0.547387 0.0537728
0.805997 0.551797 0.0550393
0.827848 0.556435 0.0562448
0.108995 0.314031 0.226993
0.116091 0.323598 0.243549
0.125399 0.332876 0.259907
0.132906 0.343755 0.271336
0.140826 0.355077 0.282322
0.149889 0.365972 0.293523
0.161379 0.376928 0.305074
0.17348 0.387961 0.314275
0.187366 0.398718 0.323003
0.20209 0.409094 0.332937
0.218906 0.419318 0.34287
0.238758 0.429007 0.351034
0.258412 0.438987 0.360372
0.279149 0.449424 0.367864
0.303593 0.459266 0.372015
0.329549 0.468574 0.375311
0.355352 0.477134 0.384604
0.381384 0.485496 0.394125
0.409644 0.493996 0.393225
0.439536 0.5037 0.37734
0.474647 0.513191 0.348226
0.492195 0.522713 0.352773
0.520378 0.531334 0.328664
0.553155 0.541176 0.281697
0.586496 0.550729 0.232166
0.620295 0.559106 0.182406
0.653315 0.566186 0.145327
0.684382 0.572152 0.117296
0.712734 0.577539 0.0963607
0.739925 0.581704 0.0826123
0.765942 0.585824 0.0721752
0.790249 0.589761 0.0643931
0.812436 0.593317 0.0632334
0.116518 0.35697 0.255619
0.124392 0.367651 0.271565
0.134646 0.377401 0.288746
0.143435 0.388937 0.300511
0.153124 0.400595 0.310338
0.165057 0.412146 0.321096
0.179065 0.422995 0.331502
0.194171 0.433661 0.342351
0.209674 0.444572 0.353857
0.228122 0.455177 0.363134
0.246662 0.466087 0.372244
0.266789 0.476265 0.382727
0.291325 0.485725 0.38883
0.31577 0.494957 0.396246
0.339956 0.503838 0.405417
0.365637 0.512154 0.411917
0.391699 0.520409 0.41503
0.416846 0.527581 0.41944
0.43917 0.534585 0.427054
0.46273 0.541573 0.428153
0.486488 0.54963 0.418723
0.512474 0.557488 0.401862
0.526909 0.565957 0.401617
0.548882 0.573007 0.387259
0.577188 0.580301 0.352682
0.606531 0.587533 0.311437
0.637339 0.594934 0.264454
0.668269 0.602136 0.215457
0.69723 0.608347 0.174395
0.725368 0.614115 0.140627
0.751781 0.618616 0.11693
0.776547 0.62269 0.100893
0.799817 0.626505 0.0893263
0.125185 0.402426 0.286351
0.135958 0.413504 0.302266
0.148775 0.423651 0.317693
0.159991 0.435538 0.328954
0.173312 0.446906 0.3402
0.18793 0.458396 0.352041
0.203372 0.470054 0.362844
0.221363 0.480415 0.372992
0.241443 0.490913 0.383536
0.261204 0.501488 0.394339
0.28246 0.511666 0.403525
0.304952 0.521202 0.412634
0.327153 0.529915 0.421729
0.352941 0.536828 0.427726
0.379019 0.543496 0.432135
0.403723 0.54995 0.437278
0.426032 0.556527 0.443656
0.448264 0.562829 0.447486
0.470085 0.569146 0.448814
0.48716 0.575219 0.456367
0.504921 0.581338 0.458854
0.524346 0.588129 0.451194
0.544671 0.594934 0.438804
0.557809 0.602258 0.438163
0.576486 0.608865 0.426551
0.6009 0.614603 0.402625
0.626841 0.620295 0.372671
0.654078 0.626139 0.338125
0.68191 0.63238 0.29308
0.709575 0.638682 0.247349
0.736965 0.644862 0.203403
0.762646 0.649943 0.168948
0.786572 0.654643 0.145205
0.141711 0.44918 0.31873
0.153613 0.460792 0.333471
0.170092 0.471031 0.35024
0.185489 0.482353 0.361791
0.201587 0.494057 0.372915
0.218357 0.50544 0.383856
0.237629 0.516213 0.394537
0.256794 0.526879 0.405112
0.276814 0.536431 0.415381
0.299062 0.544686 0.424308
0.321386 0.552529 0.43328
0.344244 0.559518 0.441276
0.368643 0.565682 0.446799
0.391638 0.571588 0.453696
0.414527 0.576883 0.46038
0.436835 0.582071 0.463661
0.458183 0.587396 0.466926
0.476631 0.592874 0.472175
0.493477 0.598688 0.476341
0.510796 0.604562 0.477302
0.5252 0.610391 0.483635
0.539651 0.615976 0.48809
0.556313 0.62211 0.481178
0.572763 0.628138 0.47245
0.586175 0.634318 0.470222
0.601862 0.640787 0.461082
0.624186 0.645853 0.439414
0.647608 0.650706 0.415641
0.671824 0.655604 0.390188
0.696544 0.660471 0.358038
0.72221 0.665995 0.319661
0.747631 0.67155 0.279286
0.772045 0.677104 0.240269
0.16672 0.496208 0.356405
0.182925 0.507546 0.369314
0.201633 0.5178 0.383154
0.217151 0.529961 0.394339
0.236027 0.539986 0.40528
0.255344 0.549432 0.415839
0.274388 0.558923 0.425803
0.295094 0.566888 0.434714
0.316411 0.57409 0.443458
0.338048 0.58085 0.451835
0.361105 0.586038 0.458976
0.384009 0.590784 0.466667
0.406363 0.595087 0.474693
0.427771 0.600015 0.479149
0.447562 0.605066 0.484291
0.466209 0.609949 0.490364
0.483589 0.615122 0.493431
0.500237 0.620279 0.495995
0.515465 0.625589 0.500465
0.529351 0.630945 0.50602
0.543603 0.6365 0.508675
0.557031 0.641779 0.512917
0.569772 0.646677 0.518181
0.584909 0.65211 0.512581
0.600031 0.657694 0.50457
0.612512 0.663188 0.505104
0.625589 0.669047 0.497993
0.64596 0.674281 0.474464
0.667872 0.679149 0.451072
0.690288 0.683665 0.427649
0.712871 0.68777 0.403708
0.736019 0.692302 0.376318
0.758389 0.696574 0.349462
0.200153 0.54255 0.390097
0.21677 0.55314 0.402716
0.237278 0.561776 0.415961
0.255207 0.57116 0.425895
0.273243 0.580041 0.43537
0.292607 0.587793 0.444419
0.313558 0.593927 0.453147
0.334585 0.599466 0.461189
0.356069 0.604395 0.46949
0.378027 0.608789 0.477836
0.399542 0.613046 0.486244
0.420249 0.617151 0.492851
0.439658 0.621378 0.498848
0.458412 0.625483 0.505928
0.475639 0.630228 0.510567
0.491173 0.635431 0.514336
0.505806 0.640558 0.519966
0.520027 0.645655 0.52401
0.534157 0.650584 0.526619
0.547585 0.655741 0.528969
0.55993 0.660685 0.534203
0.572747 0.665583 0.536721
0.585504 0.670558 0.53901
0.597375 0.675135 0.544121
0.611261 0.680064 0.540261
0.626673 0.685283 0.530098
0.644709 0.690242 0.514672
0.650935 0.695125 0.52639
0.666926 0.699977 0.513726
0.68748 0.70486 0.488563
0.708339 0.709377 0.46273
0.729564 0.713375 0.439521
0.75053 0.716808 0.418158
0.235737 0.58439 0.422461
0.253651 0.592874 0.433234
0.274205 0.599054 0.444846
0.292195 0.606012 0.453803
0.311818 0.611872 0.462165
0.33193 0.617365 0.471015
0.352316 0.62208 0.479713
0.373114 0.625879 0.488212
0.394034 0.629404 0.496254
0.41474 0.632914 0.503899
0.433173 0.637079 0.511025
0.451591 0.641001 0.5187
0.469139 0.645274 0.525368
0.483909 0.649927 0.52987
0.498436 0.654521 0.536248
0.512383 0.659144 0.542016
0.52575 0.664332 0.544015
0.538277 0.669459 0.54728
0.550652 0.674434 0.551095
0.563684 0.679088 0.552804
0.576364 0.683726 0.553857
0.587823 0.688106 0.559014
0.599817 0.692561 0.561212
0.611841 0.697124 0.561791
0.62327 0.701427 0.565805
0.636347 0.705928 0.563882
0.650919 0.710552 0.555856
0.666178 0.714778 0.54667
0.672862 0.718639 0.558419
0.687144 0.722469 0.550835
0.706157 0.726574 0.527718
0.725887 0.730465 0.502815
0.745876 0.734386 0.477821
0.273243 0.618051 0.45069
0.29012 0.624949 0.460487
0.312001 0.629007 0.471809
0.330709 0.633448 0.48069
0.349798 0.637659 0.489311
0.369421 0.641474 0.497704
0.389227 0.645151 0.505837
0.409522 0.64863 0.513695
0.427909 0.652293 0.521126
0.445686 0.65597 0.528435
0.463279 0.659525 0.535485
0.478187 0.663935 0.541741
0.492226 0.668269 0.549187
0.506233 0.672709 0.555703
0.518914 0.677653 0.558068
0.531151 0.682383 0.562524
0.543328 0.686793 0.567834
0.555642 0.691417 0.569406
0.567483 0.69604 0.571054
0.578759 0.700771 0.573587
0.590845 0.705135 0.574777
0.602838 0.709529 0.57499
0.614054 0.713634 0.578332
0.625605 0.717281 0.581231
0.637659 0.721004 0.581415
0.648676 0.724651 0.584741
0.660914 0.728222 0.583658
0.674434 0.732036 0.577157
0.6869 0.735744 0.574395
0.694911 0.739239 0.584436
0.7075 0.743023 0.580713
0.724727 0.746822 0.562722
0.742763 0.750515 0.542931
0.309834 0.645197 0.47747
0.327596 0.649699 0.487282
0.348989 0.652445 0.498451
0.367544 0.65658 0.507073
0.386191 0.660075 0.515099
0.405158 0.66331 0.522469
0.423316 0.666651 0.529809
0.440574 0.670192 0.537163
0.457694 0.673732 0.544381
0.47335 0.677821 0.551415
0.487068 0.681895 0.557366
0.500877 0.685969 0.563256
0.513603 0.690333 0.568185
0.525475 0.694789 0.573785
0.537255 0.699077 0.580438
0.548821 0.7037 0.582834
0.560265 0.708125 0.584848
0.571542 0.712291 0.588907
0.583108 0.716503 0.589837
0.594415 0.720317 0.590387
0.60528 0.724102 0.592111
0.616831 0.727794 0.593393
0.628809 0.731365 0.593393
0.640024 0.734859 0.595392
0.651041 0.738293 0.598428
0.662348 0.741863 0.599191
0.673014 0.745342 0.601968
0.684443 0.748943 0.601328
0.697017 0.752636 0.596567
0.707485 0.756207 0.598291
0.715694 0.759548 0.608164
0.727794 0.763149 0.605035
0.743633 0.766735 0.591852
0.347158 0.667567 0.50428
0.364034 0.671397 0.51342
0.384436 0.673777 0.523171
0.402228 0.677073 0.53077
0.420157 0.680476 0.538231
0.436698 0.683909 0.545724
0.453086 0.687388 0.552544
0.469337 0.690669 0.55819
0.482643 0.69482 0.564263
0.49604 0.698894 0.570291
0.509148 0.702892 0.576257
0.520562 0.707225 0.582132
0.532219 0.71133 0.587198
0.543725 0.715526 0.59118
0.554788 0.719249 0.594736
0.565637 0.722744 0.599786
0.576501 0.726421 0.602991
0.587304 0.730129 0.603952
0.598047 0.733761 0.60679
0.609262 0.737285 0.607965
0.620676 0.74107 0.607919
0.631662 0.744839 0.608347
0.642771 0.748379 0.609934
0.654154 0.751873 0.610178
0.665019 0.755322 0.611185
0.675502 0.758648 0.614435
0.686336 0.762097 0.615763
0.696681 0.765606 0.618036
0.707454 0.769131 0.618006
0.719387 0.772717 0.614054
0.731167 0.776211 0.611688
0.739849 0.779477 0.620111
0.748348 0.783017 0.624964
0.382574 0.687724 0.528649
0.398962 0.691157 0.536721
0.418296 0.693126 0.546029
0.433646 0.696849 0.553048
0.449577 0.700206 0.559121
0.465599 0.703441 0.564874
0.478859 0.707546 0.570916
0.491814 0.711345 0.576989
0.504799 0.715084 0.582788
0.516396 0.718868 0.587655
0.527794 0.722347 0.592416
0.539147 0.72578 0.597177
0.54992 0.729274 0.601953
0.560647 0.732631 0.606683
0.571405 0.736126 0.610925
0.581811 0.739818 0.613123
0.592309 0.743343 0.617151
0.602731 0.746777 0.620768
0.613596 0.750561 0.620874
0.624613 0.754086 0.622858
0.635599 0.757534 0.624735
0.64651 0.76112 0.624262
0.65716 0.764874 0.623713
0.667659 0.768353 0.625376
0.678431 0.771893 0.625879
0.689021 0.775326 0.626245
0.698863 0.778576 0.630335
0.708965 0.78201 0.632654
0.718822 0.785382 0.634928
0.728893 0.788876 0.63595
0.740078 0.792447 0.633066
0.751034 0.796017 0.631418
0.759838 0.799176 0.638834
0.415656 0.706355 0.550576
0.428305 0.710948 0.556451
0.443854 0.714153 0.562875
0.458106 0.717678 0.568139
0.472358 0.720668 0.573816
0.485054 0.723812 0.57969
0.497887 0.726894 0.585046
