70 CGC LUTs/Look LUTs/Grime.cube
#Created by: Denver Riddle
#Copyright: (C) Copyright Color Grading Central LLC
#LUT Size
LUT_3D_SIZE 9
0.0248112 0.0324254 0.0216526
0.0900587 0.038407 0.0274357
0.185992 0.0409094 0.0199741
0.357168 0.0345464 0
0.521645 0.0466621 0
0.618341 0.055436 0
0.679469 0.0614176 0
0.731304 0.0664988 0
0.770001 0.0702983 0
0.0464027 0.076463 0.0422827
0.0613413 0.0857557 0.0514076
0.122667 0.0893721 0.0183566
0.273869 0.0736706 0.0242771
0.467658 0.0628824 0.00497444
0.581369 0.0627298 0
0.658824 0.0677653 0
0.717296 0.0747997 0
0.770733 0.0866102 0
0.0656138 0.120256 0.0698253
0.0802319 0.132082 0.0899977
0.0985885 0.145632 0.108766
0.163851 0.159197 0.0543221
0.380377 0.139788 0.0332952
0.57377 0.137682 0.0456092
0.702892 0.153643 0.0495918
0.782696 0.17644 0.0577249
0.849165 0.20618 0.0694591
0.0842603 0.186618 0.125277
0.103487 0.21033 0.171862
0.133013 0.236988 0.213382
0.176898 0.268544 0.252857
0.27779 0.303426 0.167956
0.509911 0.314092 0.0529641
0.677592 0.338476 0.0460059
0.805936 0.379995 0.0559701
0.891127 0.417884 0.0619516
0.108995 0.314031 0.226993
0.140826 0.355077 0.282322
0.187366 0.398718 0.323003
0.258412 0.438987 0.360372
0.355352 0.477134 0.384604
0.474647 0.513191 0.348226
0.586496 0.550729 0.232166
0.712734 0.577539 0.0963607
0.812436 0.593317 0.0632334
0.16672 0.496208 0.356405
0.236027 0.539986 0.40528
0.316411 0.57409 0.443458
0.406363 0.595087 0.474693
0.483589 0.615122 0.493431
0.543603 0.6365 0.508675
0.600031 0.657694 0.50457
0.667872 0.679149 0.451072
0.758389 0.696574 0.349462
0.309834 0.645197 0.47747
0.386191 0.660075 0.515099
0.457694 0.673732 0.544381
0.513603 0.690333 0.568185
0.560265 0.708125 0.584848
0.60528 0.724102 0.592111
0.651041 0.738293 0.598428
0.697017 0.752636 0.596567
0.743633 0.766735 0.591852
0.445792 0.723583 0.569558
0.494438 0.736797 0.589883
0.539712 0.749722 0.608927
0.581567 0.763088 0.625895
0.623255 0.776349 0.642039
0.664012 0.790143 0.650523
0.704326 0.804379 0.650431
0.74287 0.817792 0.661341
0.788388 0.829084 0.68954
0.535042 0.784344 0.627222
0.570535 0.798474 0.643824
0.607065 0.812543 0.658106
0.650736 0.824964 0.67805
0.699962 0.836316 0.705043
0.739895 0.84889 0.723796
0.772961 0.862837 0.732937
0.804196 0.876661 0.746593
0.833875 0.889921 0.769162
0.0446174 0.039765 0.161593
0.047837 0.0454261 0.0470436
0.143145 0.0426795 0.0791333
0.311818 0.0422522 0.0159152
0.494224 0.0529793 0
0.600366 0.0614633 0
0.665537 0.0671702 0
0.718303 0.0722667 0
0.76109 0.0767834 0
0.0441444 0.0809033 0.0640116
0.0641031 0.0895094 0.065568
0.127199 0.0856336 0.065568
0.261265 0.0745098 0.0460059
0.445914 0.063447 0.0102693
0.564813 0.062089 0
0.650797 0.0674144 0
0.709026 0.074815 0
0.761608 0.0883955 0
0.0676585 0.12459 0.092546
0.082536 0.136675 0.117205
0.1028 0.150607 0.145373
0.214069 0.155734 0.0590066
0.450294 0.129412 0.047837
0.596475 0.134279 0.0463722
0.704372 0.150225 0.0516823
0.776989 0.173831 0.0648661
0.841001 0.20531 0.0861524
0.0886397 0.194003 0.166598
0.113634 0.218509 0.206897
0.146334 0.247639 0.2448
0.193027 0.281132 0.280888
0.321492 0.313085 0.171374
0.57116 0.318624 0.068864
0.730663 0.342947 0.0637522
0.834379 0.376974 0.0711681
0.907729 0.412207 0.0866865
0.117784 0.328618 0.266957
0.151995 0.37145 0.31223
0.203494 0.415244 0.35227
0.276371 0.457328 0.389456
0.374884 0.493996 0.419074
0.492958 0.527092 0.380072
0.619791 0.557961 0.247959
0.746777 0.579355 0.125994
0.843931 0.593256 0.0915541
0.184482 0.51487 0.385595
0.257435 0.555901 0.432059
0.337926 0.586252 0.4701
0.423728 0.605127 0.501823
0.495674 0.624201 0.522377
0.552804 0.645518 0.535134
0.613657 0.666194 0.515343
0.688014 0.68545 0.455329
0.782666 0.699611 0.363119
0.328878 0.653208 0.505058
0.405097 0.666529 0.540246
0.471366 0.681361 0.56643
0.523293 0.698344 0.588785
0.568795 0.715404 0.606149
0.613291 0.730251 0.611475
0.658808 0.744686 0.614206
0.706188 0.758953 0.60705
0.757366 0.772198 0.596567
0.460288 0.72871 0.588495
0.508705 0.741405 0.608667
0.549126 0.755734 0.624399
0.590234 0.769177 0.640497
0.631678 0.7823 0.655985
0.671626 0.796094 0.664927
0.710658 0.810224 0.667475
0.753262 0.82266 0.685069
0.799039 0.834363 0.70927
0.544182 0.790173 0.640467
0.579278 0.804257 0.656977
0.615122 0.818402 0.670832
0.663874 0.83003 0.696132
0.712108 0.841413 0.722805
0.746441 0.854566 0.738216
0.778897 0.868406 0.749218
0.809628 0.882383 0.762875
0.838987 0.895796 0.784253
0.0542306 0.0445563 0.44213
0.0547799 0.0439918 0.406149
0.0697032 0.0573129 0.0827039
0.159045 0.0413977 0.154192
0.40235 0.0396429 0.135149
0.567147 0.0636912 0.105089
0.656458 0.0761578 0.0946365
0.712093 0.083772 0.0936294
0.757443 0.089601 0.0974746
0 0.0830701 0.329229
0.0234989 0.0920577 0.240024
0.0842908 0.10074 0.11162
0.210758 0.0768292 0.179446
0.416907 0.0715343 0.0695659
0.541726 0.0726177 0.0304723
0.628824 0.0804913 0.0220493
0.685557 0.0890669 0.027451
0.735958 0.104509 0.0467079
0.0653086 0.126741 0.155596
0.0844587 0.140169 0.166018
0.112154 0.155016 0.179507
0.220249 0.151904 0.18938
0.424262 0.143282 0.105089
0.559991 0.15227 0.0963149
0.662699 0.172152 0.105562
0.726299 0.200626 0.13315
0.783444 0.235309 0.173526
0.100206 0.200351 0.206546
0.123095 0.228061 0.243809
0.153307 0.262181 0.279011
0.203281 0.29749 0.312428
0.405264 0.308385 0.214221
0.616571 0.317418 0.166171
0.739757 0.347417 0.205356
0.811063 0.384146 0.260548
0.86836 0.418875 0.308629
0.130404 0.343999 0.301335
0.167514 0.388968 0.340398
0.221653 0.433234 0.378241
0.299809 0.475196 0.417838
0.394797 0.510826 0.452659
0.523369 0.537881 0.400916
0.658976 0.55845 0.304356
0.777539 0.573098 0.228962
0.863859 0.58529 0.219287
0.204242 0.53344 0.417151
0.279667 0.570413 0.462898
0.361303 0.595941 0.502068
0.441245 0.613962 0.535805
0.506035 0.633463 0.557626
0.560906 0.654093 0.568536
0.628336 0.674037 0.531579
0.712901 0.689387 0.467796
0.809369 0.699351 0.398886
0.34905 0.661051 0.535103
0.424262 0.673259 0.565698
0.48455 0.68893 0.589471
0.532998 0.706462 0.609842
0.577462 0.722133 0.625101
0.621668 0.736568 0.632013
0.6663 0.750866 0.634836
0.716197 0.765057 0.620737
0.773877 0.776913 0.604852
0.473808 0.734447 0.608087
0.519036 0.747539 0.626886
0.55996 0.761242 0.643091
0.599802 0.774807 0.658549
0.639963 0.788251 0.673716
0.678874 0.801663 0.686137
0.717372 0.815595 0.690913
0.763745 0.827665 0.71165
0.809354 0.839658 0.730068
0.552483 0.796277 0.656718
0.58819 0.810071 0.672892
0.628702 0.823026 0.691051
0.67689 0.835035 0.716945
0.719448 0.847196 0.739162
0.752895 0.860395 0.75407
0.784695 0.874266 0.766567
0.814984 0.888212 0.781933
0.844053 0.901762 0.802396
0.0873732 0.0424659 0.521691
0.0937514 0.0415045 0.524773
0.0915084 0.0397192 0.396658
0.0853742 0.0694896 0.125841
0.162539 0.0542458 0.214038
0.454612 0.0318303 0.280171
0.63505 0.0538949 0.29482
0.7346 0.0661631 0.306706
0.795758 0.073991 0.31458
0 0.072755 0.419867
0.00355535 0.087602 0.413108
0.0311894 0.0974746 0.390127
0.0975662 0.115099 0.181277
0.225834 0.0854658 0.31342
0.51252 0.0594492 0.282063
0.653941 0.0635691 0.275959
0.735241 0.0751202 0.280491
0.789532 0.086305 0.285618
0.00764477 0.13959 0.361685
0.0120546 0.165698 0.400626
0.0563821 0.170489 0.333043
0.133547 0.185458 0.266575
0.394919 0.135225 0.37055
0.583215 0.140841 0.31664
0.690105 0.163043 0.305913
0.762722 0.194018 0.322576
0.820706 0.231586 0.342885
0.086183 0.214206 0.278553
0.106249 0.2486 0.300023
0.144945 0.282643 0.317464
0.214374 0.31519 0.341527
0.437278 0.306233 0.36994
0.579019 0.332723 0.353628
0.684062 0.37145 0.36022
0.7561 0.409735 0.38117
0.816236 0.442847 0.402533
0.141527 0.361639 0.330159
0.182376 0.40766 0.365789
0.242954 0.45214 0.404929
0.324636 0.492744 0.44799
0.416754 0.526207 0.486229
0.563363 0.542641 0.436927
0.693584 0.552056 0.419516
0.78175 0.564111 0.428199
0.847639 0.578271 0.444556
0.227115 0.55021 0.449744
0.304143 0.583642 0.493721
0.385733 0.604623 0.530144
0.461311 0.622415 0.560967
0.518273 0.642771 0.584329
0.569696 0.663096 0.594858
0.649332 0.679835 0.547478
0.74287 0.689158 0.50135
0.836988 0.695689 0.459785
0.369574 0.668116 0.560327
0.442893 0.680583 0.58732
0.498497 0.69662 0.609476
0.543969 0.714061 0.629191
0.585504 0.729061 0.645808
0.629084 0.742855 0.656107
0.673381 0.756771 0.660197
0.728283 0.770687 0.633951
0.794354 0.780331 0.616114
0.48571 0.740337 0.626169
0.529732 0.753719 0.644724
0.569192 0.767437 0.661097
0.609018 0.780728 0.676951
0.648753 0.794095 0.692622
0.686595 0.807538 0.705699
0.727199 0.820706 0.716686
0.773785 0.832578 0.739437
0.816617 0.845594 0.745541
0.560647 0.802274 0.673442
0.597009 0.815946 0.690166
0.642359 0.828199 0.713268
0.690227 0.839704 0.739864
0.726711 0.852689 0.757717
0.759243 0.866102 0.773465
0.790387 0.879805 0.787823
0.820447 0.893874 0.803006
0.849409 0.907713 0.822187
0.135378 0.0403143 0.590448
0.145602 0.039704 0.594629
0.194125 0.0342565 0.587747
0.135348 0.0378882 0.395636
0.102388 0.0799268 0.190402
0.179095 0.0650187 0.287327
0.47013 0.0301671 0.341329
0.668864 0.0495766 0.380545
0.77496 0.0601968 0.416312
0.016083 0.0669108 0.479866
0.0197604 0.082826 0.468757
0.0440375 0.091783 0.470344
0.0872206 0.105379 0.393408
0.122026 0.130419 0.262425
0.274617 0.0999313 0.380652
0.561639 0.074342 0.384146
0.716686 0.0751659 0.406149
0.800046 0.0847028 0.432746
0 0.136553 0.438773
0.00691234 0.157076 0.442695
0.035111 0.176211 0.452705
0.0800336 0.19791 0.451392
0.184176 0.221592 0.338018
0.474022 0.175174 0.4645
0.682353 0.172335 0.482979
0.795285 0.192996 0.506035
0.864378 0.226917 0.525032
0.043122 0.232166 0.401907
0.0476692 0.27834 0.426291
0.0577707 0.328054 0.448936
0.132143 0.358755 0.433066
0.28896 0.372519 0.410803
0.574548 0.340063 0.531044
0.719432 0.367651 0.532845
0.792737 0.403571 0.543633
0.847578 0.436866 0.551217
0.127871 0.388235 0.377539
0.159686 0.437964 0.41149
0.217594 0.485191 0.449027
0.32018 0.51931 0.484123
0.436576 0.540063 0.515877
0.582681 0.543801 0.538903
0.668116 0.560891 0.549096
0.743236 0.57583 0.553597
0.805997 0.591012 0.561685
0.251652 0.566155 0.481285
0.330312 0.5944 0.519844
0.409796 0.613962 0.552254
0.479744 0.63154 0.579644
0.532113 0.651987 0.602975
0.57818 0.672435 0.619104
0.681956 0.680522 0.573068
0.771496 0.684092 0.579263
0.845045 0.69044 0.587762
0.390097 0.675517 0.580758
0.461433 0.68777 0.605356
0.512749 0.70428 0.62678
0.555169 0.720928 0.646632
0.595148 0.735424 0.664668
0.636759 0.749493 0.677455
0.680644 0.763027 0.682582
0.74551 0.775143 0.646097
0.820508 0.781216 0.635233
0.497841 0.746548 0.643458
0.541176 0.759518 0.66212
0.578851 0.773632 0.679011
0.61767 0.786938 0.695369
0.657053 0.799954 0.711452
0.693919 0.81326 0.727062
0.737514 0.825589 0.746578
0.783001 0.837461 0.768841
0.825635 0.851209 0.760449
0.569818 0.808103 0.690944
0.606104 0.821576 0.708553
0.655116 0.833478 0.736446
0.700084 0.845212 0.761364
0.733623 0.858289 0.777676
0.765667 0.871733 0.793713
0.796109 0.885634 0.80885
0.825986 0.899596 0.82475
0.85478 0.913741 0.842771
0.201251 0.0399634 0.658061
0.217807 0.0388495 0.663523
0.328267 0.0313573 0.688731
0.327153 0.0257572 0.614374
0.183474 0.0464942 0.400595
0.130205 0.0876631 0.270527
0.221103 0.0736553 0.35375
0.508217 0.0389563 0.390509
0.683482 0.0458839 0.439323
0.0391852 0.0595712 0.542947
0.0383612 0.077821 0.521889
0.0703288 0.0851301 0.526726
0.131502 0.0868238 0.529076
0.165759 0.111452 0.425742
0.174731 0.148104 0.34078
0.367071 0.117601 0.438239
0.610986 0.0991531 0.479072
0.761166 0.105898 0.505089
0.0129397 0.133455 0.488243
0.0236362 0.155749 0.489494
0.0520027 0.177417 0.50338
0.10399 0.197467 0.517647
0.201022 0.218875 0.494728
0.277867 0.258045 0.422522
0.533608 0.230243 0.541146
0.73048 0.233585 0.577173
0.842039 0.25594 0.607858
0.0326238 0.2421 0.474189
0.0408026 0.289372 0.494774
0.0687877 0.334325 0.502739
0.116213 0.378408 0.513069
0.21294 0.408225 0.525551
0.399634 0.425605 0.501335
0.604501 0.420706 0.603281
0.759274 0.428336 0.628748
0.848493 0.446281 0.642115
0.0972763 0.417563 0.447349
0.106645 0.47776 0.478355
0.121874 0.53846 0.521202
0.153796 0.592126 0.566445
0.329519 0.592462 0.567498
0.510124 0.582055 0.572808
0.678721 0.564858 0.626551
0.755016 0.577508 0.63299
0.815702 0.593576 0.629831
0.23122 0.594476 0.521477
0.29427 0.624491 0.553109
0.370336 0.642496 0.579629
0.452934 0.654398 0.603113
0.530694 0.665721 0.622599
0.588403 0.681102 0.64036
0.6972 0.679362 0.650889
0.763851 0.687404 0.674083
0.826337 0.697261 0.677882
0.40943 0.683436 0.598444
0.479271 0.695033 0.62121
0.526055 0.712215 0.642237
0.566979 0.727489 0.661875
0.606073 0.741817 0.68098
0.645411 0.755779 0.698177
0.687266 0.769436 0.705928
0.773846 0.775876 0.664454
0.84744 0.779293 0.677745
0.510475 0.752453 0.659785
0.552575 0.765469 0.678706
0.589731 0.779324 0.696284
0.628016 0.792676 0.713878
0.665095 0.80589 0.731197
0.702144 0.818936 0.749111
0.748226 0.830808 0.77351
0.789746 0.843137 0.793561
0.838621 0.856062 0.774273
0.579309 0.813962 0.708858
0.621241 0.826459 0.731884
0.668009 0.838392 0.760296
0.706691 0.851072 0.78143
0.739803 0.86421 0.797833
0.771725 0.877562 0.81416
0.801801 0.891539 0.830259
0.831403 0.905486 0.846418
0.860182 0.919844 0.863203
0.289097 0.0379034 0.728374
0.310018 0.0364538 0.733272
0.431968 0.0298772 0.752544
0.52163 0.0259098 0.714488
0.466392 0.0224613 0.611048
0.269703 0.048188 0.43093
0.185046 0.0923171 0.347189
0.302205 0.0808728 0.41297
0.556603 0.0549783 0.453422
0.0707256 0.0506905 0.606271
0.0658427 0.0706188 0.580118
0.107836 0.0754559 0.587106
0.212268 0.0650034 0.623362
0.30753 0.0695811 0.594049
0.300679 0.109819 0.49276
0.280354 0.162753 0.432853
0.477104 0.143618 0.507256
0.65893 0.138552 0.547845
0.0286564 0.132784 0.53312
0.0395972 0.156924 0.539757
0.0728923 0.178759 0.554131
0.145586 0.195361 0.576684
0.299657 0.196338 0.625818
0.403662 0.228931 0.587411
0.434318 0.284657 0.533486
0.582834 0.298024 0.592187
0.755505 0.310521 0.636316
0.0408789 0.24744 0.539025
0.0553445 0.295109 0.54786
0.0904707 0.341894 0.555795
0.146059 0.382589 0.569512
0.275059 0.405066 0.600107
0.446525 0.42649 0.614221
0.51725 0.476356 0.592309
0.634379 0.490715 0.640192
0.768261 0.48954 0.674113
0.0886854 0.437659 0.509819
0.0960861 0.499733 0.543343
0.121309 0.556985 0.583398
0.184787 0.59826 0.610544
0.297398 0.614313 0.629343
0.466148 0.604578 0.642481
0.574578 0.615061 0.632807
0.709209 0.603372 0.68162
0.792813 0.608423 0.6972
0.195193 0.623896 0.567895
0.22092 0.663554 0.601755
0.251087 0.695201 0.633097
0.283284 0.720317 0.663386
0.338567 0.733669 0.688624
0.543038 0.70454 0.677577
0.634836 0.708537 0.678767
0.76347 0.694057 0.717922
0.822431 0.704112 0.723735
0.369818 0.709087 0.62501
0.438865 0.719921 0.645823
0.499641 0.729503 0.664652
0.549508 0.74136 0.682826
0.595178 0.753567 0.700236
0.647929 0.763806 0.716213
0.694133 0.775189 0.73196
0.782254 0.775555 0.738735
0.846082 0.78088 0.756985
0.519371 0.759533 0.676127
0.563943 0.771511 0.694148
0.60174 0.784894 0.712322
0.639323 0.798215 0.731106
0.67541 0.811399 0.749691
0.715526 0.824002 0.772869
0.758755 0.836103 0.799649
0.794202 0.849104 0.817411
0.859846 0.858061 0.79292
0.590112 0.81944 0.72665
0.63711 0.831144 0.754604
0.682368 0.84329 0.783505
0.715328 0.856443 0.800977
0.747326 0.869825 0.817807
0.777844 0.883497 0.834592
0.807324 0.897536 0.851301
0.836591 0.911589 0.867887
0.865217 0.926162 0.883909
0.384665 0.0355535 0.792996
0.405814 0.0343481 0.795911
0.508827 0.0299992 0.802884
0.608423 0.0285649 0.766125
0.624979 0.0280766 0.684367
0.549661 0.0250858 0.575753
0.39295 0.0496529 0.459602
0.289616 0.093019 0.418708
0.419837 0.0899672 0.472465
0.113039 0.0490272 0.665629
0.108659 0.0597848 0.646769
0.163027 0.0621805 0.655543
0.309941 0.0451972 0.699779
0.478279 0.037995 0.691279
0.511482 0.069276 0.609979
0.472496 0.117174 0.537499
0.436088 0.17821 0.524697
0.565682 0.191409 0.575402
0.0463569 0.132448 0.578607
0.0589761 0.157778 0.589014
0.104921 0.178256 0.607126
0.206714 0.188403 0.64622
0.428199 0.170382 0.736629
0.565332 0.195773 0.700816
0.557824 0.26746 0.620539
0.522545 0.345922 0.588037
0.627985 0.378027 0.634501
0.0577859 0.254032 0.590356
0.075349 0.302998 0.596124
0.115511 0.348363 0.607416
0.198459 0.383307 0.626657
0.361196 0.396841 0.674357
0.534157 0.413489 0.726955
0.586297 0.470924 0.665888
0.598108 0.52398 0.641306
0.669932 0.542321 0.674266
0.0943465 0.451881 0.574044
0.106508 0.514961 0.601801
0.145357 0.568338 0.628595
0.227146 0.600763 0.650614
0.358511 0.606729 0.670863
0.496147 0.604639 0.700816
0.59794 0.61471 0.708354
0.64387 0.640543 0.685161
0.734417 0.640482 0.725124
0.18085 0.64242 0.621729
0.194415 0.683864 0.657038
0.221454 0.713649 0.687144
0.271199 0.731746 0.709499
0.389273 0.726558 0.720027
0.524224 0.716228 0.729091
0.618524 0.718151 0.735973
0.694102 0.726131 0.72871
0.792538 0.719875 0.767483
0.313863 0.735805 0.664668
0.346029 0.753765 0.687633
0.392859 0.766049 0.708522
0.446632 0.775418 0.728893
0.49749 0.784726 0.749996
0.55407 0.792203 0.768643
0.671305 0.787808 0.763455
0.73434 0.79556 0.768994
0.837385 0.787137 0.809705
0.49781 0.773526 0.701244
0.540795 0.785489 0.718456
0.581231 0.797909 0.735332
0.623972 0.809735 0.75288
0.667796 0.821317 0.771893
0.717449 0.832044 0.798245
0.766842 0.842268 0.820462
0.80206 0.854841 0.835828
0.866423 0.85919 0.852872
0.601572 0.82504 0.747723
0.651286 0.836347 0.776516
0.692927 0.848493 0.800595
0.725811 0.861692 0.817792
0.756817 0.875273 0.835004
0.786709 0.88893 0.852155
0.815763 0.903059 0.869596
0.844129 0.917372 0.887007
0.87155 0.932326 0.904295
0.467033 0.034226 0.843915
0.483879 0.0336156 0.844739
0.56527 0.0309758 0.829602
0.662547 0.0310063 0.793149
0.717037 0.0333562 0.723552
0.695506 0.0336309 0.644175
0.600534 0.0296941 0.543435
0.507668 0.0601663 0.478706
0.436103 0.0995193 0.480873
0.170016 0.0490578 0.725444
0.169665 0.0505074 0.716838
0.244999 0.0478828 0.72987
0.412543 0.0317082 0.765316
0.570336 0.0317693 0.752728
0.628412 0.0526741 0.670542
0.619791 0.0965286 0.59823
0.588891 0.153857 0.573098
0.554238 0.219669 0.580377
0.0716259 0.130373 0.625727
0.08748 0.157351 0.638834
0.149783 0.175006 0.665537
0.29337 0.174929 0.728206
0.515206 0.161517 0.798886
0.660563 0.185794 0.764111
0.687556 0.249928 0.692775
0.641505 0.335317 0.640421
0.596231 0.417655 0.630381
0.0799268 0.260273 0.63183
0.0991684 0.310124 0.638911
0.154543 0.35285 0.658015
0.26836 0.380011 0.686793
0.445258 0.3906 0.755734
0.603113 0.41004 0.801968
0.67718 0.457694 0.743175
0.660517 0.519677 0.679149
0.659083 0.563836 0.676783
0.110063 0.463844 0.62945
0.128542 0.527276 0.643778
0.180056 0.575448 0.668498
0.274556 0.600717 0.691112
0.416632 0.599695 0.718547
0.533486 0.602853 0.756802
0.654887 0.601663 0.785382
0.706844 0.628336 0.738506
0.702388 0.666178 0.724208
0.181109 0.654643 0.673869
0.194949 0.692424 0.691035
0.233967 0.716045 0.704265
0.313726 0.725567 0.724025
0.447883 0.716838 0.74902
0.55201 0.715633 0.760967
0.641779 0.717144 0.783078
0.743816 0.716136 0.789807
0.745617 0.744381 0.769451
0.285435 0.750896 0.707652
0.296529 0.773739 0.728786
0.330556 0.788205 0.742885
0.390051 0.794781 0.757687
0.481926 0.793133 0.778302
0.578073 0.792187 0.797345
0.665171 0.793927 0.806485
0.748058 0.795712 0.822904
0.780835 0.812726 0.814862
0.455848 0.79176 0.735302
0.486107 0.806745 0.754177
0.525856 0.818463 0.771954
0.56939 0.82977 0.795453
0.619852 0.840345 0.825528
0.664805 0.851087 0.850034
0.716197 0.85951 0.865293
0.796506 0.863066 0.861967
0.83415 0.876081 0.869551
0.597467 0.834455 0.779812
0.639857 0.847242 0.808042
0.6757 0.860014 0.824277
0.712139 0.872404 0.84007
0.747585 0.884886 0.855741
0.782528 0.897688 0.871275
0.815808 0.910796 0.886778
0.850935 0.923812 0.90164
0.880491 0.938476 0.918181
