70 CGC LUTs/Look LUTs/Grime.cube
#Created by: Denver Riddle
#Copyright: (C) Copyright Color Grading Central LLC
#LUT Size
LUT_3D_SIZE 5
0.0248112 0.0324254 0.0216526
0.185992 0.0409094 0.0199741
0.521645 0.0466621 0
0.679469 0.0614176 0
0.770001 0.0702983 0
0.0656138 0.120256 0.0698253
0.0985885 0.145632 0.108766
0.380377 0.139788 0.0332952
0.702892 0.153643 0.0495918
0.849165 0.20618 0.0694591
0.108995 0.314031 0.226993
0.187366 0.398718 0.323003
0.355352 0.477134 0.384604
0.586496 0.550729 0.232166
0.812436 0.593317 0.0632334
0.309834 0.645197 0.47747
0.457694 0.673732 0.544381
0.560265 0.708125 0.584848
0.651041 0.738293 0.598428
0.743633 0.766735 0.591852
0.535042 0.784344 0.627222
0.607065 0.812543 0.658106
0.699962 0.836316 0.705043
0.772961 0.862837 0.732937
0.833875 0.889921 0.769162
0.0542306 0.0445563 0.44213
0.0697032 0.0573129 0.0827039
0.40235 0.0396429 0.135149
0.656458 0.0761578 0.0946365
0.757443 0.089601 0.0974746
0.0653086 0.126741 0.155596
0.112154 0.155016 0.179507
0.424262 0.143282 0.105089
0.662699 0.172152 0.105562
0.783444 0.235309 0.173526
0.130404 0.343999 0.301335
0.221653 0.433234 0.378241
0.394797 0.510826 0.452659
0.658976 0.55845 0.304356
0.863859 0.58529 0.219287
0.34905 0.661051 0.535103
0.48455 0.68893 0.589471
0.577462 0.722133 0.625101
0.6663 0.750866 0.634836
0.773877 0.776913 0.604852
0.552483 0.796277 0.656718
0.628702 0.823026 0.691051
0.719448 0.847196 0.739162
0.784695 0.874266 0.766567
0.844053 0.901762 0.802396
0.135378 0.0403143 0.590448
0.194125 0.0342565 0.587747
0.102388 0.0799268 0.190402
0.47013 0.0301671 0.341329
0.77496 0.0601968 0.416312
0 0.136553 0.438773
0.035111 0.176211 0.452705
0.184176 0.221592 0.338018
0.682353 0.172335 0.482979
0.864378 0.226917 0.525032
0.127871 0.388235 0.377539
0.217594 0.485191 0.449027
0.436576 0.540063 0.515877
0.668116 0.560891 0.549096
0.805997 0.591012 0.561685
0.390097 0.675517 0.580758
0.512749 0.70428 0.62678
0.595148 0.735424 0.664668
0.680644 0.763027 0.682582
0.820508 0.781216 0.635233
0.569818 0.808103 0.690944
0.655116 0.833478 0.736446
0.733623 0.858289 0.777676
0.796109 0.885634 0.80885
0.85478 0.913741 0.842771
0.289097 0.0379034 0.728374
0.431968 0.0298772 0.752544
0.466392 0.0224613 0.611048
0.185046 0.0923171 0.347189
0.556603 0.0549783 0.453422
0.0286564 0.132784 0.53312
0.0728923 0.178759 0.554131
0.299657 0.196338 0.625818
0.434318 0.284657 0.533486
0.755505 0.310521 0.636316
0.0886854 0.437659 0.509819
0.121309 0.556985 0.583398
0.297398 0.614313 0.629343
0.574578 0.615061 0.632807
0.792813 0.608423 0.6972
0.369818 0.709087 0.62501
0.499641 0.729503 0.664652
0.595178 0.753567 0.700236
0.694133 0.775189 0.73196
0.846082 0.78088 0.756985
0.590112 0.81944 0.72665
0.682368 0.84329 0.783505
0.747326 0.869825 0.817807
0.807324 0.897536 0.851301
0.865217 0.926162 0.883909
0.467033 0.034226 0.843915
0.56527 0.0309758 0.829602
0.717037 0.0333562 0.723552
0.600534 0.0296941 0.543435
0.436103 0.0995193 0.480873
0.0716259 0.130373 0.625727
0.149783 0.175006 0.665537
0.515206 0.161517 0.798886
0.687556 0.249928 0.692775
0.596231 0.417655 0.630381
0.110063 0.463844 0.62945
0.180056 0.575448 0.668498
0.416632 0.599695 0.718547
0.654887 0.601663 0.785382
0.702388 0.666178 0.724208
0.285435 0.750896 0.707652
0.330556 0.788205 0.742885
0.481926 0.793133 0.778302
0.665171 0.793927 0.806485
0.780835 0.812726 0.814862
0.597467 0.834455 0.779812
0.6757 0.860014 0.824277
0.747585 0.884886 0.855741
0.815808 0.910796 0.886778
0.880491 0.938476 0.918181
