70 CGC LUTs/Look LUTs/Hannibal.cube
#Created by: Denver Riddle
#Copyright: (C) Copyright Color Grading Central LLC
#LUT Size
LUT_3D_SIZE 9
0 0 0
0 0 0
0.0116579 0.0116579 0.0116579
0.0778668 0.0313573 0.0156863
0.181445 0.05243 0.0117647
0.295705 0.0588235 0.00784314
0.431815 0.0478218 0.00355535
0.583032 0.00881971 0
0.706264 0 0
0.0176852 0.0206302 0.014725
0.027451 0.030396 0.0183871
0.0707713 0.0514076 0.0160067
0.146792 0.0694285 0.0134737
0.232532 0.0796063 0.0104982
0.329519 0.0825818 0.00688182
0.448463 0.0744793 0.00296025
0.581018 0.0527504 0
0.721325 0 0
0.0228428 0.133165 0.0235294
0.0564126 0.13315 0.0205692
0.124025 0.139712 0.016022
0.202655 0.144564 0.0122377
0.285008 0.144869 0.0117494
0.382773 0.14345 0.00781262
0.49102 0.135607 0.00421149
0.606027 0.129595 0.00311284
0.747845 0.106844 0
0.000122072 0.230457 0.0213931
0.0504463 0.225208 0.0196231
0.143313 0.222827 0.0183871
0.228916 0.222644 0.0181582
0.317968 0.22002 0.0182498
0.420432 0.216968 0.0180667
0.528756 0.215595 0.0176242
0.647471 0.213565 0.0139315
0.793301 0.206851 0.00488289
0 0.323598 0.0266117
0.0536965 0.317037 0.025452
0.155764 0.313726 0.0275578
0.246952 0.313481 0.028687
0.345892 0.313359 0.0323033
0.459693 0.3122 0.0325933
0.573312 0.316243 0.0360113
0.69984 0.323552 0.0320287
0.852903 0.335195 0.0163424
0 0.445365 0.0313725
0.0236362 0.437079 0.0313725
0.155108 0.434333 0.0313725
0.266697 0.435981 0.0352941
0.384131 0.44239 0.039292
0.506294 0.444007 0.0432746
0.620829 0.451041 0.0471046
0.754559 0.45507 0.0471046
0.893858 0.467994 0.0352178
0.000289921 0.584207 0.0271763
0.0576791 0.580865 0.0278019
0.193942 0.580636 0.0313725
0.309712 0.581552 0.0335851
0.422751 0.581018 0.0392615
0.543877 0.58381 0.043595
0.666545 0.591699 0.0506447
0.80444 0.599374 0.054902
0.927993 0.618936 0.0434119
0.106615 0.768963 0.00416571
0.142458 0.757595 0.00575265
0.243442 0.755398 0.00894179
0.354314 0.758511 0.0089723
0.469657 0.762737 0.0162203
0.593439 0.76408 0.0238193
0.713954 0.765866 0.0316472
0.829221 0.758618 0.032578
0.932372 0.754818 0.000350958
0.69398 0.914199 0.824491
0.638239 0.908339 0.685298
0.669062 0.907225 0.671016
0.748928 0.906218 0.735668
0.830823 0.912871 0.813687
0.888701 0.914015 0.838499
0.931441 0.919753 0.870069
0.946853 0.927199 0.869718
0.952667 0.930968 0.877104
0 0 0
0.00204471 0.00204471 0.00204471
0.0228275 0.0155947 0.0155795
0.0937209 0.0378882 0.0370489
0.163745 0.0698558 0.033875
0.245365 0.0943618 0.0263218
0.348516 0.105119 0.0217746
0.485313 0.104005 0.0192111
0.603342 0.0963455 0.0133974
0.021622 0.0298314 0.0238804
0.0322576 0.0409857 0.034165
0.0720226 0.0588235 0.0447547
0.131411 0.0800946 0.0466163
0.210742 0.0924544 0.047425
0.302647 0.0987259 0.0458686
0.413413 0.0983597 0.0423896
0.53901 0.0888533 0.0375982
0.676188 0.0683909 0.0259098
0.0107576 0.135912 0.0707713
0.0380407 0.1355 0.0680858
0.113893 0.141939 0.0668498
0.193423 0.146517 0.067277
0.275303 0.147387 0.0664683
0.368917 0.14667 0.0611276
0.473594 0.144015 0.0559243
0.590417 0.138186 0.0528115
0.732021 0.121889 0.0434882
0 0.232242 0.080827
0.0261234 0.227207 0.0762798
0.130114 0.224506 0.0704509
0.218296 0.223255 0.0724346
0.307774 0.221759 0.0735637
0.409384 0.220432 0.0746166
0.516243 0.220233 0.0700847
0.634775 0.219135 0.0673991
0.782635 0.214694 0.0597848
0 0.326223 0.0846571
0.0316167 0.318242 0.0797436
0.142992 0.314916 0.0778363
0.238956 0.314672 0.0802625
0.339223 0.314824 0.0822003
0.45301 0.314244 0.0852674
0.566949 0.320195 0.0861372
0.693141 0.327825 0.0849012
0.844175 0.339773 0.0797742
0 0.446525 0.0846723
0.00453193 0.438392 0.0802167
0.145617 0.435904 0.0797589
0.259495 0.438071 0.0838636
0.375647 0.443549 0.0892958
0.500572 0.448066 0.0935988
0.617563 0.451011 0.0970626
0.746593 0.455512 0.0948348
0.887739 0.471412 0.0920729
0 0.585824 0.0869764
0.0323949 0.579721 0.0845655
0.183719 0.580652 0.0836805
0.301671 0.580652 0.0853895
0.415961 0.581628 0.0876173
0.537316 0.585336 0.0949874
0.66009 0.590097 0.0995193
0.799329 0.599924 0.106188
0.923659 0.62034 0.105531
0.0868849 0.764767 0.078233
0.127001 0.75465 0.072221
0.234684 0.753155 0.0729992
0.347829 0.757 0.0753948
0.464698 0.762448 0.0826429
0.588449 0.762478 0.08925
0.70898 0.763577 0.0943923
0.82536 0.757183 0.098558
0.927398 0.74995 0.0616007
0.417136 0.91339 0.0024567
0.423423 0.908873 0.0034638
0.566171 0.905241 0.355642
0.726253 0.904234 0.689464
0.811902 0.910475 0.767865
0.874769 0.911437 0.796582
0.919875 0.916121 0.821363
0.941283 0.922972 0.827878
0.952178 0.926375 0.835706
0 0 0
0.00401312 0.00401312 0.00392157
0.0327611 0.0197604 0.0319066
0.114366 0.038941 0.0841688
0.216251 0.0504463 0.114336
0.323598 0.0573892 0.114702
0.405707 0.0822919 0.0770428
0.479332 0.119585 0.0499123
0.560906 0.143755 0.0301518
0.0196078 0.0428016 0.0386053
0.0256504 0.0521401 0.0517891
0.0692302 0.0669566 0.090486
0.154421 0.0738079 0.113008
0.23801 0.0826429 0.118578
0.309941 0.101534 0.0881666
0.374395 0.12546 0.060441
0.454215 0.152255 0.0427863
0.556146 0.170321 0.0232395
0.00077821 0.14757 0.0955215
0.0326543 0.146548 0.0997635
0.105898 0.145525 0.122927
0.178225 0.152773 0.12282
0.247181 0.165042 0.1084
0.321767 0.172015 0.0925002
0.404074 0.184558 0.0813458
0.501259 0.194339 0.0720836
0.61825 0.205829 0.052842
0.00323491 0.232013 0.132525
0.0395666 0.226474 0.13724
0.120714 0.22797 0.148714
0.209461 0.227451 0.151354
0.300053 0.2271 0.152178
0.400153 0.22771 0.15082
0.506752 0.230015 0.147387
0.616739 0.234821 0.13875
0.746029 0.245487 0.122499
0 0.328801 0.165301
0.0180667 0.321187 0.160571
0.132387 0.320272 0.158083
0.229633 0.321035 0.15967
0.331701 0.321187 0.162463
0.448051 0.324102 0.165362
0.55996 0.329412 0.169482
0.684962 0.339635 0.169207
0.837964 0.351293 0.168261
0 0.44921 0.169223
0 0.441627 0.164218
0.127153 0.442771 0.162966
0.249271 0.44535 0.167422
0.370642 0.451575 0.173281
0.495674 0.452491 0.177844
0.611963 0.457603 0.180789
0.741024 0.462989 0.1823
0.882338 0.4804 0.184161
0 0.593103 0.17966
0.000885023 0.587259 0.175586
0.165759 0.584955 0.173968
0.288533 0.584634 0.17377
0.408042 0.587594 0.17789
0.533059 0.591806 0.18323
0.65655 0.597391 0.190417
0.797467 0.604746 0.197925
0.918395 0.623682 0.205676
0.0534676 0.76704 0.189044
0.100237 0.758556 0.181521
0.218708 0.756939 0.181628
0.33611 0.760586 0.183917
0.455222 0.764126 0.188327
0.58056 0.766064 0.19321
0.70071 0.763943 0.198245
0.817319 0.756741 0.201526
0.919326 0.74638 0.188525
0.241688 0.904906 0.0402838
0.267124 0.899565 0.0581521
0.333028 0.896437 0.0566567
0.422141 0.896071 0.0413367
0.531823 0.894118 0.02533
0.713008 0.897322 0.203372
0.917021 0.917601 0.827832
0.938247 0.921736 0.828092
0.951873 0.92575 0.831388
0.00418097 0.00395209 0.00392157
0.0100404 0.0100404 0.0099031
0.0421454 0.0272526 0.057023
0.125673 0.0431678 0.127657
0.224552 0.0508583 0.167071
0.341726 0.0498817 0.186633
0.469352 0.0360876 0.188815
0.589624 0.0354009 0.164569
0.67068 0.062623 0.122972
0.0139773 0.0583963 0.0584421
0.0192721 0.0647746 0.0742809
0.0559396 0.0785534 0.120653
0.150805 0.0788739 0.167865
0.245441 0.0828412 0.182666
0.348974 0.0826581 0.184985
0.461219 0.079408 0.175921
0.550118 0.0996872 0.135286
0.636194 0.134356 0.0910964
0 0.162417 0.124559
0 0.158892 0.132357
0.06598 0.160052 0.160433
0.16434 0.156024 0.199008
0.274006 0.150774 0.201648
0.365621 0.156695 0.180957
0.440436 0.172168 0.141985
0.519051 0.195209 0.111452
0.619776 0.216129 0.0846876
0 0.243351 0.158511
0.0175021 0.237324 0.164645
0.120348 0.23183 0.183703
0.203052 0.231464 0.209415
0.289174 0.236362 0.203647
0.371527 0.247318 0.177768
0.456245 0.261234 0.157717
0.549844 0.278477 0.137942
0.66421 0.301823 0.110292
0.0330816 0.330388 0.202243
0.073991 0.322866 0.204959
0.142947 0.321691 0.220127
0.225452 0.32549 0.230549
0.330846 0.325887 0.234287
0.444556 0.32929 0.237568
0.555627 0.339208 0.238254
0.679225 0.35256 0.234897
0.812085 0.376532 0.213031
0 0.453132 0.244831
0.000228885 0.446906 0.239734
0.126146 0.447807 0.241947
0.241581 0.452934 0.244892
0.36733 0.456977 0.250233
0.492287 0.460533 0.25594
0.607217 0.463645 0.261097
0.736019 0.471275 0.263294
0.878462 0.489189 0.266361
0 0.598367 0.262669
0 0.591791 0.259251
0.157092 0.589258 0.257542
0.280186 0.59173 0.259068
0.402304 0.593484 0.261906
0.528695 0.597787 0.268498
0.654765 0.604028 0.278187
0.793301 0.612055 0.288029
0.911437 0.626398 0.294224
0.0297704 0.771145 0.285634
0.0810407 0.762829 0.279286
0.208591 0.761883 0.278157
0.325841 0.765682 0.281422
0.444419 0.769223 0.287724
0.571435 0.767346 0.289357
0.693187 0.763561 0.292607
0.811139 0.754437 0.294881
0.910918 0.743114 0.286488
0.151385 0.900511 0.246189
0.191989 0.895491 0.246036
0.271183 0.893706 0.2392
0.358968 0.892134 0.223499
0.459983 0.889097 0.192309
0.580606 0.881941 0.138079
0.707393 0.87483 0.0307164
0.936324 0.922072 0.828061
0.950759 0.92755 0.860029
0.0117647 0.0117647 0.0096437
0.0155642 0.0168154 0.0209659
0.0462654 0.0370031 0.0896468
0.120974 0.0499886 0.177386
0.228702 0.0512093 0.231754
0.353506 0.0470588 0.258778
0.484947 0.027924 0.271427
0.614099 0.00560006 0.271412
0.741115 0 0.266392
0.00698863 0.0743877 0.0872511
0.0110781 0.0773022 0.104295
0.0376135 0.0886549 0.155688
0.125383 0.0888075 0.221866
0.241474 0.0840925 0.251362
0.355276 0.0816052 0.261433
0.473106 0.0728618 0.261753
0.597345 0.0626535 0.258183
0.74229 0.0221408 0.237766
0 0.17322 0.15938
0 0.172 0.169299
0.011902 0.170596 0.200336
0.116472 0.170611 0.245914
0.262409 0.154971 0.28101
0.378882 0.149416 0.275853
0.487373 0.148257 0.267765
0.608164 0.148272 0.251774
0.725078 0.159518 0.200809
0 0.257374 0.200214
0 0.25095 0.203525
0.0492866 0.248051 0.224765
0.153368 0.245853 0.257053
0.284855 0.235233 0.298543
0.406439 0.23151 0.294041
0.512367 0.238514 0.269581
0.602167 0.260578 0.217884
0.709957 0.290517 0.175814
0 0.344244 0.23563
0.0211185 0.336645 0.236225
0.129656 0.333455 0.253635
0.225132 0.330327 0.280827
0.325139 0.332067 0.313283
0.429267 0.344411 0.293156
0.522332 0.367147 0.26566
0.624414 0.391928 0.239414
0.744167 0.422278 0.204929
0.0467842 0.458137 0.288121
0.085771 0.450462 0.286519
0.167391 0.448966 0.304143
0.252369 0.457084 0.329671
0.36141 0.462943 0.340139
0.488563 0.465324 0.346639
0.599664 0.469535 0.351324
0.730663 0.479637 0.352377
0.867628 0.503105 0.342504
0.00344854 0.599786 0.356191
0.0334783 0.596323 0.351034
0.163653 0.59234 0.352407
0.276707 0.595804 0.3561
0.393805 0.601862 0.361837
0.522942 0.602853 0.366262
0.650172 0.60824 0.375174
0.788159 0.61886 0.386587
0.904112 0.631357 0.387411
0.0325322 0.772259 0.390112
0.0760967 0.764843 0.383032
0.203922 0.7635 0.381796
0.319783 0.767727 0.385718
0.435187 0.771115 0.388876
0.558495 0.768688 0.390051
0.68188 0.762798 0.391424
0.801556 0.754269 0.391562
0.901534 0.739254 0.380179
0.0449226 0.895628 0.370199
0.123049 0.891539 0.370535
0.223316 0.890639 0.364843
0.317174 0.889082 0.354726
0.416693 0.884031 0.336248
0.537041 0.876829 0.305959
0.662196 0.866331 0.257023
0.785519 0.853788 0.149783
0.951308 0.929976 0.880644
0.0156863 0.0224918 0.030808
0.0196384 0.0296788 0.0536965
0.0406043 0.049836 0.136187
0.100008 0.0614176 0.237095
0.210193 0.0621042 0.316991
0.35021 0.0476997 0.361364
0.492241 0.024155 0.374441
0.629297 4.57771e-05 0.378027
0.76025 0 0.380026
7.62951e-05 0.0901961 0.128374
0.000549325 0.0921187 0.144778
0.0113832 0.100755 0.198962
0.0842908 0.102998 0.277852
0.207416 0.0961776 0.341878
0.350149 0.0834974 0.361944
0.479957 0.0697337 0.364202
0.611994 0.0482185 0.365316
0.767529 0 0.362966
0 0.18854 0.209171
0 0.183185 0.218555
0 0.184848 0.255802
0.053193 0.183185 0.30576
0.198657 0.172702 0.369985
0.366354 0.153048 0.37821
0.497307 0.146685 0.375845
0.623667 0.137652 0.373053
0.777111 0.118608 0.370047
0 0.272801 0.251499
0 0.267262 0.25568
0 0.26273 0.281437
0.0752728 0.262196 0.321202
0.209155 0.257359 0.374395
0.400854 0.235126 0.403708
0.532525 0.229587 0.399573
0.656016 0.23267 0.395544
0.811322 0.234195 0.381628
0 0.363348 0.288975
0 0.355367 0.289525
0.00135805 0.352544 0.309209
0.137438 0.352544 0.341711
0.254856 0.353582 0.383993
0.441611 0.338949 0.429496
0.568612 0.346944 0.42681
0.693523 0.359518 0.407111
0.816709 0.392828 0.335683
0 0.473259 0.33402
0.000854505 0.465568 0.332433
0.128313 0.464698 0.350225
0.247013 0.469337 0.377096
0.363302 0.469581 0.415366
0.482719 0.471656 0.45153
0.577325 0.487068 0.417395
0.686412 0.509621 0.381094
0.811612 0.5449 0.34023
0.141405 0.604776 0.400931
0.163912 0.59646 0.400671
0.232181 0.59205 0.413001
0.312566 0.596094 0.440162
0.398642 0.602365 0.467933
0.516274 0.610544 0.477012
0.646418 0.615442 0.485557
0.781201 0.623636 0.48983
0.892027 0.632746 0.48011
0.127398 0.772259 0.491279
0.146105 0.765011 0.484886
0.225742 0.764691 0.489235
0.320653 0.7682 0.496834
0.428305 0.771359 0.500084
0.544076 0.7691 0.500847
0.670665 0.762753 0.494682
0.790753 0.751492 0.491295
0.889876 0.732265 0.475746
0.0144503 0.891676 0.49073
0.044892 0.887556 0.489693
0.175799 0.884779 0.484215
0.281376 0.882673 0.47451
0.383856 0.879911 0.460075
0.499672 0.873121 0.437324
0.624781 0.862348 0.398718
0.755367 0.843091 0.343709
0.8972 0.83093 0.0591592
0.0148013 0.0419471 0.0793011
0.014725 0.0486458 0.108232
0.0217899 0.0652934 0.194797
0.0620432 0.0757916 0.309987
0.164279 0.0774701 0.424308
0.320699 0.0655528 0.483162
0.481132 0.0325475 0.492744
0.636698 0 0.498741
0.77937 0 0.504494
0 0.103487 0.180514
0 0.105241 0.195987
0 0.109606 0.256565
0.0195315 0.114321 0.345693
0.146502 0.113497 0.437491
0.311986 0.0982681 0.477974
0.470665 0.0773022 0.479042
0.618738 0.0436561 0.479927
0.787228 0 0.484077
0 0.200153 0.272297
0 0.197925 0.27953
0 0.19585 0.319234
3.0518e-05 0.19585 0.377447
0.122927 0.191394 0.447486
0.31371 0.171588 0.491646
0.486549 0.151202 0.491905
0.63389 0.134539 0.490013
0.797833 0.106966 0.492287
0 0.290349 0.320104
0 0.28043 0.323278
0 0.280308 0.352636
0 0.278431 0.394278
0.127367 0.27628 0.447745
0.324086 0.257221 0.509468
0.521309 0.236774 0.517449
0.670298 0.229297 0.515862
0.832837 0.226856 0.518807
0 0.386938 0.358373
0 0.37847 0.357565
0 0.37464 0.380591
0.00257877 0.375311 0.415412
0.164431 0.379614 0.46276
0.346807 0.369284 0.524437
0.564385 0.350866 0.552026
0.71722 0.353857 0.550698
0.867903 0.363684 0.548135
0 0.498848 0.399573
0 0.492287 0.399832
0 0.491081 0.417929
0.101335 0.49427 0.447578
0.262074 0.499489 0.486992
0.398627 0.497002 0.53051
0.596017 0.477699 0.570779
0.746014 0.484108 0.569039
0.878553 0.509529 0.535424
0.0056611 0.623987 0.458213
0.00970474 0.614862 0.454597
0.155184 0.610834 0.465431
0.279805 0.612131 0.488991
0.393637 0.617456 0.518807
0.515343 0.618479 0.557488
0.639673 0.620356 0.596368
0.753323 0.638834 0.553185
0.847333 0.659434 0.485267
0.241856 0.772793 0.533608
0.252445 0.766354 0.530587
0.305379 0.7635 0.542046
0.37705 0.765515 0.563699
0.454353 0.7682 0.588571
0.540719 0.765927 0.607599
0.656001 0.759731 0.601984
0.779629 0.744518 0.594156
0.878599 0.724987 0.570871
0.0605478 0.884764 0.578546
0.112291 0.880583 0.579309
0.197726 0.877516 0.580575
0.275517 0.877165 0.581094
0.360571 0.873167 0.576837
0.469581 0.866194 0.558358
0.594217 0.855207 0.527291
0.72488 0.835889 0.48368
0.867247 0.819608 0.387793
0 0.0645151 0.15819
0 0.068986 0.188174
0 0.0810712 0.282963
0 0.0931716 0.42031
0.0251926 0.100465 0.554147
0.221439 0.0968948 0.64361
0.413764 0.0777905 0.666926
0.616602 0.0104067 0.669978
0.788235 0 0.674876
0 0.120104 0.260548
0 0.121126 0.277073
0 0.124895 0.346059
0 0.130541 0.446143
0.0140078 0.1346 0.548974
0.209201 0.126055 0.61883
0.40412 0.106401 0.641505
0.601251 0.063447 0.641428
0.799008 0 0.645685
0 0.219181 0.373465
0 0.213428 0.377935
0 0.210956 0.419654
0 0.214527 0.478248
0.000579843 0.210788 0.544686
0.196979 0.200977 0.612619
0.412284 0.177691 0.646097
0.613565 0.147219 0.646983
0.807187 0.103975 0.648875
0 0.31075 0.425895
0 0.305425 0.426688
0 0.300984 0.453437
0 0.30103 0.495827
0.000396735 0.300771 0.550195
0.196094 0.2907 0.617746
0.428244 0.267262 0.668208
0.651148 0.240558 0.675364
0.845441 0.22855 0.678798
0 0.415106 0.463157
0 0.407767 0.462104
0 0.404883 0.484123
0 0.405753 0.520088
0.00047303 0.407599 0.565988
0.20473 0.408164 0.630671
0.444175 0.391058 0.692958
0.697475 0.365545 0.708705
0.881804 0.361669 0.707378
0 0.530724 0.5019
0 0.525826 0.498497
0 0.526345 0.519265
0 0.529442 0.551308
0.0131838 0.530541 0.59324
0.261219 0.530816 0.635172
0.458396 0.522881 0.691951
0.734203 0.49514 0.723644
0.901427 0.498924 0.723323
0 0.659037 0.553918
0 0.64889 0.549828
0 0.644587 0.558114
0.0125124 0.649226 0.583825
0.206928 0.652964 0.616526
0.371969 0.657557 0.656168
0.521828 0.655467 0.696483
0.769696 0.624964 0.735607
0.897597 0.617288 0.716518
0.0301366 0.788327 0.604395
0.0861982 0.779751 0.600885
0.184009 0.779095 0.609094
0.304524 0.778012 0.623987
0.412894 0.776349 0.644068
0.524895 0.770169 0.664897
0.643732 0.759854 0.688777
0.760143 0.740276 0.712596
0.836789 0.732036 0.624811
0.246357 0.876493 0.600931
0.266743 0.873014 0.605753
0.310201 0.869139 0.610834
0.363973 0.867231 0.622141
0.423011 0.861433 0.636164
0.494743 0.854368 0.654612
0.571069 0.843565 0.665568
0.689372 0.827726 0.638117
0.847181 0.811765 0.598535
0 0.0784314 0.247776
0 0.0823529 0.283772
0 0.0917983 0.401694
0 0.105791 0.549889
0 0.117647 0.689982
0 0.125216 0.775372
0.271092 0.12549 0.806348
0.527901 0.0894026 0.822751
0.752941 0 0.831373
0 0.135256 0.385595
0 0.136187 0.409613
0 0.139864 0.492348
0 0.148501 0.594858
0 0.154452 0.695705
0 0.160174 0.767605
0.224842 0.15903 0.804501
0.483482 0.133959 0.826749
0.764981 0.0206302 0.832914
0 0.241794 0.527321
0 0.235996 0.540566
0 0.236088 0.577829
0 0.237385 0.636042
0 0.240284 0.695369
0 0.237507 0.753414
0.210071 0.228977 0.797726
0.489158 0.20415 0.821668
0.773129 0.141665 0.827924
0 0.346395 0.581506
0 0.339757 0.589456
0 0.335363 0.612573
0 0.336492 0.653681
0 0.338811 0.702296
0 0.337377 0.755978
0.195926 0.328374 0.801694
0.5037 0.306325 0.834272
0.813046 0.262821 0.845899
0 0.462623 0.623972
0 0.45478 0.626734
0 0.450706 0.647196
0 0.451911 0.683207
0 0.458824 0.725567
0 0.464118 0.769467
0.177981 0.461173 0.811032
0.517052 0.439384 0.849149
0.847517 0.397757 0.8607
0 0.588861 0.668177
0 0.58172 0.668757
0 0.581216 0.684245
0 0.587549 0.715679
0 0.587915 0.744198
0 0.588388 0.772503
0.182452 0.588968 0.807248
0.523568 0.572198 0.846708
0.861555 0.523095 0.862577
0 0.719356 0.710445
0 0.709102 0.706142
0 0.705043 0.71487
0 0.710658 0.735759
0 0.712398 0.761501
0.00392157 0.713481 0.782788
0.246906 0.711101 0.807248
0.530831 0.688106 0.834867
0.854856 0.62533 0.85481
0 0.820523 0.723384
0 0.815503 0.720943
0 0.813153 0.725261
0 0.813519 0.736629
0.0102693 0.808835 0.750576
0.110887 0.802106 0.763851
0.35996 0.791669 0.779858
0.547494 0.771862 0.79617
0.827405 0.705318 0.823682
0 0.887831 0.659495
0 0.882658 0.660624
0.0195926 0.879622 0.664561
0.0382391 0.876692 0.668147
0.136507 0.869093 0.674861
0.340993 0.858213 0.682612
0.495125 0.843717 0.697459
0.645823 0.827588 0.721294
0.834714 0.815229 0.783703
