70 CGC LUTs/Look LUTs/Hannibal.cube
#Created by: Denver Riddle
#Copyright: (C) Copyright Color Grading Central LLC
#LUT Size
LUT_3D_SIZE 5
0 0 0
0.0116579 0.0116579 0.0116579
0.181445 0.05243 0.0117647
0.431815 0.0478218 0.00355535
0.706264 0 0
0.0228428 0.133165 0.0235294
0.124025 0.139712 0.016022
0.285008 0.144869 0.0117494
0.49102 0.135607 0.00421149
0.747845 0.106844 0
0 0.323598 0.0266117
0.155764 0.313726 0.0275578
0.345892 0.313359 0.0323033
0.573312 0.316243 0.0360113
0.852903 0.335195 0.0163424
0.000289921 0.584207 0.0271763
0.193942 0.580636 0.0313725
0.422751 0.581018 0.0392615
0.666545 0.591699 0.0506447
0.927993 0.618936 0.0434119
0.69398 0.914199 0.824491
0.669062 0.907225 0.671016
0.830823 0.912871 0.813687
0.931441 0.919753 0.870069
0.952667 0.930968 0.877104
0 0 0
0.0327611 0.0197604 0.0319066
0.216251 0.0504463 0.114336
0.405707 0.0822919 0.0770428
0.560906 0.143755 0.0301518
0.00077821 0.14757 0.0955215
0.105898 0.145525 0.122927
0.247181 0.165042 0.1084
0.404074 0.184558 0.0813458
0.61825 0.205829 0.052842
0 0.328801 0.165301
0.132387 0.320272 0.158083
0.331701 0.321187 0.162463
0.55996 0.329412 0.169482
0.837964 0.351293 0.168261
0 0.593103 0.17966
0.165759 0.584955 0.173968
0.408042 0.587594 0.17789
0.65655 0.597391 0.190417
0.918395 0.623682 0.205676
0.241688 0.904906 0.0402838
0.333028 0.896437 0.0566567
0.531823 0.894118 0.02533
0.917021 0.917601 0.827832
0.951873 0.92575 0.831388
0.0117647 0.0117647 0.0096437
0.0462654 0.0370031 0.0896468
0.228702 0.0512093 0.231754
0.484947 0.027924 0.271427
0.741115 0 0.266392
0 0.17322 0.15938
0.011902 0.170596 0.200336
0.262409 0.154971 0.28101
0.487373 0.148257 0.267765
0.725078 0.159518 0.200809
0 0.344244 0.23563
0.129656 0.333455 0.253635
0.325139 0.332067 0.313283
0.522332 0.367147 0.26566
0.744167 0.422278 0.204929
0.00344854 0.599786 0.356191
0.163653 0.59234 0.352407
0.393805 0.601862 0.361837
0.650172 0.60824 0.375174
0.904112 0.631357 0.387411
0.0449226 0.895628 0.370199
0.223316 0.890639 0.364843
0.416693 0.884031 0.336248
0.662196 0.866331 0.257023
0.951308 0.929976 0.880644
0.0148013 0.0419471 0.0793011
0.0217899 0.0652934 0.194797
0.164279 0.0774701 0.424308
0.481132 0.0325475 0.492744
0.77937 0 0.504494
0 0.200153 0.272297
0 0.19585 0.319234
0.122927 0.191394 0.447486
0.486549 0.151202 0.491905
0.797833 0.106966 0.492287
0 0.386938 0.358373
0 0.37464 0.380591
0.164431 0.379614 0.46276
0.564385 0.350866 0.552026
0.867903 0.363684 0.548135
0.0056611 0.623987 0.458213
0.155184 0.610834 0.465431
0.393637 0.617456 0.518807
0.639673 0.620356 0.596368
0.847333 0.659434 0.485267
0.0605478 0.884764 0.578546
0.197726 0.877516 0.580575
0.360571 0.873167 0.576837
0.594217 0.855207 0.527291
0.867247 0.819608 0.387793
0 0.0784314 0.247776
0 0.0917983 0.401694
0 0.117647 0.689982
0.271092 0.12549 0.806348
0.752941 0 0.831373
0 0.241794 0.527321
0 0.236088 0.577829
0 0.240284 0.695369
0.210071 0.228977 0.797726
0.773129 0.141665 0.827924
0 0.462623 0.623972
0 0.450706 0.647196
0 0.458824 0.725567
0.177981 0.461173 0.811032
0.847517 0.397757 0.8607
0 0.719356 0.710445
0 0.705043 0.71487
0 0.712398 0.761501
0.246906 0.711101 0.807248
0.854856 0.62533 0.85481
0 0.887831 0.659495
0.0195926 0.879622 0.664561
0.136507 0.869093 0.674861
0.495125 0.843717 0.697459
0.834714 0.815229 0.783703
