70 CGC LUTs/Look LUTs/Hannibal.cube
#Created by: Denver Riddle
#Copyright: (C) Copyright Color Grading Central LLC
#LUT Size
LUT_3D_SIZE 33
0 0 0
0 0 0
0 0 0
0 0 0
0 0 0
0.00334173 0.00334173 0.00334173
0.00399786 0.00392157 0.00392157
0.00770581 0.00769055 0.00769055
0.0116579 0.0116579 0.0116579
0.0200809 0.0155642 0.0117647
0.0347143 0.0196231 0.0126802
0.0550393 0.0267796 0.0154421
0.0778668 0.0313573 0.0156863
0.101915 0.0380713 0.0138247
0.127169 0.0423743 0.0137026
0.153918 0.0478981 0.012253
0.181445 0.05243 0.0117647
0.209354 0.0545815 0.0110781
0.237781 0.0577554 0.00843824
0.265766 0.0587778 0.00784314
0.295705 0.0588235 0.00784314
0.325612 0.0582742 0.00729381
0.359472 0.0557107 0.0047303
0.395407 0.0518654 0.00392157
0.431815 0.0478218 0.00355535
0.468025 0.04065 0.000640879
0.507286 0.0293736 0
0.543648 0.0207828 0
0.583032 0.00881971 0
0.622705 0.000869764 0
0.662379 0 0
0.702251 0 0
0.706264 0 0
0 0 0
0 0 0
0 0 0
0.000350958 0.000350958 0.000350958
0.000640879 0.000640879 0.000640879
0.00418097 0.00418097 0.00416571
0.00755322 0.00476081 0.00476081
0.00892653 0.00891127 0.00891127
0.0144198 0.0130617 0.0117647
0.0264744 0.0171511 0.0120851
0.0410773 0.0222477 0.014023
0.0620584 0.0289921 0.01561
0.0843977 0.0345312 0.0156863
0.108461 0.0408026 0.0138552
0.133944 0.0450752 0.012665
0.160479 0.0498817 0.011902
0.187655 0.0539559 0.0117647
0.212955 0.0572976 0.0107118
0.240482 0.0586862 0.00840772
0.271183 0.0588235 0.00784314
0.300786 0.0588235 0.00784314
0.328603 0.0588235 0.00720226
0.361578 0.0581216 0.00486763
0.397177 0.0556497 0.00392157
0.432776 0.0492866 0.00337224
0.46865 0.0413672 0.000869764
0.507103 0.0333715 0
0.543572 0.0248875 0
0.58201 0.0115511 0
0.619318 0.00192264 0
0.657511 0 0
0.699702 0 0
0.709575 0 0
0.00138857 0.00138857 0.00138857
0.00143435 0.00143435 0.00143435
0.0019379 0.0019379 0.00141909
0.00425727 0.00425727 0.00364691
0.00643931 0.00537118 0.00535592
0.00906386 0.00888075 0.00885023
0.0111238 0.0111238 0.00950637
0.0172732 0.0154421 0.0119631
0.0260319 0.0197452 0.0137942
0.0405432 0.0240024 0.0143282
0.058854 0.03093 0.0156405
0.0786297 0.0362554 0.0156863
0.100282 0.0419013 0.0140993
0.123674 0.0482643 0.0135195
0.148531 0.0527047 0.0121767
0.172351 0.0567636 0.0117647
0.198428 0.060853 0.0117647
0.223285 0.0624247 0.0106203
0.250385 0.0625772 0.00851453
0.277958 0.062623 0.00784314
0.306798 0.0627146 0.00784314
0.336217 0.0628672 0.00553903
0.367193 0.0621347 0.00392157
0.398901 0.0600748 0.00392157
0.434546 0.05449 0.00315862
0.469947 0.0488746 0.00109865
0.505714 0.041825 0
0.542 0.0318608 0
0.578225 0.0205539 0
0.615869 0.00779736 0
0.654398 0.000946059 0
0.694392 0 0
0.71136 0 0
0.00830091 0.00830091 0.00830091
0.00836194 0.00836194 0.00836194
0.00979629 0.00898756 0.00836194
0.0122835 0.0113222 0.00932326
0.015198 0.0139315 0.0117189
0.0184482 0.018265 0.013901
0.0250706 0.0227665 0.0141909
0.0361181 0.0272068 0.014435
0.0476844 0.031632 0.015671
0.0640879 0.038819 0.0156863
0.0839551 0.0442969 0.0156863
0.103655 0.0486152 0.0156863
0.123247 0.0529335 0.013489
0.145693 0.0572518 0.0131685
0.168688 0.0612802 0.0122225
0.191485 0.0652171 0.0117647
0.21471 0.0680095 0.0104829
0.23801 0.0700389 0.0096437
0.26392 0.070985 0.00857557
0.291157 0.0710918 0.00784314
0.317143 0.0712139 0.00680552
0.344549 0.0712596 0.00502022
0.375433 0.0697032 0.00392157
0.406439 0.0659037 0.00392157
0.439078 0.0619059 0.0030518
0.473945 0.0578622 0.00108339
0.508827 0.0522469 0
0.543893 0.0442664 0
0.579339 0.0347143 0
0.615259 0.0227359 0
0.652354 0.00924697 0
0.690776 0 0
0.715953 0 0
0.0176852 0.0206302 0.014725
0.0182498 0.0206912 0.0148013
0.0209964 0.0217746 0.0158541
0.0232547 0.0257877 0.0176547
0.027451 0.030396 0.0183871
0.0345769 0.0349432 0.0186618
0.0459754 0.0394141 0.0159762
0.0585336 0.0440986 0.0158999
0.0707713 0.0514076 0.0160067
0.0871901 0.0566567 0.0157168
0.105974 0.0610513 0.0156863
0.125048 0.0652934 0.0156863
0.146792 0.0694285 0.0134737
0.166567 0.0735027 0.0121157
0.187564 0.0751202 0.0117647
0.210178 0.0776074 0.0117647
0.232532 0.0796063 0.0104982
0.255482 0.0798352 0.00857557
0.279011 0.0814374 0.00784314
0.303883 0.0833143 0.00784314
0.329519 0.0825818 0.00688182
0.356374 0.0809186 0.00492866
0.386831 0.0796674 0.00392157
0.417517 0.0785077 0.00392157
0.448463 0.0744793 0.00296025
0.480247 0.0704662 6.10361e-05
0.515206 0.0656748 0
0.548989 0.0585489 0
0.581018 0.0527504 0
0.615976 0.0414435 0
0.650904 0.0291447 0
0.687526 0.0147402 0
0.721325 0 0
0.0267796 0.0450294 0.0194705
0.0276188 0.0450446 0.0194858
0.0306401 0.046479 0.0195621
0.03505 0.0509499 0.0196689
0.0408789 0.0552377 0.0196078
0.0517433 0.0595254 0.0196078
0.064271 0.0639353 0.0192264
0.0764782 0.0683909 0.0192874
0.0920729 0.0731823 0.0162356
0.107485 0.0773938 0.0157321
0.125963 0.0815442 0.0156863
0.144564 0.0855879 0.0156863
0.165759 0.0870069 0.013489
0.185534 0.0898146 0.0120851
0.206012 0.0915389 0.0117647
0.226184 0.0919051 0.0117647
0.246418 0.0937209 0.010605
0.269413 0.0958267 0.0084535
0.293828 0.0956436 0.00784314
0.319432 0.0956436 0.00784314
0.342657 0.0955978 0.00704967
0.368612 0.0947585 0.00471504
0.398535 0.091783 0.00392157
0.42916 0.0910048 0.00392157
0.459724 0.0869154 0.00354009
0.490639 0.0833143 0.000686656
0.521416 0.0822309 0
0.552636 0.0751202 0
0.586603 0.0706645 0
0.618372 0.0653849 0
0.653208 0.0565805 0
0.688792 0.043595 0
0.72874 0.0215 0
0.0313725 0.0754711 0.0235294
0.0323644 0.0753643 0.0235294
0.0367285 0.0766461 0.0235294
0.0415808 0.0781415 0.0234836
0.0492256 0.0808576 0.0205386
0.061326 0.0848249 0.0196231
0.0771496 0.0889143 0.0196078
0.0893263 0.0932174 0.0196078
0.107774 0.0937362 0.0162661
0.123415 0.0974746 0.0157321
0.141482 0.101442 0.0156863
0.162509 0.102922 0.0156252
0.181888 0.105684 0.0134585
0.200275 0.107179 0.0120394
0.220233 0.107408 0.0117647
0.240467 0.109087 0.0117647
0.261265 0.111208 0.0106966
0.285771 0.111147 0.00834669
0.309407 0.111025 0.00784314
0.333822 0.110903 0.00784314
0.358801 0.110216 0.00721752
0.384451 0.107301 0.00451667
0.411017 0.106859 0.00395209
0.441337 0.106432 0.00392157
0.471717 0.10251 0.00378424
0.499031 0.0986801 0.000457771
0.529686 0.0978714 0
0.560418 0.0935073 0
0.59147 0.0893111 0
0.622705 0.0848554 0
0.657374 0.0801404 0
0.692073 0.0714427 0
0.733593 0.0547036 0
0.030457 0.10518 0.0235294
0.0317693 0.104646 0.0235294
0.0367285 0.104128 0.0235294
0.0445563 0.105623 0.0235294
0.0536202 0.108965 0.0205539
0.0694591 0.109148 0.0196231
0.0857252 0.112917 0.0196078
0.101106 0.116793 0.0162051
0.11632 0.117006 0.0160067
0.134508 0.120607 0.0157321
0.152789 0.121416 0.0156863
0.173968 0.124651 0.0131838
0.193042 0.125948 0.0122683
0.213077 0.126101 0.0120089
0.232822 0.126329 0.0117647
0.252415 0.126406 0.0117647
0.274434 0.126482 0.0108034
0.297047 0.126406 0.00840772
0.320989 0.126024 0.0078584
0.347478 0.125795 0.00784314
0.372732 0.125719 0.00735485
0.397757 0.125521 0.00445563
0.424109 0.121645 0.00434882
0.450965 0.121386 0.00392157
0.481437 0.120882 0.00392157
0.508309 0.116701 0.0037232
0.535348 0.116121 0.00361639
0.565866 0.111986 0.000228885
0.597055 0.110811 0
0.631113 0.106584 0
0.662562 0.102174 0
0.699779 0.0941176 0
0.741009 0.0817426 0
0.0228428 0.133165 0.0235294
0.0244907 0.132418 0.0235294
0.0314946 0.133364 0.0235294
0.0409705 0.133898 0.0234684
0.0564126 0.13315 0.0205692
0.0734569 0.136065 0.0196231
0.0899214 0.135973 0.0196078
0.10901 0.139651 0.0160983
0.124025 0.139712 0.016022
0.142214 0.140078 0.0157321
0.163561 0.143359 0.0156863
0.18233 0.144366 0.0131991
0.202655 0.144564 0.0122377
0.221958 0.14464 0.0119936
0.241474 0.144717 0.0117647
0.263127 0.144869 0.0117647
0.285008 0.144869 0.0117494
0.308309 0.14464 0.0108797
0.33402 0.144259 0.00816358
0.357504 0.143954 0.00784314
0.382773 0.14345 0.00781262
0.407904 0.140246 0.00762951
0.43415 0.139803 0.00758373
0.46067 0.139345 0.00747692
0.49102 0.135607 0.00421149
0.517876 0.134539 0.00395209
0.544625 0.134035 0.00392157
0.575341 0.133089 0.00328069
0.606027 0.129595 0.00311284
0.637522 0.125277 0.00300603
0.670939 0.123384 0.000366217
0.708782 0.115969 0
0.747845 0.106844 0
0.0169223 0.159899 0.0235294
0.0181277 0.15903 0.0234226
0.0241398 0.157885 0.0234073
0.0366217 0.157427 0.021149
0.0536507 0.159213 0.0197147
0.0738384 0.158846 0.0196078
0.0936141 0.158358 0.0195468
0.112856 0.16202 0.0160983
0.131426 0.161944 0.0157473
0.149935 0.162127 0.0156863
0.171145 0.162554 0.0156863
0.189654 0.162631 0.0154269
0.209934 0.162799 0.0134127
0.231083 0.162875 0.0122225
0.252415 0.163027 0.0120241
0.273838 0.163027 0.0117647
0.295567 0.162951 0.0117647
0.318624 0.162631 0.0116884
0.344335 0.162249 0.0113069
0.36788 0.161944 0.0112154
0.39324 0.161471 0.0108797
0.418128 0.157946 0.00807202
0.44416 0.157565 0.00802625
0.470741 0.157183 0.00794995
0.498024 0.155978 0.0071107
0.527764 0.155367 0.00694286
0.554833 0.152285 0.00686656
0.585092 0.151431 0.00675975
0.615824 0.149935 0.00666819
0.646632 0.145769 0.00428778
0.680507 0.144579 0.00274662
0.718563 0.139605 0.000396735
0.758556 0.131823 0
0.00743114 0.182757 0.0233158
0.0096437 0.182452 0.0221714
0.016968 0.183276 0.0207828
0.0318456 0.182757 0.0205844
0.050309 0.181811 0.0196536
0.0742046 0.180911 0.0196078
0.094728 0.180392 0.0194858
0.114092 0.180926 0.0161746
0.135821 0.18381 0.0160678
0.157 0.183825 0.0157168
0.175845 0.183825 0.0156863
0.196063 0.183917 0.0156863
0.21709 0.183917 0.0152895
0.236851 0.1841 0.0150759
0.257969 0.182696 0.0150454
0.281224 0.180865 0.014023
0.3037 0.180713 0.0121462
0.32845 0.180407 0.0120851
0.352544 0.180026 0.0120089
0.378317 0.179721 0.0119631
0.403311 0.179294 0.0118715
0.425361 0.175677 0.0110475
0.454093 0.175265 0.0108949
0.480873 0.174807 0.0106661
0.507561 0.174411 0.0105745
0.535607 0.174029 0.0104982
0.564828 0.172381 0.0104067
0.593103 0.171572 0.0102998
0.625559 0.170932 0.00819409
0.656748 0.168963 0.00643931
0.691066 0.166339 0.00610361
0.728923 0.162188 0.00276188
0.76997 0.15639 0.000396735
0.0028687 0.208576 0.0212863
0.00610361 0.207538 0.0211185
0.0135348 0.206134 0.0208896
0.0291295 0.204807 0.0198978
0.0501564 0.203525 0.0196078
0.0750591 0.202609 0.0196078
0.0954452 0.202152 0.0195621
0.117372 0.201816 0.0186618
0.139666 0.202533 0.0162356
0.161425 0.202487 0.0160372
0.182025 0.202411 0.016022
0.203067 0.202411 0.0157778
0.224308 0.202564 0.0156863
0.243427 0.202564 0.0156863
0.264546 0.202014 0.0156863
0.288197 0.201404 0.0153658
0.310857 0.201221 0.014786
0.336187 0.200336 0.0149538
0.359854 0.197711 0.0147707
0.386175 0.19733 0.0146181
0.411215 0.19707 0.0145571
0.434867 0.19585 0.0145418
0.462196 0.195377 0.0144045
0.491356 0.19501 0.0142519
0.518181 0.194461 0.0141146
0.544823 0.193896 0.014023
0.57499 0.193347 0.0139315
0.604059 0.192706 0.0138247
0.636271 0.192248 0.0104067
0.667704 0.191791 0.00973526
0.701686 0.189364 0.00962844
0.739544 0.185122 0.00630198
0.780804 0.180865 0.00241093
0.000122072 0.230457 0.0213931
0.00257877 0.229252 0.0211948
0.0100862 0.227878 0.0209506
0.0259556 0.226413 0.0205234
0.0504463 0.225208 0.0196231
0.075639 0.224201 0.0196078
0.0982986 0.22356 0.0196078
0.121111 0.223102 0.0195621
0.143313 0.222827 0.0183871
0.165057 0.222644 0.0183413
0.186679 0.222736 0.0183566
0.207904 0.222736 0.0182193
0.228916 0.222644 0.0181582
0.249409 0.221332 0.0181582
0.270573 0.220172 0.0181582
0.293507 0.22002 0.0181277
0.317968 0.22002 0.0182498
0.342947 0.219379 0.0184634
0.366796 0.217624 0.0182803
0.393469 0.217151 0.0181277
0.420432 0.216968 0.0180667
0.445274 0.216876 0.0180362
0.471656 0.216693 0.0179599
0.501823 0.216144 0.017792
0.528756 0.215595 0.0176242
0.555398 0.215045 0.0175326
0.585718 0.214588 0.0174563
0.616449 0.214038 0.0173648
0.647471 0.213565 0.0139315
0.678492 0.21442 0.0132906
0.713893 0.214008 0.0119783
0.751965 0.210193 0.00962844
0.793301 0.206851 0.00488289
0 0.252049 0.0214542
0.000396735 0.250767 0.0212406
0.00794995 0.249302 0.0209964
0.0251926 0.247913 0.0207675
0.0506142 0.246632 0.0202335
0.0760204 0.245533 0.0200656
0.10193 0.244785 0.0199741
0.124651 0.244327 0.019913
0.146838 0.244053 0.0198825
0.168704 0.243961 0.0198825
0.190188 0.24387 0.0198825
0.211337 0.24387 0.0211948
0.232547 0.243778 0.0216831
0.253697 0.242802 0.0216831
0.275685 0.24094 0.0216678
0.299733 0.239857 0.0216831
0.324926 0.239673 0.0217594
0.350362 0.239307 0.021973
0.375616 0.238758 0.0217899
0.402197 0.2383 0.0218967
0.429541 0.2383 0.0233463
0.456016 0.238209 0.0233158
0.482231 0.237842 0.0231479
0.512444 0.237385 0.0229496
0.539376 0.238239 0.0227359
0.566155 0.237858 0.0212558
0.596841 0.237537 0.0210422
0.627573 0.236881 0.0209506
0.658595 0.237461 0.0185702
0.690593 0.239261 0.0170291
0.728527 0.2392 0.0134127
0.767285 0.236194 0.0128023
0.808423 0.23566 0.00614939
0 0.273381 0.0230869
0 0.272084 0.0229191
0.00631724 0.270802 0.0227207
0.0249943 0.269245 0.0224613
0.0506142 0.267857 0.0221866
0.0778821 0.266758 0.0219577
0.103517 0.265934 0.0217899
0.126574 0.265568 0.0216983
0.150454 0.265293 0.0216373
0.172137 0.26511 0.0215915
0.19353 0.265019 0.0217288
0.214755 0.264927 0.0231785
0.236927 0.264927 0.0246433
0.258885 0.264927 0.0251926
0.281834 0.264057 0.0252079
0.306676 0.262669 0.0251926
0.33193 0.262455 0.0252842
0.358297 0.262028 0.0254673
0.386175 0.261387 0.0252995
0.412741 0.261067 0.0258183
0.438224 0.26096 0.0288701
0.466773 0.26096 0.0288701
0.493004 0.260517 0.028809
0.522148 0.259983 0.0287327
0.550195 0.263035 0.0286564
0.577493 0.26305 0.0250401
0.607965 0.262623 0.0246281
0.638987 0.263005 0.0245518
0.670054 0.265263 0.0244907
0.705486 0.265827 0.0209201
0.743435 0.265568 0.0169528
0.782818 0.266178 0.0157626
0.8224 0.266133 0.00943008
0 0.29752 0.0248264
0 0.296117 0.0246128
0.00730907 0.294301 0.0243381
0.0267033 0.292485 0.0241245
0.0521096 0.290867 0.0239414
0.081117 0.289479 0.0238804
0.104891 0.288731 0.0249943
0.129198 0.288182 0.024918
0.153674 0.287861 0.0248722
0.175265 0.287648 0.0248417
0.196841 0.287434 0.0250553
0.218936 0.287434 0.0252079
0.242252 0.287434 0.0267033
0.265187 0.287541 0.0281987
0.288594 0.287541 0.028748
0.313542 0.287434 0.0287327
0.338781 0.287221 0.0287785
0.365652 0.2869 0.0289311
0.396002 0.286473 0.0289006
0.423453 0.286046 0.0292058
0.449042 0.285939 0.0315251
0.477531 0.286046 0.0324559
0.503868 0.286595 0.0323949
0.531838 0.286397 0.0323644
0.561608 0.288808 0.0323186
0.589685 0.289403 0.0294804
0.619577 0.288975 0.0283513
0.650706 0.292088 0.0282139
0.68278 0.292165 0.0281834
0.721523 0.295842 0.0244907
0.757916 0.295949 0.0205234
0.797208 0.29958 0.016556
0.839338 0.30042 0.0126497
0 0.323598 0.0266117
0 0.321874 0.0263981
0.00822461 0.319814 0.0261082
0.0277867 0.318791 0.0257877
0.0536965 0.317037 0.025452
0.0829938 0.315816 0.0252842
0.10695 0.314702 0.0276036
0.133516 0.314092 0.0275731
0.155764 0.313726 0.0275578
0.178042 0.312612 0.0282902
0.199817 0.313176 0.0283818
0.224063 0.313481 0.0285954
0.246952 0.313481 0.028687
0.270527 0.313481 0.0300755
0.295293 0.313481 0.0314641
0.320287 0.313481 0.0317235
0.345892 0.313359 0.0323033
0.373663 0.313115 0.0323339
0.404211 0.312627 0.0324254
0.433417 0.312139 0.0323186
0.459693 0.3122 0.0325933
0.488548 0.313054 0.0353246
0.515145 0.31606 0.0353399
0.545876 0.315816 0.0360113
0.573312 0.316243 0.0360113
0.604196 0.319066 0.0353552
0.632639 0.319753 0.0323033
0.664027 0.322774 0.0320439
0.69984 0.323552 0.0320287
0.7355 0.326696 0.0282139
0.775128 0.327352 0.0248722
0.814572 0.331167 0.0208743
0.852903 0.335195 0.0163424
0 0.351354 0.0282902
0 0.349294 0.0280919
0.00531014 0.346944 0.0278935
0.0240482 0.347021 0.0277409
0.0504463 0.346075 0.0276341
0.0807813 0.344488 0.0275578
0.105592 0.343511 0.0284886
0.131579 0.342885 0.0283665
0.154589 0.342519 0.0282902
0.179568 0.339666 0.0308385
0.202396 0.341619 0.0313725
0.226398 0.342397 0.0313878
0.251179 0.342519 0.0314031
0.276051 0.342519 0.0317845
0.301091 0.342641 0.0322271
0.326635 0.342763 0.0330968
0.353094 0.342763 0.0353094
0.383062 0.342535 0.0354314
0.413458 0.342275 0.0359045
0.441154 0.342351 0.035874
0.470375 0.342702 0.035996
0.499641 0.34641 0.0361639
0.526497 0.346441 0.0361639
0.55761 0.347082 0.0391241
0.585168 0.350118 0.0398413
0.61651 0.350866 0.0362554
0.648249 0.354086 0.0361334
0.680034 0.35494 0.0361486
0.715801 0.358099 0.0359197
0.752132 0.358801 0.0321813
0.790997 0.362463 0.0318914
0.830121 0.365988 0.0278019
0.864439 0.369802 0.0202792
0 0.381277 0.0299229
0 0.379141 0.029633
0.00120546 0.376699 0.0292668
0.0151675 0.376257 0.0289311
0.0413367 0.375128 0.0285496
0.0742351 0.373648 0.0282139
0.10309 0.372671 0.0310979
0.126787 0.372183 0.0313725
0.152575 0.372061 0.0313725
0.178286 0.371817 0.0313725
0.203479 0.371817 0.0313725
0.228367 0.371939 0.0316167
0.253483 0.372274 0.0317998
0.278599 0.372625 0.0332189
0.305028 0.373037 0.0352941
0.333089 0.373312 0.0354162
0.359655 0.373312 0.0358282
0.389868 0.37319 0.036286
0.421073 0.373495 0.0392157
0.452079 0.376532 0.0392767
0.481819 0.377646 0.0397803
0.510613 0.378332 0.0400092
0.53814 0.378485 0.0400397
0.569375 0.381643 0.0400397
0.596979 0.382376 0.0430457
0.628611 0.385702 0.0401923
0.660349 0.38645 0.0401007
0.692454 0.389548 0.0400397
0.727672 0.389822 0.039826
0.766217 0.393179 0.0359503
0.801678 0.396536 0.0357824
0.840436 0.400198 0.0318456
0.874876 0.403494 0.0241093
0 0.413092 0.0313725
0 0.411307 0.0313725
0 0.409094 0.0313725
0.00605783 0.40676 0.0313725
0.031754 0.404822 0.0313725
0.0657054 0.403174 0.0313725
0.0974594 0.402213 0.0313725
0.125261 0.401785 0.0313725
0.151354 0.401511 0.0313725
0.17969 0.401373 0.0313725
0.206104 0.401511 0.0314794
0.231205 0.401785 0.0336156
0.258061 0.403769 0.0352941
0.285496 0.406363 0.0352941
0.312047 0.406958 0.0353857
0.341222 0.40737 0.0364385
0.370947 0.407919 0.0392157
0.401495 0.408057 0.0392157
0.43299 0.408057 0.039292
0.46421 0.408759 0.0402075
0.493675 0.412299 0.0431373
0.519417 0.413489 0.0431678
0.550256 0.413779 0.043183
0.58143 0.41384 0.0437629
0.609171 0.417609 0.044007
0.640787 0.417273 0.0439307
0.67187 0.420661 0.0438544
0.706172 0.420233 0.0436408
0.741695 0.423468 0.0435798
0.776364 0.426535 0.0400702
0.814496 0.429603 0.0394903
0.848905 0.432334 0.0357061
0.88278 0.435172 0.0283055
0 0.445365 0.0313725
0 0.443565 0.0313725
0 0.441367 0.0313725
0 0.439155 0.0313725
0.0236362 0.437079 0.0313725
0.0644541 0.435569 0.0313725
0.0944228 0.435019 0.0313725
0.127749 0.43447 0.0313725
0.155108 0.434333 0.0313725
0.183597 0.434333 0.0313725
0.212497 0.434607 0.033875
0.239399 0.435294 0.0352941
0.266697 0.435981 0.0352941
0.295766 0.438315 0.0353094
0.324681 0.441291 0.0366979
0.353964 0.44184 0.0392157
0.384131 0.44239 0.039292
0.415076 0.442939 0.0396887
0.446479 0.442939 0.040528
0.477211 0.443076 0.0431373
0.506294 0.444007 0.0432746
0.532326 0.447822 0.0440223
0.562783 0.447684 0.0440375
0.593515 0.447578 0.0470588
0.620829 0.451041 0.0471046
0.655451 0.45037 0.047425
0.686122 0.453346 0.0473335
0.716655 0.452354 0.0472114
0.754559 0.45507 0.0471046
0.789425 0.458 0.0469368
0.824079 0.461051 0.0432898
0.859068 0.464393 0.0393378
0.893858 0.467994 0.0352178
0 0.477623 0.0313725
0 0.475685 0.0313725
0 0.473625 0.0313725
0 0.47155 0.0313725
0.0185855 0.469902 0.0313725
0.0643931 0.46865 0.0313725
0.101472 0.467826 0.0313725
0.13283 0.467552 0.0313725
0.162768 0.467689 0.0313725
0.192432 0.467964 0.0341955
0.219364 0.468803 0.0352331
0.247227 0.46949 0.0352941
0.276249 0.470176 0.0352941
0.305409 0.472908 0.0354314
0.334554 0.475608 0.0370947
0.365179 0.476295 0.0392309
0.397406 0.477134 0.0403601
0.428061 0.477272 0.0431373
0.458106 0.476997 0.0431373
0.486275 0.476875 0.0432441
0.51548 0.47808 0.0441749
0.544213 0.480919 0.0470588
0.574563 0.480781 0.0470588
0.6047 0.480003 0.0470741
0.631189 0.482719 0.0473945
0.665248 0.481804 0.050782
0.695811 0.48455 0.0508125
0.730556 0.484352 0.0507668
0.76585 0.487495 0.0507057
0.801114 0.490883 0.0472419
0.836408 0.494408 0.0466926
0.871611 0.498054 0.0429084
0.906584 0.505104 0.0390021
0 0.511238 0.0313725
0 0.509407 0.0313725
0 0.507103 0.0313725
0 0.505196 0.0313725
0.0237583 0.50367 0.0313725
0.06804 0.502708 0.0313725
0.105547 0.502297 0.0313725
0.140078 0.502297 0.0313725
0.17084 0.502571 0.0313725
0.201007 0.503258 0.0316625
0.230289 0.503944 0.0343481
0.259388 0.504646 0.0352941
0.288716 0.507729 0.0352941
0.317739 0.510079 0.0354772
0.346883 0.510765 0.0372168
0.376074 0.511177 0.0393988
0.40528 0.51136 0.0406806
0.435508 0.51133 0.0431373
0.466209 0.510719 0.0431373
0.496376 0.510719 0.0432136
0.525246 0.513726 0.0439002
0.553338 0.513451 0.0470588
0.582971 0.512627 0.0470588
0.613367 0.51545 0.0471962
0.640528 0.515282 0.0504921
0.674891 0.514885 0.0509499
0.706752 0.51841 0.0509804
0.744976 0.518257 0.0509804
0.780652 0.521675 0.0509804
0.816098 0.525353 0.0505684
0.848234 0.52903 0.0505226
0.883604 0.532845 0.0467231
0.91577 0.540856 0.0428168
0 0.548562 0.0309911
0 0.547204 0.0311437
0 0.545663 0.0313115
0.00238041 0.54403 0.0313725
0.0359197 0.542489 0.0313725
0.0824903 0.541421 0.0313725
0.116854 0.540963 0.0313725
0.148577 0.541268 0.0313725
0.182315 0.541726 0.0314031
0.21265 0.542336 0.0314488
0.242008 0.542947 0.034287
0.270939 0.54342 0.0352941
0.299626 0.543938 0.0352941
0.328618 0.544549 0.0354314
0.357305 0.544961 0.0370336
0.385977 0.544961 0.0393225
0.414816 0.545556 0.0403449
0.444236 0.547799 0.0431373
0.474388 0.546563 0.0431525
0.504601 0.545998 0.0435798
0.533471 0.54612 0.0467536
0.562356 0.546395 0.0470436
0.58938 0.549599 0.0471046
0.623438 0.549874 0.0503395
0.654383 0.549493 0.0509499
0.686366 0.55288 0.0509804
0.721035 0.553246 0.0509804
0.756756 0.556374 0.0542153
0.792447 0.560159 0.0544747
0.828107 0.563973 0.0544594
0.860349 0.568124 0.0544747
0.892363 0.571923 0.0506447
0.923629 0.579629 0.0433661
0.000289921 0.584207 0.0271763
0.000427253 0.583459 0.0272526
0.000381476 0.58146 0.0275731
0.0213779 0.579644 0.0277867
0.0576791 0.580865 0.0278019
0.098909 0.580789 0.0278019
0.135576 0.580484 0.0278325
0.164004 0.580636 0.0309758
0.193942 0.580636 0.0313725
0.226246 0.580789 0.0313725
0.253483 0.580941 0.0316167
0.281071 0.581247 0.0317082
0.309712 0.581552 0.0335851
0.337728 0.581399 0.0352941
0.365698 0.581094 0.0354009
0.393912 0.580789 0.036408
0.422751 0.581018 0.0392615
0.452796 0.5841 0.0396277
0.483833 0.583795 0.0399786
0.514504 0.58349 0.0431678
0.543877 0.58381 0.043595
0.56968 0.587518 0.0467994
0.602808 0.588281 0.0470588
0.635019 0.588479 0.0473945
0.666545 0.591699 0.0506447
0.697871 0.592218 0.0509804
0.733028 0.595315 0.0509804
0.771634 0.595834 0.0545815
0.80444 0.599374 0.054902
0.836896 0.603525 0.054902
0.868498 0.607324 0.054902
0.900221 0.614527 0.0510872
0.927993 0.618936 0.0434119
0.00416571 0.628122 0.0234684
0.00782788 0.626474 0.0236057
0.0247807 0.624445 0.0238041
0.0516213 0.622522 0.0260929
0.0818189 0.620859 0.027451
0.112139 0.619699 0.027451
0.147005 0.618936 0.027451
0.177768 0.618631 0.027863
0.204623 0.621042 0.0279698
0.23331 0.621378 0.0280003
0.261463 0.621042 0.0280308
0.289555 0.621042 0.0280308
0.317525 0.620706 0.0297551
0.34583 0.620706 0.0319829
0.374304 0.620874 0.0319677
0.40325 0.621378 0.0325322
0.432868 0.62211 0.0358129
0.46331 0.625818 0.0360266
0.494255 0.625483 0.0392462
0.521965 0.625483 0.0397498
0.551629 0.626154 0.0396887
0.580407 0.630411 0.0432136
0.614878 0.631083 0.0435187
0.646693 0.631251 0.0466926
0.678019 0.634607 0.0474098
0.712703 0.635004 0.0474403
0.744854 0.638392 0.0506447
0.780423 0.63859 0.0513619
0.812955 0.642603 0.0513619
0.844633 0.646235 0.0513924
0.876371 0.650202 0.0513924
0.904585 0.654398 0.0476081
0.931945 0.65832 0.0399176
0.0163577 0.675563 0.0159152
0.0178988 0.673579 0.0159304
0.0340581 0.670787 0.0175631
0.0626535 0.668193 0.0199283
0.0931411 0.666178 0.0203403
0.122225 0.664149 0.020676
0.153307 0.662501 0.0209506
0.18352 0.661402 0.0211337
0.212177 0.663264 0.0212863
0.240757 0.662104 0.0213474
0.268025 0.661158 0.0213169
0.295277 0.662928 0.0212558
0.324056 0.665141 0.0226596
0.353613 0.66569 0.0249943
0.384146 0.666239 0.0255741
0.411399 0.667338 0.0281376
