70 CGC LUTs/Look LUTs/Mad Max.cube
#Created by: Denver Riddle
#Copyright: (C) Copyright Color Grading Central LLC
#LUT Size
LUT_3D_SIZE 5
0 0 0
0.0117647 0.0156863 0.0117647
0.372549 0 0
0.984314 0 0
1 0 0.0666667
0 0.160784 0.0117647
0.0745098 0.164706 0
0.541176 0.0784314 0
0.945098 0 0
1 0 0.0352941
0 0.376471 0
0.192157 0.368627 0
0.517647 0.345098 0
0.847059 0.313726 0
1 0.321569 0
0.176471 0.643137 0
0.282353 0.643137 0
0.529412 0.639216 0
0.811765 0.635294 0
1 0.627451 0
0.580392 0.94902 0
0.623529 0.94902 0
0.752941 0.945098 0
0.898039 0.937255 0
1 0.913725 0.0588235
0 0 0
0.0156863 0.027451 0.0313725
0.439216 0 0.117647
0.952941 0 0.0745098
1 0 0.0980392
0 0.180392 0.113725
0.054902 0.172549 0.121569
0.517647 0.0941176 0.0784314
0.909804 0 0.0509804
1 0 0.0862745
0 0.380392 0.113725
0.156863 0.376471 0.113725
0.478431 0.360784 0.0823529
0.827451 0.329412 0.0313725
1 0.32549 0.0509804
0.141176 0.647059 0.0627451
0.254902 0.647059 0.0627451
0.505882 0.647059 0.0313725
0.792157 0.643137 0
1 0.623529 0
0.12549 0.929412 0
0.243137 0.929412 0
0.509804 0.921569 0
0.898039 0.937255 0
1 0.913725 0.0588235
0.0117647 0.0196078 0.0196078
0.0156863 0.054902 0.105882
0.313726 0.0352941 0.270588
0.717647 0 0.333333
1 0 0.34902
0 0.2 0.258824
0 0.2 0.294118
0.364706 0.156863 0.298039
0.792157 0 0.329412
1 0 0.329412
0 0.388235 0.27451
0.160784 0.384314 0.282353
0.443137 0.372549 0.290196
0.823529 0.341176 0.243137
1 0.341176 0.247059
0.129412 0.654902 0.305882
0.235294 0.654902 0.309804
0.470588 0.654902 0.309804
0.756863 0.654902 0.278431
1 0.631373 0.196078
0 0.917647 0.227451
0 0.917647 0.219608
0.313726 0.905882 0.180392
0.603922 0.890196 0.0352941
1 0.913725 0.0666667
0 0.0666667 0.164706
0 0.0745098 0.298039
0.286275 0.054902 0.509804
0.603922 0 0.537255
0.94902 0 0.596078
0 0.223529 0.486275
0 0.227451 0.509804
0.298039 0.176471 0.52549
0.623529 0.145098 0.54902
0.972549 0 0.611765
0 0.462745 0.658824
0 0.466667 0.658824
0 0.482353 0.647059
0.666667 0.384314 0.568627
1 0.333333 0.627451
0.113725 0.662745 0.517647
0.231373 0.662745 0.52549
0.458824 0.662745 0.54902
0.713726 0.658824 0.564706
1 0.615686 0.478431
0 0.905882 0.478431
0 0.905882 0.47451
0.215686 0.894118 0.454902
0.52549 0.878431 0.4
0.921569 0.854902 0.25098
0 0.0823529 0.65098
0 0.0823529 0.768627
0.027451 0.0901961 0.858824
0.478431 0.0823529 0.878431
0.878431 0 0.894118
0 0.223529 0.831373
0 0.219608 0.839216
0.0627451 0.207843 0.854902
0.490196 0.2 0.878431
0.894118 0.137255 0.898039
0 0.45098 0.843137
0 0.447059 0.847059
0.117647 0.443137 0.858824
0.513726 0.443137 0.882353
0.917647 0.419608 0.901961
0 0.713726 0.858824
0 0.709804 0.858824
0.14902 0.705882 0.866667
0 0.752941 0.878431
0.894118 0.619608 0.87451
0 0.894118 0.784314
0 0.890196 0.784314
0 0.882353 0.776471
0.403922 0.862745 0.764706
0.894118 0.870588 0.823529
