70 CGC LUTs/Look LUTs/Mad Max.cube
#Created by: Denver Riddle
#Copyright: (C) Copyright Color Grading Central LLC
#LUT Size
LUT_3D_SIZE 9
0 0 0
0 0 0
0.0117647 0.0156863 0.0117647
0.0509804 0.0509804 0.0156863
0.372549 0 0
0.776471 0 0
0.984314 0 0
1 0 0
1 0 0.0666667
0.0117647 0.0235294 0.0156863
0.0117647 0.0352941 0.0196078
0.0196078 0.0627451 0.0196078
0.160784 0.0745098 0.00392157
0.486275 0 0
0.796078 0 0
0.984314 0 0
1 0 0
1 0 0.0588235
0 0.160784 0.0117647
0 0.164706 0.0117647
0.0745098 0.164706 0
0.301961 0.141176 0
0.541176 0.0784314 0
0.772549 0 0
0.945098 0 0
1 0 0
1 0 0.0352941
0 0.278431 0
0 0.278431 0
0.129412 0.262745 0
0.333333 0.243137 0
0.517647 0.219608 0
0.705882 0.180392 0
0.890196 0.121569 0
1 0.0823529 0
1 0.145098 0
0 0.376471 0
0.00784314 0.376471 0
0.192157 0.368627 0
0.34902 0.360784 0
0.517647 0.345098 0
0.686275 0.329412 0
0.847059 0.313726 0
0.984314 0.301961 0
1 0.321569 0
0.0980392 0.501961 0
0.129412 0.501961 0
0.235294 0.498039 0
0.372549 0.494118 0
0.521569 0.490196 0
0.682353 0.482353 0
0.823529 0.47451 0
0.956863 0.470588 0
1 0.478431 0
0.176471 0.643137 0
0.2 0.643137 0
0.282353 0.643137 0
0.396078 0.643137 0
0.529412 0.639216 0
0.67451 0.635294 0
0.811765 0.635294 0
0.937255 0.631373 0
1 0.627451 0
0.227451 0.807843 0
0.247059 0.807843 0
0.313726 0.807843 0
0.415686 0.803922 0
0.533333 0.803922 0
0.658824 0.8 0
0.780392 0.792157 0
0.905882 0.776471 0
1 0.74902 0
0.580392 0.94902 0
0.592157 0.94902 0
0.623529 0.94902 0
0.686275 0.94902 0
0.752941 0.945098 0
0.827451 0.945098 0
0.898039 0.937255 0
0.956863 0.929412 0
1 0.913725 0.0588235
0 0 0
0.00392157 0.00392157 0.00392157
0.0117647 0.0196078 0.0196078
0.0980392 0.0509804 0.0392157
0.439216 0 0.0156863
0.772549 0 0
0.968627 0 0
1 0 0
1 0 0.0470588
0.00784314 0.0352941 0.0235294
0.00784314 0.0509804 0.0352941
0.0235294 0.0705882 0.0470588
0.203922 0.0666667 0.0313725
0.509804 0 0.00784314
0.784314 0 0
0.960784 0 0
1 0 0
1 0 0.0431373
0 0.168627 0.054902
0 0.172549 0.0509804
0.0588235 0.168627 0.0431373
0.286275 0.145098 0.0156863
0.521569 0.0901961 0
0.752941 0 0
0.929412 0 0
1 0 0
1 0 0.0235294
0 0.282353 0.027451
0 0.278431 0.0235294
0.113725 0.266667 0.0196078
0.313726 0.247059 0.00392157
0.501961 0.223529 0
0.694118 0.184314 0
0.882353 0.129412 0
1 0.0901961 0
1 0.14902 0
0 0.380392 0.00392157
0 0.376471 0.00392157
0.176471 0.372549 0
0.337255 0.364706 0
0.505882 0.34902 0
0.67451 0.333333 0
0.839216 0.317647 0
0.980392 0.305882 0
1 0.321569 0
0.0823529 0.501961 0
0.117647 0.501961 0
0.227451 0.501961 0
0.364706 0.498039 0
0.513726 0.494118 0
0.670588 0.486275 0
0.819608 0.478431 0
0.952941 0.470588 0
1 0.478431 0
0.168627 0.643137 0
0.192157 0.643137 0
0.27451 0.643137 0
0.388235 0.643137 0
0.52549 0.639216 0
0.666667 0.639216 0
0.807843 0.635294 0
0.933333 0.635294 0
1 0.627451 0
0.219608 0.807843 0
0.239216 0.807843 0
0.309804 0.807843 0
0.407843 0.807843 0
0.52549 0.803922 0
0.65098 0.8 0
0.776471 0.792157 0
0.901961 0.776471 0
1 0.74902 0
0.482353 0.941176 0
0.513726 0.941176 0
0.623529 0.94902 0
0.686275 0.94902 0
0.752941 0.945098 0
0.827451 0.945098 0
0.898039 0.937255 0
0.956863 0.929412 0
1 0.913725 0.0588235
0 0 0
0.00784314 0.00784314 0.00392157
0.0156863 0.027451 0.0313725
0.0980392 0.054902 0.0901961
0.439216 0 0.117647
0.764706 0 0.101961
0.952941 0 0.0745098
1 0 0.0862745
1 0 0.0980392
0.00392157 0.0470588 0.0392157
0 0.0588235 0.054902
0.0196078 0.0784314 0.0901961
0.184314 0.0745098 0.117647
0.505882 0 0.113725
0.768627 0 0.0823529
0.945098 0 0.0666667
1 0 0.0823529
1 0 0.0941176
0 0.180392 0.113725
0 0.180392 0.117647
0.054902 0.172549 0.121569
0.286275 0.14902 0.0980392
0.517647 0.0941176 0.0784314
0.729412 0 0.0627451
0.909804 0 0.0509804
1 0 0.0509804
1 0 0.0862745
0 0.282353 0.121569
0 0.278431 0.121569
0.0980392 0.270588 0.121569
0.282353 0.254902 0.105882
0.478431 0.231373 0.0823529
0.678431 0.2 0.054902
0.87451 0.14902 0.0392157
1 0.117647 0.0352941
1 0.145098 0.0745098
0 0.380392 0.113725
0 0.380392 0.113725
0.156863 0.376471 0.113725
0.309804 0.368627 0.101961
0.478431 0.360784 0.0823529
0.654902 0.345098 0.0627451
0.827451 0.329412 0.0313725
0.976471 0.321569 0
1 0.32549 0.0509804
0.0392157 0.505882 0.0941176
0.0862745 0.505882 0.0941176
0.203922 0.505882 0.0941176
0.341176 0.505882 0.0862745
0.490196 0.501961 0.0705882
0.65098 0.494118 0.0431373
0.803922 0.486275 0.00784314
0.945098 0.478431 0
1 0.482353 0
0.141176 0.647059 0.0627451
0.168627 0.647059 0.0627451
0.254902 0.647059 0.0627451
0.368627 0.647059 0.0509804
0.505882 0.647059 0.0313725
0.647059 0.643137 0
0.792157 0.643137 0
0.92549 0.639216 0
1 0.623529 0
0.2 0.807843 0
0.219608 0.807843 0
0.290196 0.807843 0
0.392157 0.807843 0
0.509804 0.803922 0
0.635294 0.8 0
0.760784 0.792157 0
0.886275 0.772549 0
1 0.741176 0
0.12549 0.929412 0
0.156863 0.929412 0
0.243137 0.929412 0
0.360784 0.92549 0
0.509804 0.921569 0
0.827451 0.945098 0
0.898039 0.937255 0
0.956863 0.929412 0
1 0.913725 0.0588235
0.00784314 0.00784314 0.00784314
0.0117647 0.0117647 0.0117647
0.0156863 0.0392157 0.0588235
0.121569 0.0588235 0.145098
0.32549 0.0235294 0.196078
0.615686 0 0.223529
0.890196 0 0.219608
1 0 0.207843
1 0 0.211765
0 0.0666667 0.0705882
0 0.0745098 0.0901961
0.0117647 0.0901961 0.141176
0.176471 0.0784314 0.180392
0.368627 0.0431373 0.207843
0.647059 0 0.223529
0.894118 0 0.211765
1 0 0.196078
1 0 0.207843
0 0.192157 0.184314
0 0.192157 0.192157
0 0.188235 0.211765
0.223529 0.164706 0.207843
0.45098 0.117647 0.211765
0.694118 0 0.2
0.894118 0 0.176471
1 0 0.160784
1 0 0.192157
0 0.286275 0.192157
0 0.282353 0.192157
0.105882 0.270588 0.196078
0.266667 0.258824 0.2
0.478431 0.235294 0.172549
0.678431 0.203922 0.152941
0.866667 0.156863 0.145098
1 0.12549 0.141176
1 0.164706 0.152941
0 0.384314 0.196078
0 0.380392 0.2
0.160784 0.376471 0.203922
0.294118 0.376471 0.203922
0.458824 0.368627 0.184314
0.639216 0.352941 0.160784
0.823529 0.341176 0.133333
0.972549 0.32549 0.12549
1 0.341176 0.133333
0.0235294 0.509804 0.2
0.0823529 0.509804 0.2
0.196078 0.509804 0.2
0.32549 0.509804 0.196078
0.466667 0.505882 0.188235
0.627451 0.501961 0.168627
0.788235 0.490196 0.14902
0.941176 0.490196 0.113725
1 0.498039 0.109804
0.121569 0.65098 0.188235
0.152941 0.65098 0.188235
0.239216 0.65098 0.192157
0.356863 0.65098 0.188235
0.486275 0.65098 0.180392
0.627451 0.65098 0.168627
0.776471 0.647059 0.14902
0.913725 0.639216 0.113725
1 0.619608 0.0941176
0.176471 0.807843 0.180392
0.196078 0.807843 0.180392
0.27451 0.807843 0.180392
0.376471 0.807843 0.180392
0.490196 0.803922 0.176471
0.611765 0.8 0.160784
0.737255 0.788235 0.133333
0.870588 0.772549 0.0823529
1 0.737255 0
0 0.92549 0.0117647
0 0.921569 0.00784314
0.0392157 0.921569 0
0.239216 0.917647 0
0.376471 0.913725 0
0.517647 0.905882 0
0.682353 0.898039 0
0.956863 0.929412 0
1 0.913725 0.0627451
0.0117647 0.0196078 0.0196078
0.0117647 0.027451 0.0313725
0.0156863 0.054902 0.105882
0.133333 0.0588235 0.215686
0.313726 0.0352941 0.270588
0.498039 0 0.301961
0.717647 0 0.333333
0.956863 0 0.345098
1 0 0.34902
0 0.0823529 0.121569
0 0.0862745 0.141176
0 0.0941176 0.2
0.168627 0.0862745 0.258824
0.333333 0.0666667 0.282353
0.513726 0.00784314 0.309804
0.733333 0 0.333333
0.964706 0 0.341176
1 0 0.345098
0 0.2 0.258824
0 0.2 0.270588
0 0.2 0.294118
0.176471 0.176471 0.290196
0.364706 0.156863 0.298039
0.556863 0.113725 0.317647
0.792157 0 0.329412
0.980392 0 0.32549
1 0 0.329412
0 0.309804 0.333333
0 0.309804 0.356863
0 0.309804 0.364706
0 0.309804 0.376471
0.407843 0.25098 0.309804
0.619608 0.215686 0.309804
0.831373 0.156863 0.301961
0.988235 0.121569 0.282353
1 0.160784 0.27451
0 0.388235 0.27451
0 0.388235 0.27451
0.160784 0.384314 0.282353
0.290196 0.380392 0.290196
0.443137 0.372549 0.290196
0.639216 0.356863 0.266667
0.823529 0.341176 0.243137
0.968627 0.329412 0.239216
1 0.341176 0.247059
0.0901961 0.513726 0.290196
0.121569 0.513726 0.290196
0.211765 0.509804 0.298039
0.32549 0.509804 0.305882
0.447059 0.513726 0.305882
0.607843 0.505882 0.286275
0.776471 0.501961 0.258824
0.937255 0.501961 0.227451
1 0.498039 0.227451
0.129412 0.654902 0.305882
0.152941 0.654902 0.305882
0.235294 0.654902 0.309804
0.345098 0.654902 0.309804
0.470588 0.654902 0.309804
0.603922 0.654902 0.301961
0.756863 0.654902 0.278431
0.905882 0.639216 0.247059
1 0.631373 0.196078
0.160784 0.807843 0.313726
0.184314 0.807843 0.313726
0.258824 0.807843 0.313726
0.356863 0.807843 0.309804
0.470588 0.803922 0.309804
0.588235 0.796078 0.298039
0.717647 0.788235 0.27451
0.854902 0.768627 0.231373
0.992157 0.72549 0.152941
0 0.917647 0.227451
0 0.917647 0.223529
0 0.917647 0.219608
0.152941 0.913725 0.203922
0.313726 0.905882 0.180392
0.454902 0.901961 0.141176
0.603922 0.890196 0.0352941
0.768627 0.87451 0
1 0.913725 0.0666667
0.00784314 0.0431373 0.0666667
0.00392157 0.0509804 0.0862745
0.00784314 0.0666667 0.184314
0.133333 0.0627451 0.305882
0.309804 0.0431373 0.380392
0.470588 0.00392157 0.407843
0.627451 0 0.423529
0.815686 0 0.454902
1 0 0.494118
0 0.0941176 0.196078
0 0.0980392 0.215686
0 0.101961 0.282353
0.145098 0.0941176 0.360784
0.321569 0.0745098 0.4
0.478431 0.0470588 0.407843
0.635294 0 0.423529
0.823529 0 0.458824
1 0 0.494118
0 0.211765 0.364706
0 0.211765 0.372549
0 0.211765 0.396078
0 0.219608 0.423529
0.333333 0.164706 0.411765
0.498039 0.14902 0.415686
0.658824 0.117647 0.435294
0.862745 0 0.466667
1 0 0.494118
0 0.329412 0.462745
0 0.329412 0.462745
0 0.329412 0.470588
0 0.333333 0.478431
0.305882 0.282353 0.419608
0.52549 0.254902 0.427451
0.705882 0.223529 0.45098
0.913725 0.164706 0.470588
1 0.141176 0.478431
0 0.415686 0.439216
0 0.419608 0.462745
0 0.443137 0.556863
0 0.443137 0.560784
0 0.447059 0.54902
0.572549 0.372549 0.443137
0.760784 0.345098 0.443137
0.945098 0.321569 0.439216
1 0.329412 0.431373
0.0392157 0.517647 0.388235
0.0823529 0.517647 0.388235
0.196078 0.517647 0.392157
0.321569 0.517647 0.403922
0.443137 0.517647 0.419608
0.588235 0.513726 0.419608
0.776471 0.505882 0.396078
0.937255 0.501961 0.372549
1 0.498039 0.368627
0.172549 0.654902 0.411765
0.192157 0.654902 0.411765
0.258824 0.654902 0.415686
0.352941 0.654902 0.427451
0.462745 0.658824 0.439216
0.584314 0.662745 0.439216
0.733333 0.658824 0.419608
0.898039 0.654902 0.364706
1 0.623529 0.32549
0.164706 0.807843 0.435294
0.184314 0.807843 0.435294
0.254902 0.807843 0.435294
0.34902 0.803922 0.435294
0.454902 0.8 0.435294
0.568627 0.796078 0.427451
0.694118 0.784314 0.407843
0.835294 0.764706 0.364706
0.988235 0.721569 0.27451
0 0.913725 0.360784
0 0.913725 0.356863
0 0.909804 0.352941
0.0235294 0.905882 0.341176
0.262745 0.901961 0.32549
0.411765 0.894118 0.298039
0.560784 0.882353 0.254902
0.721569 0.870588 0.168627
0.945098 0.854902 0
0 0.0666667 0.164706
0 0.0666667 0.188235
0 0.0745098 0.298039
0.109804 0.0705882 0.435294
0.286275 0.054902 0.509804
0.454902 0.0196078 0.533333
0.603922 0 0.537255
0.752941 0 0.552941
0.94902 0 0.596078
0 0.105882 0.305882
0 0.105882 0.329412
0 0.109804 0.407843
0.113725 0.101961 0.478431
0.290196 0.0862745 0.521569
0.458824 0.0627451 0.533333
0.607843 0.027451 0.541176
0.760784 0 0.556863
0.956863 0 0.6
0 0.223529 0.486275
0 0.223529 0.490196
0 0.227451 0.509804
0 0.235294 0.533333
0.298039 0.176471 0.52549
0.470588 0.160784 0.541176
0.623529 0.145098 0.54902
0.776471 0.113725 0.564706
0.972549 0 0.611765
0 0.34902 0.568627
0 0.34902 0.568627
0 0.352941 0.572549
0 0.360784 0.576471
0 0.372549 0.584314
0.490196 0.266667 0.54902
0.647059 0.254902 0.556863
0.807843 0.239216 0.580392
1 0.188235 0.627451
0 0.462745 0.658824
0 0.462745 0.658824
0 0.466667 0.658824
0 0.470588 0.654902
0 0.482353 0.647059
0.478431 0.4 0.556863
0.666667 0.384314 0.568627
0.847059 0.364706 0.596078
1 0.333333 0.627451
0 0.533333 0.521569
0 0.537255 0.533333
0 0.54902 0.596078
0 0.576471 0.709804
0 0.584314 0.713726
0 0.588235 0.686275
0.701961 0.517647 0.584314
0.894118 0.494118 0.592157
1 0.470588 0.584314
0.113725 0.662745 0.517647
0.141176 0.662745 0.521569
0.231373 0.662745 0.52549
0.341176 0.662745 0.533333
0.458824 0.662745 0.54902
0.576471 0.662745 0.564706
0.713726 0.658824 0.564706
0.894118 0.647059 0.517647
1 0.615686 0.478431
0.2 0.803922 0.537255
0.219608 0.803922 0.541176
0.27451 0.803922 0.541176
0.360784 0.8 0.54902
0.454902 0.796078 0.552941
0.556863 0.792157 0.552941
0.67451 0.780392 0.541176
0.815686 0.760784 0.494118
0.984314 0.721569 0.388235
0 0.905882 0.478431
0 0.905882 0.478431
0 0.905882 0.47451
0 0.901961 0.466667
0.215686 0.894118 0.454902
0.376471 0.890196 0.431373
0.52549 0.878431 0.4
0.690196 0.862745 0.352941
0.921569 0.854902 0.25098
0 0.0784314 0.341176
0 0.0823529 0.376471
0 0.0823529 0.490196
0 0.0784314 0.607843
0.231373 0.0705882 0.67451
0.407843 0.054902 0.694118
0.572549 0.0117647 0.705882
0.733333 0 0.713726
0.905882 0 0.72549
0 0.117647 0.498039
0 0.117647 0.513726
0 0.113725 0.580392
0 0.109804 0.639216
0.231373 0.101961 0.678431
0.407843 0.0901961 0.694118
0.576471 0.0588235 0.705882
0.737255 0 0.713726
0.909804 0 0.729412
0 0.211765 0.623529
0 0.211765 0.627451
0 0.207843 0.635294
0 0.2 0.65098
0.243137 0.192157 0.670588
0.415686 0.180392 0.698039
0.588235 0.160784 0.713726
0.74902 0.137255 0.721569
0.921569 0.101961 0.737255
0 0.313726 0.631373
0 0.313726 0.631373
0 0.388235 0.701961
0 0.4 0.705882
0 0.411765 0.713726
0.345098 0.309804 0.701961
0.603922 0.27451 0.721569
0.772549 0.262745 0.733333
0.937255 0.25098 0.745098
0 0.501961 0.760784
0 0.501961 0.760784
0 0.505882 0.760784
0 0.513726 0.756863
0 0.52549 0.74902
0 0.537255 0.74902
0.615686 0.407843 0.72549
0.792157 0.396078 0.741176
0.956863 0.392157 0.756863
0 0.607843 0.803922
0 0.607843 0.803922
0 0.607843 0.803922
0 0.611765 0.796078
0 0.619608 0.788235
0 0.631373 0.780392
0.219608 0.615686 0.760784
0.807843 0.533333 0.745098
0.972549 0.509804 0.760784
0 0.694118 0.74902
0 0.694118 0.756863
0 0.701961 0.780392
0 0.713726 0.811765
0 0.717647 0.807843
0 0.717647 0.796078
0.321569 0.717647 0.784314
0.807843 0.65098 0.733333
0.996078 0.592157 0.733333
0.0588235 0.807843 0.678431
0.101961 0.803922 0.678431
0.196078 0.803922 0.678431
0.309804 0.8 0.678431
0.419608 0.796078 0.682353
0.533333 0.788235 0.682353
0.65098 0.776471 0.682353
0.784314 0.752941 0.670588
0.972549 0.705882 0.572549
0 0.898039 0.6
0 0.898039 0.6
0 0.898039 0.6
0 0.894118 0.596078
0.2 0.886275 0.592157
0.352941 0.878431 0.584314
0.494118 0.870588 0.568627
0.662745 0.858824 0.541176
0.905882 0.858824 0.552941
0 0.0823529 0.65098
0 0.0823529 0.682353
0 0.0823529 0.768627
0 0.0862745 0.831373
0.027451 0.0901961 0.858824
0.294118 0.0941176 0.870588
0.478431 0.0823529 0.878431
0.666667 0.0470588 0.886275
0.878431 0 0.894118
0 0.117647 0.776471
0 0.117647 0.784314
0 0.117647 0.815686
0 0.117647 0.843137
0.0313725 0.121569 0.858824
0.294118 0.121569 0.870588
0.482353 0.113725 0.878431
0.666667 0.0862745 0.886275
0.882353 0 0.894118
0 0.223529 0.831373
0 0.219608 0.831373
0 0.219608 0.839216
0 0.211765 0.843137
0.0627451 0.207843 0.854902
0.305882 0.207843 0.866667
0.490196 0.2 0.878431
0.678431 0.184314 0.890196
0.894118 0.137255 0.898039
0 0.333333 0.835294
0 0.333333 0.835294
0 0.32549 0.839216
0 0.321569 0.847059
0.101961 0.317647 0.854902
0.329412 0.317647 0.866667
0.501961 0.313726 0.882353
0.690196 0.305882 0.894118
0.909804 0.282353 0.901961
0 0.45098 0.843137
0 0.45098 0.843137
0 0.447059 0.847059
0 0.443137 0.85098
0.117647 0.443137 0.858824
0.34902 0.443137 0.870588
0.513726 0.443137 0.882353
0.701961 0.439216 0.894118
0.917647 0.419608 0.901961
0 0.580392 0.85098
0 0.580392 0.85098
0 0.580392 0.854902
0 0.576471 0.858824
0.141176 0.576471 0.866667
0.364706 0.580392 0.87451
0.52549 0.580392 0.882353
0.329412 0.647059 0.886275
0.909804 0.529412 0.894118
0 0.713726 0.858824
0 0.713726 0.858824
0 0.709804 0.858824
0 0.709804 0.862745
0.14902 0.705882 0.866667
0 0.756863 0.886275
0 0.752941 0.878431
0.301961 0.737255 0.878431
0.894118 0.619608 0.87451
0 0.815686 0.847059
0 0.815686 0.847059
0 0.811765 0.847059
0 0.807843 0.847059
0 0.819608 0.882353
0 0.811765 0.878431
0.192157 0.8 0.866667
0.443137 0.784314 0.858824
0.866667 0.694118 0.839216
0 0.894118 0.784314
0 0.894118 0.784314
0 0.890196 0.784314
0 0.886275 0.780392
0 0.882353 0.776471
0.117647 0.87451 0.768627
0.403922 0.862745 0.764706
0.635294 0.858824 0.776471
0.894118 0.870588 0.823529
