70 CGC LUTs/Look LUTs/Mad Max.cube
#Created by: Denver Riddle
#Copyright: (C) Copyright Color Grading Central LLC
#LUT Size
LUT_3D_SIZE 33
0 0 0
0 0 0
0 0 0
0 0 0
0 0 0
0.00392157 0.00392157 0.00392157
0.00784314 0.00784314 0.00392157
0.00784314 0.00784314 0.00784314
0.0117647 0.0156863 0.0117647
0.0117647 0.0235294 0.0156863
0.0156863 0.0313725 0.0196078
0.027451 0.0431373 0.0196078
0.0509804 0.0509804 0.0156863
0.101961 0.054902 0.0117647
0.180392 0.0509804 0.00392157
0.270588 0.027451 0
0.372549 0 0
0.490196 0 0
0.596078 0 0
0.690196 0 0
0.776471 0 0
0.847059 0 0
0.905882 0 0
0.94902 0 0
0.984314 0 0
1 0 0
1 0 0
1 0 0
1 0 0
1 0 0
1 0 0.0117647
1 0 0.0313725
1 0 0.0666667
0 0 0
0 0 0
0 0 0
0 0 0
0 0 0
0.00392157 0.00392157 0.00392157
0.00784314 0.00784314 0.00784314
0.00784314 0.0117647 0.00784314
0.0117647 0.0156863 0.0117647
0.0117647 0.0235294 0.0156863
0.0156863 0.0313725 0.0196078
0.027451 0.0431373 0.0196078
0.054902 0.054902 0.0156863
0.105882 0.0588235 0.00784314
0.184314 0.0509804 0.00392157
0.278431 0.0235294 0
0.380392 0 0
0.494118 0 0
0.6 0 0
0.690196 0 0
0.776471 0 0
0.847059 0 0
0.905882 0 0
0.94902 0 0
0.988235 0 0
1 0 0
1 0 0
1 0 0
1 0 0
1 0 0
1 0 0.0117647
1 0 0.0313725
1 0 0.0666667
0 0 0
0.00392157 0.00392157 0
0.00392157 0.00392157 0.00392157
0.00392157 0.00392157 0.00392157
0.00784314 0.00784314 0.00392157
0.00784314 0.00784314 0.00784314
0.0117647 0.0117647 0.0117647
0.0117647 0.0156863 0.0117647
0.0117647 0.0235294 0.0156863
0.0156863 0.0313725 0.0196078
0.0196078 0.0431373 0.0196078
0.0352941 0.0509804 0.0196078
0.0705882 0.0588235 0.0117647
0.129412 0.0588235 0.00784314
0.207843 0.0509804 0.00392157
0.298039 0.0196078 0
0.4 0 0
0.513726 0 0
0.611765 0 0
0.701961 0 0
0.780392 0 0
0.85098 0 0
0.905882 0 0
0.94902 0 0
0.984314 0 0
1 0 0
1 0 0
1 0 0
1 0 0
1 0 0
1 0 0.00784314
1 0 0.0313725
1 0 0.0627451
0.00784314 0.00784314 0.00784314
0.00784314 0.00784314 0.00784314
0.00784314 0.0117647 0.00784314
0.0117647 0.0117647 0.0117647
0.0117647 0.0156863 0.0117647
0.0117647 0.0196078 0.0156863
0.0117647 0.0235294 0.0156863
0.0117647 0.0313725 0.0196078
0.0156863 0.0392157 0.0196078
0.0196078 0.0470588 0.0196078
0.0313725 0.054902 0.0196078
0.0588235 0.0627451 0.0156863
0.109804 0.0666667 0.00784314
0.172549 0.0627451 0.00392157
0.254902 0.0431373 0
0.341176 0.0117647 0
0.439216 0 0
0.541176 0 0
0.631373 0 0
0.713726 0 0
0.788235 0 0
0.854902 0 0
0.909804 0 0
0.952941 0 0
0.984314 0 0
1 0 0
1 0 0
1 0 0
1 0 0
1 0 0
1 0 0.00784314
1 0 0.027451
1 0 0.0627451
0.0117647 0.0235294 0.0156863
0.0117647 0.0235294 0.0156863
0.0117647 0.0235294 0.0196078
0.0117647 0.027451 0.0196078
0.0117647 0.0352941 0.0196078
0.0117647 0.0392157 0.0235294
0.0117647 0.0470588 0.0235294
0.0156863 0.054902 0.0196078
0.0196078 0.0627451 0.0196078
0.0313725 0.0705882 0.0196078
0.0588235 0.0745098 0.0156863
0.101961 0.0784314 0.00784314
0.160784 0.0745098 0.00392157
0.231373 0.0627451 0
0.305882 0.0431373 0
0.392157 0.00392157 0
0.486275 0 0
0.572549 0 0
0.654902 0 0
0.729412 0 0
0.796078 0 0
0.858824 0 0
0.909804 0 0
0.94902 0 0
0.984314 0 0
1 0 0
1 0 0
1 0 0
1 0 0
1 0 0
1 0 0.00392157
1 0 0.027451
1 0 0.0588235
0.00392157 0.0509804 0.0235294
0.00392157 0.0509804 0.0235294
0.00392157 0.054902 0.0235294
0.00392157 0.0588235 0.0235294
0.00392157 0.0627451 0.0235294
0.00392157 0.0705882 0.0235294
0.00784314 0.0745098 0.0235294
0.0156863 0.0823529 0.0196078
0.027451 0.0862745 0.0156863
0.0588235 0.0901961 0.0117647
0.0980392 0.0941176 0.00784314
0.14902 0.0901961 0.00392157
0.215686 0.0823529 0
0.282353 0.0705882 0
0.352941 0.0470588 0
0.435294 0.00392157 0
0.521569 0 0
0.596078 0 0
0.670588 0 0
0.737255 0 0
0.8 0 0
0.858824 0 0
0.905882 0 0
0.945098 0 0
0.976471 0 0
1 0 0
1 0 0
1 0 0
1 0 0
1 0 0
1 0 0
1 0 0.0235294
1 0 0.054902
0 0.0862745 0.027451
0 0.0862745 0.027451
0 0.0862745 0.0235294
0 0.0901961 0.0235294
0 0.0980392 0.0235294
0 0.101961 0.0196078
0 0.105882 0.0156863
0.0156863 0.109804 0.0156863
0.0470588 0.113725 0.0117647
0.0862745 0.113725 0.00784314
0.133333 0.113725 0.00392157
0.192157 0.109804 0
0.254902 0.0980392 0
0.321569 0.0823529 0
0.392157 0.0627451 0
0.466667 0.0235294 0
0.541176 0 0
0.607843 0 0
0.67451 0 0
0.737255 0 0
0.796078 0 0
0.85098 0 0
0.898039 0 0
0.937255 0 0
0.968627 0 0
0.996078 0 0
1 0 0
1 0 0
1 0 0
1 0 0
1 0 0
1 0 0.0156863
1 0 0.0509804
0 0.12549 0.0196078
0 0.12549 0.0196078
0 0.12549 0.0196078
0 0.129412 0.0196078
0 0.133333 0.0156863
0 0.133333 0.0156863
0 0.137255 0.0117647
0.0156863 0.141176 0.00784314
0.0627451 0.141176 0.00392157
0.109804 0.141176 0
0.160784 0.133333 0
0.223529 0.12549 0
0.286275 0.117647 0
0.345098 0.105882 0
0.411765 0.0862745 0
0.478431 0.0588235 0
0.541176 0.0235294 0
0.607843 0 0
0.670588 0 0
0.729412 0 0
0.788235 0 0
0.843137 0 0
0.886275 0 0
0.92549 0 0
0.956863 0 0
0.984314 0 0
1 0 0
1 0 0
1 0 0
1 0 0
1 0 0
1 0 0.0117647
1 0 0.0431373
0 0.160784 0.0117647
0 0.160784 0.0117647
0 0.164706 0.0117647
0 0.164706 0.0117647
0 0.164706 0.0117647
0 0.168627 0.00784314
0 0.168627 0.00392157
0.0196078 0.168627 0.00392157
0.0745098 0.164706 0
0.129412 0.164706 0
0.184314 0.156863 0
0.243137 0.14902 0
0.301961 0.141176 0
0.360784 0.129412 0
0.419608 0.117647 0
0.478431 0.0980392 0
0.541176 0.0784314 0
0.603922 0.0431373 0
0.662745 0 0
0.717647 0 0
0.772549 0 0
0.823529 0 0
0.870588 0 0
0.909804 0 0
0.945098 0 0
0.976471 0 0
1 0 0
1 0 0
1 0 0
1 0 0
1 0 0
1 0 0.00392157
1 0 0.0352941
0 0.196078 0.00392157
0 0.196078 0.00392157
0 0.196078 0.00392157
0 0.196078 0.00392157
0 0.196078 0.00392157
0 0.196078 0
0 0.196078 0
0.0196078 0.192157 0
0.0862745 0.192157 0
0.145098 0.188235 0
0.203922 0.180392 0
0.258824 0.172549 0
0.309804 0.164706 0
0.368627 0.156863 0
0.427451 0.145098 0
0.478431 0.133333 0
0.533333 0.117647 0
0.592157 0.0980392 0
0.647059 0.0745098 0
0.698039 0.0392157 0
0.752941 0 0
0.803922 0 0
0.85098 0 0
0.894118 0 0
0.929412 0 0
0.964706 0 0
0.992157 0 0
1 0 0
1 0 0
1 0 0
1 0 0
1 0 0
1 0 0.027451
0 0.227451 0
0 0.227451 0
0 0.227451 0
0 0.227451 0
0 0.223529 0
0 0.223529 0
0 0.223529 0
0.027451 0.219608 0
0.0980392 0.215686 0
0.156863 0.211765 0
0.215686 0.203922 0
0.266667 0.2 0
0.321569 0.192157 0
0.376471 0.184314 0
0.427451 0.172549 0
0.478431 0.164706 0
0.52549 0.156863 0
0.580392 0.141176 0
0.631373 0.12549 0
0.682353 0.109804 0
0.733333 0.0823529 0
0.784314 0.0470588 0
0.831373 0 0
0.878431 0 0
0.917647 0 0
0.952941 0 0
0.980392 0 0
1 0 0
1 0 0
1 0 0
1 0 0
1 0 0
1 0 0.0196078
0 0.254902 0
0 0.254902 0
0 0.254902 0
0 0.25098 0
0 0.25098 0
0 0.25098 0
0 0.247059 0
0.0431373 0.243137 0
0.113725 0.239216 0
0.172549 0.235294 0
0.223529 0.231373 0
0.27451 0.223529 0
0.32549 0.219608 0
0.376471 0.211765 0
0.423529 0.203922 0
0.47451 0.196078 0
0.521569 0.188235 0
0.572549 0.176471 0
0.619608 0.164706 0
0.666667 0.152941 0
0.717647 0.137255 0
0.768627 0.117647 0
0.815686 0.0941176 0
0.862745 0.0666667 0
0.905882 0.0352941 0
0.941176 0.00392157 0
0.972549 0 0
1 0 0
1 0 0
1 0 0
1 0 0
1 0.0313725 0
1 0.0862745 0.0117647
0 0.278431 0
0 0.278431 0
0 0.278431 0
0 0.278431 0
0 0.278431 0
0 0.27451 0
0 0.270588 0
0.0666667 0.266667 0
0.129412 0.262745 0
0.184314 0.258824 0
0.235294 0.254902 0
0.282353 0.25098 0
0.333333 0.243137 0
0.380392 0.239216 0
0.427451 0.231373 0
0.470588 0.223529 0
0.517647 0.219608 0
0.564706 0.211765 0
0.611765 0.2 0
0.658824 0.192157 0
0.705882 0.180392 0
0.756863 0.168627 0
0.803922 0.152941 0
0.85098 0.137255 0
0.890196 0.121569 0
0.929412 0.105882 0
0.960784 0.0941176 0
0.992157 0.0862745 0
1 0.0823529 0
1 0.0862745 0
1 0.0980392 0
1 0.117647 0
1 0.145098 0
0 0.301961 0
0 0.301961 0
0 0.301961 0
0 0.301961 0
0 0.301961 0
0 0.298039 0
0.0156863 0.294118 0
0.0941176 0.290196 0
0.14902 0.286275 0
0.196078 0.282353 0
0.243137 0.278431 0
0.290196 0.27451 0
0.337255 0.270588 0
0.380392 0.262745 0
0.427451 0.258824 0
0.470588 0.254902 0
0.517647 0.247059 0
0.564706 0.243137 0
0.607843 0.235294 0
0.65098 0.227451 0
0.698039 0.219608 0
0.745098 0.207843 0
0.792157 0.2 0
0.835294 0.188235 0
0.878431 0.176471 0
0.917647 0.168627 0
0.94902 0.160784 0
0.984314 0.156863 0
1 0.152941 0
1 0.152941 0
1 0.160784 0
1 0.176471 0
1 0.196078 0
0 0.32549 0
0 0.32549 0
0 0.32549 0
0 0.32549 0
0 0.321569 0
0 0.321569 0
0.0588235 0.317647 0
0.117647 0.313726 0
0.164706 0.313726 0
0.207843 0.309804 0
0.25098 0.305882 0
0.294118 0.301961 0
0.341176 0.298039 0
0.384314 0.294118 0
0.427451 0.290196 0
0.47451 0.282353 0
0.517647 0.278431 0
0.560784 0.27451 0
0.603922 0.270588 0
0.647059 0.262745 0
0.690196 0.254902 0
0.737255 0.247059 0
0.780392 0.239216 0
0.823529 0.231373 0
0.866667 0.223529 0
0.905882 0.219608 0
0.941176 0.211765 0
0.972549 0.207843 0
1 0.207843 0
1 0.207843 0
1 0.211765 0
1 0.223529 0
1 0.239216 0
0 0.34902 0
0 0.34902 0
0 0.34902 0
0 0.34902 0
0 0.34902 0
0.027451 0.345098 0
0.0862745 0.345098 0
0.133333 0.341176 0
0.176471 0.341176 0
0.219608 0.337255 0
0.262745 0.333333 0
0.301961 0.329412 0
0.345098 0.32549 0
0.388235 0.32549 0
0.431373 0.321569 0
0.47451 0.317647 0
0.517647 0.313726 0
0.560784 0.305882 0
0.603922 0.301961 0
0.647059 0.298039 0
0.686275 0.294118 0
0.729412 0.286275 0
0.772549 0.282353 0
0.815686 0.27451 0
0.854902 0.270588 0
0.894118 0.266667 0
0.929412 0.262745 0
0.960784 0.258824 0
0.996078 0.258824 0
1 0.258824 0
1 0.258824 0
1 0.266667 0
1 0.282353 0
0 0.376471 0
0 0.376471 0
0 0.376471 0
0 0.376471 0
0.00784314 0.376471 0
0.0627451 0.372549 0
0.109804 0.372549 0
0.14902 0.372549 0
0.192157 0.368627 0
0.231373 0.364706 0
0.270588 0.364706 0
0.309804 0.360784 0
0.34902 0.360784 0
0.392157 0.356863 0
0.435294 0.352941 0
0.478431 0.34902 0
0.517647 0.345098 0
0.560784 0.341176 0
0.603922 0.337255 0
0.643137 0.333333 0
0.686275 0.329412 0
0.72549 0.32549 0
0.764706 0.321569 0
0.807843 0.317647 0
0.847059 0.313726 0
0.882353 0.309804 0
0.917647 0.305882 0
0.952941 0.301961 0
0.984314 0.301961 0
1 0.301961 0
1 0.305882 0
1 0.309804 0
1 0.321569 0
0 0.407843 0
0 0.407843 0
0 0.407843 0
0.00784314 0.407843 0
0.0470588 0.403922 0
0.0901961 0.403922 0
0.129412 0.403922 0
0.168627 0.403922 0
0.203922 0.4 0
0.243137 0.4 0
0.278431 0.396078 0
0.317647 0.396078 0
0.356863 0.392157 0
0.396078 0.392157 0
0.435294 0.388235 0
0.478431 0.384314 0
0.521569 0.380392 0
0.560784 0.380392 0
0.603922 0.376471 0
0.643137 0.372549 0
0.682353 0.368627 0
0.721569 0.364706 0
0.760784 0.360784 0
0.8 0.356863 0
0.839216 0.356863 0
0.87451 0.352941 0
0.909804 0.34902 0
0.945098 0.34902 0
0.976471 0.345098 0
1 0.345098 0
1 0.34902 0
1 0.352941 0
1 0.360784 0
0.0156863 0.439216 0
0.0156863 0.439216 0
0.027451 0.439216 0
0.054902 0.435294 0
0.0862745 0.435294 0
0.117647 0.435294 0
0.14902 0.435294 0
0.184314 0.435294 0
0.215686 0.431373 0
0.25098 0.431373 0
0.286275 0.431373 0
0.321569 0.427451 0
0.360784 0.427451 0
0.4 0.423529 0
0.439216 0.423529 0
0.478431 0.419608 0
0.517647 0.419608 0
0.560784 0.415686 0
0.603922 0.411765 0
0.643137 0.407843 0
0.682353 0.407843 0
0.721569 0.403922 0
0.760784 0.4 0
0.796078 0.4 0
0.831373 0.396078 0
0.866667 0.392157 0
0.901961 0.392157 0
0.933333 0.392157 0
0.968627 0.388235 0
1 0.388235 0
1 0.388235 0
1 0.392157 0
1 0.4 0
0.0627451 0.470588 0
0.0666667 0.470588 0
0.0705882 0.470588 0
0.0862745 0.466667 0
0.109804 0.466667 0
0.137255 0.466667 0
0.164706 0.466667 0
0.196078 0.466667 0
0.227451 0.466667 0
0.258824 0.466667 0
0.294118 0.462745 0
0.329412 0.462745 0
0.368627 0.458824 0
0.403922 0.458824 0
0.443137 0.458824 0
0.482353 0.454902 0
0.521569 0.454902 0
0.560784 0.45098 0
0.603922 0.447059 0
0.643137 0.447059 0
0.682353 0.443137 0
0.717647 0.443137 0
0.756863 0.439216 0
0.792157 0.435294 0
0.827451 0.435294 0
0.862745 0.435294 0
0.894118 0.431373 0
0.929412 0.431373 0
0.960784 0.431373 0
0.996078 0.427451 0
1 0.431373 0
1 0.435294 0
1 0.439216 0
0.0980392 0.501961 0
0.0980392 0.501961 0
0.105882 0.501961 0
0.113725 0.501961 0
0.129412 0.501961 0
0.152941 0.501961 0
0.180392 0.501961 0
0.207843 0.498039 0
0.235294 0.498039 0
0.270588 0.498039 0
0.301961 0.498039 0
0.337255 0.498039 0
0.372549 0.494118 0
0.407843 0.494118 0
0.447059 0.494118 0
0.482353 0.490196 0
0.521569 0.490196 0
0.560784 0.486275 0
0.603922 0.486275 0
0.643137 0.482353 0
0.682353 0.482353 0
0.717647 0.478431 0
0.752941 0.478431 0
0.792157 0.47451 0
0.823529 0.47451 0
0.858824 0.47451 0
0.890196 0.470588 0
0.921569 0.470588 0
0.956863 0.470588 0
0.988235 0.470588 0
1 0.470588 0
1 0.47451 0
1 0.478431 0
0.121569 0.533333 0
0.121569 0.533333 0
0.12549 0.533333 0
0.137255 0.533333 0
0.14902 0.533333 0
0.168627 0.533333 0
0.192157 0.533333 0
0.219608 0.533333 0
0.247059 0.533333 0
0.282353 0.533333 0
0.309804 0.533333 0
0.345098 0.529412 0
0.376471 0.529412 0
0.415686 0.529412 0
0.45098 0.529412 0
0.486275 0.529412 0
0.52549 0.52549 0
0.564706 0.52549 0
0.603922 0.521569 0
0.639216 0.521569 0
0.678431 0.517647 0
0.717647 0.517647 0
0.752941 0.517647 0
0.788235 0.513726 0
0.823529 0.513726 0
0.854902 0.513726 0
0.886275 0.509804 0
0.917647 0.509804 0
0.94902 0.509804 0
0.984314 0.509804 0
1 0.509804 0
1 0.513726 0
1 0.517647 0
0.141176 0.568627 0
0.141176 0.568627 0
0.145098 0.568627 0
0.156863 0.568627 0
0.168627 0.568627 0
0.184314 0.568627 0
0.207843 0.568627 0
0.235294 0.568627 0
0.262745 0.568627 0
0.290196 0.568627 0
0.321569 0.568627 0
0.352941 0.568627 0
0.384314 0.564706 0
0.419608 0.564706 0
0.454902 0.564706 0
0.490196 0.564706 0
0.529412 0.560784 0
0.564706 0.560784 0
0.603922 0.560784 0
0.639216 0.556863 0
0.678431 0.556863 0
0.713726 0.556863 0
0.752941 0.552941 0
0.788235 0.552941 0
0.819608 0.552941 0
0.85098 0.54902 0
0.882353 0.54902 0
0.913725 0.54902 0
0.945098 0.54902 0
0.976471 0.54902 0
1 0.54902 0
1 0.552941 0
1 0.552941 0
0.160784 0.603922 0
0.160784 0.603922 0
0.164706 0.603922 0
0.172549 0.603922 0
0.188235 0.603922 0
0.203922 0.603922 0
0.223529 0.603922 0
0.247059 0.603922 0
0.27451 0.603922 0
0.301961 0.603922 0
0.329412 0.603922 0
0.360784 0.603922 0
0.392157 0.603922 0
0.423529 0.6 0
0.458824 0.6 0
0.494118 0.6 0
0.529412 0.6 0
0.568627 0.6 0
0.603922 0.6 0
0.639216 0.596078 0
0.678431 0.596078 0
0.713726 0.596078 0
0.74902 0.592157 0
0.784314 0.592157 0
0.815686 0.592157 0
0.847059 0.592157 0
0.878431 0.592157 0
0.909804 0.592157 0
0.941176 0.592157 0
0.972549 0.592157 0
1 0.592157 0
1 0.592157 0
1 0.592157 0
0.176471 0.643137 0
0.176471 0.643137 0
0.180392 0.643137 0
0.188235 0.643137 0
0.2 0.643137 0
0.219608 0.643137 0
0.235294 0.643137 0
0.258824 0.643137 0
0.282353 0.643137 0
0.309804 0.643137 0
0.337255 0.643137 0
0.364706 0.643137 0
0.396078 0.643137 0
0.427451 0.639216 0
0.462745 0.639216 0
0.494118 0.639216 0
0.529412 0.639216 0
0.564706 0.639216 0
0.603922 0.639216 0
0.639216 0.635294 0
0.67451 0.635294 0
0.709804 0.635294 0
0.745098 0.635294 0
0.780392 0.635294 0
0.811765 0.635294 0
0.843137 0.635294 0
0.87451 0.635294 0
0.905882 0.635294 0
0.937255 0.631373 0
0.968627 0.631373 0
0.996078 0.631373 0
1 0.627451 0
1 0.627451 0
0.192157 0.682353 0
0.192157 0.682353 0
0.196078 0.682353 0
0.2 0.682353 0
0.211765 0.682353 0
0.223529 0.682353 0
0.243137 0.682353 0
0.262745 0.682353 0
0.290196 0.682353 0
0.313726 0.682353 0
0.341176 0.682353 0
0.372549 0.682353 0
0.4 0.682353 0
0.431373 0.682353 0
0.462745 0.682353 0
0.498039 0.682353 0
0.529412 0.682353 0
0.564706 0.682353 0
0.6 0.682353 0
0.635294 0.678431 0
0.670588 0.678431 0
0.705882 0.678431 0
0.741176 0.678431 0
0.776471 0.678431 0
0.807843 0.678431 0
0.839216 0.678431 0
0.870588 0.678431 0
0.901961 0.67451 0
0.933333 0.67451 0
0.960784 0.670588 0
0.988235 0.670588 0
1 0.666667 0
1 0.662745 0
0.196078 0.72549 0
0.196078 0.72549 0
0.2 0.72549 0
0.207843 0.72549 0
0.219608 0.72549 0
0.231373 0.72549 0
0.25098 0.72549 0
0.270588 0.72549 0
0.294118 0.72549 0
0.317647 0.72549 0
0.345098 0.72549 0
0.372549 0.72549 0
0.403922 0.72549 0
0.431373 0.72549 0
0.466667 0.72549 0
0.498039 0.72549 0
0.529412 0.72549 0
0.564706 0.72549 0
0.6 0.721569 0
0.635294 0.721569 0
0.666667 0.721569 0
0.701961 0.721569 0
0.733333 0.721569 0
0.768627 0.721569 0
0.8 0.721569 0
0.831373 0.717647 0
0.862745 0.717647 0
0.894118 0.713726 0
0.92549 0.713726 0
0.952941 0.709804 0
0.980392 0.705882 0
1 0.698039 0
1 0.694118 0
0.207843 0.768627 0
0.207843 0.768627 0
0.211765 0.768627 0
0.219608 0.768627 0
0.227451 0.768627 0
0.243137 0.768627 0
0.258824 0.768627 0
0.278431 0.768627 0
0.301961 0.768627 0
