70 CGC LUTs/Look LUTs/Matrix V2.cube
#Created by: Denver Riddle
#Copyright: (C) Copyright Color Grading Central LLC
#LUT Size
LUT_3D_SIZE 5
0 0 0
0.00784314 0.00392157 0.00375372
0.239017 0 0
0.828183 0 0
1 0 0.0427253
0 0.135134 0
0.0292973 0.138399 0.0156863
0.20325 0.179309 0
0.667994 0.121843 0
1 0.0267796 0.0083772
0 0.425315 0.0597543
0.117342 0.406134 0.107454
0.278538 0.461799 0.0285496
0.63946 0.492226 0
1 0.502541 0
0.42414 0.745312 0.353368
0.482155 0.74374 0.368551
0.607797 0.762356 0.367132
0.780606 0.785321 0.312093
0.972274 0.80473 0.325109
0.819242 0.935424 0.409796
0.82974 0.933898 0.465202
0.866133 0.943358 0.418677
0.920241 0.955825 0.458839
0.995621 0.971908 0.687602
0 0 0
0.0087892 0.00784314 0.0119326
0.13315 0.0388952 0.0874647
0.644648 0 0.180148
1 0 0.269535
0 0.136233 0.0966964
0.011902 0.157961 0.103975
0.320958 0.158862 0.128725
0.8374 0.000823987 0.153109
1 0.0340581 0.22742
0 0.474845 0.151949
0 0.465858 0.144625
0.332174 0.466285 0.246433
0.735576 0.489067 0.155566
1 0.495247 0.258473
0.259449 0.779202 0.354681
0.424857 0.764416 0.407675
0.636942 0.760555 0.497841
0.785138 0.788464 0.435599
0.982666 0.801144 0.429465
0.835264 0.940963 0.735653
0.849699 0.934966 0.744625
0.885924 0.942153 0.754635
0.91928 0.95436 0.4822
0.994934 0.970642 0.686336
0.00392157 0.00392157 0.00541695
0.0165713 0.0118715 0.0607004
0.144427 0.0497292 0.202182
0.430701 0.100893 0.271656
0.940475 0 0.406683
0 0.157885 0.176364
0.0399634 0.170626 0.19443
0.188235 0.206485 0.261616
0.492317 0.230671 0.315526
0.999481 0.0963607 0.463859
0.038056 0.447868 0.360021
0.134005 0.453285 0.356054
0.263783 0.507683 0.35877
0.835492 0.475654 0.41825
1 0.512596 0.551369
0.263722 0.796551 0.51194
0.3364 0.791119 0.503639
0.634882 0.781918 0.582422
0.793393 0.79733 0.589868
0.999374 0.797787 0.610697
0.784726 0.955108 0.761334
0.802563 0.951675 0.761288
0.873274 0.951568 0.806302
0.940429 0.956558 0.858137
0.99968 0.972274 0.706706
0.0069276 0.0117647 0.0930343
0.00648508 0.0219272 0.219303
0.149218 0.0619821 0.403037
0.461357 0.109102 0.494041
0.923217 0.034165 0.561776
0 0.188418 0.362432
0 0.19176 0.409232
0.192462 0.215671 0.484794
0.510826 0.2421 0.519707
0.93669 0.253422 0.569635
0.117556 0.474388 0.502205
0.201053 0.473884 0.499947
0.372168 0.518151 0.55079
0.691157 0.553475 0.612146
0.94995 0.599481 0.689158
0.564431 0.774258 0.699748
0.571572 0.772427 0.691752
0.650401 0.793439 0.701885
0.80528 0.805173 0.730663
0.999634 0.802136 0.785611
0.800259 0.958953 0.831952
0.808408 0.955566 0.826688
0.860624 0.959792 0.840742
0.936675 0.964416 0.877562
0.996078 0.976471 0.905608
0 0.00784314 0.555077
0 0.0107576 0.758267
0 0.0542916 0.85037
0.470405 0.104723 0.897246
0.956863 0.0264439 0.917647
0 0.202701 0.875242
0 0.200656 0.877256
0.104677 0.225055 0.893828
0.530816 0.25301 0.901122
0.959838 0.274556 0.900847
0 0.533516 0.91281
0 0.524422 0.910262
0.313344 0.554574 0.921096
0.717968 0.577066 0.913344
0.943587 0.636469 0.898939
0.498817 0.808118 0.890196
0.533761 0.804334 0.884611
0.66331 0.812634 0.899641
0.809705 0.817884 0.905638
0.956298 0.837446 0.909468
0.90634 0.951019 0.915984
0.906615 0.948135 0.915831
0.931502 0.955932 0.920821
0.964431 0.964706 0.929412
0.999939 0.976379 0.941146
