70 CGC LUTs/Look LUTs/Matrix V2.cube
#Created by: Denver Riddle
#Copyright: (C) Copyright Color Grading Central LLC
#LUT Size
LUT_3D_SIZE 33
0 0 0
0 0 0
0 0 0
0 0 0
0 0 0
0.00337224 0 0
0.00392157 0 0
0.00767529 0.00375372 0
0.00784314 0.00392157 0.00375372
0.015259 0.00392157 0.00392157
0.0279698 0.00392157 0.00392157
0.0509346 0.00392157 0.00129702
0.0765545 0.00392157 0.000183108
0.106065 0.00392157 0
0.143771 0.00108339 0
0.188724 0 0
0.239017 0 0
0.298939 0 0
0.369589 0 0
0.444678 0 0
0.521538 0 0
0.599191 0 0
0.680812 0 0
0.755993 0 0
0.828183 0 0
0.890623 0 0
0.941375 0 0
0.985458 0 0
0.998917 0 0
1 0 0
1 0 0.00347906
1 0 0.0386511
1 0 0.0427253
0 0 0
0 0 0
0 0 0
0 0 0
0.00294499 0 0
0.00392157 0.000640879 0
0.00392157 0.000854505 0
0.00782788 0.00390631 0.00108339
0.0091249 0.00392157 0.00390631
0.0169985 0.00392157 0.00392157
0.0326543 0.00511177 0.00273136
0.0555734 0.00585946 0.000289921
0.0809339 0.00540169 0
0.111818 0.00419623 0
0.151431 0.00195315 0
0.196262 0.000366217 0
0.245762 0 0
0.301671 0 0
0.370474 0 0
0.443275 0 0
0.515328 0 0
0.5906 0 0
0.671229 0 0
0.745998 0 0
0.817655 0 0
0.881086 0 0
0.934722 0 0
0.979904 0 0
0.997757 0 0
1 0 0
1 0 0.00230411
1 0 0.0325628
1 0 0.0421454
0 0 0
0 0.000228885 0
0.000534066 0.00143435 0
0.00143435 0.00143435 0
0.00331121 0.00144961 0.00109865
0.00392157 0.00364691 0.0015259
0.00556954 0.00392157 0.00169375
0.00782788 0.00392157 0.00392157
0.0120394 0.00596628 0.00392157
0.0219883 0.00621042 0.00172427
0.0398718 0.00737011 0.00047303
0.0623789 0.0101625 4.57771e-05
0.0897231 0.0105287 0
0.122194 0.00933852 0
0.160525 0.00764477 0
0.202853 0.00366217 0
0.250599 0.00062562 0
0.306508 0 0
0.368902 0 0
0.431601 0 0
0.496422 0 0
0.571557 0 0
0.650324 0 0
0.72607 0 0
0.800305 0 0
0.866499 0 0
0.921553 0 0
0.970291 0 0
0.995941 0 0
1 0 0
1 0 6.10361e-05
1 0 0.0222019
1 0 0.0393988
0.00222782 0.00222782 0.00222782
0.00225834 0.00251774 0.00225834
0.00285344 0.00392157 0.00224308
0.00392157 0.00392157 0.00224308
0.00392157 0.00561532 0.00350958
0.00601205 0.00627146 0.00392157
0.0077821 0.00637827 0.00392157
0.0103914 0.00906386 0.00392157
0.0149233 0.0105745 0.00392157
0.023682 0.0135958 0.00303655
0.0418708 0.0170443 0.00105287
0.0644694 0.0184482 0.000167849
0.0953231 0.0206455 0
0.131365 0.0198825 0
0.168582 0.0195163 0
0.208927 0.0170443 0
0.254383 0.0111391 0
0.304128 0.00434882 0
0.358557 0.000915541 0
0.415503 0.000274662 0
0.475654 0 0
0.542535 0 0
0.619852 0 0
0.699626 0 0
0.773938 0 0
0.844343 0 0
0.904997 0 0
0.956771 0 0
0.991363 0 0
1 0 0
1 0 0
1 0 0.0132601
1 0 0.0368658
0.00392157 0.00691234 0.00392157
0.00392157 0.0069276 0.00392157
0.00392157 0.00689708 0.00392157
0.00564584 0.00862135 0.00392157
0.00689708 0.0105898 0.00392157
0.00773632 0.013489 0.00392157
0.0107729 0.0169528 0.00392157
0.014786 0.0211795 0.00392157
0.0188296 0.0249027 0.00112917
0.0294041 0.0292973 0.00047303
0.0442512 0.0336767 7.62951e-05
0.0655985 0.0378424 0
0.0903792 0.0422675 0
0.12311 0.0459602 0
0.163027 0.0465553 0
0.204425 0.0449989 0
0.246571 0.0414435 0
0.291844 0.0352331 0
0.340047 0.0250706 0
0.393484 0.0121157 0
0.449775 0.00375372 0
0.512108 0.00190738 0
0.586603 0 0
0.667445 0 0
0.745861 0 0
0.823026 0 0
0.888014 0 0
0.943832 0 0
0.985016 0 0
1 0 0
1 0 0
1 0 0.00531014
1 0 0.0323491
0.00392157 0.0186923 0.00392157
0.00392157 0.0186923 0.00392157
0.00392157 0.0186007 0.00392157
0.00631724 0.0208896 0.00392157
0.00784314 0.0223087 0.00399786
0.0109255 0.0287633 0.00701915
0.0118563 0.033463 0.00425727
0.0154726 0.0411688 0.00393683
0.0195926 0.0492561 0.00376898
0.0268559 0.0571908 0.000915541
0.0429541 0.065095 0.000122072
0.063859 0.0703593 0
0.0880903 0.0748302 0
0.115434 0.0773785 0
0.145739 0.079942 0
0.180789 0.0825666 0
0.222766 0.0818341 0
0.271809 0.0778668 0
0.322454 0.07187 0
0.372473 0.0631418 0
0.4262 0.0495003 0
0.485206 0.0279698 0
0.556115 0.00445563 0
0.639719 0.000946059 0
0.720592 0 0
0.798901 0 0
0.871107 0 0
0.928908 0 0
0.977981 0 0
1 0 0
1 0 0
1 0 0.000320439
1 0 0.0275731
0 0.0487373 0.00375372
0 0.0485847 0.00376898
0 0.0476692 0.00389105
0.00239567 0.0470893 0.0062562
0.00688182 0.0496681 0.00767529
0.011429 0.0537423 0.00782788
0.0153658 0.0612497 0.00769055
0.0192874 0.069337 0.00772107
0.0231174 0.0773022 0.0077821
0.0301518 0.0850538 0.00453193
0.0407568 0.0928664 0.0010071
0.0594949 0.100465 4.57771e-05
0.0853437 0.106188 0
0.113756 0.110246 0
0.143374 0.114122 0
0.17409 0.116793 0
0.205585 0.116869 0
0.246021 0.116487 0
0.298146 0.11397 0
0.354147 0.106477 0
0.411505 0.0986191 0
0.467506 0.0867933 0
0.536309 0.0658427 0
0.613519 0.0189059 0
0.698558 0 0
0.779782 0 0
0.853162 0 0
0.91519 0 0
0.969589 0 0
0.998215 0 0
1 0 0
1 0 0
1 0 0.0212253
0 0.0913252 0
0 0.0905165 0
0 0.0890211 0.00164797
0 0.0876783 0.00367742
7.62951e-05 0.0892195 0.00691234
0.000366217 0.0890974 0.00782788
0.00799573 0.0932631 0.0115663
0.0155489 0.100587 0.0116274
0.022858 0.108156 0.0116426
0.0336309 0.115648 0.0083772
0.04448 0.123156 0.00485237
0.0628672 0.131029 0.00138857
0.0859236 0.138262 3.0518e-05
0.112566 0.142153 0
0.142199 0.143938 0
0.17293 0.146609 0
0.203006 0.147326 0
0.238666 0.150027 0
0.27982 0.149157 0
0.331777 0.147478 0
0.387335 0.142672 0
0.452491 0.131716 0
0.521004 0.119219 0
0.597955 0.0968185 0
0.682078 0.055787 0
0.763256 0.00425727 0
0.837568 0 0
0.906279 0 0
0.959777 0 0
0.995407 0 0
1 0 0
1 0 0
1 0 0.0144808
0 0.135134 0
0 0.134218 0
0 0.132815 0
0 0.130632 0
0 0.129046 0.00358587
0 0.127703 0.00776684
0.000595102 0.130617 0.01178
0.0117952 0.134401 0.0152895
0.0292973 0.138399 0.0156863
0.0438087 0.145464 0.015198
0.0556344 0.153124 0.012253
0.0713054 0.160388 0.00637827
0.0910506 0.165866 0.00169375
0.114 0.17116 0
0.141283 0.176547 0
0.172427 0.179294 0
0.20325 0.179309 0
0.240314 0.179339 0
0.277592 0.181415 0
0.321492 0.180529 0
0.370169 0.179446 0
0.432639 0.174609 0
0.507301 0.162829 0
0.58407 0.148852 0
0.667994 0.121843 0
0.749142 0.0843366 0
0.823499 0.0490425 0
0.894331 0.00657664 0
0.950164 0 0
0.992706 0 0
1 0 0
1 0 0
1 0.0267796 0.0083772
0 0.176989 0
0 0.175311 0
0 0.173983 0
0 0.172442 0
0 0.169451 0.000274662
0 0.164904 0.00790417
0.000274662 0.163958 0.0153353
0.0116732 0.164096 0.0223392
0.0331884 0.167636 0.0227512
0.0540169 0.171984 0.0224918
0.0688029 0.178698 0.0194705
0.0830243 0.185779 0.0134432
0.0995956 0.19263 0.00514229
0.119234 0.199512 0.000244144
0.14345 0.205463 0
0.172885 0.208774 0
0.205829 0.2112 0
0.24361 0.211109 0
0.282353 0.213123 0
0.322103 0.212634 0
0.366873 0.215106 0
0.417166 0.211002 0
0.489158 0.204562 0
0.570764 0.192477 0
0.655116 0.174258 0
0.738918 0.150744 0
0.814038 0.120089 0
0.884382 0.0825818 0
0.943343 0.0670024 0
0.990616 0.0551461 0
1 0.0507362 0
1 0.0562753 0
1 0.0922713 0.00294499
0 0.214069 0
0 0.212528 0
0 0.210422 0
0 0.208179 0
0 0.203418 0
0 0.19733 0.011368
0.000640879 0.193256 0.0221866
0.0152895 0.193072 0.0296788
0.0433204 0.196506 0.0325475
0.0673533 0.202579 0.0325475
0.0829633 0.20734 0.0275273
0.0968795 0.213596 0.0206302
0.111269 0.222202 0.0116732
0.129244 0.229526 0.0037232
0.151766 0.234516 0
0.17821 0.239963 0
0.209415 0.243046 0
0.249439 0.244846 0
0.28661 0.244907 0
0.32755 0.246693 0
0.36875 0.247349 0
0.415534 0.245716 0
0.476616 0.243458 0
0.557015 0.235996 0
0.645335 0.220508 0
0.73109 0.202441 0
0.80621 0.184054 0
0.8766 0.163439 0
0.936965 0.148333 0
0.986145 0.13547 0
0.999237 0.132845 0
1 0.143526 0
1 0.169787 0
0 0.250675 0
0 0.248676 0
0 0.24477 0
0 0.240848 0
0 0.235157 0.00518807
0 0.229084 0.018143
0.00158694 0.224537 0.0322576
0.0247501 0.224109 0.0398718
0.0565194 0.227359 0.0430304
0.0792401 0.231937 0.0431067
0.0964065 0.237507 0.0391241
0.110903 0.24416 0.0312047
0.125063 0.252171 0.0211948
0.141283 0.259144 0.0111849
0.161059 0.265232 0.00349432
0.184833 0.271244 0
0.21503 0.27483 0
0.254108 0.279561 0
0.292515 0.278828 0
0.334401 0.281407 0
0.37615 0.282918 0
0.421042 0.282414 0
0.474937 0.281407 0
0.544381 0.278843 0
0.632517 0.265644 0
0.721462 0.252125 0
0.798657 0.238926 0
0.869368 0.223835 0
0.92903 0.212573 0
0.97937 0.207111 0
0.997681 0.206882 0
1 0.213657 0
1 0.230564 0
0 0.284688 0
0 0.281621 0
0 0.278447 0
0 0.272953 0.00248722
0 0.266728 0.0127108
0 0.261021 0.030457
0.0028687 0.256107 0.0451514
0.0394598 0.255558 0.0524758
0.0704662 0.258808 0.0557107
0.0920577 0.262104 0.0540475
0.110292 0.268849 0.0522774
0.125063 0.275792 0.0443275
0.138842 0.282582 0.0337682
0.153521 0.28954 0.0213321
0.170932 0.296361 0.00907912
0.193759 0.302861 0.00164797
0.223713 0.308461 0
0.259586 0.314427 0
0.299184 0.315312 0
0.341299 0.317952 0
0.384588 0.321004 0
0.427878 0.3205 0
0.478981 0.321294 0
0.537926 0.320348 0
0.619226 0.311574 0
0.70959 0.302235 0
0.791455 0.291005 0
0.862898 0.279194 0
0.920684 0.272816 0
0.972198 0.270588 0
0.996384 0.269123 0
1 0.273152 0
1 0.2851 0
0 0.316777 0
0 0.313436 0.00178531
0 0.309163 0.0059205
0 0.304524 0.0128634
0 0.298268 0.0267796
0.000106813 0.292439 0.044419
0.00552377 0.289433 0.0590066
0.0532235 0.288655 0.0646067
0.0825513 0.291829 0.0678569
0.105928 0.295277 0.0662699
0.124071 0.301686 0.0645914
0.138842 0.308644 0.0587015
0.152636 0.315404 0.0484474
0.166537 0.322362 0.0339208
0.18291 0.329702 0.0179751
0.205631 0.337957 0.00579843
0.233738 0.344854 0
0.267735 0.35079 0
0.305959 0.353552 0
0.348379 0.357351 0
0.39324 0.360754 0
0.436744 0.361563 0
0.485283 0.363119 0
0.541741 0.362249 0
0.612634 0.358633 0
0.697063 0.351156 0
0.783032 0.342855 0
0.856901 0.334478 0
0.914458 0.328679 0
0.966079 0.326833 0
0.995483 0.325689 0
1 0.328191 0
1 0.337774 0
0 0.349584 0.0130312
0 0.346929 0.0142672
0 0.341924 0.0205234
0 0.337789 0.0299077
0 0.33135 0.0440986
0.000534066 0.32575 0.0596475
0.0117189 0.324529 0.0716106
0.0640116 0.324895 0.0765393
0.0931716 0.327001 0.0796674
0.118074 0.331167 0.0796521
0.136553 0.33669 0.0769513
0.152148 0.343206 0.0731975
0.167163 0.350835 0.0640269
0.181643 0.358358 0.0492409
0.197726 0.366598 0.0318151
0.218921 0.376181 0.0148013
0.244999 0.382925 0.00215152
0.278065 0.389425 0
0.314946 0.393256 0
0.357687 0.399649 0
0.403952 0.40293 0
0.447517 0.406195 0
0.496254 0.405631 0
0.553048 0.404715 0
0.613901 0.403616 0
0.687938 0.400137 0
0.770703 0.392401 0
0.850324 0.387167 0
0.909072 0.38294 0
0.960494 0.381521 0
0.99559 0.380835 0
1 0.384268 0
1 0.391577 0
0 0.386404 0.0343633
0 0.383322 0.0353704
0 0.377966 0.0405432
0 0.374212 0.0504768
0 0.367666 0.0626993
0.000961318 0.362966 0.0757458
0.0219425 0.361624 0.0842298
0.074815 0.364157 0.0900893
0.103853 0.363775 0.093492
0.128923 0.369833 0.0935683
0.148119 0.373663 0.0914321
0.165713 0.37966 0.087541
0.183185 0.388281 0.0798962
0.199359 0.396857 0.0671397
0.21503 0.405051 0.0502937
0.234134 0.414679 0.0312963
0.259312 0.421714 0.0107118
0.290639 0.429114 0.000686656
0.329686 0.435904 0
0.371389 0.442115 0
0.414633 0.445579 0
0.45864 0.448829 0
0.508003 0.448463 0
0.565194 0.447913 0
0.626581 0.447364 0
0.688121 0.446815 0
0.760327 0.442985 0
0.841215 0.438895 0
0.903471 0.438087 0
0.952758 0.438727 0
0.996765 0.439185 0
0.999954 0.442954 0
1 0.447288 0
0 0.425315 0.0597543
0 0.422049 0.0603952
0 0.417533 0.0635538
0 0.413977 0.0719158
0 0.407324 0.0824292
0.000671397 0.405097 0.090837
0.0342718 0.40412 0.100587
0.0876478 0.406195 0.104036
0.117342 0.406134 0.107454
0.14287 0.411872 0.107683
0.164767 0.416007 0.107698
0.183764 0.422126 0.10338
0.201328 0.429068 0.0965744
0.218723 0.436027 0.0867018
0.236423 0.444297 0.072221
0.255207 0.454047 0.0531167
0.278538 0.461799 0.0285496
0.311574 0.472175 0.00596628
0.346868 0.478798 1.5259e-05
0.385245 0.485451 0
0.425681 0.489113 0
0.473472 0.49279 0
0.527138 0.493172 0
0.581445 0.492607 0
0.63946 0.492226 0
0.694957 0.492378 0.00015259
0.757382 0.492592 0.000534066
0.827588 0.49279 3.0518e-05
0.891676 0.493629 0
0.940047 0.494118 0
0.983612 0.497978 0
1 0.498619 0
1 0.502541 0
0 0.466361 0.085771
0 0.463416 0.0859541
0 0.460105 0.0884871
0 0.456992 0.093431
0 0.451316 0.100649
0.005066 0.448157 0.108156
0.0623636 0.450172 0.114733
0.103822 0.449454 0.118364
0.133516 0.452186 0.121721
0.161913 0.455589 0.122286
0.185336 0.459327 0.122377
0.206256 0.464958 0.120333
0.225681 0.472114 0.115297
0.243381 0.479286 0.107134
0.261891 0.487312 0.0958267
0.283268 0.497551 0.0805524
0.305623 0.505486 0.0583963
0.332525 0.516121 0.0279088
0.367666 0.523232 0.0009308
0.402609 0.530282 0.000122072
0.443351 0.53431 0
0.492348 0.538888 0
0.546868 0.543114 0
0.601801 0.540154 0
0.657023 0.5402 0.00140383
0.70837 0.543893 0.00671397
0.760098 0.544656 0.0153811
0.815366 0.545357 0.00552377
0.870039 0.549538 0.00433356
0.922026 0.553597 0
0.968765 0.553582 0
0.99913 0.556939 6.10361e-05
1 0.557229 0.00122072
0 0.509926 0.111177
0 0.506981 0.110933
0 0.503853 0.113222
0.000335698 0.500923 0.116167
0.00448615 0.498161 0.121859
0.0450446 0.492592 0.128862
0.0941939 0.49369 0.132815
0.133104 0.493385 0.136202
0.161257 0.49633 0.139895
0.186297 0.499718 0.140795
0.211048 0.503258 0.140795
0.233799 0.508736 0.140841
0.25507 0.516121 0.138231
0.275547 0.523674 0.130556
0.293965 0.531487 0.119738
0.312428 0.539208 0.105547
0.334539 0.550271 0.0874037
0.361532 0.557977 0.0641031
0.393454 0.565698 0.0356756
0.429374 0.573831 0.00901808
0.467918 0.57879 0.00202945
0.516716 0.583368 0.00180056
0.570855 0.587594 0.0019379
0.62266 0.58819 0.00378424
0.673487 0.588525 0.0270237
0.717937 0.589258 0.051194
0.764874 0.593057 0.0677653
0.811231 0.596857 0.0727703
0.853803 0.600641 0.0584878
0.904402 0.603845 0.00888075
0.951476 0.603311 0.00444038
0.987274 0.606424 0.00299077
0.999664 0.609751 0.0181888
0.0170748 0.553124 0.137377
0.0149386 0.550729 0.136721
0.0121614 0.547616 0.137438
0.00993362 0.544488 0.139925
0.0482948 0.541543 0.144121
0.10045 0.539422 0.147372
0.137804 0.537987 0.153613
0.169497 0.537682 0.158053
0.196048 0.540017 0.159075
0.221241 0.543618 0.161349
0.246433 0.547539 0.162966
0.268437 0.553216 0.163241
0.287953 0.559838 0.162341
0.309209 0.56524 0.158297
0.328237 0.57322 0.151171
0.350713 0.581491 0.140932
0.370352 0.589837 0.126848
0.397971 0.60174 0.107561
0.426734 0.609873 0.0835431
0.463416 0.618219 0.0606699
0.501656 0.622721 0.0398108
0.547021 0.627222 0.0301823
0.597131 0.631586 0.0305486
0.647654 0.631739 0.0481727
0.691081 0.632319 0.0746471
0.733089 0.635386 0.0974441
0.77174 0.635233 0.113054
0.810407 0.638544 0.124727
0.845411 0.645075 0.128496
0.887739 0.648402 0.109682
0.934325 0.648066 0.0672007
0.973907 0.646891 0.0515602
0.997818 0.649607 0.0744182
0.0852369 0.595315 0.166598
0.0851911 0.59295 0.164797
0.0934157 0.590265 0.164187
0.109056 0.58732 0.166323
0.135607 0.584741 0.169238
0.165148 0.582727 0.172274
0.193332 0.581796 0.17879
0.217746 0.583932 0.183276
0.240574 0.585184 0.186572
0.263233 0.588129 0.18819
0.28571 0.592264 0.190539
0.308598 0.597498 0.193133
0.331075 0.603784 0.193896
0.352865 0.611215 0.192691
0.372122 0.616876 0.186419
0.392157 0.625269 0.179843
0.415625 0.633677 0.169146
0.440391 0.642191 0.150851
0.469383 0.650126 0.133532
0.50576 0.657649 0.114199
0.543664 0.662165 0.0977646
0.584268 0.665858 0.0906539
0.625818 0.669413 0.0902876
0.671977 0.669291 0.0978408
0.710262 0.672724 0.116289
0.744671 0.672099 0.134737
0.779156 0.675166 0.153201
0.813748 0.678218 0.167788
0.84509 0.681178 0.178378
0.876905 0.684504 0.177523
0.919432 0.687404 0.149645
0.959136 0.68716 0.118715
0.993561 0.687114 0.124666
0.183978 0.634745 0.199832
0.18349 0.632547 0.198627
0.185458 0.629862 0.198672
0.193927 0.627329 0.19884
0.210468 0.625483 0.201755
0.230686 0.623957 0.204776
0.250874 0.623117 0.21117
0.270909 0.626108 0.215839
0.293324 0.627543 0.220005
0.31458 0.631144 0.224125
0.337209 0.636316 0.228946
0.358572 0.641276 0.231769
0.379736 0.646159 0.232868
0.402747 0.652445 0.234089
0.424811 0.659861 0.233204
0.444404 0.665354 0.226505
0.46508 0.673747 0.215991
0.488518 0.681498 0.19971
0.514229 0.688182 0.179019
0.548012 0.692287 0.159701
0.581323 0.698802 0.145876
0.617823 0.699001 0.138872
0.655863 0.702693 0.138964
0.693751 0.702083 0.14522
0.727916 0.705074 0.159365
0.758694 0.704509 0.17763
0.789563 0.707362 0.195941
0.817685 0.711009 0.214893
0.845533 0.714534 0.229953
0.873579 0.714687 0.236927
0.9093 0.718196 0.220676
0.951965 0.721477 0.185931
0.987442 0.72163 0.175265
0.268498 0.675334 0.244327
0.265522 0.673503 0.242115
0.266896 0.671138 0.241138
0.272251 0.668956 0.243076
0.282124 0.66743 0.245884
0.297383 0.666423 0.249088
0.31667 0.666255 0.253559
0.334356 0.667323 0.258106
0.354223 0.67071 0.262715
0.374838 0.673228 0.267781
0.394919 0.676936 0.274846
0.414786 0.681758 0.279042
0.434287 0.686412 0.280415
0.453712 0.691096 0.281804
0.473136 0.696849 0.281788
0.491691 0.703517 0.27715
0.510857 0.707881 0.265232
0.533745 0.714656 0.246235
0.560342 0.717952 0.22826
0.587716 0.72134 0.209323
0.620676 0.725078 0.198703
0.653117 0.728374 0.194308
0.679896 0.731685 0.189899
0.713726 0.731243 0.195834
0.745144 0.734508 0.206882
0.772946 0.734554 0.222156
0.79762 0.734874 0.241642
0.821576 0.738338 0.264271
0.848966 0.742077 0.280171
0.873289 0.745418 0.291463
0.904967 0.749218 0.286793
0.944778 0.753063 0.25211
0.983536 0.753429 0.223224
0.344182 0.709392 0.293523
0.342504 0.708293 0.291936
0.344472 0.707042 0.29163
0.34876 0.705806 0.2925
0.358099 0.704707 0.293935
0.370123 0.7066 0.299916
0.383246 0.707134 0.304479
0.39939 0.707759 0.309178
0.416449 0.709072 0.314168
0.435492 0.712551 0.319036
0.454719 0.714488 0.323873
0.471611 0.717479 0.328313
0.488243 0.721416 0.330602
0.507073 0.725658 0.331731
0.525414 0.729641 0.331289
0.543481 0.733394 0.32639
0.561425 0.736904 0.314931
0.579873 0.740276 0.298665
0.602762 0.743481 0.281163
0.629084 0.746899 0.264805
0.655451 0.750576 0.253788
0.681941 0.75436 0.250324
0.708675 0.754818 0.246281
0.736538 0.757992 0.249592
0.760891 0.75845 0.256992
0.788327 0.761822 0.272297
0.808972 0.76527 0.288197
0.832349 0.765805 0.307866
0.856504 0.769406 0.327169
0.880262 0.773159 0.335866
0.905028 0.777249 0.342779
0.937224 0.777813 0.318883
0.979492 0.777813 0.270893
0.42414 0.745312 0.353368
0.423209 0.744549 0.352026
0.425025 0.743313 0.350027
0.428763 0.741924 0.350027
0.43563 0.740826 0.352529
0.446143 0.740581 0.356146
0.455467 0.740688 0.360311
0.467567 0.740932 0.364614
0.482155 0.74374 0.368551
0.494789 0.744961 0.372381
0.511315 0.745464 0.376593
0.527367 0.747738 0.380545
0.544015 0.751751 0.383307
0.560616 0.754269 0.38352
0.575875 0.755398 0.382239
0.592981 0.758816 0.375174
0.607797 0.762356 0.367132
0.626902 0.76611 0.351522
0.646632 0.769696 0.338048
0.666896 0.77348 0.322484
0.689738 0.777386 0.315175
0.712627 0.778058 0.308598
0.736065 0.781277 0.304463
0.760174 0.782071 0.307836
0.780606 0.785321 0.312093
0.804166 0.78912 0.320119
0.820996 0.789822 0.332006
0.840772 0.793011 0.347707
0.864271 0.796841 0.367117
0.884932 0.797589 0.3794
0.908568 0.801297 0.387335
0.936492 0.801343 0.378149
0.972274 0.80473 0.325109
0.504875 0.773617 0.410147
0.502831 0.772869 0.409522
0.501564 0.771801 0.410163
0.503365 0.770733 0.408042
0.507713 0.769543 0.408576
0.514778 0.768795 0.411353
0.521538 0.768261 0.414267
0.531777 0.770657 0.417639
0.543069 0.771695 0.421118
0.556191 0.771862 0.42472
0.570733 0.771969 0.428473
0.583795 0.773846 0.430701
0.597543 0.776318 0.43125
0.614618 0.777691 0.431647
0.629526 0.781109 0.431617
0.645045 0.784939 0.428183
0.657176 0.785657 0.421439
0.673152 0.789548 0.409354
0.689204 0.793301 0.393118
0.705211 0.797116 0.380758
0.724636 0.801099 0.374029
0.740764 0.801526 0.364111
0.760464 0.805234 0.35996
0.780529 0.808942 0.356878
0.800168 0.809522 0.359915
0.816968 0.813107 0.364187
0.832731 0.813382 0.371908
0.852094 0.816892 0.386892
0.872496 0.81767 0.403388
0.892439 0.821073 0.418982
0.912551 0.824903 0.427085
0.936507 0.824964 0.426429
0.96791 0.82884 0.387213
0.580377 0.801602 0.469886
0.577508 0.800427 0.467521
0.575128 0.798932 0.464576
0.575555 0.797421 0.463462
0.577157 0.796246 0.465217
0.581765 0.795178 0.464698
0.587777 0.79443 0.466377
0.594614 0.794522 0.469093
0.604257 0.796597 0.472313
0.615595 0.797589 0.474159
0.627832 0.797909 0.477073
0.639796 0.799908 0.481086
0.652735 0.802701 0.483818
0.667185 0.803372 0.484215
0.676631 0.804715 0.481971
0.689235 0.808972 0.479561
0.700862 0.812543 0.472755
0.716381 0.813016 0.461128
0.728527 0.816693 0.451377
0.74078 0.820615 0.439612
0.753323 0.824704 0.42977
0.768673 0.82533 0.419654
0.784527 0.828931 0.4121
0.800473 0.832761 0.407599
0.813321 0.833173 0.407507
0.828717 0.833494 0.407858
0.847837 0.836774 0.41503
0.864408 0.840803 0.423758
0.880583 0.841016 0.435599
0.896849 0.844648 0.454536
0.916426 0.845121 0.46627
0.936629 0.848569 0.47361
0.964187 0.84921 0.453498
0.644724 0.828183 0.523033
0.64184 0.826917 0.5205
0.639582 0.825406 0.517494
0.639887 0.823697 0.516014
0.64036 0.822095 0.515236
0.642084 0.820798 0.515175
0.647608 0.820157 0.517555
0.654749 0.819944 0.519036
0.663401 0.822614 0.52224
