70 CGC LUTs/Look LUTs/Matrix V2.cube
#Created by: Denver Riddle
#Copyright: (C) Copyright Color Grading Central LLC
#LUT Size
LUT_3D_SIZE 9
0 0 0
0 0 0
0.00784314 0.00392157 0.00375372
0.0765545 0.00392157 0.000183108
0.239017 0 0
0.521538 0 0
0.828183 0 0
0.998917 0 0
1 0 0.0427253
0.00392157 0.00691234 0.00392157
0.00689708 0.0105898 0.00392157
0.0188296 0.0249027 0.00112917
0.0903792 0.0422675 0
0.246571 0.0414435 0
0.449775 0.00375372 0
0.745861 0 0
0.985016 0 0
1 0 0.0323491
0 0.135134 0
0 0.129046 0.00358587
0.0292973 0.138399 0.0156863
0.0910506 0.165866 0.00169375
0.20325 0.179309 0
0.370169 0.179446 0
0.667994 0.121843 0
0.950164 0 0
1 0.0267796 0.0083772
0 0.284688 0
0 0.266728 0.0127108
0.0704662 0.258808 0.0557107
0.138842 0.282582 0.0337682
0.223713 0.308461 0
0.384588 0.321004 0
0.619226 0.311574 0
0.920684 0.272816 0
1 0.2851 0
0 0.425315 0.0597543
0 0.407324 0.0824292
0.117342 0.406134 0.107454
0.201328 0.429068 0.0965744
0.278538 0.461799 0.0285496
0.425681 0.489113 0
0.63946 0.492226 0
0.891676 0.493629 0
1 0.502541 0
0.0852369 0.595315 0.166598
0.135607 0.584741 0.169238
0.240574 0.585184 0.186572
0.331075 0.603784 0.193896
0.415625 0.633677 0.169146
0.543664 0.662165 0.0977646
0.710262 0.672724 0.116289
0.84509 0.681178 0.178378
0.993561 0.687114 0.124666
0.42414 0.745312 0.353368
0.43563 0.740826 0.352529
0.482155 0.74374 0.368551
0.544015 0.751751 0.383307
0.607797 0.762356 0.367132
0.689738 0.777386 0.315175
0.780606 0.785321 0.312093
0.864271 0.796841 0.367117
0.972274 0.80473 0.325109
0.692927 0.850431 0.567529
0.690135 0.845289 0.561151
0.710536 0.845182 0.56817
0.743481 0.850309 0.579049
0.772793 0.856672 0.574945
0.805188 0.864836 0.54786
0.848386 0.873442 0.518318
0.900481 0.880903 0.514427
0.967651 0.888823 0.553841
0.819242 0.935424 0.409796
0.821103 0.932433 0.457603
0.82974 0.933898 0.465202
0.845014 0.937224 0.440925
0.866133 0.943358 0.418677
0.889158 0.947738 0.430137
0.920241 0.955825 0.458839
0.955596 0.96025 0.530083
0.995621 0.971908 0.687602
0 0 0
0 0 0
0.00770581 0.00392157 0.00437934
0.0694133 0.00842298 0.0229343
0.267613 0.000503548 0.0473182
0.577493 0 0.053315
0.88014 0 0.0548104
1 0 0.0772106
1 0 0.122225
0.00392157 0.0099031 0.00691234
0.00703441 0.0158846 0.0100252
0.0386358 0.0252689 0.0177005
0.167742 0.0268559 0.0293126
0.334524 0.00184634 0.0325628
0.577554 0 0.0310063
0.859434 0 0.0271305
1 0 0.0404212
1 0 0.095201
0 0.1458 0.0236057
0 0.148531 0.0205844
0.000106813 0.160357 0.0267338
0.113817 0.164858 0.047364
0.249485 0.172366 0.0327153
0.48658 0.145037 0.0120851
0.788342 0.0260014 0.00823987
0.992645 0 0.014435
1 0.0322881 0.0688334
0 0.302388 0.0284276
0 0.292744 0.0258793
0.00779736 0.279423 0.0667582
0.15729 0.282414 0.104204
0.232303 0.31136 0.0547341
0.406653 0.318654 0.0454261
0.703319 0.291096 0.000885023
0.961624 0.252186 0.0011902
1 0.282704 0.0544289
0 0.459693 0.0405432
0 0.443565 0.0539254
0.0652781 0.419791 0.129335
0.217258 0.430182 0.154818
0.294194 0.460883 0.121584
0.431907 0.492271 0.0477302
0.656275 0.493919 0.0715953
0.915129 0.488457 0.000366217
1 0.499916 0.0775921
0.00146487 0.616922 0.154192
0.0183261 0.599161 0.168231
0.226062 0.590784 0.212375
0.342626 0.605158 0.241215
0.430243 0.631647 0.235828
0.54548 0.663355 0.169696
0.70985 0.672724 0.17528
0.845869 0.680278 0.223926
0.995865 0.68484 0.186099
0.405615 0.751019 0.362402
0.419913 0.746487 0.366186
0.479423 0.744823 0.391379
0.548012 0.750881 0.412512
0.613657 0.760266 0.409842
0.692882 0.775998 0.357885
0.781811 0.786603 0.348562
0.863035 0.795773 0.39913
0.976516 0.803494 0.350332
0.68867 0.852506 0.577081
0.685039 0.846342 0.570474
0.709941 0.847181 0.582773
0.741527 0.849226 0.595895
0.775082 0.855634 0.599695
0.807294 0.863828 0.575677
0.847013 0.875334 0.543664
0.899016 0.880323 0.539666
0.963272 0.887892 0.581521
0.832624 0.934417 0.580331
0.827131 0.931365 0.557229
0.834974 0.931991 0.538231
0.845151 0.936217 0.460533
0.865568 0.942153 0.436896
0.888609 0.946532 0.446845
0.918975 0.954376 0.472663
0.954406 0.959258 0.536538
0.994705 0.970626 0.681987
0 0 0
0.00306706 0 0.00381476
0.0087892 0.00784314 0.0119326
0.0416876 0.0175631 0.0450904
0.13315 0.0388952 0.0874647
0.308537 0.0352636 0.135836
0.644648 0 0.180148
0.982238 0 0.219272
1 0 0.269535
0.00393683 0.0141909 0.0176852
0.00766003 0.0199283 0.0243229
0.0218357 0.0394293 0.0449989
0.0608377 0.0631418 0.0758221
0.178134 0.0762493 0.110521
0.40116 0.0343328 0.146883
0.747036 0 0.166766
0.995285 0 0.194659
1 0 0.244556
0 0.136233 0.0966964
0 0.136889 0.0974899
0.011902 0.157961 0.103975
0.151827 0.16231 0.122057
0.320958 0.158862 0.128725
0.54844 0.119844 0.14139
0.8374 0.000823987 0.153109
0.998062 0 0.17705
1 0.0340581 0.22742
0 0.2869 0.149432
0 0.286137 0.138506
0 0.302525 0.127581
0.0838788 0.309941 0.141985
0.268956 0.314031 0.155291
0.526452 0.299977 0.132097
0.830777 0.243717 0.136522
0.997284 0.223468 0.162203
1 0.286793 0.22916
0 0.474845 0.151949
0 0.464714 0.14284
0 0.465858 0.144625
0.137209 0.458534 0.193591
0.332174 0.466285 0.246433
0.453986 0.499229 0.17847
0.735576 0.489067 0.155566
0.955825 0.476478 0.167773
1 0.495247 0.258473
0 0.655787 0.182513
0 0.643397 0.178653
0 0.637781 0.207553
0.318212 0.626474 0.301411
0.466545 0.638926 0.357031
0.567315 0.666667 0.30454
0.719234 0.676738 0.296101
0.868132 0.684398 0.30132
0.997772 0.681849 0.322805
0.259449 0.779202 0.354681
0.293263 0.774578 0.360296
0.424857 0.764416 0.407675
0.551507 0.757046 0.470146
0.636942 0.760555 0.497841
0.70489 0.775998 0.460578
0.785138 0.788464 0.435599
0.863569 0.799451 0.478782
0.982666 0.801144 0.429465
0.654398 0.863127 0.578759
0.659525 0.854887 0.578408
0.701457 0.851621 0.607721
0.745846 0.852857 0.639261
0.781949 0.857725 0.653284
0.81413 0.863752 0.646799
0.847562 0.875242 0.616205
0.899016 0.883391 0.602823
0.966567 0.891402 0.641077
0.835264 0.940963 0.735653
0.835004 0.937377 0.733654
0.849699 0.934966 0.744625
0.868788 0.936812 0.754986
0.885924 0.942153 0.754635
0.899702 0.946441 0.650965
0.91928 0.95436 0.4822
0.954437 0.962463 0.546441
0.994934 0.970642 0.686336
0.00209049 0 0.00392157
0.00392157 0.00392157 0.0041352
0.0124971 0.00817884 0.0276493
0.0501564 0.0230869 0.0870832
0.135958 0.0458839 0.137423
0.260884 0.0733959 0.170413
0.43534 0.079408 0.219196
0.79823 0 0.289128
1 0 0.364523
0.00392157 0.0222477 0.0416724
0.00418097 0.0299687 0.0565805
0.013611 0.0486 0.0969558
0.0641337 0.070985 0.133394
0.150958 0.0936599 0.150378
0.273747 0.113436 0.179187
0.47219 0.10071 0.230198
0.850202 0 0.287221
1 0 0.36556
0 0.143359 0.133333
0.00161746 0.143572 0.134951
0.0608377 0.157122 0.148562
0.12639 0.176516 0.165194
0.190524 0.199191 0.187778
0.378012 0.194415 0.229191
0.688914 0.122255 0.268849
0.964889 0.00122072 0.308446
1 0.034699 0.371435
0 0.277989 0.219501
0.00543221 0.273045 0.214023
0.0619211 0.286519 0.21799
0.113878 0.312963 0.220401
0.309865 0.314275 0.246204
0.561578 0.293172 0.255634
0.84123 0.244221 0.277424
0.996262 0.233829 0.314992
1 0.291493 0.384802
0 0.461707 0.269368
0 0.454902 0.25919
0 0.468254 0.247745
0.0124819 0.486854 0.244434
0.312963 0.485679 0.29749
0.504631 0.500191 0.271687
0.823774 0.472053 0.263279
0.984421 0.473976 0.322866
1 0.499992 0.414588
0 0.661021 0.292531
0 0.65539 0.283864
0 0.657649 0.286076
0.152712 0.665309 0.316838
0.464973 0.652323 0.416922
0.588525 0.671092 0.419944
0.733349 0.683955 0.395285
0.897276 0.681529 0.37142
0.99971 0.681086 0.448875
0.218906 0.792325 0.420294
0.224811 0.788846 0.414237
0.340047 0.784527 0.425544
0.493996 0.777279 0.476448
0.651301 0.766644 0.559182
0.721035 0.780285 0.549371
0.789014 0.792737 0.513558
0.868452 0.802518 0.551644
0.992737 0.8009 0.51574
0.604639 0.873671 0.582345
0.609369 0.869291 0.578408
0.662959 0.864836 0.604395
0.738659 0.858946 0.659876
0.788052 0.860121 0.6925
0.821546 0.864363 0.698344
0.852308 0.876112 0.677806
0.89984 0.884627 0.661646
0.96936 0.892317 0.683925
0.799756 0.950637 0.731319
0.801389 0.947662 0.731579
0.824277 0.943999 0.74728
0.857649 0.944793 0.776379
0.889952 0.946807 0.803967
0.914946 0.947478 0.817899
0.933242 0.9552 0.809567
0.955413 0.963561 0.553368
0.9953 0.971633 0.699092
0.00392157 0.00392157 0.00541695
0.00541695 0.00392157 0.0125277
0.0165713 0.0118715 0.0607004
0.0555123 0.0275731 0.140948
0.144427 0.0497292 0.202182
0.266026 0.0807507 0.232731
0.430701 0.100893 0.271656
0.674846 0.0681163 0.329809
0.940475 0 0.406683
0.000167849 0.0316472 0.0887312
0.000396735 0.0378882 0.10837
0.00762951 0.0572213 0.159304
0.0635538 0.0769665 0.197299
0.155978 0.098497 0.21828
0.273793 0.119493 0.239002
0.430869 0.136904 0.272892
0.667933 0.111528 0.328313
0.991012 0 0.421454
0 0.157885 0.176364
0 0.157702 0.176226
0.0399634 0.170626 0.19443
0.108598 0.187716 0.225086
0.188235 0.206485 0.261616
0.325841 0.219562 0.277272
0.492317 0.230671 0.315526
0.787121 0.178271 0.375509
0.999481 0.0963607 0.463859
0.0167239 0.284337 0.265949
0.0520485 0.280125 0.260166
0.130678 0.290547 0.270573
0.201373 0.307958 0.287739
0.275593 0.331044 0.307668
0.389136 0.3561 0.331212
0.655344 0.333806 0.382223
0.941894 0.2869 0.435752
1 0.306508 0.512078
0.038056 0.447868 0.360021
0.0632944 0.440116 0.352392
0.134005 0.453285 0.356054
0.18349 0.477775 0.360937
0.263783 0.507683 0.35877
0.592584 0.492561 0.386069
0.835492 0.475654 0.41825
0.975052 0.484398 0.474556
1 0.512596 0.551369
0 0.649638 0.42005
0 0.646326 0.409903
0 0.658045 0.406119
0.172076 0.676997 0.41532
0.394186 0.68423 0.437125
0.613138 0.675273 0.515038
0.757031 0.684733 0.482261
0.922744 0.678676 0.486366
1 0.682383 0.571954
0.263722 0.796551 0.51194
0.261234 0.792538 0.502144
0.3364 0.791119 0.503639
0.456825 0.79144 0.516808
0.634882 0.781918 0.582422
0.736889 0.781399 0.627695
0.793393 0.79733 0.589868
0.877791 0.805447 0.614359
0.999374 0.797787 0.610697
0.593744 0.880461 0.628183
0.593301 0.875441 0.622904
0.63476 0.873274 0.630045
0.704692 0.871122 0.658824
0.785077 0.864759 0.714397
0.828809 0.86862 0.738399
0.856992 0.877043 0.731762
0.900801 0.888823 0.712337
0.97644 0.89305 0.708385
0.784726 0.955108 0.761334
0.785382 0.952193 0.755703
0.802563 0.951675 0.761288
0.83386 0.953079 0.776852
0.873274 0.951568 0.806302
0.91603 0.951843 0.841505
0.940429 0.956558 0.858137
0.964065 0.964294 0.851545
0.99968 0.972274 0.706706
0.00784314 0.00784314 0.0235447
0.00791943 0.00784314 0.0446784
0.0172885 0.0163577 0.121904
0.0564279 0.0318151 0.220295
0.149325 0.0567025 0.288014
0.274571 0.0850233 0.325978
0.445472 0.105196 0.368215
0.684871 0.0889754 0.410544
0.909667 0 0.462776
0 0.0440986 0.166567
0 0.0490578 0.184878
0.000198367 0.0624552 0.241794
0.0570077 0.0820172 0.280171
0.158816 0.102785 0.305928
0.281132 0.124269 0.33431
0.443824 0.14139 0.366308
0.657115 0.138247 0.40145
0.926436 0.0710307 0.466911
0 0.173144 0.246571
0 0.169879 0.24979
3.0518e-05 0.181842 0.281743
0.0794995 0.195697 0.331106
0.190753 0.209995 0.365332
0.332647 0.224933 0.38378
0.499123 0.238361 0.402548
0.705989 0.239857 0.428824
0.951797 0.21593 0.502022
0.00198367 0.301946 0.329961
0.0250401 0.294789 0.323903
0.104768 0.304921 0.337148
0.176028 0.32311 0.363287
0.25478 0.347402 0.402121
0.394827 0.364172 0.434119
0.569345 0.376699 0.446479
0.784955 0.379294 0.480797
0.991073 0.37322 0.576043
0.141146 0.457084 0.42594
0.157183 0.44712 0.417823
0.221469 0.455528 0.424735
0.30193 0.47274 0.440879
0.393072 0.499107 0.463386
0.483192 0.527932 0.487022
0.66389 0.544961 0.50071
0.875532 0.541772 0.571176
0.999969 0.542657 0.659052
0.273548 0.63357 0.527703
0.272496 0.627329 0.521187
0.31812 0.639567 0.529
0.372412 0.661372 0.541985
0.433494 0.68806 0.543572
0.619165 0.686152 0.576181
0.805219 0.680247 0.573114
0.9187 0.683162 0.626474
0.99968 0.690745 0.689982
0.401297 0.789197 0.619974
0.393988 0.78407 0.611185
0.420233 0.786343 0.606699
0.485863 0.792828 0.608286
0.601404 0.797101 0.61622
0.74493 0.785489 0.678752
0.797726 0.801389 0.664637
0.900847 0.805264 0.651392
0.999634 0.797696 0.708598
0.606363 0.880522 0.691402
0.605173 0.877226 0.685267
0.636606 0.876921 0.68777
0.690578 0.878294 0.695994
0.754101 0.8766 0.715129
0.828962 0.872648 0.76231
0.864775 0.877546 0.774807
0.900969 0.889006 0.752041
0.984131 0.892836 0.748043
0.785321 0.958846 0.796811
0.78468 0.955093 0.79057
0.801083 0.955001 0.794308
0.827756 0.957153 0.803159
0.860883 0.959106 0.817151
0.904692 0.956222 0.841932
0.944244 0.96025 0.87361
0.968231 0.96463 0.886152
0.995926 0.976287 0.862806
0.0069276 0.0117647 0.0930343
0.0068513 0.0128481 0.120851
0.00648508 0.0219272 0.219303
0.0414435 0.0376898 0.336858
0.149218 0.0619821 0.403037
0.285634 0.0894026 0.447593
0.461357 0.109102 0.494041
0.714885 0.0825666 0.527993
0.923217 0.034165 0.561776
0 0.0567788 0.280079
0 0.0580606 0.298787
0 0.0701305 0.351492
0.0362554 0.0890211 0.391165
0.154971 0.108415 0.419471
0.287739 0.130007 0.450889
0.454688 0.147387 0.484901
0.68806 0.138094 0.511925
0.929458 0.115389 0.546822
0 0.188418 0.362432
0 0.183612 0.368414
0 0.19176 0.409232
0.0459907 0.202213 0.455497
0.192462 0.215671 0.484794
0.340703 0.231098 0.503166
0.510826 0.2421 0.519707
0.734508 0.241459 0.533104
0.93669 0.253422 0.569635
0 0.320989 0.430838
0 0.314549 0.425849
0.0087892 0.322606 0.453544
0.11371 0.339284 0.491295
0.23595 0.355413 0.533578
0.403906 0.370916 0.555108
0.591333 0.38114 0.564981
0.801022 0.389792 0.573587
0.951827 0.422721 0.619577
0.117556 0.474388 0.502205
0.134966 0.467475 0.492882
0.201053 0.473884 0.499947
0.283146 0.491127 0.520439
0.372168 0.518151 0.55079
0.489418 0.543084 0.597711
0.691157 0.553475 0.612146
0.831144 0.572564 0.624079
0.94995 0.599481 0.689158
0.362417 0.63682 0.596307
0.365438 0.632837 0.589258
0.410895 0.640131 0.597528
0.481361 0.659815 0.615793
0.559442 0.676051 0.635599
0.642496 0.689952 0.647288
0.743206 0.704036 0.655161
0.839231 0.721141 0.682139
0.975143 0.718868 0.752682
0.564431 0.774258 0.699748
0.555276 0.771664 0.691905
0.571572 0.772427 0.691752
0.609674 0.781033 0.698711
0.650401 0.793439 0.701885
0.722637 0.801343 0.703182
0.80528 0.805173 0.730663
0.908309 0.802365 0.742397
0.999634 0.802136 0.785611
0.665629 0.87628 0.757549
0.659937 0.872663 0.75227
0.675319 0.874235 0.748791
0.706157 0.878904 0.751217
0.750332 0.880598 0.754192
0.806745 0.881148 0.766842
0.868879 0.880812 0.802502
0.905028 0.889509 0.791104
0.995697 0.893111 0.798383
0.800259 0.958953 0.831952
0.797498 0.955367 0.826581
0.808408 0.955566 0.826688
0.832303 0.958099 0.833783
0.860624 0.959792 0.840742
0.897017 0.96025 0.853239
0.936675 0.964416 0.877562
0.972274 0.968215 0.901549
0.996078 0.976471 0.905608
0 0.0156863 0.237156
0 0.0196078 0.281178
0 0.0262913 0.419791
0.000183108 0.0403754 0.538582
0.119066 0.0660258 0.600122
0.27921 0.0933852 0.649149
0.47274 0.109728 0.695033
0.74287 0.0781109 0.725048
0.951873 0.0182956 0.745769
0 0.0685588 0.487968
0 0.0661784 0.494438
0 0.0770428 0.532998
0 0.0930648 0.565942
0.129885 0.113313 0.598627
0.286091 0.133379 0.631708
0.464439 0.150668 0.667079
0.709407 0.136995 0.68867
0.954879 0.113573 0.713817
0 0.199802 0.577356
0 0.195178 0.571694
0 0.198337 0.601495
0.000808728 0.208698 0.635538
0.174655 0.222156 0.659251
0.342428 0.235264 0.676402
0.521691 0.248234 0.692149
0.754788 0.245396 0.701595
0.956817 0.26038 0.71722
0 0.345006 0.641047
0 0.336477 0.631128
0 0.339788 0.651026
0.0155489 0.351766 0.686778
0.224063 0.366766 0.712169
0.410925 0.378698 0.724498
0.606653 0.388418 0.730404
0.820829 0.396689 0.734676
0.960052 0.441672 0.743023
0 0.508095 0.67425
9.15541e-05 0.498207 0.662074
0.0090486 0.50338 0.675364
0.155444 0.519966 0.705776
0.31667 0.538537 0.738918
0.501442 0.551675 0.75642
0.703258 0.562127 0.758511
0.850614 0.583124 0.760632
0.943648 0.61825 0.765606
0.331807 0.663447 0.701686
0.338918 0.65948 0.694392
0.383978 0.667964 0.703471
0.451286 0.682963 0.721096
0.528389 0.698405 0.736919
0.632013 0.707301 0.757244
0.752026 0.71165 0.768612
0.85185 0.729671 0.776135
0.935332 0.749722 0.789227
0.616876 0.781521 0.758938
0.610559 0.775311 0.751415
0.632456 0.777005 0.751751
0.673365 0.78323 0.759396
0.724651 0.792889 0.769345
0.769116 0.801389 0.778332
0.809857 0.810071 0.790784
0.877226 0.817929 0.802701
0.949004 0.829267 0.826032
0.771756 0.864836 0.813809
0.766751 0.862364 0.812528
0.776638 0.863416 0.812207
0.797208 0.867704 0.818708
0.815946 0.872999 0.824491
0.836713 0.881056 0.828931
0.857633 0.889021 0.830335
0.90898 0.893263 0.841978
0.995575 0.893263 0.865415
0.847196 0.955032 0.875563
0.841428 0.951675 0.870787
0.84622 0.951598 0.870665
0.858869 0.955581 0.873854
0.876539 0.959792 0.876951
0.900786 0.964172 0.881315
0.928862 0.968353 0.890059
0.972137 0.968627 0.913176
1 0.976471 0.925368
0 0.00784314 0.555077
0 0.00784314 0.619684
0 0.0107576 0.758267
0 0.0273747 0.817807
0 0.0542916 0.85037
0.245365 0.085481 0.874113
0.470405 0.104723 0.897246
0.755795 0.0633555 0.908934
0.956863 0.0264439 0.917647
0 0.0616464 0.813519
0 0.0612345 0.81825
0 0.0684672 0.833783
0 0.088014 0.84921
0.00540169 0.107866 0.867689
0.255039 0.132311 0.886656
0.464591 0.14609 0.901427
0.728756 0.131746 0.91191
0.961959 0.123049 0.914336
0 0.202701 0.875242
0 0.197635 0.876402
0 0.200656 0.877256
0 0.211063 0.886885
0.104677 0.225055 0.893828
0.332692 0.238422 0.898482
0.530816 0.25301 0.901122
0.772137 0.248829 0.901579
0.959838 0.274556 0.900847
0 0.361028 0.900679
0 0.348882 0.902632
0 0.350179 0.9019
0 0.362036 0.907637
0.20383 0.376593 0.9149
0.416526 0.388937 0.914672
0.626352 0.397589 0.913924
0.827237 0.413123 0.909056
0.96051 0.462974 0.90312
0 0.533516 0.91281
0 0.524437 0.910506
0 0.524422 0.910262
0.0270237 0.537881 0.914305
0.313344 0.554574 0.921096
0.530022 0.564401 0.917357
0.717968 0.577066 0.913344
0.846098 0.601572 0.905852
0.943587 0.636469 0.898939
0.00421149 0.702571 0.897963
0.0672007 0.696422 0.892332
0.213489 0.701381 0.893828
0.350866 0.710048 0.900481
0.494087 0.717006 0.901106
0.645716 0.715404 0.899596
0.763394 0.726329 0.899336
0.856046 0.741939 0.898924
0.943221 0.757931 0.899016
0.498817 0.808118 0.890196
0.498222 0.80531 0.883833
0.533761 0.804334 0.884611
0.590494 0.80737 0.892103
0.66331 0.812634 0.899641
0.742412 0.813397 0.900847
0.809705 0.817884 0.905638
0.880842 0.825666 0.908782
0.956298 0.837446 0.909468
0.730739 0.88014 0.895109
0.732799 0.876478 0.888777
0.744396 0.876661 0.889372
0.764981 0.882414 0.896483
0.790799 0.884627 0.900099
0.822644 0.88893 0.908049
0.861173 0.8934 0.913314
0.908888 0.897307 0.917144
0.972335 0.90901 0.921324
0.90634 0.951019 0.915984
0.900481 0.947524 0.912718
0.906615 0.948135 0.915831
0.917388 0.951476 0.918181
0.931502 0.955932 0.920821
0.947936 0.960327 0.925109
0.964431 0.964706 0.929412
0.984192 0.972427 0.937133
0.999939 0.976379 0.941146
