70 CGC LUTs/Look LUTs/Mint.cube
#Created by: Denver Riddle
#Copyright: (C) Copyright Color Grading Central LLC
#LUT Size
LUT_3D_SIZE 9
0.0274815 0.0250095 0.0483711
0.11133 0.00630198 0.0258488
0.273075 0.00575265 0.0125124
0.460182 0.00868238 0.0113222
0.657069 0.0129244 0.0129244
0.822644 0.0161898 0.0161898
0.879332 0.0173037 0.0173037
0.909514 0.0178988 0.0178988
0.931975 0.0183413 0.0183413
0.000106813 0.0759747 0.00283818
0.0683757 0.0628367 0.00306706
0.227558 0.0446784 0.010605
0.412406 0.0314336 0.0129549
0.611719 0.0269017 0.0160983
0.782544 0.0292515 0.0197147
0.848798 0.0328527 0.0215763
0.88687 0.0344091 0.0225681
0.922621 0.0276036 0.0220951
0.00030518 0.200137 0
0.00555428 0.199405 0
0.174121 0.181842 0.00341802
0.362768 0.169085 0.0169375
0.55845 0.162646 0.0293431
0.727153 0.168002 0.0360266
0.82501 0.177646 0.0398718
0.877394 0.183215 0.0419318
0.932769 0.174594 0.0426795
0.000549325 0.363119 0
0.000564584 0.369482 0
0.130205 0.359304 0
0.328649 0.344274 0.00637827
0.523964 0.338582 0.019089
0.696239 0.345266 0.0310979
0.805051 0.36463 0.0383001
0.877546 0.382559 0.0427253
0.959716 0.383413 0.0487678
0.000854505 0.554116 0
0.000869764 0.566705 0
0.117113 0.565835 0
0.32462 0.559731 0
0.530724 0.563638 0.00984207
0.701198 0.581582 0.0208591
0.79202 0.601892 0.0257725
0.876966 0.608591 0.0338445
0.974243 0.588708 0.0432746
0.00117494 0.762203 0
0.0275273 0.776776 0
0.168566 0.770901 0
0.360616 0.754101 0
0.551232 0.737423 0.00584421
0.68896 0.728908 0.0218967
0.776806 0.724025 0.0328679
0.866148 0.715846 0.0396582
0.973739 0.695994 0.0381781
0.00741588 0.845228 0.0175021
0.0780957 0.845411 0.0307622
0.196811 0.836469 0.0281987
0.361746 0.818799 0.0157931
0.540124 0.799725 0.0191653
0.668711 0.790265 0.0309911
0.763348 0.784894 0.0423896
0.860166 0.776944 0.0487526
0.977646 0.759197 0.0442054
0.0259403 0.897246 0.0471962
0.087541 0.896452 0.0535286
0.189151 0.889036 0.046952
0.334127 0.874723 0.03122
0.506569 0.856336 0.0255589
0.643717 0.846479 0.0346838
0.745632 0.842237 0.0461128
0.852461 0.83566 0.0539406
0.982498 0.821225 0.0518959
0.0138247 0.948272 0.0177615
0.0607004 0.949111 0.0243534
0.131792 0.94667 0.024033
0.246845 0.938201 0.0127871
0.398718 0.924849 0
0.564004 0.912459 0.00228885
0.684657 0.909911 0.0137789
0.806043 0.907286 0.0267643
0.965072 0.898848 0.0357977
0.0707256 0.0690776 0.161028
0.125063 0.0252537 0.135286
0.241184 0.0200656 0.0877394
0.434897 0.0172427 0.0913863
0.638895 0.0178378 0.0778515
0.807782 0.0199435 0.0719463
0.868559 0.0207218 0.0691691
0.900465 0.0207675 0.0635538
0.929061 0.01944 0.0411231
0.0188296 0.0739757 0.120684
0.071519 0.071931 0.110658
0.208057 0.0497444 0.0856336
0.397574 0.0352636 0.0753033
0.599939 0.0305333 0.0666667
0.77113 0.0331273 0.0688792
0.837186 0.0372473 0.0742199
0.875853 0.0394598 0.0766613
0.914214 0.0314488 0.0659953
0.000183108 0.198001 0.0439002
0.005066 0.197986 0.0461128
0.171069 0.182483 0.0383612
0.35993 0.170169 0.0418708
0.555367 0.164736 0.0472725
0.722972 0.171252 0.0594492
0.817166 0.181598 0.0731518
0.869093 0.18851 0.083711
0.925673 0.181491 0.086244
0.000549325 0.362936 0
0.000534066 0.369909 0.00810254
0.130953 0.361028 0.00341802
0.329625 0.34638 0.0129854
0.524437 0.340658 0.0274968
0.697597 0.351019 0.0551156
0.799573 0.37203 0.0871901
0.870802 0.392996 0.118395
0.951431 0.393942 0.138323
0.000854505 0.555688 0
0.000839246 0.569192 0.0122835
0.12108 0.571557 0.0203708
0.326619 0.567727 0.028687
0.532219 0.572381 0.0624094
0.697139 0.589868 0.0979782
0.784298 0.608606 0.125933
0.868284 0.612604 0.142077
0.966247 0.590311 0.144274
0.00103761 0.765087 0.0485542
0.0330816 0.777203 0.0819715
0.167727 0.771557 0.0991989
0.345815 0.757946 0.0992294
0.542 0.738628 0.10724
0.678294 0.729412 0.12369
0.76672 0.7243 0.136416
0.856519 0.715923 0.142031
0.965499 0.695781 0.13463
0.0087129 0.84448 0.134951
0.0790112 0.844251 0.148333
0.190982 0.835996 0.145876
0.341634 0.821866 0.131167
0.526131 0.801312 0.12311
0.657206 0.791043 0.132357
0.752819 0.785367 0.142077
0.850752 0.77731 0.146639
0.969543 0.759411 0.138308
0.0261387 0.896101 0.156832
0.0867018 0.895216 0.161639
0.184024 0.88838 0.155337
0.316976 0.876905 0.139193
0.489403 0.85893 0.123049
0.632792 0.847684 0.128344
0.735592 0.843244 0.138186
0.843992 0.836652 0.144717
0.975631 0.82211 0.13933
0.0139315 0.947646 0.112139
0.0598154 0.948562 0.116655
0.128756 0.946456 0.115129
0.237522 0.9393 0.103334
0.381384 0.928267 0.0865644
0.551919 0.915114 0.0820172
0.676127 0.911894 0.0935531
0.799878 0.909911 0.105837
0.961807 0.902052 0.112657
0.12047 0.119478 0.288853
0.156329 0.0955673 0.275502
0.266529 0.023209 0.2038
0.401617 0.0359045 0.157504
0.601068 0.0347448 0.175113
0.773098 0.034638 0.184146
0.837827 0.0347753 0.185061
0.871229 0.0342565 0.181384
0.903426 0.0317235 0.163302
0.0819715 0.114137 0.234043
0.121477 0.122255 0.229435
0.222766 0.0584115 0.18706
0.366003 0.0526741 0.15108
0.567315 0.0458381 0.169192
0.741176 0.047303 0.182193
0.807782 0.0514076 0.189548
0.847669 0.053727 0.192645
0.887831 0.0447395 0.182483
0.00250248 0.195178 0.208362
0.00755322 0.195819 0.209613
0.163287 0.18883 0.196048
0.33901 0.178531 0.189242
0.531929 0.174609 0.185824
0.700374 0.182193 0.195102
0.792523 0.193256 0.20737
0.845609 0.200015 0.216144
0.904189 0.195132 0.217823
0.00015259 0.362936 0.151904
0.000122072 0.370626 0.162936
0.123796 0.364645 0.161685
0.3196 0.352438 0.159976
0.514885 0.347417 0.173602
0.686625 0.36112 0.203021
0.7823 0.38436 0.23386
0.853559 0.406287 0.262562
0.933989 0.407279 0.276677
0.000488289 0.557214 0.134569
0.000457771 0.572412 0.154559
0.123766 0.578119 0.16791
0.310506 0.581216 0.176974
0.526452 0.583398 0.203159
0.688014 0.598856 0.235843
0.773449 0.615091 0.260365
0.857618 0.616419 0.272877
0.955749 0.592508 0.271458
0.000656138 0.768444 0.19263
0.0385595 0.776852 0.225223
0.170733 0.771099 0.239506
0.330297 0.760601 0.240726
0.528161 0.741009 0.233875
0.665568 0.730434 0.246647
0.755032 0.725032 0.257664
0.845594 0.716335 0.260807
0.955764 0.695857 0.250065
0.00999466 0.843488 0.268605
0.0797742 0.842924 0.279149
0.189883 0.834424 0.273899
0.328511 0.822644 0.261921
0.506325 0.804349 0.242573
0.64445 0.792187 0.247196
0.741115 0.786145 0.255406
0.840177 0.777935 0.258106
0.960266 0.759915 0.246296
0.026276 0.894926 0.280613
0.0859541 0.89398 0.283528
0.181933 0.887053 0.274769
0.307347 0.877058 0.260456
0.466346 0.862867 0.239246
0.619272 0.849515 0.236088
0.724254 0.844648 0.244251
0.834272 0.83801 0.249302
0.967697 0.823453 0.240879
0.0139315 0.94696 0.221515
0.0590372 0.947875 0.224781
0.127047 0.945815 0.221317
0.232181 0.939376 0.209506
0.364416 0.931182 0.193469
0.535317 0.918944 0.1794
0.665782 0.914702 0.187488
0.792828 0.913298 0.1991
0.958083 0.906218 0.204425
0.175463 0.174868 0.42707
0.207019 0.160327 0.40856
0.297322 0.078294 0.380529
0.43212 0.0328679 0.277928
0.57644 0.052781 0.238331
0.733455 0.0566262 0.253483
0.799496 0.0564279 0.262043
0.833616 0.0552529 0.263661
0.868757 0.0510719 0.255772
0.14081 0.168383 0.365606
0.174823 0.17586 0.362799
0.256977 0.11725 0.353429
0.395193 0.0514534 0.26479
0.543999 0.0641337 0.232044
0.704921 0.0691081 0.252811
0.77055 0.0733654 0.266285
0.811337 0.0753185 0.273243
0.853025 0.065095 0.26836
0.0522469 0.19707 0.339437
0.0572061 0.199207 0.340276
0.216175 0.229587 0.319142
0.33962 0.19086 0.286046
0.502342 0.192981 0.280766
0.671885 0.198703 0.306706
0.762829 0.209491 0.323613
0.817517 0.216739 0.33402
0.877974 0.213611 0.337346
0 0.363424 0.32253
0 0.371893 0.333425
0.125429 0.366155 0.329778
0.307378 0.35903 0.324529
0.499916 0.357031 0.332372
0.668101 0.374853 0.354177
0.75935 0.400656 0.383093
0.83154 0.422309 0.408789
0.913298 0.4224 0.417166
6.10361e-05 0.559823 0.296056
0.000122072 0.576593 0.316991
0.129122 0.584161 0.330175
0.307469 0.590326 0.343206
0.518837 0.594293 0.356985
0.677333 0.607645 0.386892
0.761242 0.620432 0.407248
0.845487 0.62034 0.417685
0.941924 0.595605 0.411521
0.000244144 0.771756 0.3514
0.0441749 0.776471 0.382193
0.173968 0.770382 0.392309
0.328405 0.759548 0.390112
0.505058 0.745327 0.3785
0.651469 0.731868 0.382528
0.742214 0.725917 0.391699
0.833677 0.717037 0.392798
0.944976 0.696345 0.378897
0.0112459 0.842298 0.415137
0.0802014 0.841474 0.423484
0.188876 0.832731 0.414954
0.325368 0.820981 0.400748
0.482109 0.807919 0.383215
0.629129 0.793988 0.375326
0.72813 0.787427 0.381689
0.828656 0.778958 0.382712
0.950134 0.7608 0.367544
0.0262455 0.893645 0.417716
0.0851606 0.89276 0.419242
0.179751 0.885664 0.407538
0.303929 0.875715 0.39086
0.447623 0.865064 0.373281
0.60032 0.852918 0.358587
0.71194 0.846571 0.363607
0.823713 0.839811 0.367269
0.958755 0.825238 0.35584
0.0138705 0.946273 0.34435
0.0582589 0.947234 0.346517
0.125414 0.94522 0.341161
0.229725 0.938842 0.326772
0.355261 0.932158 0.312398
0.513436 0.92398 0.294957
0.652827 0.918547 0.295674
0.784695 0.917128 0.30576
0.953964 0.910964 0.309773
0.234668 0.23505 0.574792
0.264042 0.223819 0.553414
0.330739 0.166155 0.537499
0.472724 0.0560616 0.459861
0.611902 0.0480201 0.366644
0.732113 0.0673533 0.336828
0.786587 0.0724651 0.333333
0.813886 0.0739452 0.329427
0.840497 0.0729229 0.317586
0.201297 0.226581 0.508919
0.232227 0.233539 0.506828
0.300328 0.194308 0.498314
0.437446 0.0789044 0.443473
0.58085 0.0602731 0.357641
0.70544 0.0805676 0.334539
0.759167 0.0897688 0.337743
0.793912 0.094316 0.339574
0.828672 0.0862898 0.329824
0.128176 0.238117 0.458106
0.132326 0.241062 0.459541
0.274052 0.286381 0.45388
0.379828 0.242069 0.453803
0.522255 0.198306 0.381415
0.651728 0.21886 0.373739
0.731456 0.232898 0.390875
0.784436 0.241947 0.405356
0.844877 0.240726 0.414435
0.0188144 0.356329 0.487495
0.0187228 0.365438 0.49807
0.155276 0.362615 0.48394
0.353979 0.385168 0.459663
0.494163 0.37377 0.442039
0.64332 0.396506 0.466026
0.730938 0.422873 0.501884
0.804654 0.443229 0.529244
0.887861 0.440925 0.537285
0 0.562509 0.47155
0.00135805 0.582162 0.494148
0.135134 0.590875 0.507103
0.313054 0.598215 0.518669
0.506432 0.605142 0.530175
0.664057 0.615915 0.550759
0.746303 0.626032 0.567819
0.827176 0.625467 0.572076
0.920729 0.601694 0.555764
0 0.77322 0.523934
0.0490883 0.775967 0.552392
0.176638 0.769421 0.55819
0.328328 0.758007 0.550912
0.494423 0.74519 0.539757
0.633616 0.734417 0.532265
0.728359 0.727153 0.539147
0.820645 0.71812 0.537881
0.932342 0.6972 0.521492
0.0121614 0.841016 0.575143
0.0803082 0.839918 0.580911
0.187503 0.830991 0.569146
0.322805 0.81915 0.551888
0.474678 0.806745 0.534249
0.604364 0.797955 0.52221
0.713802 0.78912 0.521065
0.816098 0.780301 0.520485
0.938949 0.76199 0.502174
0.0260166 0.892439 0.568017
0.084184 0.891463 0.568154
0.177813 0.884306 0.553811
0.300984 0.874266 0.53431
0.442069 0.863905 0.51516
0.576013 0.857008 0.502556
0.696437 0.849561 0.496651
0.812055 0.842054 0.498466
0.949004 0.827482 0.484123
0.0137179 0.945617 0.480522
0.0573587 0.946685 0.481621
0.123812 0.944686 0.474372
0.22739 0.938384 0.457511
0.351934 0.931823 0.440803
0.49752 0.927153 0.427726
0.633402 0.924605 0.4206
0.776272 0.921767 0.426398
0.948699 0.916152 0.428351
0.289021 0.290196 0.709804
0.323339 0.287602 0.704433
0.383444 0.247196 0.687633
0.502113 0.137865 0.65861
0.660365 0.0532235 0.548943
0.779492 0.0585336 0.48574
0.825559 0.0681315 0.466438
0.846052 0.0728161 0.452293
0.859602 0.0774853 0.422431
0.264851 0.288594 0.662303
0.293431 0.295064 0.660075
0.358557 0.266117 0.646906
0.469184 0.161227 0.633433
0.629892 0.0687419 0.537224
0.754314 0.0730602 0.481605
0.799512 0.085771 0.471855
0.828168 0.0939803 0.464103
0.85301 0.0897383 0.439506
0.199222 0.295995 0.594293
0.203067 0.29926 0.595941
0.334829 0.347143 0.599573
0.423163 0.321721 0.602991
0.568505 0.220005 0.556756
0.693874 0.21622 0.506508
0.756374 0.236301 0.501396
0.800107 0.252537 0.505516
0.849165 0.25803 0.501762
0.0857404 0.362844 0.617807
0.0844739 0.371847 0.629328
0.2327 0.388922 0.604517
0.41677 0.442252 0.59321
0.538796 0.428244 0.611444
0.672602 0.40647 0.581582
0.740398 0.437629 0.59762
0.800031 0.462348 0.610651
0.867567 0.463386 0.60647
0.00584421 0.561639 0.653986
0.00946059 0.583795 0.678721
0.150164 0.593256 0.68867
0.332906 0.600641 0.693355
0.538888 0.616831 0.685618
0.670375 0.639307 0.70071
0.730724 0.637934 0.687343
0.798962 0.638453 0.686168
0.894133 0.612802 0.677119
0 0.773068 0.709834
0.0534676 0.775464 0.734997
0.178225 0.768277 0.73579
0.328115 0.756222 0.724086
0.492149 0.74287 0.708766
0.620737 0.734493 0.70161
0.713603 0.729168 0.697993
0.804532 0.72018 0.695415
0.912016 0.700999 0.670268
0.0128786 0.839673 0.743084
0.0801556 0.83827 0.744137
0.186343 0.829252 0.730602
0.320363 0.817243 0.711711
0.471077 0.80473 0.692714
0.596353 0.796872 0.681651
0.69279 0.792432 0.675898
0.802792 0.781918 0.669276
0.926055 0.763577 0.649866
0.025803 0.891157 0.719371
0.0831464 0.89015 0.713649
0.175845 0.882979 0.700572
0.297993 0.872892 0.68336
0.438193 0.862455 0.665797
0.570275 0.856168 0.653681
0.674113 0.853727 0.647211
0.79942 0.844755 0.638865
0.938415 0.83003 0.623667
0.0135042 0.944976 0.629816
0.0564889 0.94609 0.62855
0.122377 0.944198 0.619394
0.225071 0.938033 0.601114
0.34873 0.931472 0.581537
0.493843 0.927443 0.56788
0.615366 0.930022 0.566186
0.765148 0.928115 0.559152
0.943313 0.92224 0.55877
0.288685 0.290166 0.709819
0.322927 0.289998 0.709468
0.395392 0.266041 0.722622
0.514504 0.182254 0.737636
0.683238 0.0814832 0.676432
0.814633 0.0576944 0.610391
0.865705 0.0606851 0.589685
0.889815 0.0638743 0.581094
0.907805 0.068513 0.562783
0.285771 0.308537 0.712688
0.316701 0.318425 0.719493
0.390539 0.302144 0.726009
0.494377 0.223575 0.744305
0.659648 0.10956 0.694377
0.795087 0.0767376 0.625544
0.842206 0.0815747 0.608209
0.872847 0.0876173 0.597696
0.899794 0.0831159 0.574609
0.260121 0.352087 0.7252
0.26421 0.355474 0.72665
0.394659 0.407263 0.743755
0.480278 0.392721 0.745373
0.602441 0.29688 0.742092
0.741131 0.234623 0.68484
0.804944 0.236942 0.66038
0.845991 0.250538 0.642771
0.889357 0.25893 0.620081
0.165591 0.399466 0.738827
0.164004 0.407034 0.749798
0.308461 0.440742 0.730175
0.47808 0.502968 0.733288
0.586862 0.507088 0.753811
0.711208 0.447547 0.747265
0.776944 0.449058 0.724788
0.830777 0.463813 0.700023
0.886366 0.466361 0.670527
0.0451972 0.557031 0.808377
0.0502632 0.58085 0.829969
0.198123 0.594507 0.823056
0.38793 0.612284 0.803677
0.589548 0.650523 0.778912
0.699519 0.682994 0.78378
0.753613 0.657801 0.779873
0.812268 0.638056 0.742824
0.881712 0.622232 0.713726
0.00198367 0.770611 0.849577
0.0605783 0.772839 0.84509
0.183429 0.764645 0.834623
0.332448 0.751644 0.821134
0.498054 0.737179 0.80531
0.632822 0.730541 0.789166
0.729244 0.740459 0.775967
0.792966 0.724849 0.755611
0.894148 0.706676 0.748943
0.0141146 0.838529 0.825589
0.0805066 0.836896 0.820905
0.18584 0.827771 0.810224
0.318486 0.815503 0.796994
0.468299 0.802884 0.783627
0.593606 0.794934 0.774166
0.690288 0.790631 0.767697
0.794415 0.782406 0.759793
0.912795 0.766064 0.745922
0.0259556 0.890074 0.79733
0.0825666 0.889006 0.792889
0.17438 0.881804 0.78201
0.295842 0.871656 0.768063
0.435157 0.861204 0.753994
0.567727 0.855009 0.744274
0.672053 0.852888 0.739162
0.790066 0.846754 0.729366
0.931838 0.83183 0.721019
0.0133974 0.944503 0.728847
0.0559091 0.945769 0.725902
0.121248 0.943954 0.717922
0.223484 0.937896 0.703365
0.346456 0.931487 0.688457
0.492531 0.92781 0.677272
0.614694 0.931502 0.675349
0.751705 0.935073 0.669886
0.940581 0.928328 0.668025
0.288685 0.290166 0.709819
0.320226 0.290196 0.709361
0.392721 0.267521 0.72192
0.510567 0.185122 0.738003
0.679271 0.0830549 0.678523
0.811368 0.0576944 0.611826
0.863508 0.060441 0.590494
0.888121 0.0636149 0.581674
0.91075 0.0674754 0.574136
0.286 0.30753 0.712474
0.315496 0.31722 0.719005
0.389456 0.301564 0.725612
0.493278 0.224674 0.744457
0.658213 0.111772 0.697704
0.794522 0.0780194 0.629236
0.840726 0.0827955 0.61149
0.872084 0.0890669 0.601083
0.902831 0.0852979 0.586297
0.264271 0.355749 0.734005
0.268437 0.359411 0.735622
0.400717 0.413245 0.757122
0.490959 0.405325 0.769909
0.610239 0.320211 0.782528
0.750256 0.24744 0.730739
0.813443 0.245274 0.703487
0.856016 0.256504 0.681331
0.901228 0.26392 0.654627
0.201114 0.421881 0.79617
0.195132 0.426459 0.800107
0.338842 0.465385 0.784482
0.504005 0.528969 0.78996
0.608789 0.534539 0.801587
0.720546 0.476173 0.799588
0.786496 0.465995 0.773281
0.843503 0.469902 0.744305
0.900542 0.466285 0.709392
0.0742809 0.561776 0.875517
0.0750439 0.586358 0.879713
0.222339 0.603067 0.864332
0.411383 0.623697 0.839368
0.610117 0.667903 0.817517
0.715908 0.702068 0.824353
0.762539 0.681849 0.829053
0.82594 0.639612 0.794873
0.891524 0.619501 0.749783
0.00747692 0.766537 0.901091
0.06981 0.768109 0.897215
0.191562 0.758923 0.887388
0.341756 0.745022 0.873426
0.513176 0.732067 0.853178
0.656397 0.735515 0.830243
0.749462 0.758129 0.822049
0.80798 0.731167 0.813596
0.884947 0.711192 0.773663
0.0161746 0.835752 0.887144
0.0816052 0.833951 0.883604
0.185977 0.824567 0.875029
0.318257 0.811765 0.864164
0.467933 0.798367 0.852201
0.596063 0.789837 0.842557
0.698253 0.78648 0.833066
0.801221 0.792203 0.822354
0.89897 0.770382 0.802029
0.0258946 0.888655 0.866865
0.081651 0.887587 0.863767
0.17258 0.880354 0.855467
0.292775 0.870176 0.844434
0.431266 0.859724 0.833371
0.564675 0.853544 0.826017
0.669902 0.851667 0.822522
0.782971 0.847211 0.816632
0.923674 0.834028 0.807889
0.0133211 0.943771 0.812528
0.0551614 0.945113 0.810742
0.11989 0.943481 0.804746
0.221332 0.937469 0.793225
0.343893 0.931319 0.78143
0.491356 0.928283 0.773312
0.614862 0.932998 0.773327
0.749783 0.938613 0.773663
0.937942 0.934112 0.769787
0.288685 0.290166 0.709819
0.314824 0.290517 0.709209
0.386297 0.270893 0.720241
0.500496 0.192599 0.738567
0.668833 0.0876936 0.683711
0.802548 0.0578927 0.615747
0.859846 0.0600748 0.591882
0.88539 0.0632029 0.58262
0.909239 0.0671855 0.574639
0.286534 0.304692 0.711955
0.311406 0.313039 0.717372
0.384604 0.298451 0.723735
0.487388 0.224872 0.743358
0.652171 0.112718 0.699504
0.789303 0.0761883 0.630411
0.837278 0.0804456 0.611811
0.86952 0.0862745 0.600793
0.901549 0.084184 0.586267
0.265721 0.353536 0.73257
0.266148 0.356374 0.734249
0.397772 0.410101 0.75581
0.488228 0.403296 0.768902
0.607172 0.319173 0.781857
0.747738 0.245686 0.73048
0.811154 0.246113 0.705974
0.85713 0.258671 0.692149
0.907195 0.265034 0.673747
0.204089 0.419196 0.793698
0.198413 0.424659 0.799359
0.342611 0.46656 0.790356
0.510781 0.535607 0.806317
0.619577 0.547936 0.827131
0.726696 0.496605 0.837583
0.79263 0.480339 0.81799
0.852964 0.473396 0.787533
0.913939 0.459953 0.748882
0.0911421 0.561502 0.903944
0.0963149 0.586847 0.911543
0.243442 0.606775 0.897215
0.433173 0.631495 0.872236
0.628168 0.681605 0.854856
0.731075 0.717266 0.865522
0.772061 0.70074 0.872587
0.835035 0.649134 0.854246
0.907866 0.608011 0.799558
0.0174563 0.758007 0.950561
0.0794232 0.75906 0.947311
0.200534 0.749508 0.938125
0.353582 0.735851 0.922576
0.532586 0.729244 0.896956
0.680751 0.747311 0.873579
0.768597 0.776501 0.873991
0.817533 0.757351 0.878325
0.900038 0.702296 0.827802
0.0199893 0.827359 0.949035
0.0844434 0.825391 0.946944
0.187518 0.81532 0.940566
0.320912 0.801587 0.930938
0.474434 0.787793 0.917403
0.613886 0.782559 0.901427
0.726101 0.791897 0.885023
0.82182 0.817441 0.882231
0.901762 0.768246 0.847745
0.0252537 0.883238 0.942641
0.0795911 0.882353 0.941512
0.168231 0.875059 0.936416
0.287572 0.864302 0.929046
0.425849 0.852903 0.920867
0.563058 0.845853 0.914565
0.673167 0.843717 0.909941
0.79852 0.845945 0.89662
0.911223 0.838102 0.872541
0.0132448 0.941024 0.910384
0.0527962 0.942473 0.910262
0.115419 0.94107 0.907378
0.215351 0.934966 0.900191
0.336858 0.929015 0.892912
0.485466 0.926757 0.888975
0.611429 0.932509 0.891936
0.748852 0.939101 0.895201
0.929732 0.937682 0.892653
