70 CGC LUTs/Look LUTs/Mint.cube
#Created by: Denver Riddle
#Copyright: (C) Copyright Color Grading Central LLC
#LUT Size
LUT_3D_SIZE 33
0.0274815 0.0250095 0.0483711
0.0415503 0.0181582 0.0368048
0.0552987 0.0131228 0.0286259
0.0797284 0.00939956 0.0278172
0.11133 0.00630198 0.0258488
0.146807 0.00450141 0.0214694
0.18613 0.00463874 0.0170596
0.228733 0.00511177 0.0142367
0.273075 0.00575265 0.0125124
0.318364 0.00645457 0.0113222
0.364019 0.00717174 0.0102388
0.410986 0.0078584 0.0102235
0.460182 0.00868238 0.0113222
0.50959 0.0100252 0.0100252
0.559777 0.011017 0.011017
0.609628 0.0119936 0.0119936
0.657069 0.0129244 0.0129244
0.701305 0.0137942 0.0137942
0.743358 0.0146181 0.0146181
0.783536 0.0154116 0.0154116
0.822644 0.0161898 0.0161898
0.849119 0.0167086 0.0167086
0.862501 0.016968 0.016968
0.87097 0.0171359 0.0171359
0.879332 0.0173037 0.0173037
0.887343 0.0174563 0.0174563
0.894972 0.0176089 0.0176089
0.902358 0.0177462 0.0177462
0.909514 0.0178988 0.0178988
0.916396 0.0180362 0.0180362
0.923415 0.0181735 0.0181735
0.929625 0.0182956 0.0182956
0.931975 0.0183413 0.0183413
0.0131533 0.0291142 0.03682
0.0300755 0.0265812 0.0324407
0.0473793 0.0213169 0.0273594
0.0724193 0.0158083 0.0238041
0.10248 0.0105592 0.0187991
0.136599 0.00636301 0.0140078
0.174884 0.00555428 0.011841
0.217105 0.0049897 0.010605
0.261204 0.00531014 0.00950637
0.306142 0.00602731 0.00869764
0.352071 0.00672923 0.00875868
0.399222 0.0075227 0.00981155
0.448005 0.00881971 0.00881971
0.49868 0.00981155 0.00981155
0.548989 0.0108034 0.0108034
0.599191 0.0117952 0.0117952
0.647257 0.0127413 0.0127413
0.692638 0.0136263 0.0136263
0.73518 0.0144656 0.0144656
0.776287 0.0152743 0.0152743
0.8159 0.0160525 0.0160525
0.841352 0.016556 0.016556
0.855039 0.0168154 0.0168154
0.863737 0.0169985 0.0169985
0.872374 0.0171664 0.0171664
0.880674 0.017319 0.017319
0.88864 0.0174868 0.0174868
0.896391 0.0176394 0.0176394
0.90396 0.0177768 0.0177768
0.91133 0.0179294 0.0179294
0.918822 0.0180819 0.0180819
0.926146 0.0182193 0.0182193
0.931197 0.0183261 0.0183261
0.00419623 0.0395666 0.0224765
0.0150149 0.036408 0.0180667
0.038468 0.032166 0.0146487
0.0640726 0.0273442 0.0138094
0.0931868 0.0222934 0.0125887
0.126238 0.0171969 0.0112001
0.163684 0.0117494 0.00956741
0.20473 0.00669871 0.00791943
0.248386 0.00534066 0.00697337
0.293446 0.00582895 0.0075227
0.338766 0.00683604 0.00683604
0.386175 0.00769055 0.00769055
0.436484 0.00862135 0.00862135
0.487465 0.00958267 0.00958267
0.53846 0.0105898 0.0105898
0.589029 0.0115816 0.0115816
0.637247 0.0125429 0.0125429
0.682994 0.0134432 0.0134432
0.726207 0.0142824 0.0142824
0.767651 0.0151064 0.0151064
0.807874 0.0158999 0.0158999
0.832517 0.0163729 0.0163729
0.846693 0.0166629 0.0166629
0.855711 0.0168307 0.0168307
0.864775 0.0170138 0.0170138
0.873381 0.0171817 0.0171817
0.881727 0.0173495 0.0173495
0.889891 0.0175021 0.0175021
0.897871 0.0176699 0.0176699
0.905821 0.0178225 0.0178225
0.913863 0.0179751 0.0179751
0.921782 0.0181277 0.0181277
0.928222 0.018265 0.018265
0.000701915 0.0556954 0.00952163
0.00256352 0.0529335 0.00816358
0.0235599 0.0491798 0.00627146
0.0514992 0.044419 0.00708019
0.0823682 0.0395666 0.00828565
0.116014 0.034699 0.00923171
0.153475 0.0297551 0.0089723
0.19469 0.0249027 0.00833143
0.238025 0.0209812 0.0081178
0.282399 0.0177157 0.00833143
0.327703 0.0146944 0.00866712
0.374517 0.0118868 0.00909438
0.423819 0.00959792 0.00959792
0.47422 0.00932326 0.00932326
0.525292 0.0103304 0.0103304
0.576196 0.0113375 0.0113375
0.624826 0.0122988 0.0122988
0.670527 0.0131991 0.0131991
0.713817 0.0140383 0.0140383
0.755444 0.0148623 0.0148623
0.795727 0.0156558 0.0156558
0.821378 0.0161593 0.0161593
0.836667 0.0164645 0.0164645
0.84622 0.0166476 0.0166476
0.855619 0.0168307 0.0168307
0.864713 0.0170138 0.0170138
0.87364 0.0171817 0.0171817
0.882292 0.0173648 0.0173648
0.890867 0.0175326 0.0175326
0.899336 0.0177005 0.0177005
0.908125 0.0178683 0.0178683
0.916915 0.0180362 0.0180362
0.924392 0.0181888 0.0181888
0.000106813 0.0759747 0.00283818
0.000106813 0.0736706 0.00254826
0.00936904 0.0711223 0.00209049
0.0348974 0.067277 0.000762951
0.0683757 0.0628367 0.00306706
0.104051 0.0583658 0.00503548
0.14313 0.0534829 0.00790417
0.184466 0.0488289 0.0096437
0.227558 0.0446784 0.010605
0.272175 0.0409857 0.0113527
0.317205 0.0376287 0.0119326
0.363607 0.0344549 0.0124208
0.412406 0.0314336 0.0129549
0.462348 0.02916 0.0135805
0.513008 0.0279393 0.014374
0.563546 0.0271916 0.0152132
0.611719 0.0269017 0.0160983
0.65745 0.0270085 0.016968
0.700999 0.0274662 0.0178836
0.742336 0.0282292 0.0187991
0.782544 0.0292515 0.0197147
0.811276 0.0304417 0.0204623
0.828626 0.0314336 0.0209659
0.838712 0.0321355 0.0212711
0.848798 0.0328527 0.0215763
0.858595 0.0332647 0.0218357
0.868177 0.0339361 0.0221408
0.877592 0.034287 0.0223697
0.88687 0.0344091 0.0225681
0.895994 0.034226 0.0227054
0.90544 0.0329747 0.0226749
0.914794 0.0306706 0.0224613
0.922621 0.0276036 0.0220951
0.00015259 0.100908 0.000411994
0.00015259 0.0995499 0.000320439
0.00224308 0.0979629 0.000213626
0.0180056 0.0957504 0
0.0515908 0.09131 0
0.0892195 0.0869612 0.00209049
0.129641 0.0823682 0.00477607
0.172503 0.0776684 0.00823987
0.216739 0.0736706 0.0114443
0.261051 0.0699016 0.013489
0.305913 0.0668345 0.0148623
0.35227 0.0639963 0.0159304
0.400412 0.0612039 0.0168154
0.450034 0.0585184 0.0176089
0.499962 0.0562905 0.0183871
0.549737 0.0543374 0.0191196
0.597665 0.0534371 0.0199435
0.643565 0.0532082 0.0208438
0.686915 0.0536202 0.0217594
0.728313 0.0547036 0.0227512
0.768536 0.0562142 0.0237736
0.800565 0.0577096 0.0246433
0.821103 0.059205 0.0252842
0.831861 0.0606394 0.0256962
0.842725 0.0616922 0.0260777
0.853269 0.0629892 0.0264744
0.8636 0.063798 0.0268101
0.873808 0.0643015 0.0270848
0.883894 0.0643931 0.0273136
0.893858 0.0640421 0.027451
0.90428 0.0620279 0.0273442
0.914626 0.0585031 0.0270085
0.92343 0.0537423 0.0264286
0.000198367 0.130327 0
0.000198367 0.13019 0
0.000198367 0.129244 0
0.00823987 0.127611 0
0.0301366 0.124773 0
0.0723735 0.119753 0
0.114961 0.115114 0.002533
0.158053 0.111025 0.00541695
0.20322 0.106691 0.00868238
0.249027 0.10248 0.0124971
0.294209 0.0991531 0.0155489
0.340169 0.0963912 0.017792
0.38822 0.0938125 0.0195163
0.437461 0.0915999 0.0209201
0.487144 0.0895399 0.0221256
0.536278 0.0878309 0.0231937
0.584085 0.0870832 0.0242618
0.629557 0.0870527 0.0252995
0.673152 0.0879225 0.0263981
0.71429 0.0893873 0.0274815
0.75433 0.0910964 0.0285801
0.789944 0.0929885 0.0296025
0.813886 0.0950484 0.030396
0.825437 0.0966506 0.030869
0.837049 0.098497 0.0313725
0.848417 0.0997787 0.0317845
0.859632 0.100679 0.0321508
0.87071 0.101427 0.0324865
0.881743 0.101701 0.0327611
0.892821 0.101717 0.03299
0.904387 0.100023 0.0330053
0.91606 0.0961318 0.0327001
0.926207 0.0913405 0.0321965
0.000244144 0.163836 0
0.000244144 0.164096 0
0.000244144 0.163836 0
0.00204471 0.162692 0
0.0123598 0.160815 0
0.0510872 0.157107 0
0.0983749 0.151812 0
0.142794 0.147265 0.00291447
0.187716 0.143008 0.00602731
0.233814 0.139071 0.00906386
0.279896 0.13547 0.012726
0.327245 0.132433 0.0165408
0.375204 0.129686 0.019791
0.424201 0.127443 0.0223545
0.47396 0.125536 0.0244297
0.522728 0.124224 0.0261387
0.570092 0.123751 0.0276341
0.61561 0.123995 0.0290074
0.658595 0.12462 0.0302586
0.69958 0.126162 0.0315251
0.739544 0.128527 0.0328069
0.778256 0.130953 0.0340581
0.806119 0.13341 0.0350195
0.818479 0.135515 0.0355688
0.830976 0.136965 0.0360418
0.843168 0.13846 0.0364996
0.855283 0.139818 0.0369573
0.867353 0.140887 0.0373846
0.879499 0.141695 0.0377813
0.891554 0.141588 0.038056
0.90425 0.139788 0.0381476
0.917403 0.135988 0.037995
0.929091 0.131579 0.0377356
0.00030518 0.200137 0
0.00030518 0.200732 0
0.00030518 0.200885 0
0.000564584 0.200473 0
0.00555428 0.199405 0
0.0349737 0.196979 0
0.0798199 0.192126 0
0.128099 0.186374 0
0.174121 0.181842 0.00341802
0.22002 0.178088 0.00669871
0.266361 0.175113 0.00958267
0.313878 0.172 0.0129854
0.362768 0.169085 0.0169375
0.412451 0.166339 0.0208743
0.462104 0.164218 0.0242771
0.511101 0.162951 0.0270542
0.55845 0.162646 0.0293431
0.60354 0.162905 0.0312657
0.646586 0.163897 0.0329595
0.687312 0.165621 0.0345159
0.727153 0.168002 0.0360266
0.766415 0.170993 0.0375219
0.796841 0.173724 0.0386816
0.811734 0.175799 0.0393072
0.82501 0.177646 0.0398718
0.838087 0.179263 0.0404059
0.851164 0.180835 0.0409247
0.864378 0.182483 0.041474
0.877394 0.183215 0.0419318
0.890608 0.183261 0.0423133
0.904524 0.18146 0.0425422
0.919219 0.178088 0.042649
0.932769 0.174594 0.0426795
0.000366217 0.238254 0
0.000366217 0.239292 0
0.000366217 0.239841 0
0.000366217 0.24007 0
0.00267033 0.239399 0
0.0242924 0.237232 0
0.0639811 0.233738 0
0.114107 0.228107 0
0.162371 0.223026 0
0.209506 0.219028 0.00408942
0.255787 0.216129 0.00746166
0.302525 0.213458 0.0103151
0.351507 0.210513 0.0135653
0.401556 0.207828 0.0173648
0.452079 0.205585 0.0214542
0.501549 0.204028 0.0252995
0.548989 0.203372 0.0285954
0.594369 0.203708 0.0313725
0.63772 0.204974 0.033753
0.678248 0.206851 0.0357977
0.717891 0.209598 0.0377356
0.756817 0.212222 0.0395209
0.788922 0.214908 0.04094
0.805463 0.217411 0.0417182
0.819715 0.219577 0.0423743
0.83389 0.221592 0.0430304
0.847974 0.223667 0.0436713
0.861997 0.225177 0.0442817
0.876127 0.226383 0.044892
0.890578 0.227115 0.0454719
0.906096 0.226642 0.0460059
0.922545 0.224063 0.0464485
0.937758 0.221073 0.0467689
0.000427253 0.277653 0
0.000427253 0.279683 0
0.000427253 0.280781 0
0.000427253 0.28127 0
0.00134279 0.280934 0
0.0169833 0.279057 0
0.0527047 0.276341 0
0.100694 0.272007 0
0.152087 0.266423 0
0.200244 0.262119 0.000595102
0.24744 0.258625 0.00483711
0.294087 0.255924 0.00828565
0.342245 0.253422 0.0112612
0.392248 0.251148 0.0143893
0.442466 0.248859 0.0179294
0.492073 0.247166 0.0217746
0.540352 0.246357 0.0255894
0.586282 0.246326 0.0291142
0.629923 0.247654 0.0322118
0.670726 0.249805 0.0348821
0.710231 0.25214 0.0373083
0.74905 0.254826 0.0395666
0.782223 0.257893 0.0413977
0.79942 0.260685 0.042298
0.814878 0.263554 0.043122
0.830121 0.266575 0.0439307
0.845441 0.269078 0.0447242
0.860716 0.271473 0.0455329
0.876097 0.273503 0.0463111
0.891875 0.275166 0.0471199
0.909209 0.276066 0.0479744
0.927291 0.274205 0.0487984
0.944121 0.271382 0.0495003
0.000488289 0.319265 0
0.000488289 0.321645 0
0.000488289 0.323308 0
0.000503548 0.324285 0
0.000610361 0.324041 0
0.0120851 0.322652 0
0.044892 0.320623 0
0.0894789 0.317128 0
0.140993 0.311986 0
0.192294 0.306935 0
0.239643 0.303426 0.00137331
0.286946 0.300328 0.0055848
0.335195 0.297932 0.00918593
0.384054 0.295644 0.0122377
0.434043 0.293492 0.0152895
0.483436 0.291997 0.0185397
0.531884 0.291234 0.0220188
0.57847 0.291737 0.0255131
0.62211 0.292576 0.0288701
0.663111 0.294362 0.0319524
0.703105 0.2972 0.0348058
0.742123 0.300359 0.0375067
0.776364 0.303868 0.039765
0.793683 0.307912 0.0407721
0.810193 0.311391 0.0417639
0.826612 0.315068 0.04271
0.843198 0.318776 0.0436713
0.859922 0.322423 0.0446479
0.876844 0.325567 0.0456397
0.894362 0.328466 0.0466773
0.9131 0.329351 0.047837
0.933013 0.328206 0.0491035
0.952026 0.326482 0.050248
0.000549325 0.363119 0
0.000564584 0.365545 0
0.000564584 0.367544 0
0.000564584 0.368765 0
0.000564584 0.369482 0
0.00892653 0.368536 0
0.0385138 0.366659 0
0.0808881 0.363806 0
0.130205 0.359304 0
0.182879 0.354055 0
0.232624 0.350271 0
0.280064 0.347189 0.00207523
0.328649 0.344274 0.00637827
0.377462 0.341604 0.0100862
0.426657 0.339895 0.0131991
0.475731 0.338704 0.0161135
0.523964 0.338582 0.019089
0.570108 0.338491 0.0221561
0.613977 0.339529 0.0252232
0.655375 0.341924 0.0281529
0.696239 0.345266 0.0310979
0.735363 0.349828 0.0338598
0.770169 0.355383 0.0362097
0.787472 0.359991 0.0372473
0.805051 0.36463 0.0383001
0.822873 0.369085 0.0393988
0.840818 0.373541 0.0404974
0.858991 0.378012 0.0415961
0.877546 0.382559 0.0427253
0.89662 0.386023 0.0439612
0.917113 0.387717 0.0453956
0.938964 0.38616 0.0471199
0.959716 0.383413 0.0487678
0.00062562 0.408789 0
0.00062562 0.411749 0
0.000640879 0.413794 0
0.000640879 0.415778 0
0.000640879 0.416571 0
0.00733959 0.416159 0
0.0345922 0.414786 0
0.0753643 0.412116 0
0.121553 0.408347 0
0.174014 0.40354 0
0.225559 0.399054 0
0.274327 0.395666 0
0.322408 0.39292 0.00282292
0.371893 0.390112 0.007187
0.421332 0.38819 0.0109712
0.47039 0.387579 0.0140841
0.518303 0.387839 0.016907
0.565301 0.389273 0.0196384
0.610224 0.391928 0.0223239
0.652522 0.395605 0.0249485
0.694377 0.40032 0.0276036
0.731731 0.405646 0.0299992
0.762585 0.411154 0.0319524
0.781155 0.417075 0.0329747
0.800168 0.42295 0.0340276
0.819471 0.42829 0.0351568
0.839048 0.434318 0.0362707
0.858518 0.439063 0.0374609
0.878264 0.442924 0.0387427
0.898466 0.445808 0.040116
0.920348 0.446143 0.0418097
0.943664 0.443961 0.0437781
0.966217 0.440635 0.046128
0.000701915 0.456077 0
0.000701915 0.45922 0
0.000701915 0.462425 0
0.000717174 0.464347 0
0.000717174 0.465385 0
0.00709544 0.464988 0
0.0324102 0.463859 0
0.0720836 0.461967 0
0.116518 0.458747 0
0.166827 0.454368 0
0.218952 0.449928 0
0.269871 0.446296 0
0.319203 0.44416 0
0.369436 0.442756 0.00370794
0.420645 0.441672 0.00810254
0.470237 0.441581 0.0118715
0.518517 0.442634 0.0149386
0.565759 0.444633 0.0177157
0.610956 0.448478 0.0202335
0.654246 0.453849 0.0226139
0.696422 0.459724 0.0249638
0.732113 0.465766 0.026978
0.756863 0.472328 0.0283055
0.776547 0.478248 0.0293431
0.796674 0.484138 0.0304112
0.817075 0.48986 0.0315099
0.837507 0.494881 0.0326696
0.857893 0.499046 0.033875
0.878523 0.502297 0.0351568
0.899672 0.503868 0.0365911
0.922454 0.502815 0.03888
0.946853 0.499458 0.0420081
0.970565 0.494545 0.0446784
0.00077821 0.504555 0
0.00077821 0.508309 0
0.00077821 0.511452 0
0.000793469 0.514122 0
0.000793469 0.515129 0
0.00807202 0.515175 0
0.0323949 0.514366 0
0.0712902 0.513069 0
0.114519 0.510857 0
0.163638 0.507683 0
0.216144 0.504402 0
0.268559 0.501564 0
0.320073 0.499718 0
0.371099 0.499062 0.000259403
0.422644 0.498772 0.0047303
0.47361 0.49955 0.00898756
0.523323 0.501472 0.012726
0.570947 0.504601 0.0157778
0.616632 0.509468 0.0184024
0.659464 0.514946 0.0207523
0.698863 0.520729 0.0228733
0.731014 0.526833 0.0245365
0.752605 0.533333 0.0255894
0.773312 0.539574 0.0266117
0.794125 0.545007 0.0276646
0.815183 0.549676 0.0287633
0.83621 0.553307 0.0299229
0.857038 0.555947 0.0311284
0.878019 0.557519 0.0332952
0.899809 0.558175 0.0358282
0.923247 0.555917 0.0385748
0.948425 0.550637 0.0418097
0.972976 0.543725 0.0446632
0.000854505 0.554116 0
0.000854505 0.558175 0
0.000854505 0.561532 0
0.000869764 0.564782 0
0.000869764 0.566705 0
0.0108339 0.567788 0
0.0357519 0.567788 0
0.074052 0.566888 0
0.117113 0.565835 0
0.165393 0.564553 0
0.21767 0.56286 0
0.271778 0.561364 0
0.32462 0.559731 0
0.377188 0.559197 0
0.428565 0.559548 0.00137331
0.479866 0.561013 0.00570687
0.530724 0.563638 0.00984207
0.579171 0.567224 0.0134585
0.623957 0.571313 0.0164034
0.666072 0.576349 0.0188907
0.701198 0.581582 0.0208591
0.728618 0.587274 0.0222934
0.749859 0.59292 0.0233463
0.770855 0.597726 0.0244144
0.79202 0.601892 0.0257725
0.813397 0.605234 0.027451
0.834669 0.607401 0.0293431
0.855726 0.608469 0.0311284
0.876966 0.608591 0.0338445
0.898894 0.607263 0.0368963
0.922774 0.60354 0.0397803
0.948806 0.597284 0.0420691
0.974243 0.588708 0.0432746
0.0009308 0.604776 0
0.0009308 0.609155 0
0.000946059 0.613367 0
0.000946059 0.617075 0
0.000976577 0.620935 0
0.0155642 0.623087 0
0.0435798 0.62472 0
0.0818494 0.625177 0
0.124712 0.625055 0
0.172488 0.62475 0
0.224399 0.624475 0
0.278462 0.623728 0
0.33257 0.622995 0
0.386343 0.62295 0
0.438315 0.62356 0
0.489143 0.624872 0.00244144
0.539223 0.626856 0.00663767
0.586694 0.628931 0.0105287
0.630671 0.631724 0.0138857
0.67155 0.635538 0.0167086
0.703182 0.639628 0.0187076
0.726299 0.64419 0.0201419
0.7476 0.648005 0.021622
0.768551 0.650416 0.0230716
0.7897 0.652247 0.0251774
0.810849 0.653315 0.0278782
0.832273 0.65391 0.0310216
0.85359 0.653895 0.0338903
0.875135 0.652735 0.036286
0.897353 0.650599 0.0384375
0.921675 0.646494 0.0399176
0.94815 0.638529 0.0407568
0.974563 0.629084 0.0413672
0.0010071 0.657877 0
0.00102235 0.663798 0
0.00102235 0.669596 0
0.00103761 0.675166 0
0.00122072 0.679408 0
0.022385 0.682689 0
0.0560159 0.685603 0
0.0949569 0.687907 0
0.138476 0.689387 0
0.185733 0.689815 0
0.236225 0.689265 0
0.288945 0.688472 0
0.342519 0.687236 0
0.396368 0.686091 0
0.448814 0.686 0
0.498543 0.686244 0
0.5467 0.686809 0.00347906
0.593271 0.687617 0.00743114
0.63563 0.687861 0.0110018
0.671412 0.687861 0.0139315
0.700069 0.68777 0.0165103
0.722576 0.687861 0.0191501
0.743786 0.688273 0.0227054
0.764767 0.688014 0.025803
0.785763 0.68748 0.0286412
0.80708 0.686336 0.0311742
0.828489 0.684855 0.0334173
0.849867 0.682628 0.0354009
0.871672 0.680018 0.0372015
0.894362 0.676585 0.038941
0.919402 0.671717 0.0400244
0.946975 0.664942 0.0404059
0.974243 0.65742 0.0401465
0.00109865 0.715038 0
0.00111391 0.722774 0
0.00111391 0.729946 0
0.00112917 0.736645 0
0.0129091 0.740627 0
0.0384985 0.741878 0
0.0728313 0.741878 0
0.111315 0.741482 0
0.15378 0.739956 0
0.199954 0.737758 0
0.248966 0.734768 0
0.300603 0.731487 0
0.352834 0.72781 0
0.405875 0.724514 0
0.456062 0.721202 0
0.50428 0.718608 0
0.550271 0.716548 0.00289921
0.594568 0.714763 0.00766003
0.635752 0.713512 0.012253
0.668452 0.712291 0.0161746
0.69485 0.71107 0.0194858
0.717418 0.710063 0.0224308
0.738628 0.709163 0.0255283
0.759609 0.708156 0.0283207
0.78114 0.706981 0.0310216
0.802869 0.705333 0.0333257
0.824613 0.703517 0.0353857
0.846403 0.701396 0.0371557
0.86865 0.698787 0.0386664
0.891844 0.695705 0.0400397
0.917571 0.691279 0.0405585
0.945785 0.685206 0.0401312
0.9738 0.678416 0.0391699
0.00117494 0.762203 0
0.00117494 0.766491 0
0.00189212 0.770642 0
0.00721752 0.774868 0
0.0275273 0.776776 0
0.0559091 0.776837 0
0.0901198 0.775601 0
0.127169 0.773632 0
0.168566 0.770901 0
0.213184 0.767407 0
0.26041 0.763409 0
0.31014 0.758953 0
0.360616 0.754101 0
0.411276 0.749218 0
0.460029 0.744778 0
0.506645 0.740871 0.00129702
0.551232 0.737423 0.00584421
0.59411 0.7346 0.0104219
0.632883 0.732204 0.0148318
0.663661 0.730388 0.0186313
0.68896 0.728908 0.0218967
0.71191 0.727642 0.0248112
0.733593 0.726543 0.0276188
0.755154 0.725444 0.030396
0.776806 0.724025 0.0328679
0.798993 0.722362 0.0350042
0.821149 0.720516 0.0369268
0.843366 0.718395 0.0384527
0.866148 0.715846 0.0396582
0.889921 0.712749 0.0409094
0.916091 0.708446 0.0408026
0.944991 0.702586 0.0397498
0.973739 0.695994 0.0381781
0.00122072 0.794034 0
0.00190738 0.795102 0
0.00508125 0.795987 0
0.0190738 0.796658 0.000503548
0.0439765 0.796704 0.00125124
0.073228 0.795987 0.00141909
0.105425 0.794537 0.00138857
0.141283 0.792554 0.00166323
0.181247 0.789761 0.00109865
0.223972 0.786252 0
0.269612 0.782193 0
0.316716 0.777493 0
0.364767 0.772427 0
0.413687 0.767239 0
0.461173 0.762539 0.00209049
0.507012 0.758267 0.00581369
0.550759 0.754803 0.00987259
0.591867 0.751537 0.0137179
0.628351 0.748974 0.0174563
0.658213 0.746929 0.0206455
0.683589 0.745266 0.0235904
0.70692 0.743938 0.0264744
0.729152 0.742824 0.0294194
0.75108 0.741573 0.0321508
0.773129 0.740124 0.0345769
0.795697 0.73846 0.0367742
0.818311 0.736584 0.0385901
0.841123 0.734569 0.040177
0.864439 0.73196 0.0412451
0.888579 0.728832 0.0419928
0.915297 0.724636 0.0414435
0.944747 0.719066 0.0393225
0.974411 0.712505 0.0371862
0.00135805 0.812131 0
0.00418097 0.813169 0.000320439
0.0129091 0.814176 0.00294499
0.0352483 0.814878 0.00668345
0.0601663 0.814786 0.00955215
0.0877241 0.81384 0.0111543
0.118242 0.812268 0.0118257
0.152132 0.809903 0.0112764
0.190127 0.806821 0.00988785
0.231449 0.803281 0.00817884
0.274784 0.7991 0.0059968
0.320119 0.794308 0.00416571
0.366644 0.788998 0.00325017
0.414191 0.78349 0.00390631
0.461006 0.778515 0.00605783
0.505684 0.774075 0.00907912
0.548516 0.770275 0.0125734
0.588876 0.767163 0.0162814
0.623453 0.764569 0.0195315
0.652979 0.762448 0.0225071
0.678798 0.760845 0.0255283
0.702663 0.759426 0.0282902
0.725261 0.758221 0.0311894
0.747585 0.756954 0.0341344
0.770138 0.755459 0.0367742
0.792981 0.753765 0.0390173
0.816129 0.751934 0.0410468
0.839231 0.749783 0.0425116
0.862943 0.747356 0.0435492
0.887648 0.744289 0.0443885
0.915007 0.740215 0.0438392
0.945098 0.734661 0.0417182
0.975418 0.728359 0.0392462
0.002533 0.829557 0.00753796
0.0102083 0.830488 0.0107118
0.027451 0.831083 0.0137331
0.0477455 0.83125 0.0166629
0.0708934 0.830839 0.0196689
0.0970474 0.829725 0.0218204
0.12636 0.828031 0.0226291
0.158785 0.825635 0.0222782
0.195193 0.822431 0.0201877
0.234043 0.818524 0.017258
0.275654 0.81416 0.0139315
0.319188 0.809277 0.0111696
0.364675 0.804089 0.00933852
0.412009 0.798688 0.00927749
0.458305 0.793637 0.0105745
0.502708 0.78909 0.0127871
0.545068 0.785168 0.01561
0.584665 0.781994 0.0188144
0.618265 0.779416 0.021973
0.647761 0.777462 0.0252079
0.674022 0.775799 0.0283665
0.698177 0.77435 0.0313573
0.721111 0.773083 0.0343938
0.743816 0.77174 0.0373236
0.766751 0.770245 0.0398871
0.790326 0.768658 0.042298
0.813672 0.766751 0.0440375
0.8374 0.764675 0.0453956
0.861555 0.762249 0.0464027
0.886809 0.759335 0.0470588
0.914839 0.755459 0.0466773
0.945632 0.750057 0.0444953
0.976562 0.743877 0.041825
0.00741588 0.845228 0.0175021
0.0198978 0.84596 0.0220798
0.0375372 0.846265 0.0256809
0.0564431 0.846189 0.028687
0.0780957 0.845411 0.0307622
0.102937 0.844099 0.0319371
0.130816 0.842191 0.0319219
0.161898 0.839765 0.03093
0.196811 0.836469 0.0281987
0.234394 0.832746 0.0249485
0.274662 0.828473 0.0212711
0.316976 0.82385 0.0180972
0.361746 0.818799 0.0157931
0.408453 0.813428 0.014725
0.454093 0.808286 0.015198
0.498116 0.803738 0.0167544
0.540124 0.799725 0.0191653
0.579583 0.796536 0.0221256
0.612558 0.794064 0.0250248
0.641978 0.792035 0.0280003
0.668711 0.790265 0.0309911
0.693339 0.788891 0.0340734
0.716701 0.78764 0.0369573
0.73994 0.786358 0.0398566
0.763348 0.784894 0.0423896
0.787289 0.783185 0.0445106
0.8112 0.781369 0.0463264
0.835386 0.779293 0.0477302
0.860166 0.776944 0.0487526
0.886046 0.774182 0.0496376
0.914473 0.770336 0.0489815
0.946029 0.765087 0.0469673
0.977646 0.759197 0.0442054
0.0132753 0.859648 0.0282444
0.0278172 0.859937 0.0321202
0.0443732 0.86009 0.0357061
0.0622568 0.859876 0.0383154
0.0829938 0.858991 0.0398413
0.106722 0.857649 0.0404364
0.13344 0.855695 0.0396277
0.163226 0.853147 0.0379339
0.197116 0.849973 0.0349889
0.233463 0.846403 0.0314946
0.272541 0.842405 0.0277409
0.313741 0.838041 0.0243076
0.357244 0.833112 0.0212253
0.403204 0.827771 0.0193332
0.448295 0.82269 0.0190738
0.492256 0.817975 0.0200961
0.534203 0.813947 0.0220645
0.573297 0.810773 0.0248264
0.606256 0.808301 0.027451
0.636057 0.806226 0.0301671
0.663172 0.804501 0.033051
0.688228 0.803174 0.035935
0.712016 0.801953 0.0389715
0.735729 0.800641 0.0417029
0.759457 0.799237 0.0442206
0.783902 0.797559 0.0463417
0.80853 0.795789 0.0482338
0.83328 0.793835 0.0496986
0.858701 0.791699 0.0508736
0.885008 0.788891 0.0517281
0.914031 0.785229 0.0509346
0.946349 0.780163 0.049073
0.978821 0.774517 0.0464637
0.0186007 0.872862 0.0374914
0.0334173 0.872984 0.0403754
0.0488746 0.872892 0.0430152
0.0660563 0.872618 0.0451972
0.0860456 0.871916 0.0464942
0.108797 0.870542 0.0465248
0.134493 0.868574 0.0454566
0.16318 0.866178 0.0434882
0.195987 0.863127 0.0403449
0.231418 0.859785 0.0368505
0.269169 0.856062 0.0330816
0.308843 0.851896 0.0292058
0.351415 0.84712 0.0256962
0.396429 0.841871 0.0230411
0.441245 0.836774 0.0221256
0.485054 0.832197 0.0227054
0.526879 0.828092 0.0242771
0.565744 0.824811 0.0265812
0.599374 0.822293 0.0290684
0.629755 0.820249 0.0316777
0.657481 0.818631 0.0344854
0.682902 0.817319 0.0373693
0.707042 0.816083 0.0402075
0.73106 0.814847 0.0429389
0.755367 0.813535 0.0455177
0.780331 0.811902 0.0476539
0.8056 0.810224 0.0496681
0.831006 0.808362 0.0512551
0.856855 0.80621 0.0527657
0.883894 0.803571 0.0532235
0.913573 0.800122 0.0526131
0.946822 0.795316 0.0510109
0.980179 0.789929 0.0487221
0.0231174 0.885191 0.0437171
