70 CGC LUTs/Look LUTs/Mint.cube
#Created by: Denver Riddle
#Copyright: (C) Copyright Color Grading Central LLC
#LUT Size
LUT_3D_SIZE 5
0.0274815 0.0250095 0.0483711
0.273075 0.00575265 0.0125124
0.657069 0.0129244 0.0129244
0.879332 0.0173037 0.0173037
0.931975 0.0183413 0.0183413
0.00030518 0.200137 0
0.174121 0.181842 0.00341802
0.55845 0.162646 0.0293431
0.82501 0.177646 0.0398718
0.932769 0.174594 0.0426795
0.000854505 0.554116 0
0.117113 0.565835 0
0.530724 0.563638 0.00984207
0.79202 0.601892 0.0257725
0.974243 0.588708 0.0432746
0.00741588 0.845228 0.0175021
0.196811 0.836469 0.0281987
0.540124 0.799725 0.0191653
0.763348 0.784894 0.0423896
0.977646 0.759197 0.0442054
0.0138247 0.948272 0.0177615
0.131792 0.94667 0.024033
0.398718 0.924849 0
0.684657 0.909911 0.0137789
0.965072 0.898848 0.0357977
0.12047 0.119478 0.288853
0.266529 0.023209 0.2038
0.601068 0.0347448 0.175113
0.837827 0.0347753 0.185061
0.903426 0.0317235 0.163302
0.00250248 0.195178 0.208362
0.163287 0.18883 0.196048
0.531929 0.174609 0.185824
0.792523 0.193256 0.20737
0.904189 0.195132 0.217823
0.000488289 0.557214 0.134569
0.123766 0.578119 0.16791
0.526452 0.583398 0.203159
0.773449 0.615091 0.260365
0.955749 0.592508 0.271458
0.00999466 0.843488 0.268605
0.189883 0.834424 0.273899
0.506325 0.804349 0.242573
0.741115 0.786145 0.255406
0.960266 0.759915 0.246296
0.0139315 0.94696 0.221515
0.127047 0.945815 0.221317
0.364416 0.931182 0.193469
0.665782 0.914702 0.187488
0.958083 0.906218 0.204425
0.234668 0.23505 0.574792
0.330739 0.166155 0.537499
0.611902 0.0480201 0.366644
0.786587 0.0724651 0.333333
0.840497 0.0729229 0.317586
0.128176 0.238117 0.458106
0.274052 0.286381 0.45388
0.522255 0.198306 0.381415
0.731456 0.232898 0.390875
0.844877 0.240726 0.414435
0 0.562509 0.47155
0.135134 0.590875 0.507103
0.506432 0.605142 0.530175
0.746303 0.626032 0.567819
0.920729 0.601694 0.555764
0.0121614 0.841016 0.575143
0.187503 0.830991 0.569146
0.474678 0.806745 0.534249
0.713802 0.78912 0.521065
0.938949 0.76199 0.502174
0.0137179 0.945617 0.480522
0.123812 0.944686 0.474372
0.351934 0.931823 0.440803
0.633402 0.924605 0.4206
0.948699 0.916152 0.428351
0.288685 0.290166 0.709819
0.395392 0.266041 0.722622
0.683238 0.0814832 0.676432
0.865705 0.0606851 0.589685
0.907805 0.068513 0.562783
0.260121 0.352087 0.7252
0.394659 0.407263 0.743755
0.602441 0.29688 0.742092
0.804944 0.236942 0.66038
0.889357 0.25893 0.620081
0.0451972 0.557031 0.808377
0.198123 0.594507 0.823056
0.589548 0.650523 0.778912
0.753613 0.657801 0.779873
0.881712 0.622232 0.713726
0.0141146 0.838529 0.825589
0.18584 0.827771 0.810224
0.468299 0.802884 0.783627
0.690288 0.790631 0.767697
0.912795 0.766064 0.745922
0.0133974 0.944503 0.728847
0.121248 0.943954 0.717922
0.346456 0.931487 0.688457
0.614694 0.931502 0.675349
0.940581 0.928328 0.668025
0.288685 0.290166 0.709819
0.386297 0.270893 0.720241
0.668833 0.0876936 0.683711
0.859846 0.0600748 0.591882
0.909239 0.0671855 0.574639
0.265721 0.353536 0.73257
0.397772 0.410101 0.75581
0.607172 0.319173 0.781857
0.811154 0.246113 0.705974
0.907195 0.265034 0.673747
0.0911421 0.561502 0.903944
0.243442 0.606775 0.897215
0.628168 0.681605 0.854856
0.772061 0.70074 0.872587
0.907866 0.608011 0.799558
0.0199893 0.827359 0.949035
0.187518 0.81532 0.940566
0.474434 0.787793 0.917403
0.726101 0.791897 0.885023
0.901762 0.768246 0.847745
0.0132448 0.941024 0.910384
0.115419 0.94107 0.907378
0.336858 0.929015 0.892912
0.611429 0.932509 0.891936
0.929732 0.937682 0.892653
