70 CGC LUTs/Look LUTs/Moonrise Kingdom.cube
#Created by: Denver Riddle
#Copyright: (C) Copyright Color Grading Central LLC
#LUT Size
LUT_3D_SIZE 33
0.00392157 0.00392157 0.00392157
0.00833143 0.00784314 0.00440986
0.0140993 0.00900282 0.00784314
0.0290227 0.0117647 0.00784314
0.0514687 0.0142214 0.00784314
0.0760052 0.0156863 0.00784314
0.097734 0.0186618 0.00784314
0.120226 0.0195468 0.005066
0.142931 0.0196078 0.0040589
0.168154 0.0174411 0.00392157
0.192401 0.0160678 0.00392157
0.217609 0.0134737 0.00244144
0.242908 0.00976577 0.000747692
0.270146 0.0059968 0
0.300893 0.00189212 0
0.333577 0 0
0.367559 0 0
0.405051 0 0
0.445441 0 0
0.485634 0 0
0.52607 0 0
0.565896 0 0
0.60557 0 0
0.642161 0 0
0.680705 0 0
0.71722 0 0
0.752651 0 0
0.787808 0 0
0.820096 0 0
0.854475 0 0
0.886519 0 0
0.918441 0 0
0.926558 0 0
0.00836194 0.00836194 0.00784314
0.0123751 0.00891127 0.00784314
0.0189212 0.0124971 0.00784314
0.0343633 0.0145418 0.00784314
0.0569924 0.0166171 0.00784314
0.0813001 0.01944 0.00784314
0.102724 0.0203861 0.00724804
0.123751 0.0205997 0.00486763
0.146471 0.0208133 0.00407416
0.170657 0.0200198 0.00392157
0.196063 0.018143 0.00392157
0.221836 0.0153353 0.00244144
0.246662 0.0118563 0.000762951
0.273533 0.00830091 0
0.304799 0.0030518 0
0.337331 0 0
0.370184 0 0
0.405783 0 0
0.444572 0 0
0.486458 0 0
0.525216 0 0
0.56376 0 0
0.602975 0 0
0.641443 0 0
0.678325 0 0
0.713909 0 0
0.748928 0 0
0.783948 0 0
0.816419 0 0
0.849928 0 0
0.882475 0 0
0.915526 0 0
0.928786 0 0
0.0129854 0.0129854 0.00906386
0.0139467 0.0135653 0.00784314
0.0233768 0.018204 0.00784314
0.0404059 0.0214542 0.00784314
0.0623484 0.0238651 0.00784314
0.0850233 0.025864 0.00784314
0.107332 0.0265354 0.00488289
0.130449 0.0268711 0.00419623
0.15465 0.0272984 0.00399786
0.1776 0.0249638 0.00392157
0.202289 0.0242313 0.00285344
0.228122 0.0224918 0.00123598
0.25333 0.0192416 0.000228885
0.279683 0.0145418 0
0.309697 0.00851453 0
0.340642 0.00291447 0
0.374243 0 0
0.409903 0 0
0.448066 0 0
0.487572 0 0
0.52491 0 0
0.562387 0 0
0.599527 0 0
0.637125 0 0
0.673793 0 0
0.709377 0 0
0.745815 0 0
0.779721 0 0
0.811948 0 0
0.845014 0 0
0.878294 0 0
0.91104 0 0
0.929412 0 0
0.0156863 0.0175937 0.0117647
0.0181888 0.019852 0.00784314
0.0246433 0.0227817 0.00784314
0.0390936 0.0273899 0.00784314
0.058381 0.0306249 0.00784314
0.0823835 0.0344396 0.00784314
0.106813 0.0356298 0.00489815
0.130068 0.0360876 0.00399786
0.155322 0.0366217 0.00392157
0.181903 0.0360113 0.00392157
0.208194 0.0347753 0.00172427
0.234897 0.0324254 0.000122072
0.261372 0.0288396 0
0.287587 0.0245975 0
0.31574 0.0190127 0
0.347326 0.0112154 0
0.381338 0.0037995 0
0.416266 0 0
0.453544 0 0
0.489021 0 0
0.525765 0 0
0.562753 0 0
0.598093 0 0
0.633036 0 0
0.669367 0 0
0.706127 0 0
0.741115 0 0
0.775616 0 0
0.808881 0 0
0.841123 0 0
0.87425 0 0
0.905516 0 0
0.929412 0 0
0.0182956 0.0248112 0.00920119
0.0202182 0.0265354 0.00788891
0.0261082 0.0291142 0.00784314
0.0392309 0.0332341 0.00784314
0.0572366 0.0373541 0.00784314
0.0783398 0.0408026 0.00784314
0.0999619 0.0440528 0.00482185
0.124437 0.046952 0.00393683
0.150103 0.0480507 0.00392157
0.178225 0.0485389 0.00224308
0.206546 0.0487068 0.000564584
0.234424 0.0472877 0
0.261494 0.0440681 0
0.289555 0.0406653 0
0.322667 0.0355077 0
0.35491 0.0274205 0
0.387671 0.0186313 0
0.422507 0.00805676 0
0.457435 0.000610361 0
0.492226 0 0
0.527016 0 0
0.562356 0 0
0.596902 0 0
0.631312 0 0
0.66656 0 0
0.704173 0 0
0.738857 0 0
0.772778 0 0
0.804562 0 0
0.837903 0 0
0.869596 0 0
0.902678 0 0
0.932052 0 0
0.0226902 0.0338293 0.00788891
0.0234531 0.0345312 0.00787366
0.0294652 0.0386053 0.00784314
0.0411841 0.0414282 0.00784314
0.0575418 0.046128 0.00784314
0.0774853 0.0488289 0.00563058
0.0976272 0.0522621 0.0041352
0.120363 0.056199 0.00392157
0.145632 0.0596475 0.00392157
0.172992 0.0609598 0.00158694
0.201053 0.0612802 3.0518e-05
0.228733 0.0614481 0
0.256962 0.0605936 0
0.286183 0.0585184 0
0.318975 0.056611 0
0.354116 0.0510414 0
0.388861 0.0429084 0
0.424384 0.033875 0
0.46157 0.023209 0
0.496284 0.0150607 0
0.5299 0.00550851 0
0.56202 0 0
0.596429 0 0
0.630823 0 0
0.665431 0 0
0.703532 0 0
0.737774 0 0
0.772152 0 0
0.805386 0 0
0.837049 0 0
0.867506 0 0
0.899519 0 0
0.929778 0 0
0.026978 0.0461738 0.00784314
0.0280003 0.0461738 0.00784314
0.0341497 0.0477455 0.00784314
0.0454108 0.0515145 0.00784314
0.059266 0.0559396 0.00561532
0.0781109 0.0596628 0.00410468
0.098146 0.0635233 0.00392157
0.120165 0.0674601 0.00392157
0.144625 0.0692302 0.00167849
0.16997 0.0715648 0.000228885
0.196597 0.0732128 0
0.22295 0.0737469 0
0.249348 0.0739757 0
0.278843 0.0738384 0
0.312612 0.0729686 0
0.346105 0.0712902 0
0.381506 0.0664988 0
0.419257 0.0610666 0
0.457282 0.053254 0
0.492241 0.0473945 0
0.529366 0.0382086 0
0.563088 0.0296635 0
0.59733 0.0200656 0
0.631678 0.00833143 0
0.668956 0 0
0.704265 0 0
0.738506 0 0
0.772747 0 0
0.806989 0 0
0.838163 0 0
0.868574 0 0
0.898985 0 0
0.929061 0 0
0.0282902 0.0582132 0.00784314
0.0311284 0.0585489 0.00784314
0.0352941 0.059617 0.00784314
0.0467079 0.0615244 0.00575265
0.0622873 0.0645151 0.00410468
0.0796979 0.0684977 0.00392157
0.101335 0.0724498 0.00392157
0.121401 0.0761883 0.00151064
0.145022 0.0794232 0.000228885
0.169619 0.0826581 0
0.194293 0.0858473 0
0.220371 0.087892 0
0.247227 0.088014 0
0.273854 0.0879988 0
0.305821 0.0877089 0
0.34078 0.0874189 0
0.375769 0.0859998 0
0.411429 0.0842451 0
0.447166 0.0791943 0
0.484504 0.0746624 0
0.522896 0.0690166 0
0.560021 0.0631571 0
0.597116 0.0561532 0
0.633921 0.0448157 0
0.671809 0.0322271 0
0.706172 0.0217899 0
0.742489 0.0121157 0
0.776822 0.00315862 0
0.809461 0.000274662 0
0.840238 0 0
0.870649 0 0
0.901076 0 0
0.929961 0 0
0.0311589 0.0707866 0.00424201
0.0328527 0.0703593 0.00436408
0.0391089 0.0714122 0.00451667
0.0483558 0.072755 0.00415045
0.0637217 0.075639 0.00392157
0.0829938 0.0793469 0.00392157
0.103151 0.0830701 0.00143435
0.124315 0.0867323 0.000198367
0.146349 0.0903792 0
0.170092 0.0937362 0
0.194446 0.0972 0
0.219043 0.0993973 0
0.244083 0.100511 0
0.270298 0.102266 0
0.301335 0.101991 0
0.334432 0.102358 0
0.369055 0.10399 0
0.403647 0.102998 0
0.438727 0.0991226 0
0.476844 0.0972152 0
0.515312 0.0949264 0
0.553796 0.0905318 0
0.592126 0.0882887 0
0.632364 0.0820172 0
0.672572 0.071809 0
0.710628 0.0613565 0
0.746929 0.0486763 0
0.781674 0.0356451 0
0.812711 0.0263523 0
0.843259 0.0199435 0
0.873808 0.0143893 0
0.90425 0.00839246 0
0.931655 0.00274662 0
0.0313725 0.0845045 0.00392157
0.0332799 0.0839246 0.00392157
0.0401617 0.0835737 0.00392157
0.0512551 0.0856794 0.00392157
0.0648051 0.0872969 0.00155642
0.0845197 0.0905623 0.00129702
0.10396 0.0941482 0.000137331
0.125826 0.097734 0
0.147539 0.10135 0
0.171099 0.104906 0
0.193835 0.108095 0
0.216938 0.110994 0
0.241886 0.11313 0
0.268711 0.11458 0
0.297795 0.116167 0
0.329641 0.116732 0
0.362219 0.119051 0
0.396735 0.118486 0
0.431708 0.116732 0
0.470039 0.116365 0
0.508644 0.117372 0
0.547051 0.113176 0
0.586969 0.112596 0
0.62884 0.10988 0
0.670893 0.103227 0
0.7131 0.100099 0
0.749493 0.093431 0
0.785153 0.0861982 0
0.816464 0.0766461 0
0.847135 0.0652628 0
0.877699 0.0547036 0
0.9084 0.0411231 0
0.935744 0.027039 0
0.0321508 0.0964218 0.000747692
0.0343328 0.0965591 0.000900282
0.040589 0.0968948 0.00111391
0.0525063 0.0976883 0.00132753
0.0675822 0.0999008 0.00015259
0.0853285 0.103273 0
0.104967 0.106752 0
0.12697 0.110399 0
0.150011 0.113954 0
0.17229 0.117433 0
0.19353 0.11957 0
0.215946 0.12192 0
0.24062 0.124956 0
0.266667 0.127153 0
0.294133 0.128588 0
0.324407 0.130434 0
0.355886 0.132906 0
0.390219 0.132845 0
0.425238 0.133974 0
0.463691 0.133806 0
0.502022 0.135378 0
0.540719 0.133944 0
0.582696 0.133394 0
0.624796 0.132937 0
0.668208 0.129793 0
0.71043 0.12929 0
0.74902 0.125948 0
0.787396 0.121584 0
0.819745 0.117876 0
0.851286 0.111406 0
0.882353 0.106706 0
0.913054 0.0994888 0
0.939651 0.091783 0
0.0323491 0.109697 0
0.0345769 0.109255 0
0.0408637 0.109682 0
0.0528725 0.110536 0
0.0693675 0.111711 0
0.0857862 0.11519 0
0.105943 0.118853 0
0.12752 0.122393 0
0.150484 0.125902 0
0.172717 0.129381 0
0.193713 0.130785 0
0.215183 0.132555 0
0.238636 0.135943 0
0.263539 0.138994 0
0.290654 0.140932 0
0.319341 0.143725 0
0.350713 0.145632 0
0.385077 0.147143 0
0.41912 0.150057 0
0.457359 0.149859 0
0.495674 0.150759 0
0.534432 0.152941 0
0.576593 0.15346 0
0.620035 0.153262 0
0.665141 0.153613 0
0.707408 0.153155 0
0.746548 0.152697 0
0.785077 0.149187 0
0.820142 0.148974 0
0.855467 0.148653 0
0.886641 0.14522 0
0.917403 0.1411 0
0.941543 0.136828 0
0.0323491 0.123598 0
0.0345769 0.122789 0
0.0409552 0.122362 0
0.0530251 0.122805 0
0.0696117 0.123919 0
0.0860304 0.126207 0
0.105745 0.129366 0
0.127169 0.132845 0
0.148882 0.136355 0
0.171221 0.139818 0
0.193362 0.142168 0
0.214405 0.14406 0
0.236042 0.146502 0
0.26006 0.149828 0
0.287083 0.153353 0
0.315618 0.156298 0
0.347295 0.157671 0
0.38056 0.160967 0
0.41326 0.163348 0
0.450645 0.164233 0
0.48925 0.167407 0
0.528038 0.16791 0
0.570825 0.170809 0
0.61619 0.171099 0
0.659037 0.174548 0
0.701289 0.174228 0
0.74374 0.174105 0
0.782391 0.173938 0
0.817777 0.17731 0
0.856168 0.177218 0
0.887694 0.180407 0
0.918624 0.180392 0
0.945663 0.176608 0
0.0318303 0.135668 0
0.0341497 0.135012 0
0.0408637 0.134737 0
0.0528725 0.134829 0
0.0693675 0.136706 0
0.0857252 0.138064 0
0.104891 0.139895 0
0.126131 0.143313 0
0.14728 0.146761 0
0.1682 0.150286 0
0.191012 0.153826 0
0.213138 0.155947 0
0.234012 0.157382 0
0.256214 0.160357 0
0.283238 0.163882 0
0.31191 0.167636 0
0.342428 0.171206 0
0.374212 0.174197 0
0.408408 0.174868 0
0.443534 0.178103 0
0.482353 0.181888 0
0.52134 0.185138 0
0.563592 0.185397 0
0.606058 0.188983 0
0.652094 0.192462 0
0.694575 0.192279 0
0.737255 0.196078 0
0.775982 0.199512 0
0.81474 0.199268 0
0.849928 0.202594 0
0.884688 0.206256 0
0.91603 0.213321 0
0.943358 0.213855 0
0.0300298 0.148287 0
0.0322881 0.147433 0
0.0389105 0.147066 0
0.0508125 0.14786 0
0.0671397 0.147723 0
0.0836652 0.150652 0
0.102602 0.150805 0
0.121386 0.153872 0
0.141863 0.157397 0
0.162844 0.160586 0
0.185031 0.163851 0
0.20734 0.166323 0
0.228519 0.167834 0
0.250553 0.171069 0
0.277348 0.174716 0
0.305241 0.178332 0
0.333562 0.181949 0
0.367559 0.185611 0
0.398825 0.188907 0
0.433921 0.189303 0
0.47248 0.192859 0
0.51136 0.196475 0
0.553613 0.200061 0
0.596002 0.203723 0
0.638529 0.207324 0
0.681376 0.211032 0
0.724102 0.214755 0
0.763119 0.218479 0
0.802228 0.22211 0
0.841123 0.229389 0
0.879988 0.233433 0
0.912093 0.241291 0
0.939406 0.245563 0
0.0264744 0.161364 0
0.0288548 0.160815 0
0.0344091 0.160082 0
0.0458076 0.15935 0
0.0613107 0.158694 0
0.0782483 0.161227 0
0.0969406 0.161837 0
0.115419 0.164508 0
0.1355 0.167849 0
0.156222 0.169451 0
0.176898 0.171176 0
0.198566 0.174746 0
0.222278 0.178393 0
0.243793 0.181918 0
0.267781 0.185519 0
0.295689 0.189197 0
0.326497 0.192828 0
0.357504 0.196506 0
0.388632 0.20029 0
0.423331 0.203998 0
0.462043 0.207645 0
0.50074 0.211322 0
0.539391 0.214984 0
0.582025 0.218814 0
0.628382 0.222644 0
0.668009 0.229938 0
0.710521 0.234119 0
0.749966 0.237949 0
0.792721 0.245396 0
0.832624 0.250065 0
0.868467 0.257847 0
0.903777 0.265904 0
0.931517 0.270329 0
0.0208591 0.172305 0
0.022446 0.171664 0
0.0285801 0.170932 0
0.0401617 0.170184 0
0.0539254 0.169589 0
0.0721599 0.171923 0
0.0916609 0.172824 0
0.110231 0.175158 0
0.12813 0.176593 0
0.147219 0.178378 0
0.167926 0.181933 0
0.18941 0.185595 0
0.213306 0.189181 0
0.234867 0.192798 0
0.26215 0.196307 0
0.290105 0.200137 0
0.317433 0.203891 0
0.348501 0.20763 0
0.379477 0.211353 0
0.414145 0.215122 0
0.449226 0.218906 0
0.487984 0.222705 0
0.53048 0.226658 0
0.573434 0.234028 0
0.613123 0.238224 0
0.655756 0.245808 0
0.69546 0.250187 0
0.734646 0.254307 0
0.777981 0.262165 0
0.821439 0.26656 0
0.860914 0.274403 0
0.892821 0.286229 0
0.923858 0.294499 0
0.0117342 0.183154 0
0.0134737 0.182559 0
0.0170596 0.181857 0
0.028275 0.18117 0
0.0440528 0.180667 0
0.063508 0.182696 0
0.0807355 0.183856 0
0.100053 0.183871 0
0.119509 0.185733 0
0.138415 0.189273 0
0.159167 0.192935 0
0.179843 0.196536 0
0.200855 0.200122 0
0.22591 0.203738 0
0.253285 0.20383 0
0.281392 0.211109 0
0.308797 0.21149 0
0.336248 0.218677 0
0.370718 0.222736 0
0.402304 0.226581 0
0.437201 0.230488 0
0.47628 0.234577 0
0.519112 0.242069 0
0.558602 0.246464 0
0.601419 0.25417 0
0.640955 0.258503 0
0.6804 0.266392 0
0.719738 0.270665 0
0.763104 0.278538 0
0.806592 0.286534 0
0.849638 0.294499 0
0.885313 0.302602 0
0.912718 0.314412 0
0.000244144 0.193469 0
0.00337224 0.193072 0
0.00588998 0.192615 0
0.0149233 0.192248 0
0.0283665 0.191699 0
0.0476387 0.191455 0
0.0672007 0.193423 0
0.0876478 0.194888 0
0.107515 0.196704 0
0.126238 0.199145 0
0.146868 0.200259 0
0.167803 0.203845 0
0.192172 0.207462 0
0.21384 0.211154 0
0.241138 0.214984 0
0.269383 0.219013 0
0.29688 0.222751 0
0.327733 0.22678 0
0.359243 0.230747 0
0.390616 0.234775 0
0.42594 0.238834 0
0.465171 0.24654 0
0.504265 0.250782 0
0.54728 0.258549 0
0.586618 0.262791 0
0.625925 0.270649 0
0.665217 0.278645 0
0.704631 0.282902 0
0.74789 0.29073 0
0.794644 0.298619 0
0.834348 0.306462 0
0.873518 0.318242 0
0.904646 0.329625 0
0 0.200839 0
0 0.200519 0
0 0.200092 0
0.00204471 0.199634 0
0.0109865 0.199268 0
0.0283207 0.200748 0
0.0497902 0.202502 0
0.0719615 0.202823 0
0.0932174 0.204334 0
0.113924 0.206897 0
0.134646 0.207721 0
0.155352 0.211398 0
0.176654 0.215106 0
0.201663 0.218952 0
0.229252 0.222858 0
0.257572 0.226902 0
0.285298 0.2309 0
0.316503 0.234897 0
0.344274 0.238941 0
0.379431 0.24303 0
0.414847 0.250889 0
0.450126 0.254994 0
0.48925 0.262898 0
0.532235 0.266941 0
0.571557 0.274907 0
0.606775 0.278859 0
0.645762 0.286702 0
0.688716 0.294514 0
0.731929 0.302327 0
0.775341 0.31014 0
0.822065 0.318074 0
0.861204 0.329397 0
0.895735 0.337072 0
0 0.208301 0
0 0.208164 0
0 0.211261 0
0.000106813 0.210666 0
0.0011902 0.210163 0
0.00723278 0.210101 0
0.0237888 0.210391 0
0.0475929 0.210422 0
0.0720378 0.211933 0
0.0950179 0.214618 0
0.115709 0.215412 0
0.136492 0.219272 0
0.160815 0.223102 0
0.182589 0.226993 0
0.209964 0.230991 0
0.238483 0.235065 0
0.269795 0.239078 0
0.301289 0.243153 0
0.332753 0.247227 0
0.364019 0.251255 0
0.39556 0.259007 0
0.434684 0.263172 0
0.473671 0.270802 0
0.512657 0.275029 0
0.551568 0.282582 0
0.58703 0.286687 0
0.62565 0.294392 0
0.668391 0.301915 0
0.711513 0.309667 0
0.758404 0.317556 0
0.80502 0.328832 0
0.847883 0.336736 0
0.882918 0.344274 0
0 0.215778 0
0 0.215442 0
0 0.215366 0
0 0.216098 0
0 0.218357 0
0.000640879 0.218204 0
0.00349432 0.218143 0
0.0171054 0.218204 0
0.0431678 0.218601 0
0.0694133 0.220035 0
0.09308 0.22359 0
0.116686 0.2271 0
0.137636 0.22742 0
0.162799 0.231205 0
0.190524 0.235218 0
0.218936 0.239277 0
0.250431 0.243336 0
0.281743 0.247364 0
0.313115 0.255146 0
0.344518 0.259068 0
0.379812 0.263233 0
0.415 0.270817 0
0.453758 0.274754 0
0.489006 0.282475 0
0.527581 0.286336 0
0.566506 0.293965 0
0.601663 0.301564 0
0.64416 0.305715 0
0.690806 0.313176 0
0.737438 0.324361 0
0.787213 0.332387 0
0.830747 0.343359 0
0.869215 0.351324 0
0 0.223346 0
0 0.223072 0
0 0.222736 0
0 0.222599 0
0 0.222889 0
0 0.222843 0
0 0.224384 0
0.00189212 0.22623 0
0.0128328 0.226444 0
0.0371099 0.226886 0
0.0660105 0.228077 0
0.090486 0.231785 0
0.118074 0.23537 0
0.143236 0.235477 0
0.170947 0.239384 0
0.199344 0.243412 0
0.226993 0.247349 0
0.258244 0.251331 0
0.289555 0.258885 0
0.324666 0.262989 0
0.359915 0.270604 0
0.39498 0.274617 0
0.429999 0.278431 0
0.468482 0.285939 0
0.503716 0.289982 0
0.542306 0.297383 0
0.577676 0.301595 0
0.619715 0.308873 0
0.665995 0.316518 0
0.715938 0.32755 0
0.766186 0.335714 0
0.815854 0.346563 0
0.858946 0.35491 0
0 0.231128 0
0 0.230915 0
0 0.230701 0
0 0.230457 0
0 0.230274 0
0 0.230213 0
0 0.230518 0
0 0.2309 0
0.000854505 0.231037 0
0.00823987 0.232425 0
0.0298161 0.235157 0
0.0628672 0.235859 0
0.0908064 0.239231 0
0.119234 0.23946 0
0.147189 0.243122 0
0.175616 0.247135 0
0.203403 0.251041 0
0.234562 0.254917 0
0.265873 0.258793 0
0.300877 0.266545 0
0.335943 0.270466 0
0.370993 0.27805 0
0.405859 0.282032 0
0.440955 0.285924 0
0.479332 0.293126 0
0.514992 0.297551 0
0.553201 0.30457 0
0.595285 0.312169 0
0.641184 0.319799 0
0.691127 0.327825 0
0.744625 0.33843 0
0.795605 0.347173 0
0.841825 0.35491 0
0 0.235248 0
0 0.235187 0
0 0.23508 0
0 0.234958 0
0 0.234882 0
0 0.234836 0
0 0.234867 0
0 0.234958 0
0 0.235035 0
0.000289921 0.235187 0
0.00428778 0.235294 0
0.0218509 0.235874 0
0.058854 0.239429 0
0.0877852 0.242863 0
0.1196 0.243137 0
0.148272 0.247028 0
0.17966 0.250889 0
0.207095 0.254795 0
0.241947 0.258671 0
0.273304 0.266209 0
0.308263 0.270298 0
0.343297 0.277699 0
0.37821 0.28191 0
0.413275 0.285771 0
0.451545 0.292958 0
0.487129 0.297368 0
0.525338 0.304387 0
0.567315 0.312078 0
0.615793 0.319799 0
0.666423 0.327581 0
0.719921 0.335821 0
0.77586 0.346059 0
0.826703 0.354528 0
0 0.235294 0
0 0.235294 0
0 0.235294 0
0 0.235294 0
0 0.235294 0
0 0.235294 0
0 0.235294 0
0 0.235294 0
0 0.235294 0
0 0.235294 0
0.000106813 0.235294 0
0.00163272 0.235813 0
0.0130159 0.239185 0
0.0518807 0.239155 0
0.0881208 0.242908 0
0.120638 0.246876 0
0.148486 0.247181 0
0.179492 0.250889 0
0.210895 0.254795 0
0.242161 0.262211 0
0.276844 0.266529 0
0.309071 0.273808 0
0.346487 0.278264 0
0.38201 0.284962 0
0.420096 0.289845 0
0.455985 0.293873 0
0.494057 0.300755 0
0.538415 0.308537 0
0.585702 0.314046 0
0.635615 0.323278 0
0.691096 0.331914 0
0.751385 0.340337 0
0.806439 0.348318 0
0 0.234867 0
0 0.23508 0
0 0.235294 0
0 0.235294 0
0 0.235294 0
0 0.235294 0
0 0.233356 0
0 0.231769 0
0 0.231739 0
0 0.231678 0
0 0.232395 0
4.57771e-05 0.235309 0
0.000411994 0.235431 0
0.00158694 0.235416 0
0.0374914 0.238987 0
0.0778058 0.239689 0
0.109987 0.243107 0
0.141329 0.246983 0
0.172702 0.250889 0
0.203952 0.255207 0
0.23592 0.259266 0
0.267353 0.266392 0
0.305013 0.271092 0
0.340963 0.278065 0
0.379019 0.282902 0
0.415412 0.286885 0
0.453468 0.29366 0
0.498131 0.299321 0
0.545144 0.305669 0
0.597086 0.313939 0
0.653864 0.322042 0
0.717113 0.329915 0
0.778363 0.337591 0
0 0.226764 0
0 0.227131 0
0 0.227512 0
0 0.227878 0
0 0.228183 0
0 0.228428 0
0 0.228244 0
0 0.228 0
0 0.226612 0
