70 CGC LUTs/Look LUTs/Moonrise Kingdom.cube
#Created by: Denver Riddle
#Copyright: (C) Copyright Color Grading Central LLC
#LUT Size
LUT_3D_SIZE 9
0.00392157 0.00392157 0.00392157
0.0514687 0.0142214 0.00784314
0.142931 0.0196078 0.0040589
0.242908 0.00976577 0.000747692
0.367559 0 0
0.52607 0 0
0.680705 0 0
0.820096 0 0
0.926558 0 0
0.0182956 0.0248112 0.00920119
0.0572366 0.0373541 0.00784314
0.150103 0.0480507 0.00392157
0.261494 0.0440681 0
0.387671 0.0186313 0
0.527016 0 0
0.66656 0 0
0.804562 0 0
0.932052 0 0
0.0311589 0.0707866 0.00424201
0.0637217 0.075639 0.00392157
0.146349 0.0903792 0
0.244083 0.100511 0
0.369055 0.10399 0
0.515312 0.0949264 0
0.672572 0.071809 0
0.812711 0.0263523 0
0.931655 0.00274662 0
0.0323491 0.123598 0
0.0696117 0.123919 0
0.148882 0.136355 0
0.236042 0.146502 0
0.347295 0.157671 0
0.48925 0.167407 0
0.659037 0.174548 0
0.817777 0.17731 0
0.945663 0.176608 0
0.0208591 0.172305 0
0.0539254 0.169589 0
0.12813 0.176593 0
0.213306 0.189181 0
0.317433 0.203891 0
0.449226 0.218906 0
0.613123 0.238224 0
0.777981 0.262165 0
0.923858 0.294499 0
0 0.208301 0
0.0011902 0.210163 0
0.0720378 0.211933 0
0.160815 0.223102 0
0.269795 0.239078 0
0.39556 0.259007 0
0.551568 0.282582 0
0.711513 0.309667 0
0.882918 0.344274 0
0 0.235248 0
0 0.234882 0
0 0.235035 0
0.058854 0.239429 0
0.17966 0.250889 0
0.308263 0.270298 0
0.451545 0.292958 0
0.615793 0.319799 0
0.826703 0.354528 0
0 0.214511 0
0 0.213855 0
0 0.214343 0
0 0.210056 0
0.00737011 0.215518 0
0.119707 0.231052 0
0.260548 0.250141 0
0.433997 0.274678 0
0.684245 0.294881 0
0.00993362 0.0203403 0.0117647
0.00767529 0.0308537 0.0117647
0.00726329 0.0339666 0.0102693
0.00813306 0.0314183 0.0105592
0.00827039 0.0308232 0.010605
0.00849927 0.0376745 0.00958267
0.0122988 0.0653391 0.00361639
0.0745556 0.116045 0
0.326726 0.17908 0
0.0117647 0.0102998 0.0102998
0.0648661 0.0142367 0.03093
0.154803 0.0156863 0.0343938
0.257191 0.00582895 0.0298314
0.378744 0 0.0213016
0.526223 0 0.0142519
0.668635 0 0.0077821
0.810407 0 0.00263981
0.921569 0 0
0.0196231 0.0573587 0.0442817
0.0801709 0.0589609 0.0299535
0.174319 0.0581216 0.0267796
0.2701 0.0493477 0.0213016
0.384817 0.0260929 0.0149233
0.516472 0 0.00939956
0.655512 0 0.00262455
0.794171 0 0
0.92282 0 0
0.0010071 0.122225 0.0162051
0.0695811 0.112261 0.0127718
0.176684 0.118761 0.0119631
0.276326 0.125689 0.0108949
0.394568 0.126162 0.00668345
0.528206 0.114916 0.00329595
0.666499 0.090547 0.000137331
0.802686 0.0449531 0
0.924529 0.0104982 0
0 0.17258 0.00015259
0.0583352 0.162844 0
0.167224 0.165499 0
0.262867 0.174762 0
0.37615 0.184268 0
0.518013 0.193194 0
0.680751 0.197238 0
0.823758 0.197253 0
0.935195 0.187335 0
0 0.207477 0
0.0340887 0.201251 0
0.135164 0.203265 0
0.228565 0.214176 0
0.339513 0.226505 0
0.476921 0.243015 0
0.64065 0.263157 0
0.795163 0.287465 0
0.919829 0.321508 0
0 0.239734 0
0 0.233951 0
0.0643015 0.234668 0
0.166613 0.243946 0
0.285252 0.26041 0
0.420768 0.280797 0
0.573175 0.304463 0
0.729793 0.334585 0
0.885313 0.371725 0
0 0.262623 0
0 0.25919 0
0 0.256092 0
0.0497139 0.259037 0
0.185214 0.268437 0
0.32105 0.288685 0
0.467857 0.30959 0
0.6309 0.337819 0
0.831876 0.373754 0
0 0.238102 0
0 0.238819 0
0 0.237201 0
0 0.231342 0
0.00639353 0.233585 0
0.123095 0.245869 0
0.268681 0.264622 0
0.449531 0.28986 0
0.703136 0.315587 0
0.00610361 0.0281987 0.00749218
0.00502022 0.0415045 0.00749218
0.0062562 0.0433051 0.00909438
0.00758373 0.0399634 0.0089723
0.00776684 0.0381781 0.0087129
0.00808728 0.0434577 0.00831617
0.0119173 0.0698711 0.00354009
0.0743114 0.116625 0
0.325673 0.17882 0
0.0197604 0.0182345 0.0182345
0.0770733 0.0157778 0.0605936
0.167086 0.0156863 0.0793774
0.252644 0.00950637 0.0790265
0.377188 0 0.0729992
0.523384 0 0.0667887
0.669764 0 0.0634775
0.809537 0 0.0594949
0.921569 0 0.0559548
0.0601968 0.058854 0.0553292
0.0823835 0.0614023 0.0669871
0.169192 0.0589609 0.0720226
0.260151 0.0548409 0.0690318
0.378973 0.0330816 0.0630198
0.512688 0.00247196 0.0589456
0.654337 0 0.0539864
0.791821 0 0.0487831
0.918868 0 0.0417029
0.00215152 0.145647 0.106065
0.0515908 0.145617 0.0619669
0.192187 0.140658 0.0619059
0.292515 0.143877 0.0628519
0.400534 0.137667 0.0601816
0.524025 0.125628 0.054902
0.663783 0.104433 0.0496376
0.795605 0.0733196 0.0423285
0.918166 0.0219425 0.0357977
0 0.22797 0.0470588
0.0120089 0.214588 0.0338903
0.187808 0.204822 0.0395819
0.291127 0.210056 0.0477913
0.411765 0.219043 0.0511788
0.553658 0.225452 0.0537423
0.692027 0.218387 0.0490425
0.815549 0.212009 0.0403449
0.923156 0.203677 0.0373846
0 0.272618 0.00454719
3.0518e-05 0.26273 0.00213626
0.14432 0.255116 0.00492866
0.259251 0.260273 0.0119631
0.381811 0.270695 0.0157931
0.523217 0.289281 0.0194553
0.678828 0.309911 0.0209354
0.809567 0.33608 0.0348821
0.90837 0.343771 0.049897
0 0.30724 0
0 0.301656 0
0.0297398 0.294148 0
0.18233 0.296574 0
0.322393 0.311437 0
0.467735 0.331487 0
0.617609 0.356802 0
0.757366 0.384741 0.000198367
0.88275 0.421729 0.0285039
0 0.330877 0
0 0.325231 0
0 0.319783 0
0.0101625 0.313375 0
0.20061 0.318822 0
0.357458 0.335378 0
0.510719 0.359457 0
0.670619 0.38587 0
0.846159 0.426963 0
0 0.308171 0
0 0.305898 0
0 0.299779 0
0 0.291646 0
0.000564584 0.282719 0
0.124041 0.286198 0
0.297124 0.305653 0
0.491478 0.334127 0
0.751324 0.369924 0
0.0019379 0.0617227 0.0149386
0.00376898 0.0788586 0.0113375
0.00373846 0.0795148 0.00895705
0.00448615 0.0671244 0.0101778
0.00721752 0.0585794 0.0091249
0.00817884 0.0556039 0.00817884
0.00917067 0.0810407 0.00357061
0.0849622 0.126329 0
0.327474 0.182437 0
0.0322728 0.0247807 0.0287022
0.0768444 0.0239109 0.073106
0.179294 0.0156863 0.116411
0.268559 0.0053254 0.121263
0.372412 0 0.1196
0.505928 0 0.116335
0.664469 0 0.115389
0.813794 0 0.114946
0.921569 0 0.114153
0.0688029 0.0673686 0.0640879
0.0788434 0.0708476 0.0722515
0.183154 0.0588083 0.115785
0.268482 0.0560311 0.115358
0.364904 0.0465095 0.111406
0.495338 0.0190585 0.109194
0.649699 0 0.105272
0.791959 0 0.103929
0.919005 0 0.102449
0.075227 0.144549 0.149752
0.0869001 0.148348 0.135775
0.195117 0.148867 0.109712
0.278889 0.149935 0.111009
0.377539 0.147463 0.107362
0.517815 0.135637 0.106096
0.660777 0.113588 0.104784
0.793576 0.0861067 0.0996567
0.916167 0.0379797 0.0984054
0 0.242496 0.157809
0 0.243412 0.115572
0.199374 0.228641 0.0950332
0.306569 0.232258 0.105516
0.434363 0.235874 0.111666
0.558953 0.234073 0.111147
0.692714 0.228321 0.106371
0.812055 0.222614 0.10544
0.914427 0.214984 0.105333
0 0.323018 0.0789807
0 0.314031 0.0653697
0.140795 0.298634 0.0590066
0.283238 0.297704 0.0712291
0.413703 0.3084 0.0826276
0.554269 0.32401 0.0939498
0.699901 0.344503 0.10602
0.80679 0.353902 0.114961
0.897047 0.354681 0.12311
0 0.372641 0.00834669
0 0.366293 0.00561532
0.00410468 0.355474 0.00215152
0.188922 0.348791 0.00814832
0.356634 0.357794 0.0204166
0.505898 0.377661 0.0323033
0.64564 0.400275 0.055314
0.773922 0.426474 0.0895094
0.878828 0.455497 0.137835
0 0.401007 0
0 0.398352 0
0 0.389273 0
0.000396735 0.376623 0
0.214267 0.372061 0
0.392844 0.386343 0
0.550866 0.405646 0
0.700511 0.431571 0.00216678
0.851743 0.474144 0.0630503
0 0.38117 0
0 0.377707 0
0 0.370169 0
0 0.360494 0
0 0.343664 0
0.116823 0.33843 0
0.327184 0.354604 0
0.537423 0.383841 0
0.786175 0.426215 0
0 0.123507 0.00950637
0 0.144625 0.0077821
0 0.144198 0.00756847
0 0.129549 0.00865187
0 0.11989 0.00611887
0.000366217 0.101839 0.00627146
0.00598154 0.081117 0.00650034
0.0899977 0.13373 0
0.340154 0.188525 0
0.0441444 0.0354467 0.0440528
0.0749371 0.0335851 0.0747692
0.186725 0.0160067 0.15555
0.282399 0.00192264 0.171756
0.388602 0 0.176226
0.501442 0 0.177081
0.641825 0 0.177081
0.805066 0 0.176654
0.92549 0 0.178653
0.0771496 0.0756695 0.0724804
0.0864729 0.0780194 0.0801251
0.191226 0.0619974 0.159289
0.284016 0.0522011 0.169528
0.376516 0.0450446 0.168994
0.485603 0.0352331 0.168078
0.624002 0.00567636 0.166857
0.784298 0 0.165377
0.922057 0 0.16582
0.14583 0.146426 0.140246
0.150561 0.14725 0.141482
0.200504 0.150866 0.162081
0.281529 0.151354 0.16289
0.375937 0.151156 0.163607
0.491722 0.146532 0.163592
0.636316 0.132479 0.162432
0.788678 0.0991226 0.161089
0.915389 0.0555581 0.162234
0.0991226 0.238239 0.247425
0.102571 0.241337 0.22855
0.20557 0.246204 0.162646
0.315541 0.245167 0.170428
0.416281 0.24712 0.170489
0.530846 0.245136 0.168933
0.680018 0.235904 0.168078
0.800992 0.230152 0.1673
0.90692 0.226078 0.171252
0 0.346334 0.220218
0 0.34638 0.190539
0.109514 0.340658 0.13991
0.30219 0.328359 0.144457
0.437125 0.335973 0.156024
0.581537 0.351476 0.171054
0.704585 0.360601 0.176211
0.799466 0.362112 0.181231
0.885664 0.362463 0.189136
0 0.430518 0.143572
0 0.426337 0.126024
0 0.421042 0.0959029
0.18938 0.411261 0.0896315
0.388022 0.404852 0.105562
0.537087 0.420172 0.129229
0.665125 0.439002 0.155947
0.78146 0.460899 0.190112
0.867872 0.464485 0.20914
0 0.478614 0.0619516
0 0.472572 0.0464637
0 0.466377 0.0166018
0 0.453834 0.000442512
0.225223 0.436957 0.00872816
0.431815 0.439704 0.0371252
0.586282 0.45539 0.070985
0.72372 0.480018 0.11458
0.851453 0.517296 0.189578
0 0.462364 0
0 0.460868 0
0 0.456046 0
0 0.447929 0
0 0.427695 0
0.0993515 0.408255 0
0.367422 0.415564 0
0.58381 0.441764 0
0.807691 0.489677 0.0141451
0 0.234546 0.00601205
0 0.253132 0.00349432
0 0.254414 0
0 0.242176 0
0 0.231739 0
0 0.211185 0
0 0.173785 0
0.0746319 0.168124 0
0.354772 0.198566 0
0.059205 0.0472725 0.0559091
0.0735637 0.048127 0.073167
0.174548 0.0308843 0.172351
0.290532 0.00387579 0.228763
0.407538 0 0.238972
0.521202 0 0.245716
0.642603 0 0.248753
0.789593 0 0.251469
0.918959 0 0.254841
0.0893721 0.0840314 0.0821241
0.0952316 0.086305 0.09131
0.165896 0.0811017 0.162875
0.291295 0.0546273 0.227817
0.396033 0.0389105 0.231968
0.502983 0.0271611 0.234592
0.621805 0.0130312 0.23595
0.767651 0 0.235065
0.917128 0 0.238834
0.161913 0.156268 0.151568
0.162371 0.157671 0.150607
0.183261 0.165637 0.173846
0.299702 0.151827 0.230915
0.395987 0.15024 0.230961
0.503914 0.147433 0.231159
0.626886 0.141115 0.231312
0.768338 0.123079 0.233783
0.909102 0.0811475 0.236088
0.208972 0.245457 0.232288
0.215915 0.242054 0.229801
0.239414 0.250446 0.238056
0.313298 0.252018 0.23798
0.411093 0.253986 0.236622
0.525643 0.252369 0.235035
0.648539 0.250584 0.23769
0.780499 0.24567 0.240131
0.89929 0.235065 0.245151
0.117876 0.343236 0.356527
0.12047 0.343999 0.341741
0.129198 0.365057 0.276539
0.313771 0.35877 0.225879
0.449027 0.359106 0.237644
0.563104 0.367849 0.245731
0.6701 0.372778 0.246693
0.780194 0.37406 0.255299
0.87747 0.370199 0.259495
0 0.454154 0.341146
0 0.455848 0.31809
0 0.469947 0.251286
0.159014 0.466255 0.194644
0.419028 0.447761 0.203082
0.560311 0.455192 0.226673
0.684489 0.469871 0.257115
0.778378 0.477119 0.275914
0.85597 0.468284 0.276005
0 0.525917 0.265385
0 0.527108 0.245274
0 0.530648 0.191913
0 0.527321 0.13846
0.233783 0.499748 0.122789
0.468406 0.487266 0.149874
0.613626 0.501106 0.183932
0.740078 0.521157 0.231144
0.845808 0.546838 0.292134
0 0.524941 0.165866
0 0.525795 0.149157
0 0.53051 0.107362
0 0.52929 0.0458076
0 0.514168 0.00277714
0.0636301 0.486229 0.0027924
0.408103 0.477546 0.0145876
0.626551 0.498589 0.057496
0.821439 0.550301 0.168719
0 0.329107 0.0958114
0 0.347082 0.0818647
0 0.352041 0.0529488
0 0.350759 0.0127718
0 0.355795 0
0 0.345342 0
0 0.301839 0
0.0718853 0.261845 0
0.402899 0.228641 0
0.0716716 0.0567483 0.0716716
0.0823835 0.0607004 0.0818799
0.146624 0.0581216 0.15462
0.269108 0.0264286 0.264271
0.412253 0 0.322362
0.540917 0 0.333608
0.667597 0 0.342123
0.796353 0 0.34786
0.909804 0 0.350057
0.101442 0.0935988 0.0975204
0.107088 0.0958877 0.103166
0.13785 0.102907 0.137163
0.257771 0.0793011 0.254185
0.399054 0.0452735 0.313039
0.525612 0.0172732 0.320577
0.644739 0.00241093 0.325948
0.77055 0 0.327749
0.904509 0 0.329564
0.174182 0.17026 0.162982
0.17348 0.168719 0.162127
0.188479 0.177417 0.178363
0.261921 0.175845 0.250919
0.411093 0.151034 0.31574
0.530175 0.142641 0.321065
0.6439 0.137163 0.323095
0.767849 0.128588 0.324453
0.894118 0.114382 0.326497
0.254948 0.251026 0.240696
0.254826 0.248508 0.239704
0.264256 0.256413 0.248264
0.296681 0.268788 0.279286
0.436805 0.253452 0.328984
0.540169 0.252079 0.327672
0.659113 0.25037 0.330343
0.769345 0.25391 0.330114
0.883513 0.254017 0.334676
0.267674 0.358175 0.334539
0.270176 0.354574 0.328649
0.290379 0.360784 0.34258
0.327062 0.371664 0.349798
0.449577 0.374563 0.330388
0.551812 0.37586 0.331228
0.658503 0.381048 0.332677
0.753002 0.386023 0.341024
0.861875 0.377905 0.344915
0.14229 0.450431 0.479973
0.141588 0.451453 0.472297
0.147784 0.46743 0.44979
0.181888 0.495048 0.375631
0.434684 0.479683 0.312474
0.571801 0.482429 0.335546
0.668788 0.489372 0.35407
0.750622 0.487724 0.353521
0.843992 0.473014 0.356039
0 0.534066 0.492271
0 0.535912 0.476936
0 0.548974 0.43476
0 0.567178 0.357412
0.224537 0.557961 0.265507
0.499138 0.533211 0.274784
0.635904 0.540063 0.312718
0.752407 0.557031 0.356954
0.836896 0.553719 0.37113
0 0.556588 0.427771
0 0.560052 0.408347
0 0.569223 0.366049
0 0.585229 0.300786
0 0.591119 0.194568
0.0629129 0.568063 0.127855
0.454108 0.540307 0.147494
0.66421 0.555673 0.211765
0.825422 0.604562 0.324804
0 0.386908 0.301198
0 0.40502 0.289937
0 0.413886 0.262242
0 0.421546 0.222034
0 0.444358 0.138552
0 0.46331 0.00527962
0 0.444968 0
0.0354467 0.37142 0
0.577783 0.380362 0
0.0844587 0.070985 0.0835889
0.0923323 0.074464 0.0940414
0.122698 0.084184 0.125109
0.200366 0.0792096 0.216526
0.354925 0.0395666 0.36553
0.538277 0 0.448844
0.686732 0 0.465003
0.818112 0 0.473457
0.913725 0 0.474891
0.113512 0.105592 0.110658
0.118883 0.107668 0.116243
0.140688 0.11751 0.140108
0.19263 0.123033 0.197284
0.347189 0.0894789 0.350149
0.528206 0.0235447 0.42977
0.665629 0 0.440757
0.792645 0 0.446708
0.904005 0 0.448371
0.189288 0.182071 0.178149
0.186709 0.180652 0.175921
0.199268 0.189258 0.190219
0.225528 0.201572 0.221378
0.356146 0.18027 0.350103
0.538811 0.144152 0.429343
0.673014 0.12694 0.438041
0.787274 0.120623 0.441306
0.88864 0.127855 0.43946
0.269718 0.265797 0.254032
0.267796 0.262272 0.251621
0.279026 0.271183 0.259419
0.297658 0.285924 0.282002
0.388281 0.279255 0.371328
0.563317 0.251347 0.443626
0.686152 0.246815 0.446448
0.777646 0.253574 0.445823
0.871977 0.266499 0.447425
0.363226 0.356283 0.344518
0.359152 0.353826 0.342061
0.368734 0.361624 0.346929
0.386221 0.378149 0.362692
0.426383 0.389212 0.400183
0.570901 0.376349 0.444358
0.665995 0.381735 0.445716
0.752804 0.389746 0.450126
0.845808 0.388785 0.449393
0.359442 0.47393 0.44239
0.358114 0.472297 0.440009
0.376303 0.479057 0.44889
0.405356 0.490501 0.46247
0.449332 0.49601 0.475395
0.564889 0.494392 0.448508
0.649439 0.493263 0.447196
0.731182 0.491646 0.449302
0.820142 0.483009 0.450736
0.258335 0.549142 0.570443
0.260014 0.545998 0.570687
0.285679 0.54789 0.571633
0.315251 0.556405 0.5664
0.330449 0.579385 0.511559
0.511162 0.575204 0.423148
0.646052 0.570642 0.447028
0.733059 0.574151 0.46099
0.816541 0.560937 0.46009
0 0.567971 0.625727
0.00267033 0.569039 0.614694
0.0123903 0.574929 0.60235
0.0178836 0.590524 0.58349
0.0219577 0.614099 0.528649
0.0652781 0.638651 0.411933
0.498756 0.612985 0.350362
0.70132 0.619287 0.415915
0.82031 0.654429 0.498772
0 0.461204 0.611643
0 0.469261 0.600031
0 0.476036 0.590433
0 0.484489 0.578119
0 0.510323 0.534737
0 0.556878 0.44062
0 0.614633 0.21033
0.0402075 0.571176 0.013962
0.714366 0.565393 0.0176394
0.0901961 0.0745098 0.0901961
0.0957351 0.0784772 0.098146
0.118532 0.090425 0.122454
0.157717 0.101198 0.16556
0.27454 0.0917525 0.304356
0.48101 0.0177768 0.481621
0.686656 0 0.555764
0.830594 0 0.563317
0.92549 0 0.564706
0.120607 0.112444 0.120607
0.126162 0.113756 0.123049
0.14139 0.121935 0.142046
0.174014 0.135729 0.174701
0.253819 0.138994 0.267826
0.450446 0.0894179 0.457496
0.666514 3.0518e-05 0.552178
0.809522 0 0.562249
0.917983 0 0.5617
0.195682 0.188556 0.184634
0.195636 0.189319 0.186954
0.205615 0.196628 0.19852
0.228412 0.208881 0.224323
0.272908 0.221912 0.27097
0.464744 0.181033 0.459495
0.673548 0.122484 0.551949
0.804303 0.0979629 0.555383
0.900755 0.103029 0.551171
0.279591 0.271748 0.263905
0.278096 0.270253 0.261158
0.286305 0.278462 0.270329
0.304494 0.293095 0.289174
0.338308 0.307073 0.326543
0.506752 0.275334 0.48336
0.690684 0.242649 0.551202
0.797559 0.239597 0.547845
0.883879 0.252094 0.544228
0.371206 0.363363 0.351232
0.369741 0.361944 0.350134
0.377935 0.36907 0.355413
0.394598 0.383383 0.371084
0.414893 0.399741 0.395285
0.526452 0.392294 0.498238
0.682338 0.374075 0.544411
0.772015 0.374258 0.544457
0.853437 0.373571 0.540444
0.458289 0.458671 0.446326
0.459602 0.459617 0.444633
0.470542 0.465415 0.449866
0.483482 0.475807 0.459876
0.498939 0.487175 0.471092
0.527733 0.497581 0.499367
0.656718 0.481483 0.539391
0.737469 0.477455 0.542412
0.82182 0.466178 0.542809
0.463951 0.55874 0.526467
0.463188 0.55642 0.524254
0.474006 0.55903 0.527611
0.493355 0.560876 0.532586
0.518669 0.567361 0.539132
0.554711 0.570871 0.549615
0.628214 0.570504 0.5458
0.711131 0.565347 0.550713
0.803586 0.551797 0.556832
0.32491 0.636728 0.581613
0.327459 0.632868 0.583459
0.3449 0.632242 0.588098
0.371466 0.633204 0.596933
0.416739 0.632349 0.61355
0.480934 0.631724 0.631937
0.53463 0.654444 0.599481
0.711498 0.656458 0.580514
0.799374 0.662425 0.602167
0 0.677546 0.644953
0 0.671748 0.650263
0 0.670161 0.656428
0 0.670207 0.664637
0.00280766 0.664546 0.681971
0.0386664 0.659815 0.702632
0.14287 0.670939 0.712032
0.395468 0.742931 0.628702
0.805737 0.769467 0.674022
