70 CGC LUTs/Look LUTs/Moonrise Kingdom.cube
#Created by: Denver Riddle
#Copyright: (C) Copyright Color Grading Central LLC
#LUT Size
LUT_3D_SIZE 5
0.00392157 0.00392157 0.00392157
0.142931 0.0196078 0.0040589
0.367559 0 0
0.680705 0 0
0.926558 0 0
0.0311589 0.0707866 0.00424201
0.146349 0.0903792 0
0.369055 0.10399 0
0.672572 0.071809 0
0.931655 0.00274662 0
0.0208591 0.172305 0
0.12813 0.176593 0
0.317433 0.203891 0
0.613123 0.238224 0
0.923858 0.294499 0
0 0.235248 0
0 0.235035 0
0.17966 0.250889 0
0.451545 0.292958 0
0.826703 0.354528 0
0.00993362 0.0203403 0.0117647
0.00726329 0.0339666 0.0102693
0.00827039 0.0308232 0.010605
0.0122988 0.0653391 0.00361639
0.326726 0.17908 0
0.0197604 0.0182345 0.0182345
0.167086 0.0156863 0.0793774
0.377188 0 0.0729992
0.669764 0 0.0634775
0.921569 0 0.0559548
0.00215152 0.145647 0.106065
0.192187 0.140658 0.0619059
0.400534 0.137667 0.0601816
0.663783 0.104433 0.0496376
0.918166 0.0219425 0.0357977
0 0.272618 0.00454719
0.14432 0.255116 0.00492866
0.381811 0.270695 0.0157931
0.678828 0.309911 0.0209354
0.90837 0.343771 0.049897
0 0.330877 0
0 0.319783 0
0.20061 0.318822 0
0.510719 0.359457 0
0.846159 0.426963 0
0.0019379 0.0617227 0.0149386
0.00373846 0.0795148 0.00895705
0.00721752 0.0585794 0.0091249
0.00917067 0.0810407 0.00357061
0.327474 0.182437 0
0.0441444 0.0354467 0.0440528
0.186725 0.0160067 0.15555
0.388602 0 0.176226
0.641825 0 0.177081
0.92549 0 0.178653
0.14583 0.146426 0.140246
0.200504 0.150866 0.162081
0.375937 0.151156 0.163607
0.636316 0.132479 0.162432
0.915389 0.0555581 0.162234
0 0.346334 0.220218
0.109514 0.340658 0.13991
0.437125 0.335973 0.156024
0.704585 0.360601 0.176211
0.885664 0.362463 0.189136
0 0.478614 0.0619516
0 0.466377 0.0166018
0.225223 0.436957 0.00872816
0.586282 0.45539 0.070985
0.851453 0.517296 0.189578
0 0.234546 0.00601205
0 0.254414 0
0 0.231739 0
0 0.173785 0
0.354772 0.198566 0
0.0716716 0.0567483 0.0716716
0.146624 0.0581216 0.15462
0.412253 0 0.322362
0.667597 0 0.342123
0.909804 0 0.350057
0.174182 0.17026 0.162982
0.188479 0.177417 0.178363
0.411093 0.151034 0.31574
0.6439 0.137163 0.323095
0.894118 0.114382 0.326497
0.267674 0.358175 0.334539
0.290379 0.360784 0.34258
0.449577 0.374563 0.330388
0.658503 0.381048 0.332677
0.861875 0.377905 0.344915
0 0.534066 0.492271
0 0.548974 0.43476
0.224537 0.557961 0.265507
0.635904 0.540063 0.312718
0.836896 0.553719 0.37113
0 0.386908 0.301198
0 0.413886 0.262242
0 0.444358 0.138552
0 0.444968 0
0.577783 0.380362 0
0.0901961 0.0745098 0.0901961
0.118532 0.090425 0.122454
0.27454 0.0917525 0.304356
0.686656 0 0.555764
0.92549 0 0.564706
0.195682 0.188556 0.184634
0.205615 0.196628 0.19852
0.272908 0.221912 0.27097
0.673548 0.122484 0.551949
0.900755 0.103029 0.551171
0.371206 0.363363 0.351232
0.377935 0.36907 0.355413
0.414893 0.399741 0.395285
0.682338 0.374075 0.544411
0.853437 0.373571 0.540444
0.463951 0.55874 0.526467
0.474006 0.55903 0.527611
0.518669 0.567361 0.539132
0.628214 0.570504 0.5458
0.803586 0.551797 0.556832
0 0.677546 0.644953
0 0.670161 0.656428
0.00280766 0.664546 0.681971
0.14287 0.670939 0.712032
0.805737 0.769467 0.674022
