70 CGC LUTs/Look LUTs/Ochre.cube
#Created by: Denver Riddle
#Copyright: (C) Copyright Color Grading Central LLC
#LUT Size
LUT_3D_SIZE 33
0 0 0
0.0291905 0 0
0.0556497 0 0
0.0808728 0 0
0.105226 0 0
0.129458 0 0
0.154116 0 0
0.179141 0 0
0.204349 0 0
0.230838 0 0
0.259022 0 0
0.288075 0 0
0.31873 0 0
0.349371 0 0
0.378195 0 0
0.412284 0 0
0.448035 0 0
0.484306 0 0
0.52079 0 0
0.556985 0 0
0.592569 0 0
0.626139 0 0
0.661967 0 0
0.6981 0 0
0.733242 0 0
0.766094 0 0
0.7953 0 0
0.821271 0 0
0.84477 0 0
0.866667 0 0
0.887617 0 0
0.909606 0 0
0.909682 0 0
0 0.0270085 0
0.0265354 0.0257115 0
0.0591745 0.0245365 0
0.082826 0.0239261 0
0.105409 0.0234989 0
0.128435 0.0230564 0
0.15198 0.0222324 0
0.176257 0.0212406 0
0.201404 0.0200046 0
0.227481 0.0182803 0
0.255009 0.0164187 0
0.283589 0.013962 0
0.313787 0.0110933 0
0.344915 0.00801099 0
0.374014 0.00419623 0
0.408316 0.00047303 0
0.443336 0 0
0.479103 0 0
0.515251 0 0
0.551141 0 0
0.586892 0 0
0.620417 0 0
0.655879 0 0
0.692195 0 0
0.72726 0 0
0.760281 0 0
0.790082 0 0
0.816632 0 0
0.840436 0 0
0.86273 0 0
0.883909 0 0
0.90631 0 0
0.910277 0 0
0 0.0510109 0
0.0235904 0.0493629 0
0.0498817 0.0480201 0
0.0979019 0.0422217 0
0.111192 0.0454414 0
0.134554 0.0443732 0
0.157397 0.043183 0
0.180865 0.0420081 0
0.2056 0.0406958 0
0.230991 0.0387579 0
0.257633 0.0365759 0
0.286183 0.0341955 0
0.31577 0.0312963 0
0.34667 0.0282292 0
0.3776 0.0245518 0
0.411521 0.0207065 0
0.446189 0.0168307 0
0.481483 0.012604 0
0.51722 0.00859083 0
0.552895 0.00433356 0
0.587945 0.000244144 0
0.621866 0 0
0.657389 0 0
0.693248 0 0
0.728481 0 0
0.761105 0 0
0.790784 0 0
0.817151 0 0
0.840986 0 0
0.863066 0 0
0.88481 0 0
0.906706 0 0
0.913634 0 0
0 0.0735637 0
0.0211948 0.0707408 0
0.0464637 0.0706035 0
0.0720226 0.0690929 0
0.126192 0.0618296 0
0.151797 0.0605631 0
0.163561 0.0641642 0
0.188357 0.0624857 0
0.214038 0.0605783 0
0.239155 0.0584421 0
0.265522 0.0560159 0
0.293339 0.0535897 0
0.322606 0.0505837 0
0.35346 0.0473945 0
0.386206 0.0439765 0
0.419486 0.0402228 0
0.454047 0.0364538 0
0.488792 0.0324102 0
0.52369 0.0283818 0
0.559121 0.0245518 0
0.593439 0.0206912 0
0.627634 0.0170901 0
0.663203 0.0133822 0
0.698619 0.00970474 0
0.733196 0.00627146 0
0.765591 0.00383001 0
0.794507 0.00207523 0
0.820615 0.00122072 0
0.844465 0.00144961 0
0.866651 0.00201419 0
0.888045 0.00303655 0
0.909941 0.00341802 0
0.91899 0.00244144 0
0 0.0948653 0
0.0187991 0.0914015 0
0.0435187 0.0908522 0
0.0677043 0.0909133 0
0.0911574 0.0872663 0
0.151949 0.0815442 0
0.190768 0.076463 0
0.206027 0.0787976 0
0.220706 0.0811322 0
0.247379 0.0787213 0
0.275334 0.0755779 0
0.30399 0.0727703 0
0.333425 0.0696727 0
0.364675 0.0664073 0
0.397208 0.0630961 0
0.430594 0.0594034 0
0.464515 0.0556497 0
0.499352 0.0520485 0
0.534218 0.0481727 0
0.568795 0.0444648 0
0.603281 0.0410315 0
0.63743 0.0375982 0
0.672419 0.0340734 0
0.707774 0.0308995 0
0.741283 0.0280003 0
0.772549 0.0258793 0
0.801129 0.0248112 0
0.826535 0.0244907 0
0.849928 0.0249485 0
0.872068 0.0260166 0
0.893889 0.0276188 0
0.915969 0.0286717 0
0.926986 0.0280613 0
0 0.114931 0
0.0155337 0.109819 0
0.0392309 0.108186 0
0.064683 0.111177 0
0.0873426 0.110277 0
0.108766 0.104067 0
0.176135 0.10135 0
0.225269 0.0939956 0
0.256321 0.0910506 0
0.265965 0.09514 0
0.283223 0.0962387 0
0.312474 0.0932021 0
0.344945 0.0896925 0
0.37763 0.0859693 0
0.410483 0.0823377 0
0.444038 0.0788128 0
0.477714 0.0751812 0
0.511879 0.0715648 0
0.546395 0.0681773 0
0.580758 0.0647593 0
0.615213 0.0615244 0
0.650126 0.0586557 0
0.68513 0.0554971 0
0.719768 0.0525521 0
0.752529 0.0501259 0
0.782788 0.0488594 0
0.809964 0.0482948 0
0.834653 0.0485542 0
0.857633 0.0495766 0
0.879973 0.0513008 0
0.901747 0.0531014 0
0.923751 0.0548562 0
0.936645 0.0544747 0
0 0.135454 0
0.0127565 0.129747 0
0.0353246 0.12549 0
0.0591135 0.127214 0
0.0847486 0.131334 0
0.107179 0.130205 0
0.125566 0.119936 0
0.198825 0.12134 0
0.258274 0.111849 0
0.301183 0.10573 0
0.324208 0.105837 0
0.333684 0.110307 0
0.355062 0.110689 0
0.387579 0.10753 0
0.422568 0.103304 0
0.457435 0.0992142 0
0.492134 0.0956436 0
0.526619 0.0920577 0
0.560876 0.0886549 0
0.595102 0.0857862 0
0.629099 0.0829328 0
0.663828 0.0800793 0
0.698604 0.0774548 0
0.733166 0.075227 0
0.765301 0.0735943 0
0.794507 0.0728618 0
0.820996 0.0729229 0
0.845273 0.0740673 0
0.868009 0.0757763 0
0.889876 0.0778363 0
0.911681 0.0800793 0
0.934066 0.0823682 0
0.948608 0.0821698 0
0 0.156024 0
0.0100099 0.151141 0
0.032578 0.146258 0
0.0537118 0.142397 0
0.078584 0.146944 0
0.104402 0.151598 0
0.126741 0.150042 0
0.143297 0.136584 0
0.219425 0.140429 0
0.292271 0.13077 0
0.344656 0.122667 0
0.382055 0.118425 0
0.398825 0.120989 0
0.409949 0.125368 0
0.433936 0.125521 0
0.467491 0.122255 0
0.504219 0.118013 0
0.540337 0.114275 0
0.575677 0.111025 0
0.610361 0.108034 0
0.64477 0.105379 0
0.679835 0.103029 0
0.714534 0.100679 0
0.747829 0.0988937 0
0.778714 0.0979782 0
0.806821 0.0980087 0
0.832685 0.0990158 0
0.856474 0.100725 0
0.87921 0.103166 0
0.901564 0.105928 0
0.92401 0.108782 0
0.946746 0.11162 0
0.962127 0.111879 0
0 0.176455 0
0.00672923 0.172717 0
0.0297398 0.16849 0
0.0508125 0.163577 0
0.073106 0.163714 0
0.0992905 0.170077 0
0.12546 0.174334 0
0.14728 0.171099 0
0.164202 0.156374 0
0.242725 0.161395 0
0.327947 0.150912 0
0.387869 0.14107 0
0.435676 0.134234 0
0.465705 0.132998 0
0.478065 0.137407 0
0.491112 0.141588 0
0.516884 0.141848 0
0.550835 0.139254 0
0.588052 0.135653 0
0.624048 0.132555 0
0.660304 0.130022 0
0.696239 0.127565 0
0.730892 0.125628 0
0.763577 0.124376 0
0.793454 0.124147 0
0.820829 0.125093 0
0.845548 0.126696 0
0.869017 0.129107 0
0.891646 0.132097 0
0.913985 0.135393 0
0.936812 0.138888 0
0.960357 0.142306 0
0.976837 0.143191 0
0 0.195636 0
0.00251774 0.192966 0
0.0260624 0.190738 0
0.0476844 0.186511 0
0.068513 0.182467 0
0.0936141 0.188403 0
0.120455 0.194858 0
0.146899 0.198047 0
0.168597 0.193256 0
0.18703 0.1776 0
0.267628 0.183429 0
0.364309 0.172808 0
0.431769 0.161425 0
0.486595 0.153368 0
0.526848 0.148928 0
0.549645 0.150805 0
0.560052 0.156634 0
0.57525 0.160906 0
0.601587 0.161563 0
0.635309 0.160128 0
0.673014 0.157366 0
0.710369 0.154879 0
0.745968 0.153109 0
0.778729 0.152422 0
0.808179 0.152804 0
0.834897 0.154208 0
0.85922 0.156435 0
0.882597 0.159548 0
0.905364 0.16318 0
0.928038 0.166903 0
0.951232 0.170809 0
0.974655 0.174868 0
0.992004 0.176074 0
0 0.215122 0
0 0.212818 0
0.0210422 0.21117 0
0.0436255 0.209277 0
0.065156 0.205798 0
0.0876326 0.205997 0
0.114305 0.214176 0
0.142428 0.221286 0
0.169451 0.22327 0
0.191119 0.216693 0
0.211566 0.200275 0
0.293462 0.206378 0
0.400565 0.196826 0
0.475761 0.184283 0
0.535912 0.175586 0
0.583749 0.169619 0
0.616266 0.168521 0
0.633112 0.1729 0
0.643366 0.180011 0
0.66038 0.184604 0
0.688228 0.185931 0
0.722438 0.185107 0
0.758312 0.183825 0
0.791699 0.183383 0
0.821286 0.184115 0
0.84799 0.185901 0
0.872618 0.188693 0
0.896376 0.192432 0
0.919554 0.196475 0
0.943038 0.200626 0
0.96643 0.204929 0
0.990555 0.209415 0
1 0.211185 0
0 0.235309 0
0 0.233234 0
0.0155642 0.23183 0
0.038407 0.230228 0
0.0607919 0.228748 0
0.0823987 0.226337 0
0.107759 0.232822 0
0.135668 0.241276 0
0.165835 0.249439 0
0.193835 0.250385 0
0.216236 0.242466 0
0.238865 0.22565 0
0.322164 0.231464 0
0.436896 0.223499 0
0.51986 0.209812 0
0.584207 0.20061 0
0.636912 0.194446 0
0.678004 0.191211 0
0.704829 0.193118 0
0.718669 0.199878 0
0.729686 0.207584 0
0.747799 0.212909 0
0.773617 0.215579 0
0.803067 0.216922 0
0.832349 0.218311 0
0.859693 0.220356 0
0.88513 0.223575 0
0.909575 0.227527 0
0.933639 0.231876 0
0.957992 0.236286 0
0.981964 0.240986 0
1 0.245701 0
1 0.248295 0
0 0.258091 0
0 0.256382 0
0.00993362 0.255436 0
0.0331884 0.254368 0
0.055848 0.253346 0
0.0785382 0.252461 0
0.102281 0.254643 0
0.129625 0.263157 0
0.15967 0.272419 0
0.19115 0.279561 0
0.220111 0.279698 0
0.243824 0.270832 0
0.268711 0.2533 0
0.353414 0.258976 0
0.473716 0.252995 0
0.564095 0.238743 0
0.632013 0.229297 0
0.68954 0.222797 0
0.736538 0.218601 0
0.769787 0.219135 0
0.789197 0.224689 0
0.799237 0.233341 0
0.809232 0.242069 0
0.825193 0.248707 0
0.846403 0.253468 0
0.870604 0.257298 0
0.89604 0.261418 0
0.921553 0.265599 0
0.946761 0.270024 0
0.971695 0.274708 0
0.99707 0.279408 0
1 0.284337 0
1 0.286778 0
0 0.283955 0
0 0.282795 0
0.00407416 0.28249 0
0.0279545 0.282368 0
0.0514839 0.282017 0
0.0745556 0.281224 0
0.0979782 0.280461 0
0.124269 0.287419 0
0.153597 0.296574 0
0.185794 0.305989 0
0.218357 0.311666 0
0.249027 0.311681 0
0.273579 0.301305 0
0.302312 0.284413 0
0.388312 0.289723 0
0.511299 0.285496 0
0.608255 0.271092 0
0.680186 0.261357 0
0.741161 0.255009 0
0.789288 0.251423 0
0.823774 0.251667 0
0.846403 0.25626 0
0.859419 0.264546 0
0.867018 0.274846 0
0.876051 0.284535 0
0.890623 0.29279 0
0.910216 0.29958 0
0.932937 0.305211 0
0.958129 0.31014 0
0.984024 0.3149 0
1 0.319631 0
1 0.324163 0
1 0.326802 0
0 0.311635 0
0 0.310353 0
0 0.31046 0
0.0225681 0.310811 0
0.0466011 0.311437 0
0.0705425 0.311788 0
0.0946212 0.311589 0
0.119707 0.314137 0
0.148638 0.323186 0
0.180499 0.332982 0
0.214984 0.342428 0
0.248295 0.346456 0
0.280858 0.346532 0
0.30605 0.334188 0
0.338766 0.318364 0
0.425742 0.323674 0
0.548577 0.320211 0
0.651774 0.307027 0
0.728695 0.296773 0
0.789395 0.291081 0
0.835309 0.289189 0
0.869474 0.289876 0
0.894209 0.293996 0
0.910567 0.30135 0
0.919966 0.311406 0
0.927687 0.322988 0
0.937835 0.333913 0
0.953017 0.343084 0
0.972442 0.350622 0
0.995926 0.356451 0
1 0.361349 0
1 0.365743 0
1 0.368475 0
0 0.340642 0
0 0.339681 0
0 0.339971 0
0.0166629 0.340627 0
0.0412604 0.341558 0
0.066041 0.342947 0
0.0908827 0.344106 0
0.11603 0.344793 0
0.14432 0.352239 0
0.175921 0.362264 0
0.210361 0.37232 0
0.246876 0.381292 0
0.281422 0.384131 0
0.31548 0.383764 0
0.345251 0.37377 0
0.382742 0.359411 0
0.465599 0.36022 0
0.587304 0.35816 0
0.696361 0.346532 0
0.774914 0.335805 0
0.832654 0.33138 0
0.875517 0.3308 0
0.909819 0.332265 0
0.937072 0.33579 0
0.957794 0.341985 0
0.971435 0.351598 0
0.980682 0.363394 0
0.98912 0.375296 0
0.999817 0.385946 0
1 0.394736 0
1 0.401877 0
1 0.407645 0
1 0.410849 0
0 0.371771 0
0 0.370565 0
0 0.371176 0
0.0113375 0.372259 0
0.0367895 0.37409 0
0.0620127 0.37615 0
0.0874495 0.378363 0
0.113741 0.380743 0
0.141344 0.38439 0
0.172351 0.393378 0
0.206943 0.40415 0
0.244236 0.415152 0
0.283192 0.424262 0
0.318441 0.424949 0
0.355154 0.425467 0
0.391211 0.419806 0
0.431601 0.405509 0
0.50956 0.401953 0
0.6271 0.399084 0
0.740536 0.389151 0
0.818143 0.37882 0
0.871122 0.375143 0
0.912459 0.375387 0
0.947601 0.377066 0
0.978286 0.380438 0
1 0.38587 0
1 0.393774 0
1 0.40412 0
1 0.415915 0
1 0.427527 0
1 0.437888 0
1 0.446586 0
1 0.45153 0
0 0.406714 0
0 0.406653 0
0 0.409552 0
0.00762951 0.412985 0
0.033814 0.415259 0
0.059968 0.417716 0
0.0864576 0.420508 0
0.113619 0.423362 0
0.141909 0.426413 0
0.171878 0.431296 0
0.204746 0.438514 0
0.242008 0.449241 0
0.281971 0.460487 0
0.322148 0.46804 0
0.358892 0.468437 0
0.39678 0.468605 0
0.438315 0.466224 0
0.483787 0.45507 0
0.560693 0.450126 0
0.669123 0.443641 0
0.782956 0.434348 0
0.857343 0.425315 0
0.907225 0.4224 0
0.94847 0.422599 0
0.984939 0.424033 0
1 0.426062 0
1 0.43003 0
1 0.436393 0
1 0.445274 0
1 0.456367 0
1 0.468223 0
1 0.479561 0
1 0.487449 0
0 0.443259 0
0 0.442954 0
0 0.44625 0
0.00489815 0.450492 0
0.0319677 0.455726 0
0.0591745 0.460929 0
0.0869917 0.465522 0
0.115007 0.468879 0
0.144198 0.472328 0
0.174746 0.476387 0
0.207568 0.4822 0
0.242435 0.488197 0
0.280507 0.496315 0
0.322881 0.507347 0
0.363729 0.512856 0
0.40238 0.513741 0
0.441535 0.514031 0
0.485649 0.512596 0
0.537072 0.506004 0
0.614313 0.50248 0
0.718761 0.493523 0
0.821653 0.481163 0
0.891951 0.473381 0
0.941009 0.470787 0
0.982864 0.470192 0
1 0.470787 0
1 0.472175 0
1 0.47509 0
1 0.480003 0
1 0.487175 0
1 0.496757 0
1 0.508217 0
1 0.517739 0
0 0.481605 0
0 0.481056 0
0 0.484749 0
0.00318914 0.489052 0
0.03093 0.494514 0
0.0589151 0.500862 0
0.0878614 0.50782 0
0.117372 0.514763 0
0.147982 0.520424 0
0.179263 0.524254 0
0.212573 0.529564 0
0.247761 0.535515 0
0.285237 0.541543 0
0.324239 0.54728 0
0.366857 0.555093 0
0.407507 0.55845 0
0.447517 0.55967 0
0.487739 0.560143 0
0.53286 0.558389 0
0.587396 0.554589 0
0.661555 0.549813 0
0.762005 0.539544 0
0.855848 0.528511 0
0.922499 0.521721 0
0.972625 0.518456 0
1 0.517067 0
1 0.517037 0
1 0.517983 0
1 0.519844 0
1 0.523583 0
1 0.529351 0
1 0.537545 0
1 0.545403 0
0 0.521492 0
0 0.520577 0
0 0.524544 0
0.00323491 0.529488 0
0.0314488 0.535134 0
0.0598917 0.541665 0
0.0889448 0.548516 0
0.119203 0.556176 0
0.151034 0.564324 0
0.18436 0.572091 0
0.218662 0.578286 0
0.254276 0.583841 0
0.29192 0.589334 0
0.331334 0.594675 0
0.371389 0.598764 0
0.412192 0.602029 0
0.452262 0.603418 0
0.492699 0.604425 0
0.53373 0.605219 0
0.579614 0.603372 0
0.633722 0.599573 0
0.706218 0.594202 0
0.801358 0.584848 0
0.88719 0.576379 0
0.951675 0.570169 0
1 0.565972 0
1 0.563409 0
1 0.562539 0
1 0.562875 0
1 0.563912 0
1 0.566537 0
1 0.571023 0
1 0.576181 0
0 0.562982 0
0 0.561685 0
0 0.565972 0
0.00494392 0.571099 0
0.0332952 0.576684 0
0.0620432 0.58323 0
0.0917067 0.590417 0
0.122011 0.597742 0
0.153948 0.605829 0
0.187701 0.614084 0
0.223163 0.622156 0
0.259236 0.627924 0
0.295888 0.632197 0
0.334844 0.63653 0
0.375219 0.640711 0
0.41651 0.644511 0
0.457435 0.646784 0
0.497688 0.647639 0
0.538048 0.648325 0
0.579538 0.64921 0
0.625559 0.647715 0
0.679362 0.643885 0
0.750927 0.638132 0
0.837369 0.629908 0
0.915114 0.623346 0
0.979034 0.617243 0
1 0.612177 0
1 0.608942 0
1 0.607309 0
1 0.606973 0
1 0.607385 0
1 0.609064 0
1 0.611719 0
0 0.605386 0
0 0.603677 0
0 0.608118 0
0.00816358 0.613413 0
0.0370031 0.619318 0
0.06598 0.62591 0
0.0955367 0.6327 0
0.126268 0.640192 0
0.158236 0.648035 0
0.19173 0.655833 0
0.227253 0.663874 0
0.264164 0.671092 0
0.300618 0.674983 0
0.338979 0.678569 0
0.378714 0.682017 0
0.419821 0.685542 0
0.461707 0.688869 0
0.502876 0.690822 0
0.543053 0.691356 0
0.583093 0.691798 0
0.624079 0.69221 0
0.670161 0.690944 0
0.724819 0.686885 0
0.793591 0.681514 0
0.870604 0.674952 0
0.941176 0.669383 0
1 0.662943 0
1 0.656916 0
1 0.653239 0
1 0.651225 0
1 0.650324 0
1 0.650568 0
1 0.65185 0
0 0.648997 0
0 0.647044 0
0 0.651576 0
0.0123598 0.656641 0
0.0411841 0.662486 0
0.0701305 0.668971 0
0.0999466 0.675929 0
0.130282 0.682994 0
0.162158 0.690532 0
0.195743 0.698283 0
0.230777 0.705791 0
0.267948 0.71342 0
0.304891 0.718181 0
0.342962 0.721416 0
0.382315 0.724361 0
0.422873 0.72694 0
0.463859 0.729427 0
0.505806 0.732158 0
0.546395 0.733227 0
0.586297 0.733654 0
0.625727 0.733913 0
0.666178 0.734035 0
0.712749 0.732204 0
0.767666 0.728756 0
0.83125 0.724254 0
0.89929 0.719631 0
0.965942 0.714611 0
1 0.708019 0
1 0.701854 0
1 0.697841 0
1 0.695369 0
1 0.694194 0
1 0.694377 0
0 0.692897 0
0 0.690913 0
0 0.695369 0
0.0171359 0.700557 0
0.0459144 0.706432 0
0.0746624 0.712489 0
0.10425 0.719219 0
0.13492 0.726207 0
0.1664 0.733181 0
0.199695 0.740414 0
0.234638 0.747646 0
0.271061 0.754589 0
0.309407 0.760967 0
0.346838 0.763668 0
0.386099 0.766232 0.000106813
0.426291 0.768353 0.00138857
0.467185 0.770306 0.00187686
0.508171 0.772091 0.000823987
0.549416 0.773648 0
0.589258 0.774105 0
0.62855 0.774319 0
0.667308 0.774762 0
0.708492 0.774639 0
0.755215 0.772686 0
0.807736 0.769741 0
0.86508 0.766842 0
0.926207 0.764309 0
0.99057 0.759991 0
1 0.753201 0
1 0.746548 0
1 0.741817 0
1 0.738628 0
1 0.737682 0
0 0.736736 0
0 0.734798 0
0 0.739147 0
0.0231022 0.744137 0
0.0515755 0.749798 0
0.0805982 0.755856 0
0.109957 0.762173 0
0.14023 0.768612 0
0.171923 0.775341 0
0.204852 0.781903 0
0.239429 0.788373 0
0.275715 0.794888 0
0.31368 0.800748 0.00201419
0.352102 0.804639 0.00401312
0.390799 0.806745 0.00547799
0.430625 0.808515 0.0065919
0.471046 0.809735 0.00709544
0.511971 0.811124 0.00677501
0.552987 0.812451 0.00553903
0.593561 0.813428 0.00389105
0.632929 0.813764 0.00199893
0.671962 0.814221 0
0.711086 0.814725 0
0.752621 0.814328 0
0.798032 0.81265 0
0.84625 0.810895 0
0.897353 0.809461 0
0.952789 0.808057 0
1 0.804089 0
1 0.797223 0
1 0.790097 0
1 0.784482 0
1 0.781338 0
0 0.780346 0
0 0.77821 0
0.00303655 0.782025 0
0.0311589 0.78677 0
0.0595254 0.792126 0
0.0881514 0.797864 0
0.117647 0.803891 0
0.147814 0.81001 0
0.178866 0.815885 0
0.211704 0.822034 0.000274662
0.246174 0.827909 0.00381476
0.282048 0.833448 0.00663767
0.319829 0.839017 0.00917067
0.358862 0.843473 0.0109865
0.397253 0.844984 0.0123293
0.43679 0.846281 0.0134585
0.477562 0.847776 0.0144656
0.518776 0.849165 0.015198
0.55996 0.850538 0.0145876
0.600824 0.851835 0.0133364
0.640757 0.852445 0.0113832
0.679286 0.85272 0.00943008
0.71812 0.852857 0.00704967
0.757168 0.853132 0.00437934
0.797467 0.852674 0.00166323
0.839719 0.851453 0.00015259
0.882887 0.850553 0
0.928191 0.850263 0
0.980087 0.849104 0
1 0.845167 0
1 0.838209 0
1 0.83061 0
1 0.825254 0
0 0.826627 0
0 0.824613 0
0.0170291 0.827344 0
0.0437629 0.830777 0
0.0707713 0.83476 0
0.0986496 0.839124 0
0.127382 0.8439 0
0.157305 0.8495 0.00222782
0.188373 0.85507 0.00627146
