70 CGC LUTs/Look LUTs/Ochre.cube
#Created by: Denver Riddle
#Copyright: (C) Copyright Color Grading Central LLC
#LUT Size
LUT_3D_SIZE 5
0 0 0
0.204349 0 0
0.448035 0 0
0.733242 0 0
0.909682 0 0
0 0.176455 0
0.164202 0.156374 0
0.516884 0.141848 0
0.793454 0.124147 0
0.976837 0.143191 0
0 0.371771 0
0.141344 0.38439 0
0.431601 0.405509 0
0.978286 0.380438 0
1 0.45153 0
0 0.692897 0
0.1664 0.733181 0
0.467185 0.770306 0.00187686
0.807736 0.769741 0
1 0.737682 0
0.0511788 1 0.0371099
0.266255 1 0.0677195
0.545342 1 0.0735637
0.839734 1 0.0816205
1 1 0.212848
0 0.0108797 0.172412
0.199008 0 0.180575
0.406561 0 0.151369
0.701198 0 0.129503
0.89836 0 0.127382
0 0.166186 0.148959
0.153872 0.175616 0.15108
0.393423 0.141588 0.114763
0.686732 0.131624 0.114061
0.947326 0.137926 0.122042
0 0.410056 0.123171
0.152346 0.399222 0.135637
0.431022 0.389105 0.114961
0.844205 0.432593 0.0847181
1 0.473823 0.158465
0 0.718715 0.131792
0.177569 0.732952 0.160327
0.467948 0.769238 0.179217
0.81033 0.77995 0.174578
1 0.761654 0.166415
0.0527352 1 0.22002
0.212207 1 0.189166
0.535973 1 0.22855
0.835706 1 0.227146
1 1 0.302861
0 0.0311437 0.38085
0.189883 0 0.41062
0.43032 0 0.390982
0.677607 0 0.353262
0.882124 0 0.366629
0 0.176944 0.255116
0.105501 0.167742 0.28069
0.420752 0.15874 0.380667
0.671122 0.131365 0.343679
0.943633 0.119249 0.376944
0 0.393133 0.352331
0.133455 0.369192 0.333883
0.392538 0.450797 0.391867
0.771252 0.418738 0.337209
1 0.486763 0.442115
0 0.734524 0.384115
0.191928 0.764248 0.413535
0.469917 0.768215 0.420233
0.877531 0.749569 0.329992
1 0.807492 0.37052
0.0566567 1 0.478843
0.253895 1 0.48426
0.509712 1 0.46099
0.826215 1 0.462104
1 1 0.506279
0 0.0497902 0.63331
0.178531 0.00497444 0.693278
0.417853 0 0.654017
0.713039 0 0.652155
0.877195 0 0.646571
0 0.205463 0.500038
0.120516 0.197192 0.557595
0.370428 0.144076 0.604623
0.721004 0.143374 0.657343
0.923629 0.0504463 0.658503
0 0.399374 0.598596
0.0612955 0.419257 0.576852
0.257221 0.409644 0.519295
0.755138 0.461219 0.699382
1 0.443198 0.729015
0 0.729244 0.661845
0.173831 0.705211 0.641596
0.429374 0.773236 0.710033
0.726772 0.805081 0.716335
1 0.810346 0.742901
0.0681621 1 0.760876
0.189258 1 0.761227
0.503655 1 0.762997
0.804196 1 0.735149
1 1 0.755276
0 0.0650034 0.837079
0.170809 0.00901808 0.882506
0.433524 0 0.852216
0.667124 0 0.788464
0.883131 0 0.815808
0 0.219715 0.74609
0.143069 0.175616 0.887343
0.429038 0.157504 0.880369
0.719081 0.068452 0.853101
0.942962 0.108965 0.874266
0 0.453681 0.663386
0 0.451362 0.750851
0.449958 0.471809 0.915663
0.784482 0.451072 0.921584
1 0.4645 0.950027
0 0.761074 0.871351
0.160449 0.788403 0.913893
0.371069 0.820066 0.932082
0.792615 0.803906 0.93402
1 0.802945 0.949615
0.0950179 1 0.960296
0.242573 1 0.97734
0.510002 1 0.969268
0.801358 1 0.940917
1 1 0.933074
