70 CGC LUTs/Look LUTs/Ochre.cube
#Created by: Denver Riddle
#Copyright: (C) Copyright Color Grading Central LLC
#LUT Size
LUT_3D_SIZE 9
0 0 0
0.105226 0 0
0.204349 0 0
0.31873 0 0
0.448035 0 0
0.592569 0 0
0.733242 0 0
0.84477 0 0
0.909682 0 0
0 0.0948653 0
0.0911574 0.0872663 0
0.220706 0.0811322 0
0.333425 0.0696727 0
0.464515 0.0556497 0
0.603281 0.0410315 0
0.741283 0.0280003 0
0.849928 0.0249485 0
0.926986 0.0280613 0
0 0.176455 0
0.073106 0.163714 0
0.164202 0.156374 0
0.435676 0.134234 0
0.516884 0.141848 0
0.660304 0.130022 0
0.793454 0.124147 0
0.891646 0.132097 0
0.976837 0.143191 0
0 0.258091 0
0.055848 0.253346 0
0.15967 0.272419 0
0.268711 0.2533 0
0.632013 0.229297 0
0.789197 0.224689 0
0.846403 0.253468 0
0.946761 0.270024 0
1 0.286778 0
0 0.371771 0
0.0367895 0.37409 0
0.141344 0.38439 0
0.283192 0.424262 0
0.431601 0.405509 0
0.818143 0.37882 0
0.978286 0.380438 0
1 0.415915 0
1 0.45153 0
0 0.521492 0
0.0314488 0.535134 0
0.151034 0.564324 0
0.29192 0.589334 0
0.452262 0.603418 0
0.633722 0.599573 0
0.951675 0.570169 0
1 0.562875 0
1 0.576181 0
0 0.692897 0
0.0459144 0.706432 0
0.1664 0.733181 0
0.309407 0.760967 0
0.467185 0.770306 0.00187686
0.62855 0.774319 0
0.807736 0.769741 0
1 0.753201 0
1 0.737682 0
0 0.871031 0.000183108
0.0872969 0.87866 0.00376898
0.200519 0.893172 0.0177157
0.340398 0.912184 0.030518
0.500465 0.922454 0.0367895
0.661067 0.923888 0.0358282
0.813123 0.922179 0.0246128
0.947829 0.92076 0.00747692
1 0.908278 0
0.0511788 1 0.0371099
0.15285 1 0.0535286
0.266255 1 0.0677195
0.39704 1 0.0747997
0.545342 1 0.0735637
0.695613 1 0.072343
0.839734 1 0.0816205
0.946868 1 0.043122
1 1 0.212848
0.000244144 0.00425727 0.0853132
0.104189 0 0.094667
0.197513 0 0.0897078
0.300816 0 0.0810712
0.431525 0 0.0691691
0.576455 0 0.0542458
0.721233 0 0.0395972
0.838758 0 0.0322576
0.906508 0 0.0305333
0 0.0905623 0.0811627
0.0813611 0.0912795 0.0780804
0.178927 0.0768139 0.0611582
0.272831 0.0704662 0.0610361
0.408835 0.0598764 0.0510872
0.552514 0.0452125 0.0372015
0.701473 0.0318456 0.0247501
0.828428 0.0257877 0.0187686
0.921126 0 0
0 0.18056 0.0708782
0.0753796 0.167819 0.0657206
0.166552 0.148287 0.0430304
0.327764 0.158404 0.0170291
0.460945 0.148211 0.0227054
0.595941 0.139895 0.0275425
0.740383 0.133272 0.0229953
0.860059 0.137255 0.026566
0.95787 0.142626 0.0233616
0 0.270909 0.050782
0.0595865 0.260929 0.0516213
0.14876 0.251743 0.0503243
0.265141 0.252476 0.0451057
0.57557 0.241764 0.0132601
0.667384 0.261448 0
0.812222 0.262959 0.00311284
0.919539 0.279484 0.0280613
1 0.296376 0.0416114
0 0.383566 0.031281
0.0436255 0.380011 0.038529
0.143938 0.38526 0.0441138
0.271397 0.405142 0.0513619
0.426902 0.40589 0.0483101
0.7935 0.385702 0.00411994
0.916197 0.4056 0.00976577
0.971481 0.443748 0
1 0.461524 0.0213474
0 0.531136 0.0249943
0.0413214 0.534569 0.0377661
0.151568 0.556848 0.0497597
0.294041 0.588891 0.0657054
0.455055 0.605539 0.0722362
0.633433 0.604791 0.0682689
0.948211 0.573495 0.00675975
1 0.576608 0.049546
1 0.612222 0.0258946
0 0.700069 0.038941
0.057496 0.70663 0.0540932
0.168444 0.728862 0.0662089
0.309102 0.756802 0.0810101
0.468818 0.771801 0.0867628
0.631907 0.7776 0.0859541
0.80798 0.774929 0.0788739
1 0.754833 0.00318914
1 0.747356 0.0603647
0.000762951 0.876722 0.0775311
0.095201 0.882109 0.0866712
0.203281 0.894621 0.0966354
0.338369 0.909819 0.108049
0.502556 0.9252 0.116381
0.660914 0.925383 0.115282
0.814313 0.924514 0.110262
0.947066 0.923018 0.102541
1 0.906233 0.00173953
0.047715 1 0.121614
0.057145 1 0.0432441
0.223987 1 0.0644388
0.374929 1 0.100252
0.541436 1 0.142901
0.693675 1 0.143175
0.837324 1 0.142794
0.945754 1 0.124697
1 1 0.241962
0 0.0108797 0.172412
0.102586 0.00170901 0.18407
0.199008 0 0.180575
0.306584 0 0.171405
0.406561 0 0.151369
0.54873 0 0.13962
0.701198 0 0.129503
0.827955 0 0.124819
0.89836 0 0.127382
0 0.0961929 0.133104
0.052018 0.0858015 0.130816
0.181949 0.0849928 0.165255
0.2869 0.0735332 0.153674
0.38967 0.0586099 0.136095
0.528206 0.0447852 0.124865
0.683955 0.0318151 0.11574
0.819211 0.0253758 0.111894
0.918547 0 0.0971847
0 0.166186 0.148959
0.0585946 0.14374 0.129137
0.153872 0.175616 0.15108
0.278904 0.154025 0.123919
0.393423 0.141588 0.114763
0.528603 0.135531 0.116182
0.686732 0.131624 0.114061
0.830152 0.133364 0.115465
0.947326 0.137926 0.122042
0 0.276143 0.139513
0.0638895 0.279225 0.142977
0.147601 0.24741 0.129702
0.303563 0.239994 0.0999161
0.476448 0.253208 0.0692607
0.626444 0.257542 0.0825666
0.760098 0.26331 0.11014
0.883391 0.279789 0.137224
0.994873 0.308064 0.161944
0 0.410056 0.123171
0.0505074 0.410132 0.130861
0.152346 0.399222 0.135637
0.263569 0.390265 0.135622
0.431022 0.389105 0.114961
0.758053 0.393515 0.103777
0.844205 0.432593 0.0847181
0.954055 0.451667 0.118425
1 0.473823 0.158465
0 0.554528 0.117983
0.0497139 0.558679 0.130236
0.159457 0.561471 0.14316
0.284993 0.571832 0.152605
0.452689 0.601038 0.165316
0.633661 0.606134 0.161273
0.936934 0.580438 0.123323
1 0.603006 0.128603
1 0.638132 0.11664
0 0.718715 0.131792
0.0652934 0.725841 0.145312
0.177569 0.732952 0.160327
0.305104 0.745052 0.17023
0.467948 0.769238 0.179217
0.633158 0.778607 0.180911
0.81033 0.77995 0.174578
1 0.758923 0.120027
1 0.761654 0.166415
0.00650034 0.889326 0.172503
0.102724 0.89453 0.179812
0.212985 0.902617 0.191287
0.340337 0.90959 0.199084
0.497459 0.920729 0.205768
0.663584 0.928496 0.207843
0.815381 0.926131 0.203296
0.94696 0.925307 0.196139
1 0.905928 0.10486
0.0527352 1 0.22002
0.0534676 1 0.180758
0.212207 1 0.189166
0.369024 1 0.209323
0.535973 1 0.22855
0.69189 1 0.230808
0.835706 1 0.227146
0.944656 1 0.214908
1 1 0.302861
0 0.0204013 0.270283
0.0991073 0.00360113 0.293233
0.18674 0 0.270909
0.299687 0 0.271931
0.42652 0 0.26186
0.538598 0 0.238163
0.676143 0 0.227756
0.811582 0 0.227024
0.887373 0 0.236057
0 0.107149 0.20441
0.0607919 0.0986343 0.230274
0.148531 0.0700389 0.222507
0.287465 0.073579 0.259632
0.401297 0.0592355 0.242084
0.52195 0.04477 0.223896
0.660731 0.0323644 0.214954
0.802426 0.0256046 0.214908
0.913542 0 0.21146
0 0.163912 0.233158
0.0274052 0.1617 0.210224
0.0991226 0.152331 0.18172
0.282399 0.170626 0.257313
0.399069 0.149645 0.23444
0.532128 0.136797 0.221942
0.674052 0.129061 0.216342
0.825925 0.132647 0.223758
0.945678 0.12639 0.236805
0 0.265171 0.237354
0.0514687 0.225711 0.202625
0.135546 0.250538 0.225177
0.25127 0.289067 0.249012
0.407553 0.261799 0.218799
0.569512 0.249058 0.196124
0.725643 0.259663 0.213397
0.869017 0.280446 0.240589
0.986938 0.312001 0.281453
0 0.386038 0.221118
0.0529488 0.412421 0.240482
0.162463 0.422721 0.251789
0.278325 0.39646 0.236667
0.486412 0.382422 0.202533
0.662501 0.40943 0.173098
0.829969 0.429847 0.182681
0.933913 0.452689 0.226886
1 0.484352 0.298253
0 0.564508 0.233356
0.0569467 0.578195 0.247532
0.173907 0.593851 0.263645
0.299657 0.58471 0.265187
0.434974 0.572595 0.260517
0.681254 0.59028 0.218433
0.930755 0.579416 0.207614
0.981949 0.620081 0.179706
1 0.645869 0.262364
0 0.740719 0.251713
0.0736858 0.749783 0.263722
0.187762 0.755718 0.276295
0.313222 0.755642 0.282734
0.453605 0.749218 0.282475
0.629526 0.769589 0.288579
0.827222 0.774655 0.26009
1 0.75903 0.228702
1 0.787167 0.252445
0.011429 0.900969 0.291752
0.11043 0.908965 0.298177
0.222827 0.918669 0.308766
0.352651 0.921767 0.316289
0.493843 0.918044 0.314488
0.655543 0.92253 0.316014
0.816831 0.926238 0.313848
0.947204 0.925078 0.300893
1 0.906676 0.224399
0.0553445 1 0.338415
0.0893416 1 0.317968
0.230167 1 0.327779
0.358862 1 0.32314
0.523903 1 0.330602
0.68893 1 0.340902
0.832227 1 0.333715
0.942168 1 0.325216
1 1 0.393149
0 0.0311437 0.38085
0.0913252 0.00471504 0.419654
0.189883 0 0.41062
0.267994 0 0.35494
0.43032 0 0.390982
0.569894 0 0.380667
0.677607 0 0.353262
0.803662 0 0.350851
0.882124 0 0.366629
0 0.111986 0.306828
0.0631571 0.103014 0.326497
0.164691 0.079942 0.395468
0.237888 0.0627604 0.318227
0.417258 0.0580148 0.377417
0.549187 0.042771 0.36141
0.661768 0.0305791 0.33817
0.798276 0.024094 0.339086
0.907225 0 0.351995
0 0.176944 0.255116
0.0157626 0.177432 0.274876
0.105501 0.167742 0.28069
0.225406 0.144366 0.32668
0.420752 0.15874 0.380667
0.550408 0.143694 0.362249
0.671122 0.131365 0.343679
0.825116 0.136309 0.357794
0.943633 0.119249 0.376944
0 0.264973 0.358083
0.0407721 0.255283 0.337301
0.0830549 0.247425 0.297749
0.182208 0.275624 0.304372
0.39913 0.296284 0.388357
0.566812 0.269001 0.364843
0.713436 0.260166 0.356664
0.864363 0.278065 0.379294
0.987228 0.305211 0.419791
0 0.393133 0.352331
0.0463264 0.367025 0.329915
0.133455 0.369192 0.333883
0.253651 0.411475 0.370596
0.392538 0.450797 0.391867
0.588205 0.429053 0.365591
0.771252 0.418738 0.337209
0.915785 0.439017 0.35758
1 0.486763 0.442115
0 0.511513 0.327581
0.0509804 0.541238 0.353094
0.17145 0.586664 0.392462
0.303944 0.602945 0.407233
0.459861 0.605142 0.404013
0.665949 0.576898 0.351583
0.851148 0.590982 0.309667
0.972564 0.6168 0.31284
1 0.652827 0.438697
0 0.734524 0.384115
0.0750286 0.747097 0.396765
0.191928 0.764248 0.413535
0.323781 0.776577 0.424735
0.469917 0.768215 0.420233
0.62472 0.751278 0.40647
0.877531 0.749569 0.329992
1 0.761837 0.333684
1 0.807492 0.37052
0.0122835 0.900664 0.427848
0.111513 0.910109 0.434333
0.226246 0.924239 0.447715
0.356909 0.931197 0.454887
0.50367 0.931502 0.449668
0.654566 0.920974 0.439094
0.813031 0.920668 0.433982
0.972381 0.917937 0.402838
1 0.906859 0.377981
0.0566567 1 0.478843
0.136751 1 0.477394
0.253895 1 0.48426
0.374197 1 0.479042
0.509712 1 0.46099
0.677134 1 0.463874
0.826215 1 0.462104
0.937713 1 0.457633
1 1 0.506279
0 0.0408637 0.507301
0.0830243 0.00701915 0.561257
0.185107 0.00077821 0.553597
0.295689 0 0.538033
0.367453 0 0.456565
0.570489 0 0.519585
0.71693 0 0.516777
0.799695 0 0.486336
0.874907 0 0.5037
0 0.115343 0.432425
0.0622721 0.10544 0.457603
0.160082 0.0784466 0.542596
0.272969 0.0691691 0.51014
0.339574 0.0505684 0.425681
0.558251 0.0404059 0.506813
0.70045 0.0279088 0.500237
0.793194 0.0210727 0.473518
0.899077 0 0.499886
0 0.192462 0.36202
0.0420386 0.192645 0.377401
0.118502 0.187152 0.423194
0.23241 0.149966 0.480949
0.348699 0.135195 0.440391
0.56968 0.148898 0.517372
0.710369 0.140139 0.508659
0.812329 0.132509 0.48893
0.937484 0.0992294 0.523018
0 0.267842 0.409262
0 0.267262 0.403922
0.05449 0.277943 0.398672
0.158206 0.255406 0.364782
0.371237 0.27396 0.514427
0.579019 0.291737 0.535988
0.732113 0.279362 0.526177
0.845335 0.270756 0.511696
0.984665 0.289189 0.56408
0 0.406012 0.504723
0.0363012 0.403494 0.497307
0.116426 0.38674 0.46685
0.154223 0.362356 0.407507
0.323705 0.454108 0.480354
0.561456 0.465202 0.549752
0.760952 0.43447 0.521187
0.897551 0.422873 0.517372
1 0.479286 0.590509
0 0.549569 0.495201
0.052842 0.531624 0.479912
0.14078 0.505852 0.458091
0.266361 0.572198 0.523217
0.429816 0.614557 0.557275
0.562829 0.63679 0.560678
0.761135 0.618372 0.534447
0.938964 0.604089 0.507347
1 0.655497 0.597803
0 0.677821 0.479835
0.0678111 0.698131 0.49865
0.182986 0.737041 0.534081
0.319127 0.770092 0.564675
0.468345 0.779217 0.572763
0.627787 0.783993 0.566873
0.830716 0.766796 0.513054
0.975311 0.782986 0.477546
1 0.80885 0.577157
0.0156405 0.895552 0.565133
0.111696 0.906798 0.573938
0.224079 0.919921 0.586999
0.354742 0.929381 0.597238
0.499687 0.934554 0.599588
0.654932 0.929412 0.587671
0.80531 0.92079 0.560525
0.972976 0.914214 0.527062
1 0.909072 0.550805
0.0596475 1 0.621836
0.0757458 1 0.608392
0.238041 1 0.626032
0.377203 1 0.630961
0.52462 1 0.624842
0.660548 1 0.600671
0.819425 1 0.602823
0.932464 1 0.599252
1 1 0.629099
0 0.0497902 0.63331
0.0729381 0.00981155 0.700923
0.178531 0.00497444 0.693278
0.295186 0 0.682185
0.417853 0 0.654017
0.49073 0 0.571694
0.713039 0 0.652155
0.830915 0 0.658503
0.877195 0 0.646571
0 0.118288 0.568658
0.0611124 0.108217 0.593744
0.153353 0.0771038 0.685466
0.275441 0.0700542 0.660655
0.392721 0.0554665 0.626963
0.466758 0.0356146 0.547829
0.703731 0.0261082 0.642191
0.828458 0.0238193 0.647807
0.890944 0 0.63917
0 0.205463 0.500038
0.0470893 0.202243 0.510796
0.120516 0.197192 0.557595
0.246784 0.163195 0.670954
0.370428 0.144076 0.604623
0.490394 0.128054 0.573968
0.721004 0.143374 0.657343
0.849714 0.146807 0.664088
0.923629 0.0504463 0.658503
0 0.285969 0.436957
0 0.28452 0.453025
0.0739452 0.29955 0.522103
0.181537 0.293645 0.525216
0.326589 0.246067 0.604501
0.528527 0.264332 0.629404
0.744106 0.28986 0.680827
0.877394 0.295552 0.688502
0.973358 0.23592 0.696864
0 0.399374 0.598596
0 0.4 0.591348
0.0612955 0.419257 0.576852
0.132326 0.4392 0.561471
0.257221 0.409644 0.519295
0.513146 0.450904 0.706874
0.755138 0.461219 0.699382
0.904479 0.455497 0.707713
1 0.443198 0.729015
0 0.576211 0.66157
0.0519722 0.582742 0.665675
0.15375 0.583734 0.661097
0.216968 0.557229 0.618921
0.279332 0.565545 0.595087
0.50425 0.648997 0.657221
0.724926 0.6421 0.713985
0.916976 0.60972 0.704326
1 0.643626 0.741497
0 0.729244 0.661845
0.0783551 0.72221 0.656092
0.173831 0.705211 0.641596
0.28574 0.726436 0.66392
0.429374 0.773236 0.710033
0.597391 0.788998 0.716472
0.726772 0.805081 0.716335
0.929763 0.777584 0.687663
1 0.810346 0.742901
0.0196078 0.870085 0.675898
0.10309 0.875776 0.679133
0.211231 0.893126 0.696605
0.347784 0.921447 0.729335
0.490791 0.931655 0.740856
0.643992 0.929625 0.737255
0.807157 0.920821 0.725368
0.967987 0.906874 0.687968
1 0.921874 0.691646
0.0681621 1 0.760876
0.0684977 1 0.750317
0.189258 1 0.761227
0.356939 1 0.771069
0.503655 1 0.762997
0.665064 1 0.754147
0.804196 1 0.735149
0.926711 1 0.736919
1 1 0.755276
0.000228885 0.0585489 0.756085
0.062211 0.0139467 0.817349
0.173129 0.00994888 0.809003
0.292332 0 0.798733
0.426657 0 0.781292
0.546563 0 0.748257
0.623972 0 0.691341
0.821988 0 0.755245
0.891707 0 0.767819
0 0.121477 0.704356
0.0598917 0.111727 0.726131
0.146807 0.0778363 0.804913
0.273548 0.0719463 0.785397
0.409308 0.058854 0.771008
0.525124 0.0420539 0.733562
0.611444 0.0223087 0.680232
0.822522 0.0226444 0.755199
0.910704 0 0.77232
0 0.212818 0.629618
0.0502174 0.209323 0.641367
0.127916 0.207065 0.668437
0.245151 0.168429 0.806149
0.395651 0.158175 0.774746
0.513664 0.136324 0.725139
0.635721 0.122621 0.704677
0.848997 0.148058 0.780743
0.951217 0.145892 0.806653
0 0.304219 0.560021
0.0199893 0.308431 0.574777
0.0982223 0.3205 0.630747
0.200092 0.318471 0.670329
0.351324 0.269703 0.776654
0.489097 0.246159 0.719631
0.683131 0.261952 0.752575
0.879866 0.300847 0.812161
0.992111 0.306493 0.844022
0 0.426337 0.63122
0 0.422629 0.625849
0.0165713 0.441367 0.636301
0.15288 0.461402 0.674952
0.265736 0.431235 0.648478
0.476387 0.39913 0.779492
0.717067 0.438758 0.809598
0.905364 0.466575 0.840787
1 0.468788 0.864179
0 0.583337 0.776089
0.0343175 0.591577 0.782132
0.109651 0.606149 0.776043
0.178363 0.624018 0.764416
0.239765 0.628244 0.735576
0.378882 0.591959 0.760678
0.720394 0.607279 0.839536
0.910201 0.633097 0.848051
1 0.635599 0.866972
0 0.755932 0.802029
0.0792248 0.760403 0.809369
0.18024 0.765988 0.815183
0.27837 0.746563 0.800946
0.34229 0.740948 0.782849
0.379767 0.770275 0.810666
0.593088 0.800412 0.838758
0.904326 0.799451 0.847074
1 0.797498 0.862318
0.0448005 0.906432 0.834073
0.122347 0.908812 0.836728
0.222675 0.912154 0.840589
0.330678 0.903685 0.833158
0.45449 0.920073 0.850919
0.576562 0.932021 0.863325
0.768612 0.926741 0.856123
0.901717 0.923156 0.846586
1 0.921538 0.851713
0.0820478 1 0.87718
0.0816815 1 0.871122
0.0830243 1 0.869551
0.243565 1 0.885801
0.426154 1 0.883619
0.609949 1 0.868635
0.800793 1 0.857221
0.919966 1 0.849271
1 1 0.857954
0 0.0650034 0.837079
0.0526589 0.0132753 0.892058
0.170809 0.00901808 0.882506
0.293568 0 0.870207
0.433524 0 0.852216
0.572808 0 0.830549
0.667124 0 0.788464
0.77377 0 0.770642
0.883131 0 0.815808
0 0.125643 0.808408
0.0193332 0.0829023 0.890913
0.153628 0.0753643 0.888441
0.279423 0.0631723 0.881651
0.424643 0.0403296 0.868727
0.573541 0.00944533 0.852979
0.685634 0 0.817365
0.766629 0 0.778897
0.898817 0 0.83122
0 0.219715 0.74609
0.000671397 0.202365 0.818082
0.143069 0.175616 0.887343
0.278508 0.170062 0.886473
0.429038 0.157504 0.880369
0.584543 0.138674 0.871672
0.719081 0.068452 0.853101
0.795605 0 0.810193
0.942962 0.108965 0.874266
0 0.324559 0.686488
0 0.323659 0.741161
0.00350958 0.311681 0.849805
0.279622 0.305074 0.89691
0.441169 0.299825 0.898543
0.605386 0.288289 0.897597
0.755322 0.252888 0.892714
0.846494 0.110216 0.864515
0.991821 0.28571 0.922225
0 0.453681 0.663386
0 0.447211 0.68043
0 0.451362 0.750851
0.0848707 0.477104 0.883894
0.449958 0.471809 0.915663
0.62388 0.464912 0.919081
0.784482 0.451072 0.921584
0.900694 0.357671 0.91902
1 0.4645 0.950027
0 0.602426 0.806149
0 0.600153 0.803998
0 0.609766 0.810666
0 0.628977 0.824308
0.231296 0.673396 0.917327
0.628687 0.642939 0.929244
0.791272 0.630228 0.930465
0.918471 0.584604 0.936797
1 0.64152 0.955413
0 0.761074 0.871351
0 0.759869 0.88188
0.160449 0.788403 0.913893
0.297871 0.802411 0.92723
0.371069 0.820066 0.932082
0.4439 0.842435 0.936034
0.792615 0.803906 0.93402
0.92488 0.791821 0.938994
1 0.802945 0.949615
0.0413214 0.919814 0.918059
0.115373 0.92549 0.929427
0.229801 0.937545 0.944274
0.35227 0.944198 0.952697
0.492805 0.943542 0.953231
0.64712 0.936736 0.946914
0.788556 0.930068 0.938338
0.917678 0.921584 0.931777
1 0.918318 0.93344
0.0950179 1 0.960296
0.112047 1 0.965026
0.242573 1 0.97734
0.368856 1 0.978195
0.510002 1 0.969268
0.658137 1 0.955505
0.801358 1 0.940917
0.918929 1 0.932876
1 1 0.933074
