70 CGC LUTs/Look LUTs/Revenant.cube
#Created by: Denver Riddle
#Copyright: (C) Copyright Color Grading Central LLC
#LUT Size
LUT_3D_SIZE 9
0 0.00704967 0.0108949
0.0806897 0.00564584 0.0105898
0.224735 0 0.00921645
0.352453 0 0.00842298
0.470802 0 0.00575265
0.597971 0 0.00341802
0.737316 0 0.000793469
0.90074 0 0
1 0 0
0.0312505 0.0570687 0.0345006
0.0630961 0.0595712 0.0407874
0.167514 0.0545357 0.0234073
0.29099 0.0252842 0.0151522
0.415869 0.00077821 0.0126497
0.553399 0 0.0078584
0.706859 0 0.00352483
0.880751 0 0
1 0 0
0.0837262 0.112566 0.0732433
0.0991684 0.111498 0.0759594
0.129091 0.116884 0.0814832
0.221897 0.115358 0.0527199
0.338277 0.096376 0.037644
0.487556 0.0470741 0.0285801
0.661112 0 0.0209049
0.856229 0 0.0113985
1 0 0.00799573
0.138354 0.169726 0.115404
0.147402 0.170138 0.117708
0.171405 0.173663 0.126833
0.211002 0.18349 0.124132
0.307103 0.183948 0.0926986
0.454261 0.169116 0.0742504
0.646845 0.135897 0.0652934
0.876204 0.0569009 0.0570687
1 0.0259861 0.055375
0.218753 0.255894 0.178653
0.223239 0.255238 0.179889
0.247028 0.262165 0.188937
0.286961 0.275792 0.206332
0.355062 0.298009 0.19443
0.505272 0.30927 0.16437
0.696269 0.309682 0.143389
0.911772 0.307729 0.134676
1 0.340795 0.130846
0.371588 0.423056 0.299779
0.375082 0.422004 0.300038
0.397971 0.425788 0.308248
0.441459 0.442206 0.328893
0.498695 0.468254 0.35198
0.612833 0.496788 0.314427
0.770092 0.515145 0.278187
0.93164 0.514321 0.240269
1 0.51313 0.205997
0.552316 0.607217 0.451179
0.556237 0.607217 0.454246
0.575906 0.614771 0.462623
0.610132 0.622019 0.474403
0.648219 0.632563 0.492256
0.698375 0.646754 0.487129
0.795438 0.654536 0.41915
0.92018 0.651514 0.346593
1 0.634195 0.264393
0.6822 0.744366 0.553948
0.68484 0.743664 0.556786
0.695232 0.742367 0.559182
0.71487 0.742672 0.566445
0.743893 0.747158 0.579446
0.775296 0.755718 0.592447
0.813611 0.76582 0.585534
0.908583 0.767712 0.459556
1 0.749203 0.286641
0.835264 0.844633 0.496574
0.840146 0.845563 0.49485
0.854627 0.850614 0.489036
0.870695 0.85594 0.488075
0.888579 0.862058 0.496193
0.905898 0.866682 0.517678
0.922545 0.87628 0.540887
0.958923 0.883177 0.499519
1 0.886015 0.342535
0 0.010071 0.0395514
0.0243839 0.0135653 0.0972763
0.132525 0.016434 0.117082
0.252338 0.00607309 0.105531
0.378805 0 0.0921798
0.530404 0 0.0751812
0.689876 0 0.0609445
0.871641 0 0.0500801
1 0 0.0468757
0.00929274 0.0700389 0.0862135
0.0279393 0.0748913 0.0922255
0.12871 0.0653544 0.085069
0.247547 0.047303 0.0792096
0.368551 0.0102846 0.0689097
0.509514 0 0.0582895
0.66453 0 0.0514992
0.852781 0 0.041886
1 0 0.0386969
0.00672923 0.138689 0.0913252
0.0624857 0.126299 0.0950027
0.11986 0.124041 0.108064
0.198093 0.125383 0.0906081
0.316075 0.110979 0.0754101
0.459449 0.0750134 0.0647135
0.631891 0.00570687 0.0564126
0.835523 0 0.0483406
1 0 0.0487984
0.122148 0.179232 0.132982
0.13254 0.177722 0.134417
0.16556 0.181231 0.142931
0.199466 0.189517 0.153765
0.290486 0.193545 0.122667
0.442863 0.179919 0.102922
0.640146 0.152667 0.0945907
0.866133 0.0952926 0.0884871
1 0.0735027 0.0859846
0.209979 0.265064 0.19321
0.21619 0.264698 0.193576
0.242679 0.270146 0.203174
0.285954 0.285435 0.222049
0.348348 0.308415 0.221881
0.499397 0.319539 0.186831
0.691585 0.323293 0.168963
0.908003 0.321553 0.160174
1 0.352361 0.153536
0.366522 0.43003 0.312215
0.369619 0.428458 0.310689
0.393042 0.431769 0.321889
0.441001 0.449241 0.343343
0.49929 0.475822 0.373419
0.605158 0.507408 0.343114
0.764767 0.518853 0.300542
0.927199 0.520607 0.261814
1 0.516548 0.226535
0.548745 0.61091 0.461769
0.553353 0.614893 0.46276
0.572244 0.618112 0.470558
0.606378 0.625101 0.48481
0.646372 0.634882 0.499519
0.694331 0.649409 0.501869
0.788464 0.657908 0.435676
0.915465 0.655604 0.361959
1 0.636194 0.281666
0.678584 0.744518 0.560754
0.680079 0.743236 0.562829
0.691096 0.74287 0.565789
0.71339 0.745647 0.57322
0.742596 0.749218 0.586084
0.772824 0.756985 0.600122
0.810117 0.766384 0.597665
0.901671 0.768246 0.478325
1 0.749203 0.306081
0.823041 0.836454 0.480934
0.828962 0.838285 0.473976
0.857389 0.851469 0.486717
0.87306 0.857084 0.485496
0.88986 0.862608 0.494575
0.905318 0.866423 0.518456
0.919646 0.874449 0.545327
0.952255 0.880873 0.518334
1 0.878752 0.320348
0 0.0142519 0.0856489
0.0139315 0.0207218 0.137804
0.0796216 0.0293278 0.192447
0.174594 0.0293889 0.21854
0.266361 0.0299229 0.189532
0.399817 0.00177005 0.188357
0.568093 0 0.181186
0.775921 0 0.17464
0.961547 0 0.171328
0.00521859 0.0772259 0.115434
0.0196841 0.0800793 0.132494
0.0752422 0.0791638 0.169924
0.180636 0.0664988 0.195514
0.275471 0.0593271 0.17319
0.410773 0.0146792 0.174578
0.573556 0 0.167163
0.783459 0 0.160815
0.982467 0 0.160418
0.0361639 0.13106 0.150668
0.046952 0.133242 0.15288
0.0738994 0.138735 0.162051
0.174411 0.13312 0.151659
0.284199 0.122728 0.153429
0.425116 0.0972763 0.150057
0.601312 0.0276951 0.14728
0.812726 0 0.146456
1 0 0.158663
0.00148013 0.212421 0.174746
0 0.21297 0.168856
0.0576181 0.209995 0.171145
0.179187 0.203372 0.184741
0.269673 0.206607 0.175753
0.426413 0.200092 0.163989
0.625605 0.18265 0.159533
0.851453 0.143374 0.162753
1 0.1243 0.174884
0.181292 0.287388 0.228595
0.193423 0.285924 0.228733
0.228641 0.292393 0.239857
0.280461 0.304799 0.256825
0.338399 0.32665 0.286915
0.478859 0.345327 0.25185
0.680201 0.347494 0.238437
0.899016 0.350134 0.23061
1 0.377203 0.227405
0.348821 0.451545 0.352865
0.35256 0.450462 0.352316
0.383642 0.457786 0.360311
0.436011 0.471641 0.38262
0.49984 0.499428 0.417792
0.58294 0.530312 0.42121
0.745708 0.540673 0.373175
0.915404 0.533867 0.333776
1 0.528283 0.288289
0.533455 0.626596 0.49276
0.538262 0.627253 0.494209
0.560204 0.630732 0.501198
0.594598 0.637079 0.514382
0.638697 0.646387 0.530022
0.682795 0.657633 0.546975
0.768093 0.669078 0.496498
0.903593 0.664714 0.419684
1 0.642924 0.339834
0.666453 0.751278 0.584482
0.665995 0.749905 0.585214
0.679194 0.750088 0.588266
0.700572 0.750713 0.596094
0.732372 0.755718 0.609796
0.76611 0.761608 0.623804
0.802625 0.771038 0.636835
0.890196 0.776272 0.532937
0.999939 0.752956 0.364996
0.774197 0.854276 0.605676
0.778607 0.856504 0.604974
0.789212 0.859403 0.603937
0.814206 0.861616 0.600061
0.843244 0.862715 0.587915
0.903441 0.86952 0.520928
0.915862 0.873564 0.5552
0.940047 0.879881 0.56817
1 0.874464 0.331701
0 0.0236362 0.135821
0.010605 0.0281071 0.173434
0.0594034 0.0379492 0.22504
0.128008 0.0462806 0.265126
0.213077 0.0484016 0.29192
0.308278 0.0480964 0.269947
0.455406 0.00581369 0.270024
0.66923 0 0.287297
0.88719 0 0.295705
0.00166323 0.082887 0.149447
0.0153658 0.0835279 0.165805
0.0580911 0.0856641 0.202045
0.123384 0.0840009 0.244938
0.211963 0.0783246 0.278538
0.313008 0.0757305 0.257176
0.471763 0.0268864 0.263813
0.679698 0 0.27689
0.915251 0 0.291234
0.0287327 0.138079 0.173404
0.0387121 0.140261 0.179644
0.0652934 0.142824 0.197192
0.125429 0.143648 0.229999
0.232868 0.133806 0.26154
0.35227 0.128649 0.24683
0.521462 0.0943618 0.260105
0.733776 0.00828565 0.27602
0.98056 0 0.300069
0.0856641 0.197925 0.219837
0.0927291 0.199207 0.22237
0.112398 0.206088 0.230091
0.143023 0.217105 0.242435
0.259403 0.218357 0.244617
0.410391 0.215961 0.256199
0.60824 0.204074 0.272038
0.837247 0.169421 0.287251
0.999924 0.150332 0.310369
0.0556344 0.321111 0.295903
0.038529 0.32166 0.292226
0.0184634 0.338598 0.289769
0.135805 0.351888 0.294667
0.320668 0.352361 0.32491
0.469001 0.367849 0.325246
0.670909 0.374502 0.320012
0.891676 0.377539 0.324498
1 0.393118 0.343999
0.30695 0.481636 0.394186
0.320775 0.476967 0.394095
0.364508 0.481102 0.40618
0.421134 0.495979 0.428916
0.496269 0.52015 0.460929
0.570031 0.550393 0.494301
0.728252 0.560098 0.447456
0.902235 0.549081 0.41268
1 0.539483 0.367941
0.51397 0.642878 0.529885
0.518517 0.646281 0.53286
0.540124 0.646448 0.536965
0.577142 0.651652 0.54641
0.626398 0.657938 0.561273
0.676997 0.669139 0.583764
0.74316 0.681392 0.564355
0.890944 0.673869 0.4869
1 0.648951 0.404334
0.646357 0.759182 0.614633
0.648219 0.757992 0.613794
0.66009 0.757244 0.616754
0.685695 0.758923 0.62443
0.72108 0.763622 0.63592
0.758328 0.76936 0.652003
0.795224 0.775769 0.66949
0.870756 0.780484 0.595956
0.99968 0.756756 0.435554
0.750546 0.863355 0.660197
0.753628 0.865812 0.661006
0.766155 0.868132 0.665705
0.787671 0.873884 0.670359
0.815702 0.878416 0.67837
0.848493 0.880034 0.685374
0.884962 0.878279 0.680034
0.928176 0.878447 0.611887
0.987976 0.879667 0.494835
0 0.0323033 0.181079
0.00828565 0.0374609 0.208835
0.0468452 0.046479 0.255344
0.104585 0.0560616 0.299916
0.172671 0.0638285 0.336278
0.264332 0.0648051 0.372869
0.38323 0.0592966 0.368078
0.565332 0 0.372564
0.794644 0 0.412787
0.00149538 0.088365 0.183551
0.0131838 0.0870832 0.197452
0.0497292 0.0890516 0.231434
0.102892 0.0912947 0.275792
0.172229 0.0932479 0.321096
0.264652 0.0884108 0.361242
0.38999 0.0839094 0.358572
0.579416 0.0224308 0.370779
0.83389 0 0.415564
0.0199283 0.141741 0.200504
0.030457 0.143908 0.206729
0.060029 0.148379 0.227909
0.108507 0.151049 0.263432
0.17734 0.151629 0.310826
0.289204 0.145296 0.361288
0.430976 0.14168 0.355642
0.651606 0.098497 0.390829
0.926345 0 0.441581
0.0820325 0.205402 0.243381
0.0872511 0.206622 0.247135
0.105806 0.214618 0.259648
0.135576 0.225193 0.284367
0.206317 0.234287 0.330922
0.362097 0.232425 0.389868
0.543572 0.238834 0.393301
0.772473 0.215198 0.434882
0.995224 0.193698 0.470222
0.175692 0.317922 0.345663
0.178302 0.31577 0.345296
0.19855 0.32665 0.356756
0.233356 0.347646 0.378836
0.281102 0.374182 0.405829
0.464546 0.390021 0.416068
0.659159 0.393927 0.444999
0.876341 0.394873 0.472358
1 0.40528 0.499489
0.250355 0.502953 0.483024
0.237537 0.503426 0.478828
0.219699 0.519997 0.483207
0.214527 0.552346 0.487434
0.373617 0.567956 0.498299
0.563378 0.566842 0.535073
0.709056 0.57351 0.521401
0.889342 0.560693 0.492103
1 0.544549 0.474983
0.423239 0.671824 0.565011
0.440909 0.671717 0.565316
0.496223 0.664393 0.57348
0.555184 0.664912 0.584237
0.606302 0.670787 0.596185
0.667948 0.680507 0.614878
0.723812 0.691722 0.625559
0.877134 0.682429 0.554192
1 0.656489 0.474418
0.626368 0.766598 0.645838
0.62858 0.765637 0.645533
0.640696 0.765423 0.648554
0.667933 0.767132 0.653986
0.702785 0.772305 0.663462
0.746441 0.774838 0.676722
0.787778 0.780011 0.693553
0.854948 0.78819 0.654719
0.998962 0.760235 0.502907
0.732387 0.871122 0.700542
0.73727 0.874388 0.702998
0.747585 0.876829 0.708202
0.768505 0.88217 0.713634
0.795804 0.882109 0.721355
0.830961 0.885893 0.73077
0.866026 0.886046 0.741756
0.901442 0.883833 0.752468
0.972244 0.882124 0.620081
0 0.0436255 0.22707
0.00531014 0.0472725 0.248035
0.0361791 0.054902 0.28867
0.0869154 0.0648966 0.33228
0.147631 0.0739605 0.377371
0.226413 0.0832074 0.423713
0.339529 0.0823987 0.468864
0.50103 0.0665293 0.481331
0.712489 0 0.506584
0.00030518 0.091722 0.221012
0.0103151 0.0909743 0.234638
0.0413825 0.0929427 0.266056
0.090486 0.0983749 0.310521
0.147921 0.10103 0.359792
0.228092 0.106416 0.411826
0.343954 0.104616 0.46302
0.506905 0.0907607 0.477638
0.75552 0 0.514336
0.01561 0.148898 0.235279
0.0229953 0.147311 0.244602
0.0549172 0.152026 0.265675
0.0992599 0.156817 0.300496
0.157412 0.161624 0.350072
0.24358 0.164111 0.413077
0.377386 0.161578 0.475303
0.565469 0.160754 0.49868
0.852796 0.0775158 0.556283
0.0727703 0.215671 0.279515
0.0782177 0.216266 0.282765
0.0975814 0.222385 0.297993
0.132113 0.233646 0.328603
0.190585 0.248051 0.380392
0.295521 0.26128 0.454841
0.470451 0.264637 0.532113
0.672404 0.27628 0.543114
0.950088 0.242145 0.609506
0.176501 0.336919 0.384009
0.180926 0.336904 0.384115
0.197421 0.344244 0.395254
0.228428 0.365728 0.420798
0.282887 0.391959 0.463096
0.394797 0.414038 0.528557
0.602014 0.418463 0.594919
0.819898 0.433249 0.613108
0.996963 0.422705 0.652842
0.348333 0.509163 0.528862
0.348058 0.505623 0.529381
0.369863 0.515892 0.539452
0.408865 0.535927 0.559777
0.462562 0.563012 0.586954
0.51989 0.588678 0.615747
0.692821 0.588113 0.613428
0.870787 0.571908 0.622217
0.999786 0.546899 0.626413
0.449454 0.672541 0.647517
0.448142 0.675303 0.646906
0.447303 0.681559 0.649042
0.435294 0.691966 0.649485
0.441901 0.709499 0.640726
0.584161 0.706462 0.643366
0.710781 0.70106 0.667338
0.865125 0.69041 0.624292
1 0.657313 0.572427
0.573831 0.777874 0.679911
0.577508 0.777447 0.679332
0.609705 0.77438 0.682307
0.652461 0.773159 0.687877
0.68719 0.777935 0.692058
0.728084 0.783215 0.701244
0.780209 0.788083 0.713619
0.839124 0.791974 0.705608
0.997681 0.763043 0.569986
0.720562 0.876585 0.733059
0.726055 0.878996 0.735134
0.736248 0.884916 0.740475
0.756832 0.886275 0.745159
0.783307 0.889235 0.752102
0.817426 0.889143 0.759793
0.853056 0.889097 0.76817
0.889952 0.885328 0.780743
0.956558 0.882017 0.721386
0 0.0552682 0.277607
0 0.0575418 0.293965
0.0212406 0.063447 0.32958
0.0679484 0.0742809 0.372808
0.123537 0.0852674 0.419104
0.194858 0.0957809 0.470298
0.298878 0.10605 0.530755
0.46424 0.0938125 0.597223
0.669352 0.0575113 0.628046
0 0.0964065 0.267353
0.00466926 0.0974289 0.278737
0.0286564 0.0996872 0.308598
0.0744335 0.101915 0.349233
0.127749 0.11162 0.401663
0.19678 0.117784 0.460014
0.301305 0.124407 0.522499
0.470893 0.11487 0.593851
0.694621 0.0915847 0.629023
0.0077821 0.155917 0.281453
0.0175326 0.154452 0.286961
0.0469215 0.156573 0.307927
0.0890669 0.162936 0.344961
0.143969 0.170565 0.396811
0.217502 0.176852 0.460838
0.334859 0.184176 0.53724
0.529534 0.185 0.62414
0.775235 0.179019 0.655665
0.0604257 0.22565 0.327428
0.0682231 0.226749 0.32987
0.0899977 0.233448 0.349325
0.129427 0.243488 0.384344
0.185992 0.260792 0.436103
0.277394 0.280339 0.508675
0.420996 0.295048 0.593637
0.623148 0.302251 0.67834
0.877974 0.311711 0.704356
0.170565 0.359167 0.436179
0.172198 0.358144 0.437354
0.191546 0.365637 0.451698
0.226856 0.383673 0.481727
0.288808 0.410376 0.524758
0.384909 0.436377 0.586267
0.527611 0.457053 0.66865
0.748363 0.46479 0.735485
0.960082 0.461189 0.748791
0.354498 0.531029 0.570611
0.355673 0.528527 0.57174
0.377005 0.538674 0.582605
0.413138 0.559091 0.605875
0.460136 0.582193 0.633677
0.517479 0.601053 0.668315
0.618784 0.611063 0.711543
0.811124 0.594659 0.736538
0.990417 0.563897 0.749828
0.521553 0.671687 0.679927
0.52398 0.673442 0.682734
0.53402 0.673365 0.684642
0.554879 0.680262 0.690806
0.588708 0.690562 0.700008
0.626841 0.702602 0.711681
0.674388 0.715404 0.724208
0.849821 0.696361 0.718517
0.999222 0.658198 0.712825
0.515969 0.786267 0.734203
0.514626 0.785855 0.734279
0.515526 0.790372 0.734615
0.514809 0.798032 0.733623
0.523278 0.807599 0.728466
0.637263 0.80322 0.725444
0.764767 0.792248 0.737301
0.823438 0.795621 0.748074
0.996185 0.76527 0.641291
0.736919 0.876844 0.772854
0.742565 0.879957 0.77818
0.748623 0.885725 0.779995
0.76083 0.890196 0.780484
0.778103 0.892042 0.782345
0.80592 0.894194 0.784726
0.839933 0.890562 0.789334
0.878721 0.885039 0.797803
0.945006 0.883665 0.760739
0 0.063859 0.355962
0 0.0659648 0.369436
0 0.0729992 0.401083
0.0181735 0.0822156 0.439948
0.0821241 0.0964981 0.487541
0.15288 0.111147 0.541939
0.246998 0.125566 0.608133
0.400824 0.13611 0.692714
0.638422 0.113741 0.774929
0 0.102388 0.341588
0 0.101579 0.351278
0.000503548 0.103624 0.379828
0.0350195 0.1093 0.418982
0.0928206 0.119356 0.467048
0.161791 0.132509 0.528588
0.252888 0.14551 0.599145
0.413855 0.155673 0.689464
0.671397 0.137606 0.777371
0 0.162966 0.354116
0.000427253 0.161578 0.358099
0.0182498 0.164996 0.381048
0.0660105 0.171344 0.418784
0.120546 0.18056 0.467521
0.190585 0.193133 0.532326
0.296834 0.209323 0.616434
0.474723 0.228031 0.715007
0.752987 0.217456 0.796262
0.028748 0.242786 0.408911
0.0380255 0.242756 0.411566
0.0697032 0.248295 0.430716
0.116823 0.260624 0.46598
0.179477 0.280385 0.518914
0.263142 0.302602 0.587289
0.387579 0.324971 0.670283
0.5635 0.347768 0.75285
0.841306 0.351186 0.822248
0.152895 0.389639 0.523064
0.154955 0.385275 0.523445
0.178363 0.391424 0.536934
0.221485 0.409522 0.566155
0.288762 0.43357 0.609796
0.381476 0.463386 0.667948
0.503761 0.491981 0.732219
0.678706 0.508064 0.795575
0.90074 0.496529 0.838285
0.345602 0.560891 0.64358
0.350637 0.559304 0.645289
0.370184 0.570275 0.657008
0.405982 0.586236 0.677562
0.455665 0.604898 0.704753
0.514702 0.619486 0.731975
0.594629 0.629709 0.762341
0.731655 0.626993 0.804654
0.924575 0.60441 0.834867
0.513817 0.690288 0.722484
0.515908 0.688975 0.721462
0.526085 0.691646 0.724346
0.545419 0.695171 0.731151
0.575357 0.705135 0.741543
0.613169 0.714885 0.755138
0.6654 0.724529 0.773556
0.77322 0.719814 0.809415
0.966888 0.685908 0.826978
0.646189 0.774411 0.767575
0.646632 0.774136 0.767346
0.655558 0.775906 0.768109
0.673091 0.780728 0.77348
0.695247 0.786404 0.778866
0.720989 0.791913 0.78407
0.752911 0.799985 0.792142
0.795804 0.806287 0.799161
0.992355 0.765332 0.786694
0.613138 0.899748 0.806241
0.611582 0.903471 0.807446
0.635111 0.905928 0.811948
0.692851 0.905516 0.815488
0.758587 0.899062 0.820798
0.787625 0.89865 0.823316
0.826078 0.893294 0.819638
0.864744 0.887724 0.817273
0.936477 0.882872 0.805661
0 0.0651102 0.447059
0 0.067628 0.461692
0 0.0736248 0.494118
0 0.0845808 0.536645
0 0.099443 0.586435
0.0648966 0.118547 0.644663
0.167773 0.144701 0.713237
0.322637 0.171511 0.793469
0.54902 0.188235 0.862745
0 0.102785 0.440925
0 0.104173 0.452628
0 0.106432 0.482826
0 0.11281 0.528588
0 0.126589 0.581079
0.0773938 0.144305 0.644572
0.177218 0.164965 0.716594
0.336873 0.196353 0.797665
0.577325 0.218143 0.868254
0 0.169879 0.469261
0 0.168338 0.478126
0 0.171908 0.503441
0 0.179187 0.545922
0.0293126 0.191363 0.598306
0.125811 0.209674 0.669535
0.240986 0.242069 0.747082
0.406943 0.277638 0.820127
0.653239 0.300938 0.882673
0 0.264271 0.556283
0 0.263233 0.559243
0 0.269383 0.583093
0.024445 0.286442 0.625971
0.126741 0.309361 0.680812
0.22707 0.339712 0.742565
0.35079 0.373648 0.793652
0.504616 0.40853 0.842588
0.749813 0.435691 0.894163
0.0454871 0.430167 0.689662
0.0567483 0.428717 0.690471
0.106981 0.432227 0.706371
0.18088 0.450446 0.730938
0.271565 0.474998 0.760678
0.374029 0.506462 0.797421
0.484627 0.538537 0.834195
0.615137 0.558434 0.865934
0.809079 0.556786 0.900252
0.302953 0.603082 0.779034
0.309453 0.604883 0.778012
0.333242 0.610452 0.786648
0.373312 0.621851 0.798459
0.427543 0.632593 0.812284
0.492592 0.643641 0.827329
0.568887 0.656443 0.84535
0.675074 0.663981 0.867231
0.839872 0.651743 0.900465
0.457588 0.717647 0.814557
0.46038 0.716335 0.813336
0.471763 0.718486 0.815167
0.495659 0.721386 0.820859
0.53225 0.726452 0.828367
0.576867 0.732311 0.839857
0.63679 0.740414 0.853788
0.724071 0.743435 0.8757
0.873915 0.728817 0.909163
0.595407 0.792615 0.830274
0.598688 0.792935 0.830671
0.606012 0.794995 0.832517
0.622446 0.797498 0.838895
0.643183 0.802853 0.845319
0.670863 0.807782 0.854429
0.709941 0.815335 0.862211
0.770474 0.817319 0.875166
0.902373 0.800336 0.90573
0.773999 0.890349 0.870375
0.778561 0.893004 0.873396
0.78822 0.898039 0.87451
0.798047 0.896925 0.877317
0.813443 0.899809 0.877317
0.823865 0.898238 0.875608
0.83714 0.893706 0.871046
0.865522 0.889693 0.866224
0.911086 0.888502 0.87097
