70 CGC LUTs/Look LUTs/Revenant.cube
#Created by: Denver Riddle
#Copyright: (C) Copyright Color Grading Central LLC
#LUT Size
LUT_3D_SIZE 5
0 0.00704967 0.0108949
0.224735 0 0.00921645
0.470802 0 0.00575265
0.737316 0 0.000793469
1 0 0
0.0837262 0.112566 0.0732433
0.129091 0.116884 0.0814832
0.338277 0.096376 0.037644
0.661112 0 0.0209049
1 0 0.00799573
0.218753 0.255894 0.178653
0.247028 0.262165 0.188937
0.355062 0.298009 0.19443
0.696269 0.309682 0.143389
1 0.340795 0.130846
0.552316 0.607217 0.451179
0.575906 0.614771 0.462623
0.648219 0.632563 0.492256
0.795438 0.654536 0.41915
1 0.634195 0.264393
0.835264 0.844633 0.496574
0.854627 0.850614 0.489036
0.888579 0.862058 0.496193
0.922545 0.87628 0.540887
1 0.886015 0.342535
0 0.0142519 0.0856489
0.0796216 0.0293278 0.192447
0.266361 0.0299229 0.189532
0.568093 0 0.181186
0.961547 0 0.171328
0.0361639 0.13106 0.150668
0.0738994 0.138735 0.162051
0.284199 0.122728 0.153429
0.601312 0.0276951 0.14728
1 0 0.158663
0.181292 0.287388 0.228595
0.228641 0.292393 0.239857
0.338399 0.32665 0.286915
0.680201 0.347494 0.238437
1 0.377203 0.227405
0.533455 0.626596 0.49276
0.560204 0.630732 0.501198
0.638697 0.646387 0.530022
0.768093 0.669078 0.496498
1 0.642924 0.339834
0.774197 0.854276 0.605676
0.789212 0.859403 0.603937
0.843244 0.862715 0.587915
0.915862 0.873564 0.5552
1 0.874464 0.331701
0 0.0323033 0.181079
0.0468452 0.046479 0.255344
0.172671 0.0638285 0.336278
0.38323 0.0592966 0.368078
0.794644 0 0.412787
0.0199283 0.141741 0.200504
0.060029 0.148379 0.227909
0.17734 0.151629 0.310826
0.430976 0.14168 0.355642
0.926345 0 0.441581
0.175692 0.317922 0.345663
0.19855 0.32665 0.356756
0.281102 0.374182 0.405829
0.659159 0.393927 0.444999
1 0.40528 0.499489
0.423239 0.671824 0.565011
0.496223 0.664393 0.57348
0.606302 0.670787 0.596185
0.723812 0.691722 0.625559
1 0.656489 0.474418
0.732387 0.871122 0.700542
0.747585 0.876829 0.708202
0.795804 0.882109 0.721355
0.866026 0.886046 0.741756
0.972244 0.882124 0.620081
0 0.0552682 0.277607
0.0212406 0.063447 0.32958
0.123537 0.0852674 0.419104
0.298878 0.10605 0.530755
0.669352 0.0575113 0.628046
0.0077821 0.155917 0.281453
0.0469215 0.156573 0.307927
0.143969 0.170565 0.396811
0.334859 0.184176 0.53724
0.775235 0.179019 0.655665
0.170565 0.359167 0.436179
0.191546 0.365637 0.451698
0.288808 0.410376 0.524758
0.527611 0.457053 0.66865
0.960082 0.461189 0.748791
0.521553 0.671687 0.679927
0.53402 0.673365 0.684642
0.588708 0.690562 0.700008
0.674388 0.715404 0.724208
0.999222 0.658198 0.712825
0.736919 0.876844 0.772854
0.748623 0.885725 0.779995
0.778103 0.892042 0.782345
0.839933 0.890562 0.789334
0.945006 0.883665 0.760739
0 0.0651102 0.447059
0 0.0736248 0.494118
0 0.099443 0.586435
0.167773 0.144701 0.713237
0.54902 0.188235 0.862745
0 0.169879 0.469261
0 0.171908 0.503441
0.0293126 0.191363 0.598306
0.240986 0.242069 0.747082
0.653239 0.300938 0.882673
0.0454871 0.430167 0.689662
0.106981 0.432227 0.706371
0.271565 0.474998 0.760678
0.484627 0.538537 0.834195
0.809079 0.556786 0.900252
0.457588 0.717647 0.814557
0.471763 0.718486 0.815167
0.53225 0.726452 0.828367
0.63679 0.740414 0.853788
0.873915 0.728817 0.909163
0.773999 0.890349 0.870375
0.78822 0.898039 0.87451
0.813443 0.899809 0.877317
0.83714 0.893706 0.871046
0.911086 0.888502 0.87097
