70 CGC LUTs/Look LUTs/Revenant.cube
#Created by: Denver Riddle
#Copyright: (C) Copyright Color Grading Central LLC
#LUT Size
LUT_3D_SIZE 33
0 0.00704967 0.0108949
0.00662242 0.00677501 0.0110781
0.0163424 0.00698863 0.0105745
0.0453193 0.00650034 0.0102998
0.0806897 0.00564584 0.0105898
0.115831 0.00299077 0.0105898
0.151644 0.000579843 0.00987259
0.189029 0 0.00943008
0.224735 0 0.00921645
0.258549 0 0.00906386
0.290761 0 0.00885023
0.322118 0 0.00863661
0.352453 0 0.00842298
0.381704 0 0.00817884
0.410437 0 0.00749218
0.440146 0 0.00634775
0.470802 0 0.00575265
0.501839 0 0.00564584
0.533333 0 0.00553903
0.565225 0 0.00486763
0.597971 0 0.00341802
0.630396 0 0.00218204
0.665797 0 0.00120546
0.701793 0 0.00108339
0.737316 0 0.000793469
0.775357 0 0.00015259
0.815351 0 0
0.857649 0 0
0.90074 0 0
0.945693 0 0
0.985656 0 0
1 0 0
1 0 0
0.00108339 0.0184939 0.0133669
0.00733959 0.0168002 0.0154269
0.0174411 0.0159304 0.0157778
0.042771 0.0153506 0.0133211
0.0766155 0.0148318 0.0121767
0.111574 0.0117647 0.0118563
0.145357 0.00889601 0.0115358
0.180438 0.00639353 0.0113069
0.215244 0.00289921 0.0109865
0.248554 0.000549325 0.00993362
0.280537 0 0.00918593
0.311803 0 0.0089723
0.34226 0 0.00872816
0.371786 0 0.00857557
0.400961 0 0.00793469
0.431342 0 0.00679026
0.462623 0 0.00602731
0.493477 0 0.00564584
0.525399 0 0.00523384
0.557961 0 0.00514229
0.592172 0 0.00444038
0.624918 0 0.00230411
0.660456 0 0.00103761
0.698039 0 0.00077821
0.7337 0 0.000671397
0.769757 0 0.000488289
0.812039 0 0
0.854414 0 0
0.897215 0 0
0.939681 0 0
0.984695 0 0
1 0 0
1 0 0
0.00341802 0.0319066 0.0170596
0.0132296 0.0298466 0.0195468
0.0242466 0.028687 0.0222019
0.038819 0.0287022 0.0222477
0.0658427 0.0293431 0.0189364
0.100038 0.026978 0.0156558
0.133837 0.0232242 0.0144961
0.167926 0.0192264 0.0141756
0.202045 0.0142519 0.0138552
0.235157 0.00935378 0.012604
0.266621 0.00523384 0.010956
0.297063 0.00204471 0.0102541
0.327657 0.000381476 0.0100862
0.357504 0 0.00988785
0.387533 0 0.00895705
0.418067 0 0.00727855
0.451316 0 0.00701915
0.482872 0 0.00654612
0.514672 0 0.00579843
0.547951 0 0.00544747
0.582971 0 0.00477607
0.618173 0 0.00408942
0.653635 0 0.00140383
0.689311 0 0.00077821
0.727291 0 0.000335698
0.763027 0 0.000213626
0.80531 0 0
0.847639 0 0
0.893568 0 0
0.93608 0 0
0.978469 0 0
0.998383 0 0
1 0 0
0.0165713 0.0437934 0.0251621
0.0238346 0.0432898 0.0269322
0.0342565 0.0426184 0.0291752
0.0437324 0.043595 0.0312047
0.0594797 0.0453956 0.0292363
0.0858167 0.0449531 0.0239872
0.11754 0.041886 0.0201419
0.151675 0.0376898 0.0187228
0.186084 0.0331273 0.0176242
0.219348 0.0274052 0.0159762
0.250446 0.0199435 0.0144045
0.2795 0.0123751 0.0124361
0.310323 0.00613413 0.0115358
0.341238 0.00215152 0.0111849
0.371511 0.000366217 0.0105898
0.401709 0 0.00961318
0.435142 0 0.00944533
0.467048 0 0.00914015
0.499504 0 0.00852979
0.5346 0 0.00796521
0.569879 0 0.0049897
0.605615 0 0.00442512
0.644205 0 0.00425727
0.679377 0 0.00389105
0.717952 0 0
0.75613 0 0
0.798138 0 0
0.840482 0 0
0.886137 0 0
0.931701 0 0
0.974548 0 0
0.996689 0 0
1 0 0
0.0312505 0.0570687 0.0345006
0.0363012 0.0570687 0.0354925
0.0451209 0.0565194 0.0374304
0.0541543 0.0574655 0.0399329
0.0630961 0.0595712 0.0407874
0.0781415 0.0606699 0.0372015
0.102251 0.0604257 0.0309758
0.133165 0.0582284 0.0263218
0.167514 0.0545357 0.0234073
0.20119 0.0493172 0.0204318
0.232029 0.0418708 0.019501
0.261662 0.0341497 0.0173342
0.29099 0.0252842 0.0151522
0.321798 0.0135805 0.0144808
0.352667 0.00564584 0.0135958
0.384115 0.00251774 0.0129397
0.415869 0.00077821 0.0126497
0.447669 0 0.0121309
0.482856 0 0.00869764
0.51812 0 0.00807202
0.553399 0 0.0078584
0.592172 0 0.00773632
0.63064 0 0.00747692
0.66569 0 0.00410468
0.706859 0 0.00352483
0.745495 0 0.00300603
0.790356 0 0.000381476
0.833432 0 0
0.880751 0 0
0.927138 0 0
0.970153 0 0
0.994812 0 0
1 0 0
0.0444953 0.0710002 0.0432288
0.0486305 0.0709697 0.0440681
0.0561074 0.0705119 0.0463417
0.0635843 0.0708629 0.0483558
0.0710613 0.0722972 0.050721
0.0799573 0.0733806 0.0515602
0.0947585 0.0753948 0.0457771
0.118303 0.0757916 0.0379644
0.14905 0.0750439 0.032105
0.181827 0.0708934 0.0281224
0.21207 0.0661936 0.025803
0.240803 0.0585184 0.0224918
0.271183 0.0530251 0.0215
0.302113 0.0421607 0.0204166
0.329915 0.0331121 0.016907
0.36144 0.0208896 0.016434
0.396231 0.00830091 0.0158999
0.427573 3.0518e-05 0.0156252
0.462531 0 0.015259
0.500984 0 0.0117037
0.539376 0 0.0114137
0.575021 0 0.0109712
0.613352 0 0.00814832
0.65153 0 0.00726329
0.693095 0 0.00657664
0.734951 0 0.00427253
0.780026 0 0.0031281
0.827039 0 0.000732433
0.873991 0 0
0.920302 0 0
0.96524 0 0
0.993027 0 0
1 0 0
0.0575418 0.0842756 0.0525978
0.0608988 0.084535 0.0531472
0.0666361 0.0841688 0.0549477
0.0720378 0.0844434 0.0564126
0.0793774 0.0857252 0.0595712
0.0866407 0.0865034 0.0617685
0.0956283 0.0889754 0.0614786
0.11252 0.0900282 0.054902
0.135958 0.0916457 0.0465248
0.165667 0.0889601 0.0411231
0.193423 0.0873426 0.0334325
0.223957 0.0798199 0.0321202
0.251484 0.075349 0.0281834
0.282506 0.0706493 0.0275273
0.309911 0.0622263 0.0234226
0.341024 0.0535592 0.0231632
0.375601 0.041062 0.0227207
0.410117 0.0260319 0.0194705
0.444938 0.00888075 0.0190585
0.483101 0.000946059 0.0181125
0.519509 0 0.0154269
0.559442 0 0.0147402
0.598306 0 0.0134737
0.639002 0 0.0112764
0.681239 0 0.0104372
0.725399 0 0.00767529
0.770993 0 0.00653086
0.819165 0 0.00386053
0.867002 0 0.00239567
0.914611 0 0.000885023
0.960906 0 0
0.991348 0 0
1 0 0
0.0705425 0.0982834 0.0630198
0.0733806 0.0979171 0.0626535
0.0771496 0.0976272 0.0630045
0.0820172 0.0977035 0.0661784
0.0892042 0.0977188 0.0686351
0.0965744 0.10013 0.0691691
0.104051 0.100511 0.0719921
0.112108 0.102953 0.0716259
0.130175 0.103166 0.063798
0.153368 0.106249 0.0554208
0.180316 0.105806 0.0470588
0.207568 0.101503 0.0428931
0.234913 0.0969558 0.0386053
0.265644 0.0924544 0.0348821
0.29308 0.0876326 0.0337224
0.323659 0.0796063 0.0306859
0.355566 0.0706951 0.0296178
0.389654 0.0606088 0.0265812
0.424918 0.0451057 0.0252995
0.462989 0.0277714 0.0229648
0.5028 0.0117342 0.021622
0.544396 0.00210575 0.0192264
0.585824 0 0.0180819
0.627756 0 0.0166323
0.670512 0 0.014786
0.71545 0 0.0125887
0.762219 0 0.0106355
0.811048 0 0.00843824
0.861097 0 0.00648508
0.909957 0 0.00434882
0.957794 0 0.00230411
0.990585 0 0.002121
1 0 0.00239567
0.0837262 0.112566 0.0732433
0.0841688 0.1122 0.0729229
0.0877852 0.111696 0.0728771
0.0922408 0.111299 0.075349
0.0991684 0.111498 0.0759594
0.106523 0.114244 0.078996
0.113939 0.11397 0.0787671
0.12134 0.113588 0.0821698
0.129091 0.116884 0.0814832
0.147967 0.120272 0.0735027
0.171176 0.120195 0.0623484
0.195026 0.119387 0.0574502
0.221897 0.115358 0.0527199
0.249607 0.11371 0.0461128
0.276905 0.1093 0.0420539
0.306691 0.10219 0.0401465
0.338277 0.096376 0.037644
0.371664 0.0884871 0.0341192
0.408331 0.0785534 0.0326848
0.446616 0.0649424 0.0299229
0.487556 0.0470741 0.0285801
0.530007 0.0281682 0.0268406
0.572808 0.0104524 0.0248112
0.616922 0.00144961 0.0230869
0.661112 0 0.0209049
0.706233 0 0.0181735
0.754177 0 0.016083
0.804639 0 0.014023
0.856229 0 0.0113985
0.907744 0 0.00927749
0.957275 0 0.00750744
0.992111 0 0.00730907
1 0 0.00799573
0.0950637 0.126772 0.0833143
0.0952163 0.126406 0.0830549
0.0986954 0.125978 0.0828717
0.105959 0.125673 0.0825818
0.109483 0.125185 0.0859541
0.116732 0.124926 0.085893
0.124041 0.127977 0.0890516
0.131334 0.127825 0.0925307
0.138643 0.1308 0.092546
0.147997 0.131502 0.090898
0.16585 0.133928 0.0808576
0.18822 0.134005 0.0727245
0.2121 0.132876 0.0671244
0.238483 0.132128 0.0603799
0.265583 0.128664 0.0554818
0.293736 0.123583 0.0518349
0.325383 0.118868 0.0481727
0.359106 0.113497 0.0441749
0.394415 0.106004 0.0424659
0.433448 0.0967422 0.0398566
0.475257 0.0839857 0.0374456
0.517601 0.0673228 0.0356298
0.561303 0.0454566 0.033402
0.606821 0.0241703 0.0311589
0.652262 0.00798047 0.0285496
0.698451 0 0.0259098
0.748455 0 0.023743
0.801328 0 0.0212863
0.855085 0 0.0181888
0.909163 0 0.0162051
0.961059 0 0.0153048
0.996078 0 0.0154116
1 0 0.0158999
0.109682 0.141054 0.0940261
0.109377 0.140749 0.0937972
0.112703 0.140383 0.0935225
0.11635 0.139956 0.0932021
0.122942 0.139467 0.0963149
0.127199 0.139025 0.096437
0.134035 0.141878 0.099382
0.141497 0.142214 0.102998
0.148806 0.144884 0.103395
0.156283 0.145281 0.105196
0.167895 0.147738 0.100618
0.186069 0.150301 0.091249
0.208148 0.1505 0.0830243
0.232212 0.150118 0.0766613
0.257145 0.148653 0.0706798
0.284764 0.145098 0.0658732
0.315862 0.140642 0.0616312
0.34905 0.136187 0.0573892
0.38436 0.130816 0.0541848
0.423026 0.12343 0.0509346
0.464408 0.114015 0.0481727
0.507561 0.102434 0.0459144
0.55227 0.0875715 0.0431983
0.598779 0.0674449 0.0408637
0.64622 0.0418708 0.0383612
0.695094 0.0188449 0.0357671
0.747127 0.00698863 0.0339971
0.802274 0 0.0305943
0.859388 0 0.0280919
0.91519 0 0.0265965
0.966705 0 0.0262455
1 0 0.0263218
1 0 0.0269474
0.124025 0.155398 0.104448
0.123659 0.155032 0.104448
0.126543 0.154589 0.104189
0.129931 0.154162 0.103853
0.133959 0.153735 0.106661
0.139971 0.153307 0.107134
0.145449 0.155962 0.109865
0.152255 0.156497 0.113359
0.159045 0.158816 0.115465
0.16611 0.159564 0.117006
0.175952 0.161654 0.116182
0.188922 0.165042 0.11107
0.207233 0.167575 0.103365
0.229191 0.167971 0.0943923
0.252628 0.167437 0.0872816
0.279591 0.165972 0.0815137
0.310185 0.162478 0.0762951
0.342458 0.158175 0.0721447
0.377188 0.153719 0.0679026
0.41561 0.148302 0.0636606
0.456565 0.141405 0.0603647
0.500191 0.133196 0.057847
0.546426 0.122484 0.0546273
0.594644 0.109575 0.0525978
0.644663 0.0934005 0.0506447
0.696254 0.0719615 0.0478676
0.751308 0.0412451 0.046128
0.809079 0.0155337 0.0432593
0.866392 0.00863661 0.0416876
0.923003 0.00274662 0.0390478
0.971984 0 0.0382086
1 0.000396735 0.0384833
1 0.00230411 0.0407874
0.138354 0.169726 0.115404
0.137987 0.16936 0.115221
0.140536 0.168933 0.114931
0.143908 0.168505 0.116197
0.147402 0.170138 0.117708
0.15349 0.170413 0.119799
0.158389 0.170748 0.121096
0.164477 0.172351 0.123705
0.171405 0.173663 0.126833
0.178363 0.175158 0.129442
0.186709 0.17792 0.130388
0.196857 0.181201 0.129
0.211002 0.18349 0.124132
0.229938 0.184924 0.114916
0.25185 0.185428 0.106157
0.277302 0.185214 0.0991379
0.307103 0.183948 0.0926986
0.338781 0.180621 0.0877546
0.373388 0.176974 0.0825971
0.411872 0.172946 0.0784009
0.454261 0.169116 0.0742504
0.498451 0.163607 0.0706493
0.54638 0.156252 0.0681468
0.595926 0.147692 0.0665904
0.646845 0.135897 0.0652934
0.700648 0.123507 0.0624247
0.758389 0.107027 0.061387
0.818662 0.0835889 0.057908
0.876204 0.0569009 0.0570687
0.932052 0.0274357 0.0563516
0.978729 0.0081178 0.0559548
1 0.0065156 0.0555276
1 0.0259861 0.055375
0.152636 0.186877 0.129107
0.154177 0.186419 0.12874
0.155337 0.18587 0.128313
0.1579 0.185412 0.128511
0.161944 0.187396 0.130358
0.167498 0.188342 0.131991
0.173388 0.187808 0.133577
0.179767 0.189395 0.136263
0.186862 0.190661 0.139147
0.194125 0.192203 0.141695
0.201251 0.195499 0.14374
0.209308 0.198779 0.145083
0.220325 0.201114 0.143343
0.235401 0.203098 0.136477
0.25478 0.204807 0.127733
0.279561 0.205142 0.119234
0.30811 0.205966 0.111955
0.339651 0.205509 0.106096
0.375021 0.203876 0.0994736
0.41471 0.200977 0.0950942
0.458 0.19942 0.0909438
0.504768 0.194873 0.0874647
0.553689 0.190646 0.0853742
0.603937 0.185382 0.0823529
0.657023 0.177554 0.0810101
0.710216 0.168673 0.080415
0.768017 0.160204 0.0797436
0.828626 0.147967 0.0757305
0.885344 0.13518 0.0750286
0.938674 0.126207 0.0708629
0.984283 0.12018 0.0704051
0.999756 0.124743 0.0700389
1 0.142214 0.0734112
0.170321 0.204715 0.143389
0.171695 0.204257 0.143008
0.172503 0.205234 0.142702
0.174136 0.20557 0.142275
0.177874 0.20589 0.143938
0.183169 0.206195 0.145342
0.189807 0.206577 0.146792
0.197009 0.20798 0.150256
0.204318 0.209491 0.153277
0.211414 0.211444 0.155459
0.218509 0.214618 0.158175
0.226108 0.217792 0.161456
0.235477 0.221073 0.162661
0.2477 0.224765 0.158694
0.264424 0.227985 0.151995
0.288045 0.228977 0.143221
0.318456 0.232074 0.13434
0.349889 0.234379 0.127138
0.385168 0.234211 0.122042
0.426581 0.233631 0.117189
0.469993 0.232837 0.112703
0.518242 0.229114 0.108232
0.564523 0.227405 0.104265
0.617426 0.223346 0.10341
0.670207 0.221408 0.0993057
0.720562 0.213321 0.0987716
0.7776 0.208179 0.0981308
0.838483 0.203037 0.093843
0.892149 0.193851 0.0933547
0.945708 0.191684 0.0891585
0.991989 0.193347 0.0885939
0.999634 0.196918 0.0884413
1 0.214343 0.0918135
0.192477 0.226993 0.158923
0.192615 0.226566 0.159121
0.192432 0.226764 0.15906
0.193622 0.227512 0.158511
0.197604 0.227695 0.159731
0.202625 0.227481 0.161669
0.208759 0.228397 0.16286
0.215869 0.230686 0.165835
0.22298 0.232258 0.169207
0.230381 0.235218 0.172488
0.238499 0.238178 0.17612
0.247333 0.241276 0.18024
0.258137 0.244633 0.182788
0.269642 0.249165 0.182361
0.284611 0.25481 0.178851
0.305379 0.258305 0.172366
0.334997 0.261814 0.161181
0.369055 0.264561 0.152667
0.403891 0.267445 0.147539
0.442252 0.267155 0.140124
0.487221 0.269551 0.135119
0.532815 0.268696 0.130388
0.578317 0.267582 0.126024
0.627878 0.266667 0.12546
0.681407 0.265751 0.121157
0.734493 0.2607 0.120562
0.791333 0.255665 0.116564
0.849165 0.254124 0.112337
0.903548 0.252766 0.111803
0.952148 0.252445 0.111376
0.995666 0.255772 0.108049
0.999954 0.265492 0.107576
1 0.277729 0.107973
0.218753 0.255894 0.178653
0.218021 0.25507 0.178531
0.21796 0.254536 0.179324
0.219486 0.254627 0.179568
0.223239 0.255238 0.179889
0.228534 0.256016 0.181918
0.233539 0.257099 0.183276
0.24036 0.259754 0.18587
0.247028 0.262165 0.188937
0.254765 0.265644 0.19234
0.265476 0.268559 0.196857
0.276127 0.271626 0.202579
0.286961 0.275792 0.206332
0.297963 0.281758 0.208789
0.309987 0.285389 0.20798
0.331472 0.291447 0.202869
0.355062 0.298009 0.19443
0.391959 0.301244 0.182589
0.426276 0.304097 0.17406
0.463844 0.306676 0.169055
0.505272 0.30927 0.16437
0.55082 0.311971 0.156115
0.59678 0.31133 0.15172
0.646143 0.310414 0.147601
0.696269 0.309682 0.143389
0.746792 0.312001 0.142794
0.804364 0.308324 0.139071
0.859709 0.3075 0.134981
0.911772 0.307729 0.134676
0.959228 0.310643 0.131456
0.99646 0.314519 0.130709
1 0.325567 0.130663
1 0.340795 0.130846
0.250462 0.291188 0.204288
0.249546 0.290181 0.203555
0.249897 0.289601 0.203662
0.252628 0.290013 0.20502
0.255726 0.291066 0.205493
0.259495 0.290898 0.205997
0.266239 0.293721 0.208515
0.272801 0.295857 0.211475
0.279667 0.297078 0.214572
0.287556 0.301991 0.218204
0.298253 0.305013 0.224384
0.308736 0.308324 0.228367
0.319402 0.314748 0.234806
0.333486 0.321141 0.237949
0.344106 0.323964 0.240696
0.362493 0.330816 0.236362
0.384863 0.337682 0.231586
0.414771 0.344244 0.219181
0.452155 0.347036 0.210544
0.486503 0.34995 0.198825
0.527718 0.356008 0.193805
0.570794 0.356527 0.186053
0.616999 0.359411 0.181598
0.66389 0.359335 0.174304
0.714244 0.362264 0.16994
0.76495 0.362799 0.166323
0.819837 0.362448 0.16556
0.871916 0.362615 0.162097
0.920211 0.366018 0.158633
0.967498 0.369909 0.157931
0.997467 0.373831 0.154696
1 0.384619 0.154284
1 0.396841 0.151247
0.287648 0.331991 0.234287
0.286641 0.330968 0.233463
0.286397 0.330205 0.232486
0.28957 0.330999 0.232593
0.292241 0.331655 0.234226
0.295567 0.331487 0.234623
0.30222 0.333623 0.237537
0.308675 0.336156 0.240024
0.316152 0.339269 0.243412
0.326619 0.342 0.246815
0.336889 0.344549 0.250111
0.347372 0.347555 0.256687
0.357946 0.353979 0.263416
0.37232 0.360586 0.266529
0.383246 0.36379 0.273671
0.397635 0.370352 0.272831
0.419364 0.380423 0.268238
0.445808 0.387655 0.259876
0.476768 0.391302 0.248371
0.514443 0.397986 0.236423
0.554131 0.40264 0.228519
0.593393 0.405829 0.220462
0.639429 0.409491 0.216022
0.686488 0.413016 0.208591
0.733944 0.413779 0.201144
0.781949 0.414237 0.19707
0.833204 0.417624 0.193622
0.881025 0.41796 0.189731
0.928069 0.421073 0.185595
0.971771 0.424765 0.181994
0.997467 0.428229 0.177951
1 0.435859 0.174395
1 0.443839 0.17351
0.327947 0.37586 0.266545
0.327199 0.375174 0.265995
0.326741 0.374884 0.265171
0.329458 0.376059 0.264424
0.332021 0.375601 0.264286
0.335103 0.377554 0.266835
0.341482 0.376806 0.269459
0.34847 0.379858 0.269566
0.355138 0.382345 0.272496
0.365423 0.385061 0.278996
0.375952 0.387808 0.282017
0.386435 0.390539 0.288792
0.396948 0.396963 0.292165
0.411551 0.403983 0.298955
0.426017 0.410666 0.306096
0.437736 0.414588 0.309545
0.456733 0.422232 0.309392
0.479789 0.429725 0.302022
0.510094 0.436973 0.293645
0.545602 0.444968 0.279301
0.58146 0.449348 0.267491
0.620462 0.453285 0.259251
0.663859 0.457404 0.251911
0.707408 0.461326 0.244099
0.754376 0.46508 0.236362
0.801175 0.468376 0.231952
0.844999 0.468681 0.224674
0.891279 0.471397 0.220172
0.932036 0.471794 0.213001
0.97464 0.471931 0.208484
0.997391 0.474861 0.201358
1 0.475898 0.193988
1 0.479423 0.190021
0.371588 0.423056 0.299779
0.371084 0.422065 0.299016
0.370153 0.420859 0.298131
0.372335 0.419669 0.29752
0.375082 0.422004 0.300038
0.377844 0.421042 0.29926
0.384649 0.42388 0.302251
0.391211 0.426551 0.305165
0.397971 0.425788 0.308248
0.404746 0.428336 0.31136
0.415183 0.431266 0.31783
0.429755 0.438025 0.322042
0.441459 0.442206 0.328893
0.453162 0.449302 0.33637
0.468009 0.456703 0.343847
0.480003 0.460883 0.35111
0.498695 0.468254 0.35198
0.519158 0.476539 0.348455
0.546426 0.484596 0.341146
0.577783 0.492439 0.329442
0.612833 0.496788 0.314427
0.65153 0.50367 0.30248
0.687633 0.50753 0.29398
0.730129 0.51165 0.286305
0.770092 0.515145 0.278187
0.812634 0.515435 0.267384
0.852277 0.514946 0.258854
0.894865 0.514916 0.251194
0.93164 0.514321 0.240269
0.970611 0.513985 0.232334
0.995911 0.51133 0.221759
1 0.510475 0.213199
1 0.51313 0.205997
0.415366 0.470054 0.336202
0.417899 0.469062 0.335348
0.416876 0.467857 0.33434
0.415686 0.466667 0.337148
0.41854 0.465751 0.336492
0.421454 0.468376 0.339269
0.427817 0.467628 0.338704
0.434775 0.470451 0.34165
0.441978 0.473457 0.345068
0.44921 0.476722 0.348501
0.460685 0.480842 0.356039
0.472404 0.484703 0.360098
0.487129 0.488502 0.367315
0.499352 0.495888 0.375189
0.51458 0.503731 0.383032
0.527031 0.508324 0.391058
0.543114 0.516152 0.395407
0.562341 0.523995 0.395438
0.582422 0.531624 0.391379
0.608988 0.539025 0.380118
0.639994 0.543023 0.364553
0.674937 0.54699 0.348959
0.710063 0.55079 0.337072
0.745617 0.554162 0.328374
0.780789 0.557351 0.317189
0.81944 0.557458 0.30248
0.855421 0.554177 0.290379
0.894316 0.553277 0.27921
0.93022 0.552819 0.267353
0.9682 0.549783 0.253559
0.994675 0.545556 0.241199
1 0.544259 0.230091
1 0.544839 0.221637
0.46215 0.517052 0.375967
0.461265 0.51606 0.375128
0.463783 0.515053 0.374273
0.463279 0.51426 0.373846
0.466011 0.513466 0.376486
0.469306 0.516365 0.376669
0.476463 0.516594 0.37969
0.480781 0.519646 0.383215
0.487984 0.520287 0.386954
0.499138 0.52398 0.391058
0.507759 0.527901 0.395346
0.519326 0.532021 0.402594
0.531502 0.539071 0.407294
0.546487 0.54377 0.414771
0.559213 0.551446 0.422797
0.570809 0.555581 0.430457
0.582513 0.559472 0.43447
0.597772 0.566506 0.437644
0.61651 0.573953 0.434348
0.639292 0.578302 0.423255
0.663523 0.584848 0.410712
0.693904 0.585931 0.395102
0.725124 0.588663 0.376791
0.756481 0.589319 0.36408
0.788113 0.592187 0.352178
0.820356 0.592416 0.336965
0.855024 0.589212 0.321874
0.890471 0.587808 0.306828
0.92575 0.585153 0.29189
0.96376 0.581125 0.27628
0.993194 0.579126 0.261311
1 0.576608 0.248768
1 0.575982 0.23798
0.509743 0.564645 0.416236
0.509346 0.564248 0.4159
0.509453 0.56405 0.415732
0.512245 0.563653 0.415396
0.512627 0.563256 0.415427
0.515938 0.563424 0.418372
0.523278 0.566537 0.419181
0.527901 0.567529 0.422843
0.535698 0.571084 0.4271
0.543877 0.571832 0.431022
0.554894 0.575357 0.434943
0.563287 0.57908 0.439048
0.574243 0.582986 0.445792
0.586435 0.586984 0.450538
0.597848 0.590936 0.457633
0.609216 0.594583 0.462165
0.620386 0.600885 0.465736
0.631861 0.605066 0.469108
0.644236 0.60911 0.468833
0.662898 0.612833 0.461463
0.682628 0.616754 0.449805
0.706233 0.619654 0.43444
0.73341 0.620523 0.415396
0.761196 0.622538 0.399191
0.791455 0.623545 0.384207
0.82269 0.623652 0.370916
0.85452 0.62266 0.353628
0.886671 0.622141 0.334936
0.921096 0.618982 0.318334
0.959304 0.614786 0.300359
0.992187 0.612024 0.284062
1 0.608469 0.267018
1 0.605554 0.251835
0.552316 0.607217 0.451179
0.552483 0.607385 0.451316
0.552316 0.607217 0.451179
0.555734 0.607217 0.451179
0.556237 0.607217 0.454246
0.559869 0.610498 0.455192
0.564309 0.611429 0.455375
0.57142 0.611475 0.458854
0.575906 0.614771 0.462623
0.583124 0.615061 0.46331
0.591012 0.618143 0.466529
0.601556 0.618723 0.470176
0.610132 0.622019 0.474403
0.620737 0.625269 0.480781
0.62916 0.625895 0.485298
0.639719 0.628672 0.488823
0.648219 0.632563 0.492256
0.659068 0.636347 0.495918
0.670375 0.639857 0.498848
0.682933 0.643351 0.49546
0.698375 0.646754 0.487129
0.717525 0.650141 0.472648
0.740795 0.650858 0.456031
0.767376 0.653651 0.437827
0.795438 0.654536 0.41915
0.823682 0.656382 0.403326
0.852201 0.655055 0.387152
0.884886 0.654292 0.366232
0.92018 0.651514 0.346593
0.954665 0.648005 0.325063
0.988983 0.644297 0.303227
0.999329 0.638361 0.283101
1 0.634195 0.264393
0.588434 0.646845 0.482963
0.588708 0.64715 0.483207
0.588708 0.64715 0.483207
0.592157 0.64715 0.483207
0.592493 0.646998 0.483436
0.595956 0.647349 0.483482
0.59971 0.647257 0.486442
0.603723 0.646983 0.487022
0.610376 0.65008 0.490242
0.614771 0.650217 0.490471
0.621668 0.650278 0.493446
0.629557 0.652735 0.497002
0.639796 0.653437 0.500572
0.648219 0.656229 0.504601
0.65565 0.658991 0.508232
0.666102 0.659861 0.511818
0.674434 0.662699 0.515419
0.68484 0.666209 0.51902
0.694026 0.669841 0.522713
0.704677 0.671199 0.524865
0.71696 0.674128 0.521492
0.732433 0.677821 0.510536
0.74995 0.680964 0.497704
0.772702 0.684611 0.479927
0.799512 0.685786 0.458305
0.827207 0.686778 0.436667
0.852689 0.686519 0.419608
0.883314 0.68426 0.398108
0.916259 0.683406 0.37293
0.950805 0.678065 0.348837
0.983841 0.673899 0.322713
0.998291 0.667155 0.296376
1 0.663111 0.27306
0.624002 0.682826 0.5075
0.624002 0.682826 0.5075
0.623728 0.682551 0.507317
0.623835 0.682277 0.51014
0.626917 0.682277 0.510613
0.62739 0.681865 0.510292
0.630411 0.681453 0.51043
0.633906 0.681041 0.513008
0.640497 0.683696 0.513664
0.644709 0.683986 0.516121
0.651469 0.683711 0.519661
0.658732 0.683772 0.523095
0.666651 0.685832 0.524163
0.674159 0.686671 0.52697
0.68159 0.689464 0.530571
0.692226 0.690318 0.534386
0.700786 0.692973 0.538094
0.709102 0.694499 0.541802
0.717067 0.697505 0.545602
0.725551 0.700542 0.549416
0.736599 0.702113 0.549752
0.749416 0.705516 0.545266
0.762402 0.709682 0.537392
0.779019 0.71162 0.522896
0.802106 0.714427 0.501289
0.82681 0.71545 0.475624
0.853513 0.716106 0.450507
0.881926 0.71342 0.429389
0.913375 0.713252 0.403189
0.945785 0.709804 0.373281
0.980728 0.703319 0.342351
0.998505 0.699077 0.311177
1 0.692622 0.280461
0.655146 0.71397 0.534035
0.655024 0.713848 0.533928
0.657816 0.716655 0.533822
0.657923 0.716747 0.533959
0.657862 0.716197 0.536416
0.660136 0.715648 0.536568
0.663462 0.715221 0.536248
0.666789 0.714672 0.538903
0.671031 0.715023 0.539528
