70 CGC LUTs/Look LUTs/Rhythm.cube
#Created by: Denver Riddle
#Copyright: (C) Copyright Color Grading Central LLC
#LUT Size
LUT_3D_SIZE 5
0 0 0
0.349203 0 0
0.758694 0 0
0.937499 0 0
1 0 0
0 0.297154 0
0.246799 0.258671 0
0.658595 0.261189 0
0.937499 0.28603 0
1 0.302983 0
0 0.657572 0
0.24535 0.627237 0
0.618769 0.604425 0
0.873137 0.601617 0
1 0.602548 0
0 0.916976 0
0.253559 0.875441 0
0.60354 0.830503 0
0.834379 0.810483 0
1 0.804074 0
0 1 0
0.209735 1 0
0.55555 1 0
0.783642 0.993576 0
0.977829 0.979324 0
0 0.00621042 0.428809
0.347875 0 0.389136
0.74226 0 0.380636
0.937499 0 0.374655
1 0 0.391257
0 0.294667 0.331899
0.262608 0.26981 0.31043
0.654124 0.267155 0.305898
0.935393 0.281819 0.317342
1 0.303899 0.334874
0 0.647822 0.314519
0.24361 0.617472 0.290776
0.602457 0.591806 0.261189
0.857496 0.582452 0.24828
1 0.583932 0.248875
0 0.898482 0.325948
0.243015 0.853574 0.291814
0.580575 0.808621 0.243397
0.811948 0.786404 0.2159
1 0.779355 0.201694
0 1 0.297627
0.19379 1 0.249729
0.524453 0.996628 0.180179
0.760067 0.971191 0.154009
0.955123 0.954787 0.142336
0 0.0041352 0.707057
0.346136 0 0.673014
0.736187 0 0.650584
0.937499 0 0.648875
1 0 0.664485
0 0.301198 0.614374
0.272175 0.279881 0.598611
0.656428 0.283421 0.596918
0.92784 0.290257 0.608148
1 0.311666 0.619471
0 0.648539 0.59678
0.24802 0.617258 0.570367
0.602289 0.592157 0.544915
0.848905 0.578058 0.529229
1 0.578073 0.527749
0 0.892103 0.592081
0.243732 0.844816 0.562448
0.576471 0.798138 0.516686
0.80116 0.77525 0.486549
1 0.767758 0.466102
0 1 0.550042
0.192966 1 0.515557
0.52842 0.978347 0.462913
0.752697 0.955871 0.43061
0.945937 0.945052 0.407492
0 0.00326543 0.937499
0.352193 0 0.928023
0.733761 0 0.900404
0.937499 0 0.909422
1 0 0.937499
0 0.308492 0.865919
0.282521 0.29192 0.850813
0.661021 0.294423 0.843168
0.914794 0.308782 0.856123
1 0.324804 0.869795
0 0.651881 0.851423
0.252018 0.618555 0.815015
0.601907 0.59144 0.781949
0.838499 0.58233 0.771847
1 0.58085 0.774868
0 0.883864 0.847776
0.241413 0.838697 0.798459
0.571694 0.790722 0.746212
0.793454 0.767758 0.721401
0.992615 0.760372 0.711238
0 1 0.801373
0.190127 1 0.750317
0.525475 0.967956 0.694682
0.749355 0.942687 0.66891
0.936996 0.935805 0.647257
0 0.000564584 1
0.355596 0 1
0.732219 0 1
0.937499 0 1
1 0 1
0 0.323064 1
0.29044 0.302571 1
0.66334 0.300267 1
0.908461 0.315755 1
1 0.32874 1
0 0.651072 1
0.248722 0.615808 1
0.596429 0.585214 1
0.830228 0.578683 1
1 0.579904 1
0 0.874784 1
0.240864 0.83035 1
0.564187 0.780774 0.985763
0.782727 0.757275 0.956481
0.973678 0.754543 0.954147
0 1 1
0.190723 1 0.988937
0.515175 0.949264 0.927001
0.733852 0.922194 0.897261
0.916854 0.91548 0.88809
