70 CGC LUTs/Look LUTs/Rhythm.cube
#Created by: Denver Riddle
#Copyright: (C) Copyright Color Grading Central LLC
#LUT Size
LUT_3D_SIZE 9
0 0 0
0.168597 0 0
0.349203 0 0
0.525277 0 0
0.758694 0 0
0.906249 0 0
0.937499 0 0
0.96875 0 0
1 0 0
0 0.141924 0
0.116869 0.114382 0
0.303792 0.106661 0
0.481468 0.0935073 0
0.69749 0.0743267 0
0.850446 0.0805524 0
0.937499 0.0951095 0
0.96875 0.109361 0
1 0.117281 0
0 0.297154 0
0.0443275 0.262776 0
0.246799 0.258671 0
0.436027 0.264286 0
0.658595 0.261189 0
0.815183 0.272389 0
0.937499 0.28603 0
0.96875 0.29604 0
1 0.302983 0
0 0.49012 0
0.0312505 0.465431 0
0.227863 0.462821 0
0.412512 0.46334 0
0.624308 0.452689 0
0.772976 0.455436 0
0.89546 0.461616 0
0.96875 0.466484 0
1 0.470375 0
0 0.657572 0
0.055314 0.63473 0
0.24535 0.627237 0
0.419959 0.6206 0
0.618769 0.604425 0
0.758633 0.601205 0
0.873137 0.601617 0
0.96875 0.601251 0
1 0.602548 0
0 0.796185 0
0.0919814 0.771634 0
0.265599 0.758556 0
0.43267 0.74609 0
0.621256 0.725551 0
0.752514 0.71754 0
0.859205 0.71371 0
0.959487 0.70808 0
1 0.706401 0
0 0.916976 0
0.0823987 0.893584 0
0.253559 0.875441 0
0.418723 0.856703 0
0.60354 0.830503 0
0.731136 0.817929 0
0.834379 0.810483 0
0.930694 0.802762 0
1 0.804074 0
0 0.96875 0
0.0418708 0.96875 0
0.214557 0.96875 0
0.385046 0.960204 0
0.57435 0.930434 0
0.704067 0.915724 0
0.810178 0.907134 0
0.909773 0.898543 0
1 0.892363 0
0 1 0
0.0479286 1 0
0.209735 1 0
0.373159 1 0
0.55555 1 0
0.681239 1 0
0.783642 0.993576 0
0.880858 0.984924 0
0.977829 0.979324 0
0 0.0139773 0.194583
0.180407 0 0.16318
0.356512 0 0.152621
0.524849 0 0.147127
0.751568 0 0.13315
0.889204 0 0.129366
0.937499 0 0.130877
0.96875 0 0.138354
1 0 0.15668
0 0.156512 0.143969
0.134829 0.133165 0.124666
0.310475 0.118425 0.112596
0.480217 0.104402 0.102388
0.689677 0.0876173 0.0893873
0.836515 0.0946059 0.0962997
0.937499 0.109545 0.109606
0.96875 0.126024 0.123293
1 0.140856 0.132296
0 0.30074 0.0870069
0.0634928 0.27396 0.0626078
0.263584 0.271885 0.0638895
0.442237 0.275837 0.0688182
0.659098 0.270069 0.0636149
0.813062 0.278859 0.0709392
0.937499 0.290349 0.079881
0.96875 0.29987 0.0859388
1 0.310674 0.0887312
0 0.492012 0.0598306
0.0422675 0.470283 0.0383154
0.239567 0.466056 0.0381933
0.413428 0.464744 0.0394751
0.621622 0.451774 0.0312505
0.770184 0.452476 0.0312505
0.892485 0.457023 0.0348669
0.96875 0.460899 0.0381628
1 0.466697 0.0386664
0 0.655161 0.070161
0.0621347 0.633097 0.0505684
0.247761 0.624491 0.0478218
0.414832 0.617655 0.0437476
0.612116 0.600168 0.0312505
0.75227 0.595407 0.0312505
0.866621 0.594675 0.0312505
0.96875 0.593347 0.0312505
1 0.596338 0.0312505
0 0.790356 0.0903029
0.0875257 0.765972 0.069398
0.262348 0.752102 0.0630961
0.42565 0.740001 0.0557412
0.612192 0.718364 0.0347601
0.743847 0.709041 0.0312505
0.850858 0.704158 0.0312505
0.951537 0.697704 0.0312505
1 0.697154 0.0312505
0 0.909224 0.0899062
0.0816358 0.885206 0.0639048
0.247456 0.866636 0.0495155
0.407477 0.848356 0.035874
0.591928 0.821378 0.0312505
0.720638 0.807965 0.0312505
0.824826 0.799832 0.0312505
0.921309 0.791791 0.0312505
1 0.793149 0.0312505
0 0.96875 0.0679026
0.0508278 0.96875 0.0376745
0.212329 0.96875 0.0312505
0.372808 0.951293 0.0312505
0.561959 0.921157 0.0312505
0.693706 0.905806 0.0312505
0.800305 0.896956 0.0312505
0.900008 0.887892 0.0312505
0.997147 0.881636 0.0312505
0 1 0.0621653
0.0323186 1 0.0312505
0.191943 1 0.0312505
0.353506 1 0.0312505
0.539879 1 0.0312505
0.669062 0.993545 0.0312505
0.773083 0.984268 0.0312505
0.871199 0.974853 0.0312505
0.968017 0.968475 0.0312505
0 0.00621042 0.428809
0.170459 0 0.40148
0.347875 0 0.389136
0.518425 0 0.38851
0.74226 0 0.380636
0.877546 0 0.376287
0.937499 0 0.374655
0.96875 0 0.37966
1 0 0.391257
0 0.152438 0.383703
0.126558 0.125628 0.366339
0.30338 0.111086 0.353414
0.471595 0.0973068 0.342809
0.683299 0.0811627 0.329976
0.831586 0.0877089 0.336568
0.937499 0.102449 0.35021
0.96875 0.119417 0.364889
1 0.136034 0.379095
0 0.294667 0.331899
0.0600595 0.269886 0.310445
0.262608 0.26981 0.31043
0.439323 0.275044 0.314443
0.654124 0.267155 0.305898
0.807828 0.273243 0.310536
0.935393 0.281819 0.317342
0.96875 0.291127 0.324498
1 0.303899 0.334874
0 0.486976 0.305379
0.0404517 0.466163 0.287739
0.237415 0.461601 0.284901
0.409689 0.46154 0.285756
0.614755 0.445762 0.267948
0.763638 0.443854 0.265034
0.886366 0.446754 0.266941
0.96875 0.449363 0.269154
1 0.45742 0.27715
0 0.647822 0.314519
0.0573129 0.626642 0.297459
0.24361 0.617472 0.290776
0.40885 0.611109 0.285756
0.602457 0.591806 0.261189
0.742473 0.584695 0.251194
0.857496 0.582452 0.24828
0.96611 0.579965 0.245335
1 0.583932 0.248875
0 0.780774 0.329656
0.0815595 0.756802 0.31342
0.255085 0.742336 0.302052
0.414862 0.730327 0.291218
0.60058 0.707607 0.265385
0.73196 0.697246 0.251469
0.839002 0.691218 0.243595
0.940475 0.682612 0.228809
1 0.683345 0.221637
0 0.898482 0.325948
0.0746929 0.873426 0.307897
0.243015 0.853574 0.291814
0.397482 0.836011 0.273259
0.580575 0.808621 0.243397
0.708141 0.794842 0.225711
0.811948 0.786404 0.2159
0.908919 0.778042 0.208576
1 0.779355 0.201694
0 0.96875 0.30692
0.040238 0.96875 0.283757
0.212009 0.955398 0.26482
0.365942 0.936202 0.239933
0.552026 0.906508 0.20589
0.682063 0.891798 0.18674
0.787884 0.883253 0.176547
0.88716 0.874388 0.171801
0.985046 0.868193 0.167681
0 1 0.297627
0.0312505 1 0.269596
0.19379 1 0.249729
0.342199 1 0.217182
0.524453 0.996628 0.180179
0.655543 0.980346 0.162829
0.760067 0.971191 0.154009
0.858488 0.961578 0.152132
0.955123 0.954787 0.142336
0 0.0043183 0.580087
0.16817 0 0.560189
0.345586 0 0.545205
0.528237 0 0.54229
0.738476 0 0.527626
0.870039 0 0.522011
0.937499 0 0.520729
0.96875 0 0.526818
1 0 0.535729
0 0.146105 0.534218
0.124727 0.123491 0.517525
0.30132 0.109453 0.501778
0.472084 0.100816 0.493019
0.681727 0.0868391 0.482033
0.829145 0.0928664 0.48809
0.937499 0.106828 0.500526
0.96875 0.123842 0.51342
1 0.140063 0.524788
0 0.296483 0.484413
0.064271 0.272862 0.466499
0.266758 0.273991 0.467567
0.443809 0.281895 0.472908
0.654521 0.273365 0.464866
0.806607 0.276295 0.467384
0.932586 0.283665 0.473091
0.96875 0.291997 0.478523
1 0.306249 0.487953
0 0.48954 0.457572
0.0462043 0.468452 0.442664
0.240833 0.463371 0.441276
0.412421 0.463462 0.442603
0.61445 0.449027 0.42742
0.761059 0.444953 0.422538
0.882856 0.445411 0.421942
0.96875 0.446906 0.422354
1 0.456718 0.430945
0 0.647334 0.464866
0.0616617 0.625727 0.449271
0.245487 0.616587 0.443015
0.409262 0.610239 0.438376
0.601801 0.591577 0.417563
0.738537 0.582284 0.403937
0.853529 0.57821 0.397543
0.962661 0.574319 0.392126
1 0.579461 0.397406
0 0.778058 0.474998
0.0832685 0.754391 0.461707
0.256077 0.739376 0.451453
0.413504 0.726741 0.440528
0.598367 0.70396 0.41651
0.727001 0.692531 0.399008
0.833524 0.685176 0.386725
0.935409 0.67689 0.373999
1 0.676921 0.367819
0 0.894987 0.466468
0.0737774 0.869337 0.453422
0.244205 0.848188 0.439963
0.39649 0.830289 0.422568
0.577615 0.802502 0.392782
0.703395 0.788464 0.374655
0.805676 0.779919 0.360815
0.9028 0.771359 0.349783
1 0.772641 0.343099
0 0.96875 0.445289
0.0363775 0.96875 0.428611
0.216297 0.947463 0.415793
0.368994 0.927596 0.394629
0.551354 0.898238 0.360433
0.679316 0.883574 0.341314
0.782406 0.876005 0.327016
0.880629 0.867567 0.317891
0.979889 0.862028 0.309804
0 1 0.432013
0.0312505 1 0.409979
0.194263 1 0.394827
0.347417 1 0.371572
0.524697 0.986831 0.333059
0.652323 0.971633 0.312688
0.754772 0.963546 0.30013
0.852369 0.954665 0.295201
0.949798 0.949111 0.286915
0 0.0041352 0.707057
0.168032 0 0.689967
0.346136 0 0.673014
0.537057 0 0.666575
0.736187 0 0.650584
0.863584 0 0.646525
0.937499 0 0.648875
0.96875 0 0.656626
1 0 0.664485
0 0.151995 0.664698
0.124315 0.122744 0.6439
0.301183 0.10988 0.626398
0.475517 0.105043 0.618051
0.682033 0.0964981 0.610086
0.8262 0.103273 0.618845
0.937499 0.116701 0.631952
0.96875 0.132647 0.643671
1 0.146212 0.652308
0 0.301198 0.614374
0.0702983 0.277668 0.597787
0.272175 0.279881 0.598611
0.449516 0.288228 0.603021
0.656428 0.283421 0.596918
0.80412 0.28542 0.601709
0.92784 0.290257 0.608148
0.96875 0.297993 0.613397
1 0.311666 0.619471
0 0.494087 0.589166
0.0531014 0.472221 0.573526
0.245106 0.466346 0.571542
0.415976 0.466148 0.571588
0.616495 0.454551 0.558679
0.758999 0.449866 0.556237
0.879011 0.447776 0.556176
0.96875 0.448325 0.55668
1 0.459251 0.56379
0 0.648539 0.59678
0.0665904 0.627558 0.578027
0.24802 0.617258 0.570367
0.410712 0.610269 0.564401
0.602289 0.592157 0.544915
0.73666 0.5841 0.535973
0.848905 0.578058 0.529229
0.957549 0.572198 0.522606
1 0.578073 0.527749
0 0.776593 0.603815
0.0868696 0.753414 0.587976
0.257298 0.738003 0.576196
0.413779 0.725032 0.564569
0.597238 0.701823 0.540261
0.72491 0.690532 0.527092
0.828885 0.682063 0.513695
0.930922 0.672374 0.499229
1 0.673075 0.496132
0 0.892103 0.592081
0.0746014 0.866224 0.577691
0.243732 0.844816 0.562448
0.396246 0.826352 0.54583
0.576471 0.798138 0.516686
0.70135 0.78378 0.501228
0.80116 0.77525 0.486549
0.8981 0.766522 0.471702
1 0.767758 0.466102
0 0.96875 0.568902
0.036347 0.96875 0.553857
0.214267 0.943526 0.538079
0.369985 0.922271 0.519921
0.551858 0.892393 0.488029
0.678431 0.877485 0.470817
0.779141 0.869703 0.458061
0.875624 0.86244 0.445121
0.975952 0.857588 0.432563
0 1 0.550042
0.0312505 1 0.531609
0.192966 1 0.515557
0.349004 1 0.495872
0.52842 0.978347 0.462913
0.652857 0.963592 0.442802
0.752697 0.955871 0.43061
0.848005 0.948684 0.420783
0.945937 0.945052 0.407492
0 0.0043946 0.824765
0.169329 0 0.808133
0.348089 0 0.790661
0.543816 0 0.784329
0.735058 0 0.768597
0.858717 0 0.76878
0.937499 0 0.776242
0.96875 0 0.788754
1 0 0.801663
0 0.152193 0.781888
0.124605 0.122347 0.761181
0.30251 0.111788 0.74229
0.48043 0.10959 0.73492
0.684047 0.104448 0.726864
0.823835 0.114855 0.73753
0.937499 0.128817 0.753491
0.96875 0.144778 0.766018
1 0.15288 0.77586
0 0.307103 0.734646
0.0772717 0.283207 0.719493
0.278065 0.286442 0.718883
0.455116 0.294011 0.721874
0.659175 0.29044 0.714275
0.801831 0.295781 0.719768
0.921324 0.300557 0.729213
0.96875 0.307805 0.735088
1 0.318776 0.740032
0 0.499458 0.710796
0.0600595 0.476219 0.69427
0.249805 0.469886 0.69099
0.420005 0.469139 0.689036
0.618433 0.457633 0.674861
0.757717 0.456672 0.674235
0.874342 0.452247 0.67776
0.96875 0.453696 0.679393
1 0.464393 0.684901
0 0.650492 0.719585
0.0723278 0.629206 0.69662
0.25069 0.618433 0.687007
0.412665 0.611017 0.67921
0.602747 0.592569 0.658442
0.735698 0.586313 0.651484
0.844099 0.580438 0.648722
0.950896 0.572625 0.643824
1 0.579293 0.648081
0 0.775464 0.726528
0.0914321 0.753063 0.704555
0.258289 0.737331 0.69015
0.413962 0.723766 0.676814
0.596124 0.700099 0.651179
0.723064 0.688853 0.638987
0.824201 0.681025 0.630503
0.924285 0.670329 0.618097
1 0.671366 0.616938
0 0.888853 0.714366
0.0776684 0.863661 0.69366
0.243305 0.842329 0.674739
0.395209 0.823438 0.656809
0.57496 0.794919 0.626947
0.699382 0.780331 0.6121
0.797833 0.771923 0.602487
0.893156 0.761929 0.584955
1 0.763943 0.583001
0 0.96875 0.691295
0.0383154 0.966064 0.671244
0.213428 0.940078 0.650889
0.368475 0.918685 0.631479
0.551446 0.888289 0.600702
0.677745 0.872892 0.584863
0.777417 0.864652 0.575891
0.871275 0.857984 0.562539
0.972168 0.853803 0.547829
0 1 0.668589
0.0312505 1 0.647501
0.191867 1 0.627085
0.347448 1 0.606149
0.528908 0.97293 0.575036
0.653483 0.957244 0.557794
0.751751 0.949203 0.547631
0.844633 0.942519 0.53814
0.94226 0.941222 0.521309
0 0.00326543 0.937499
0.169924 0 0.937499
0.352193 0 0.928023
0.548196 0 0.917052
0.733761 0 0.900404
0.854704 0 0.899367
0.937499 0 0.909422
0.96875 0 0.922332
1 0 0.937499
0 0.151202 0.911788
0.124361 0.121386 0.89218
0.30399 0.113664 0.872358
0.484596 0.11284 0.865873
0.68632 0.109133 0.858244
0.822507 0.12282 0.867262
0.937499 0.139223 0.882704
0.96875 0.155535 0.895094
1 0.15874 0.910002
0 0.308492 0.865919
0.0834211 0.288319 0.853834
0.282521 0.29192 0.850813
0.459586 0.298589 0.852094
0.661021 0.294423 0.843168
0.80029 0.30164 0.846479
0.914794 0.308782 0.856123
0.96875 0.316808 0.862211
1 0.324804 0.869795
0 0.503853 0.842695
0.0652781 0.479026 0.828016
0.252827 0.472435 0.821683
0.4224 0.470787 0.817029
0.619333 0.458869 0.801572
0.756252 0.458701 0.798917
0.866484 0.459937 0.802838
0.96875 0.46009 0.806683
1 0.468742 0.812772
0 0.651881 0.851423
0.0763104 0.629511 0.827298
0.252018 0.618555 0.815015
0.413138 0.610254 0.804288
0.601907 0.59144 0.781949
0.733806 0.585336 0.773724
0.838499 0.58233 0.771847
0.940047 0.575204 0.770657
1 0.58085 0.774868
0 0.773663 0.857984
0.0922408 0.75079 0.832135
0.257603 0.735241 0.815274
0.412451 0.721233 0.799161
0.593668 0.6972 0.771801
0.719768 0.68571 0.758206
0.819226 0.679118 0.751019
0.91545 0.66894 0.743847
1 0.670146 0.745418
0 0.883864 0.847776
0.0796063 0.859876 0.82089
0.241413 0.838697 0.798459
0.392416 0.819486 0.777951
0.571694 0.790722 0.746212
0.69575 0.776074 0.730327
0.793454 0.767758 0.721401
0.885374 0.759289 0.712123
0.992615 0.760372 0.711238
0 0.96875 0.826688
0.0407568 0.960601 0.800626
0.211261 0.935576 0.775753
0.365286 0.914092 0.753811
0.548363 0.883619 0.721309
0.6748 0.868101 0.705196
0.773846 0.859434 0.696513
0.865919 0.852583 0.687739
0.964874 0.848798 0.676783
0 1 0.801373
0.0312505 1 0.776272
0.190127 1 0.750317
0.343984 0.999634 0.727214
0.525475 0.967956 0.694682
0.651255 0.951385 0.677729
0.749355 0.942687 0.66891
0.840543 0.935668 0.661051
0.936996 0.935805 0.647257
0 0.00128176 0.96875
0.171008 0 0.96875
0.354406 0 0.96875
0.551781 0 0.96875
0.732677 0 0.96875
0.853498 0 0.96875
0.937499 0 0.96875
0.96875 0 0.96875
1 0 0.96875
0 0.151202 0.96875
0.125566 0.121569 0.96875
0.305806 0.116182 0.96875
0.489158 0.11635 0.96875
0.688731 0.113527 0.96875
0.823056 0.128038 0.96875
0.93521 0.146212 0.96875
0.96875 0.162158 0.96875
1 0.165545 0.96875
0 0.317922 0.96875
0.0903182 0.294209 0.96875
0.286549 0.297276 0.96875
0.463386 0.30251 0.96875
0.662348 0.297536 0.96875
0.799847 0.304082 0.96875
0.910506 0.31371 0.96875
0.96875 0.322744 0.96875
1 0.328496 0.96875
0 0.507424 0.96875
0.0705272 0.481514 0.962341
0.255116 0.474479 0.955444
0.424506 0.471946 0.949447
0.619135 0.459266 0.931991
0.754742 0.458701 0.927367
0.862211 0.46186 0.9281
0.96289 0.464256 0.930007
1 0.470222 0.939086
0 0.65243 0.96875
0.0796063 0.629664 0.959106
0.252567 0.618036 0.945937
0.413382 0.608972 0.933577
0.600366 0.589654 0.909072
0.730968 0.583001 0.899046
0.83418 0.58088 0.895354
0.930144 0.576898 0.892714
1 0.580941 0.899107
0 0.771847 0.96875
0.09514 0.749584 0.961349
0.256733 0.732921 0.94342
0.410452 0.718242 0.925368
0.590509 0.693721 0.895933
0.715648 0.681819 0.880751
0.814466 0.675288 0.872374
0.906722 0.667445 0.866133
1 0.669169 0.870939
0 0.878874 0.96875
0.0794995 0.85597 0.947402
0.238819 0.834562 0.924376
0.389197 0.814939 0.902129
0.567575 0.785992 0.868742
0.69131 0.771206 0.851484
0.788571 0.762936 0.841749
0.878676 0.755337 0.833738
0.981674 0.757229 0.837034
0 0.96875 0.954299
0.0420996 0.955306 0.928359
0.208362 0.930831 0.902342
0.361746 0.90927 0.878981
0.544335 0.878782 0.845243
0.670527 0.862913 0.82768
0.769436 0.854459 0.818494
0.860868 0.847501 0.810788
0.956237 0.843671 0.805432
0 1 0.928313
0.0312505 1 0.902602
0.186252 1 0.874907
0.340414 0.994476 0.850675
0.521309 0.962844 0.816892
0.647211 0.946105 0.799222
0.745342 0.937133 0.790021
0.835889 0.929946 0.782284
0.930648 0.929305 0.775814
0 0.000564584 1
0.174533 0 1
0.355596 0 1
0.554818 0 1
0.732219 0 1
0.853391 0 1
0.937499 0 1
0.96875 0 1
1 0 1
0 0.150301 1
0.12784 0.122393 1
0.308415 0.119387 1
0.493858 0.119631 1
0.691218 0.11783 1
0.824094 0.133623 1
0.935225 0.151019 1
0.96875 0.165881 1
1 0.169451 1
0 0.323064 1
0.0979934 0.300374 1
0.29044 0.302571 1
0.467063 0.30634 1
0.66334 0.300267 1
0.79939 0.306249 1
0.908461 0.315755 1
0.96875 0.323629 1
1 0.32874 1
0 0.510185 1
0.0767681 0.484611 1
0.258259 0.476951 1
0.426581 0.473289 1
0.619181 0.4598 1
0.752926 0.458412 1
0.859693 0.461616 1
0.958328 0.464958 1
1 0.469734 1
0 0.651072 1
0.0768597 0.62797 1
0.248722 0.615808 1
0.408942 0.605402 1
0.596429 0.585214 1
0.727016 0.57792 1
0.830228 0.578683 1
0.924605 0.576638 1
1 0.579904 1
0 0.770397 1
0.0975662 0.748119 1
0.256977 0.730846 1
0.409125 0.715251 1
0.587625 0.690135 1
0.711711 0.677836 0.999207
0.809949 0.671229 0.989593
0.900755 0.663828 0.982589
1 0.663508 0.990768
0 0.874784 1
0.085481 0.852323 1
0.240864 0.83035 1
0.38822 0.810101 1
0.564187 0.780774 0.985763
0.686244 0.765743 0.967254
0.782727 0.757275 0.956481
0.872221 0.750713 0.948058
0.973678 0.754543 0.954147
0 0.96875 1
0.0312505 0.951278 1
0.184405 0.925948 1
0.339788 0.903532 1
0.526833 0.871519 0.96527
0.656306 0.854688 0.945724
0.758251 0.845808 0.935286
0.847364 0.834455 0.918395
0.941253 0.833814 0.917479
0 1 1
0.0312505 1 1
0.190723 1 0.988937
0.339574 0.981643 0.962692
0.515175 0.949264 0.927001
0.638025 0.931731 0.907652
0.733852 0.922194 0.897261
0.82269 0.914824 0.889235
0.916854 0.91548 0.88809
