70 CGC LUTs/Look LUTs/Rhythm.cube
#Created by: Denver Riddle
#Copyright: (C) Copyright Color Grading Central LLC
#LUT Size
LUT_3D_SIZE 33
0 0 0
0.00781262 0 0
0.0306706 0 0
0.0925002 0 0
0.168597 0 0
0.221668 0 0
0.268864 0 0
0.311299 0 0
0.349203 0 0
0.385229 0 0
0.424338 0 0
0.471077 0 0
0.525277 0 0
0.584146 0 0
0.647257 0 0
0.705653 0 0
0.758694 0 0
0.80325 0 0
0.841627 0 0
0.876188 0 0
0.906249 0 0
0.914061 0 0
0.921874 0 0
0.929686 0 0
0.937499 0 0
0.945312 0 0
0.953124 0 0
0.960937 0 0
0.96875 0 0
0.976562 0 0
0.984375 0 0
0.992187 0 0
1 0 0
0 0.0228733 0
0.00781262 0.0106813 0
0.0231022 0.00781262 0
0.0823987 0.00781262 0
0.157748 0.00781262 0
0.211337 0.00781262 0
0.259342 0.00781262 0
0.30193 0.00781262 0
0.339925 0.00781262 0
0.376455 0.00781262 0
0.417777 0.00781262 0
0.46746 0.00781262 0
0.526635 0.00781262 0
0.598703 0.00781262 0
0.661555 0.00781262 0
0.711238 0.00781262 0
0.754864 0.00781262 0
0.794736 0.00781262 0
0.830716 0.00781262 0
0.864332 0.00781262 0
0.896773 0.00781262 0
0.914061 0.00781262 0
0.921874 0.00781262 0
0.929686 0.00781262 0
0.937499 0.00781262 0
0.945312 0.00781262 0
0.953124 0.00781262 0
0.960937 0.00781262 0
0.96875 0.00781262 0
0.976562 0.00781262 0
0.984375 0.00781262 0
0.992187 0.00781262 0
1 0.00781262 0
0 0.0581979 0
0.00781262 0.0459602 0
0.0156252 0.0377813 0
0.0705882 0.0315557 0
0.145937 0.0234226 0
0.201038 0.0212711 0
0.249866 0.0204776 0
0.293095 0.0209354 0
0.331212 0.0225376 0
0.371283 0.02533 0
0.420844 0.0260319 0
0.475837 0.0222019 0
0.5346 0.0156252 0
0.597238 0.0156252 0
0.654078 0.0156252 0
0.701274 0.0156252 0
0.743572 0.0156252 0
0.782162 0.0156252 0
0.817945 0.0156252 0
0.851316 0.0156252 0
0.883711 0.0156252 0
0.914061 0.0156252 0
0.921874 0.0156252 0
0.929686 0.0156252 0
0.937499 0.0156252 0
0.945312 0.0156252 0
0.953124 0.0156252 0
0.960937 0.0156252 0
0.96875 0.0156252 0
0.976562 0.0156252 0
0.984375 0.0156252 0
0.992187 0.0156252 0
1 0.0156252 0
0 0.0963607 0
0.00781262 0.0845197 0
0.0156252 0.0765393 0
0.055848 0.0704509 0
0.132296 0.0624094 0
0.190311 0.0604257 0
0.244099 0.0626993 0
0.287205 0.0642557 0
0.324544 0.0652628 0
0.363088 0.0644694 0
0.409125 0.0618448 0
0.461631 0.0568704 0
0.518212 0.0502632 0
0.57911 0.0423133 0
0.635996 0.0354925 0
0.683558 0.0308995 0
0.72636 0.0279698 0
0.765682 0.0260319 0
0.802518 0.0255741 0
0.837385 0.0264286 0
0.870848 0.027985 0
0.90396 0.0304265 0
0.921874 0.0334936 0
0.929686 0.0364996 0
0.937499 0.0399023 0
0.945312 0.0435492 0
0.953124 0.0466773 0
0.960937 0.0497597 0
0.96875 0.0523079 0
0.976562 0.0537728 0
0.984375 0.0548409 0
0.992187 0.0559243 0
1 0.0573739 0
0 0.141924 0
0.00781262 0.131579 0
0.0156252 0.125185 0
0.0393378 0.122362 0
0.116869 0.114382 0
0.175143 0.110613 0
0.225147 0.108354 0
0.267536 0.107179 0
0.303792 0.106661 0
0.339757 0.105684 0
0.380652 0.103502 0
0.428595 0.0990158 0
0.481468 0.0935073 0
0.538994 0.0870069 0
0.59884 0.0801709 0
0.651652 0.0760357 0
0.69749 0.0743267 0
0.739574 0.0740978 0
0.778973 0.0755016 0
0.815641 0.0775311 0
0.850446 0.0805524 0
0.884138 0.0838178 0
0.91725 0.0873579 0
0.929686 0.0913558 0
0.937499 0.0951095 0
0.945312 0.0990616 0
0.953124 0.102983 0
0.960937 0.106523 0
0.96875 0.109361 0
0.976562 0.111681 0
0.984375 0.113375 0
0.992187 0.114733 0
1 0.117281 0
0 0.185489 0
0.00781262 0.176837 0
0.0156252 0.170092 0
0.0347753 0.163836 0
0.109117 0.154162 0
0.165682 0.149142 0
0.214603 0.145724 0
0.256672 0.143679 0
0.293034 0.142824 0
0.329 0.142306 0
0.368963 0.140703 0
0.415991 0.137804 0
0.468757 0.134234 0
0.525612 0.130114 0
0.586404 0.12549 0
0.640925 0.122972 0
0.6878 0.122896 0
0.730098 0.123842 0
0.769863 0.126055 0
0.80676 0.128756 0
0.841688 0.132097 0
0.875288 0.135988 0
0.908156 0.139971 0
0.929686 0.143999 0
0.937499 0.148425 0
0.945312 0.152544 0
0.953124 0.156588 0
0.960937 0.160067 0
0.96875 0.163241 0
0.976562 0.165637 0
0.984375 0.167391 0
0.992187 0.168948 0
1 0.170916 0
0 0.223117 0
0.00781262 0.214511 0
0.0156252 0.192981 0
0.0234379 0.185107 0
0.0787823 0.173281 0
0.134157 0.166827 0
0.183627 0.162417 0
0.227481 0.160159 0
0.266178 0.160037 0
0.304723 0.161044 0
0.347356 0.161196 0
0.396841 0.160601 0
0.451774 0.158938 0
0.510735 0.156237 0
0.572992 0.153048 0
0.629648 0.151354 0
0.677668 0.152209 0
0.721736 0.154269 0
0.7626 0.157076 0
0.800443 0.160632 0
0.836332 0.164691 0
0.870771 0.169055 0
0.904005 0.173281 0
0.929686 0.17792 0
0.937499 0.182422 0
0.945312 0.186618 0
0.953124 0.190677 0
0.960937 0.194614 0
0.96875 0.198123 0
0.976562 0.201114 0
0.984375 0.203357 0
0.992187 0.205524 0
1 0.207904 0
0 0.256626 0
0.00781262 0.246876 0
0.0156252 0.237568 0
0.0234379 0.227909 0
0.0596933 0.214939 0
0.116258 0.20911 0
0.167422 0.205707 0
0.213687 0.204852 0
0.254704 0.206668 0
0.294774 0.20914 0
0.338857 0.211063 0
0.388312 0.21149 0
0.443198 0.210758 0
0.501534 0.209232 0
0.56289 0.206775 0
0.619242 0.205798 0
0.667338 0.207111 0
0.710918 0.209201 0
0.751461 0.212116 0
0.789319 0.215534 0
0.825162 0.219394 0
0.859281 0.223392 0
0.892454 0.227558 0
0.925093 0.231617 0
0.937499 0.235676 0
0.945312 0.239368 0
0.953124 0.242954 0
0.960937 0.246265 0
0.96875 0.249256 0
0.976562 0.251774 0
0.984375 0.253605 0
0.992187 0.255528 0
1 0.257374 0
0 0.297154 0
0.00781262 0.28896 0
0.0156252 0.281514 0
0.0234379 0.273716 0
0.0443275 0.262776 0
0.103944 0.258564 0
0.15761 0.256519 0
0.205158 0.256535 0
0.246799 0.258671 0
0.287434 0.261295 0
0.331609 0.263676 0
0.381476 0.264744 0
0.436027 0.264286 0
0.494057 0.263233 0
0.555276 0.261143 0
0.611063 0.260273 0
0.658595 0.261189 0
0.701961 0.263294 0
0.742428 0.266087 0
0.779889 0.26923 0
0.815183 0.272389 0
0.84889 0.27602 0
0.881636 0.279728 0
0.913436 0.283055 0
0.937499 0.28603 0
0.945312 0.288853 0
0.953124 0.291463 0
0.960937 0.293889 0
0.96875 0.29604 0
0.976562 0.298085 0
0.984375 0.299718 0
0.992187 0.301335 0
1 0.302983 0
0 0.340673 0
0.00781262 0.334691 0
0.0156252 0.329046 0
0.0234379 0.322896 0
0.0343023 0.313375 0
0.0953384 0.310185 0
0.150744 0.308904 0
0.199115 0.309728 0
0.241047 0.312123 0
0.281788 0.314946 0
0.325719 0.317205 0
0.374975 0.318044 0
0.429435 0.317525 0
0.486961 0.316182 0
0.547601 0.313832 0
0.602823 0.31252 0
0.650248 0.313344 0
0.693187 0.314992 0
0.733028 0.317205 0
0.770153 0.319936 0
0.804776 0.322515 0
0.838041 0.325567 0
0.869902 0.32871 0
0.900984 0.331518 0
0.931533 0.33434 0
0.945312 0.336629 0
0.953124 0.339193 0
0.960937 0.341451 0
0.96875 0.34342 0
0.976562 0.345327 0
0.984375 0.346822 0
0.992187 0.348318 0
1 0.34992 0
0 0.390112 0
0.00781262 0.385199 0
0.0156252 0.380591 0
0.0234379 0.375341 0
0.0312505 0.366445 0
0.0924086 0.363928 0
0.148714 0.363684 0
0.197467 0.365209 0
0.2392 0.368307 0
0.279469 0.371374 0
0.322362 0.373404 0
0.370962 0.3738 0
0.424353 0.372808 0
0.480568 0.370886 0
0.539956 0.368032 0
0.59443 0.36611 0
0.640833 0.366155 0
0.683009 0.367178 0
0.72192 0.368673 0
0.758267 0.370611 0
0.79202 0.372473 0
0.824399 0.374884 0
0.855848 0.377142 0
0.88629 0.379568 0
0.916335 0.381826 0
0.945312 0.383841 0
0.953124 0.385931 0
0.960937 0.387671 0
0.96875 0.389334 0
0.976562 0.390906 0
0.984375 0.392218 0
0.992187 0.393652 0
1 0.394858 0
0 0.440253 0
0.00781262 0.436469 0
0.0156252 0.432303 0
0.0234379 0.427665 0
0.0312505 0.419303 0
0.0921798 0.416617 0
0.148089 0.416236 0
0.19646 0.417884 0
0.238102 0.421012 0
0.278462 0.42417 0
0.320928 0.425834 0
0.368795 0.426001 0
0.421454 0.424674 0
0.476524 0.422217 0
0.53431 0.418585 0
0.587518 0.416373 0
0.632776 0.415747 0
0.67393 0.415991 0
0.712123 0.416739 0
0.747723 0.417975 0
0.781003 0.419425 0
0.812787 0.421164 0
0.843732 0.423102 0
0.873655 0.425086 0
0.903212 0.42681 0
0.932723 0.428565 0
0.953124 0.430243 0
0.960937 0.431388 0
0.96875 0.432746 0
0.976562 0.433982 0
0.984375 0.435019 0
0.992187 0.436027 0
1 0.437049 0
0 0.49012 0
0.00781262 0.486442 0
0.0156252 0.482506 0
0.0234379 0.477424 0
0.0312505 0.465431 0
0.0860456 0.461906 0
0.140093 0.460395 0
0.186801 0.460807 0
0.227863 0.462821 0
0.267872 0.464637 0
0.311162 0.465797 0
0.359762 0.465263 0
0.412512 0.46334 0
0.467918 0.460472 0
0.525719 0.456321 0
0.578805 0.453574 0
0.624308 0.452689 0
0.665507 0.452522 0
0.703944 0.453117 0
0.739498 0.454078 0
0.772976 0.455436 0
0.804761 0.456962 0
0.836027 0.458412 0
0.865888 0.46006 0
0.89546 0.461616 0
0.924834 0.463096 0
0.953124 0.464271 0
0.960937 0.465446 0
0.96875 0.466484 0
0.976562 0.467384 0
0.984375 0.468269 0
0.992187 0.469398 0
1 0.470375 0
0 0.534478 0
0.00781262 0.531731 0
0.0156252 0.528176 0
0.0234379 0.523033 0
0.0335851 0.513756 0
0.0936446 0.509544 0
0.146456 0.507347 0
0.191531 0.507332 0
0.231022 0.508537 0
0.270207 0.509758 0
0.312688 0.510033 0
0.360601 0.50901 0
0.412558 0.5066 0
0.467491 0.503304 0
0.524407 0.499016 0
0.576486 0.495964 0
0.62118 0.494682 0
0.661799 0.494285 0
0.699611 0.494514 0
0.734722 0.495079 0
0.767636 0.495979 0
0.7991 0.497124 0
0.82948 0.498207 0
0.858854 0.499336 0
0.887877 0.500481 0
0.916671 0.501564 0
0.945266 0.50251 0
0.960937 0.503227 0
0.96875 0.503914 0
0.976562 0.504555 0
0.984375 0.50547 0
0.992187 0.506584 0
1 0.507439 0
0 0.579522 0
0.00781262 0.576852 0
0.0156252 0.573159 0
0.0234379 0.567651 0
0.0428016 0.558099 0
0.10222 0.553414 0
0.153796 0.550942 0
0.197528 0.550576 0
0.236179 0.551369 0
0.273991 0.551949 0
0.315557 0.551736 0
0.362783 0.550118 0
0.414038 0.547326 0
0.468208 0.543709 0
0.524453 0.539162 0
0.575692 0.535851 0
0.619684 0.534234 0
0.659464 0.533333 0
0.696559 0.533181 0
0.731106 0.533486 0
0.763577 0.534051 0
0.794324 0.534691 0
0.824216 0.535561 0
0.853101 0.5364 0
0.881498 0.537011 0
0.909621 0.537194 0
0.93785 0.537179 0
0.960937 0.536965 0
0.96875 0.536706 0
0.976562 0.536553 0
0.984375 0.536797 0
0.992187 0.537438 0
1 0.538018 0
0 0.618738 0
0.00781262 0.61593 0
0.0156252 0.611856 0
0.0234379 0.60621 0
0.0435187 0.596597 0
0.102419 0.591623 0
0.153841 0.588983 0
0.197787 0.588586 0
0.236622 0.58938 0
0.274754 0.589837 0
0.315831 0.589212 0
0.362646 0.587182 0
0.413382 0.583825 0
0.46717 0.579644 0
0.522927 0.574838 0
0.573678 0.57116 0
0.617304 0.569116 0
0.657023 0.567926 0
0.69366 0.567239 0
0.728023 0.567163 0
0.76022 0.567391 0
0.790829 0.567636 0
0.820508 0.568109 0
0.849088 0.568673 0
0.877272 0.569085 0
0.90515 0.56939 0
0.932708 0.569635 0
0.959884 0.569818 0
0.96875 0.569879 0
0.976562 0.569924 0
0.984375 0.570138 0
0.992187 0.57084 0
1 0.571359 0
0 0.657572 0
0.00781262 0.654551 0
0.0156252 0.650294 0
0.0234379 0.644312 0
0.055314 0.63473 0
0.112932 0.629694 0
0.163378 0.626993 0
0.206714 0.626551 0
0.24535 0.627237 0
0.283238 0.627604 0
0.3243 0.626871 0
0.370245 0.624323 0
0.419959 0.6206 0
0.472358 0.615961 0
0.526482 0.610803 0
0.576028 0.60679 0
0.618769 0.604425 0
0.657572 0.602899 0
0.693538 0.601907 0
0.727092 0.601343 0
0.758633 0.601205 0
0.788632 0.60119 0
0.817502 0.601267 0
0.845533 0.601511 0
0.873137 0.601617 0
0.900511 0.601587 0
0.927626 0.60148 0
0.954269 0.601404 0
0.96875 0.601251 0
0.976562 0.601175 0
0.984375 0.601389 0
0.992187 0.602029 0
1 0.602548 0
0 0.694026 0
0.00781262 0.691112 0
0.0156252 0.686717 0
0.0234379 0.680613 0
0.0680552 0.67097 0
0.124636 0.665522 0
0.173587 0.662837 0
0.215473 0.661952 0
0.253452 0.662196 0
0.291005 0.662333 0
0.331518 0.66125 0
0.377234 0.658412 0
0.426566 0.654505 0
0.478401 0.649638 0
0.531167 0.644144 0
0.579522 0.639887 0
0.621256 0.637293 0
0.659205 0.635493 0
0.694438 0.634089 0
0.727413 0.633234 0
0.75819 0.632822 0
0.787625 0.632532 0
0.815961 0.63238 0
0.843397 0.632319 0
0.870451 0.632136 0
0.897185 0.63183 0
0.923613 0.631449 0
0.94966 0.631067 0
0.96875 0.630793 0
0.976562 0.630594 0
0.984375 0.630777 0
0.992187 0.63151 0
1 0.632105 0
0 0.729244 0
0.00781262 0.726482 0
0.0156252 0.721904 0
0.0234379 0.715648 0
0.0785077 0.705287 0
0.133288 0.699718 0
0.180789 0.696315 0
0.220157 0.694896 0
0.256214 0.694545 0
0.29247 0.694041 0
0.332418 0.692378 0
0.377493 0.689067 0
0.426932 0.684688 0
0.478706 0.679561 0
0.531701 0.673945 0
0.579782 0.669474 0
0.621271 0.666606 0
0.6589 0.664561 0
0.693904 0.662943 0
0.726482 0.661768 0
0.756909 0.661128 0
0.785977 0.660609 0
0.814038 0.660166 0
0.841093 0.659846 0
0.867796 0.659449 0
0.894194 0.658885 0
0.920241 0.658244 0
0.945968 0.657649 0
0.96875 0.65713 0
0.976562 0.656794 0
0.984375 0.657069 0
0.992187 0.657954 0
1 0.658778 0
0 0.763119 0
0.00781262 0.760403 0
0.0156252 0.755993 0
0.0234379 0.749569 0
0.0849928 0.739025 0
0.139727 0.733059 0
0.186175 0.729519 0
0.225849 0.72781 0
0.261677 0.727031 0
0.297368 0.726116 0
0.336996 0.724056 0
0.381659 0.720333 0
0.430396 0.715602 0
0.481544 0.710246 0
0.533928 0.704372 0
0.581186 0.699641 0
0.621927 0.696498 0
0.659083 0.694102 0
0.693523 0.692241 0
0.725475 0.690837 0
0.755367 0.689891 0
0.783948 0.689067 0
0.811475 0.688396 0
0.838041 0.687831 0
0.864164 0.687175 0
0.890059 0.686366 0
0.915633 0.685435 0
0.94078 0.684565 0
0.966201 0.683757 0
0.976562 0.683253 0
0.984375 0.683406 0
0.992187 0.68423 0
1 0.685191 0
0 0.796185 0
0.00781262 0.793759 0
0.0156252 0.789166 0
0.0234379 0.782666 0
0.0919814 0.771634 0
0.145541 0.765362 0
0.19118 0.761563 0
0.230213 0.759609 0
0.265599 0.758556 0
0.30103 0.757382 0
0.340398 0.754971 0
0.384512 0.751141 0
0.43267 0.74609 0
0.483085 0.740383 0
0.534859 0.734112 0
0.581323 0.729061 0
0.621256 0.725551 0
0.657832 0.722759 0
0.691646 0.720638 0
0.72311 0.718853 0
0.752514 0.71754 0
0.780423 0.716487 0
0.807446 0.715465 0
0.833555 0.714611 0
0.859205 0.71371 0
0.88455 0.712627 0
0.909545 0.711315 0
0.934249 0.709758 0
0.959487 0.70808 0
0.976562 0.706676 0
0.984375 0.705776 0
0.992187 0.705867 0
1 0.706401 0
0 0.827085 0
0.00781262 0.82472 0
0.0156252 0.820356 0
0.0234379 0.813779 0
0.0737926 0.802762 0
0.128435 0.796262 0
0.175174 0.792004 0
0.215274 0.789761 0
0.251713 0.788281 0
0.28835 0.786725 0
0.328817 0.784146 0
0.374044 0.779965 0
0.422675 0.774609 0
0.47396 0.768383 0
0.526558 0.761608 0
0.573709 0.756115 0
0.614145 0.752224 0
0.651148 0.749157 0
0.685496 0.746609 0
0.717327 0.744549 0
0.747066 0.742885 0
0.775479 0.741619 0
0.802853 0.740353 0
0.829267 0.739101 0
0.855146 0.737819 0
0.880735 0.736492 0
0.906126 0.735149 0
0.930755 0.733669 0
0.955139 0.732082 0
0.976562 0.730678 0
0.984375 0.730236 0
0.992187 0.730968 0
1 0.731807 0
0 0.858305 0
0.00781262 0.856199 0
0.0156252 0.851942 0
0.0234379 0.84538 0
0.0773632 0.83418 0
0.131456 0.827298 0
0.177478 0.822919 0
0.217166 0.820356 0
0.253422 0.818631 0
0.289982 0.816754 0
0.330419 0.813672 0
0.375616 0.809033 0
0.423758 0.80325 0
0.474327 0.796613 0
0.525979 0.789517 0
0.572305 0.783856 0
0.611917 0.779614 0
0.648219 0.776104 0
0.68188 0.773251 0
0.713222 0.770932 0
0.742428 0.769085 0
0.770245 0.767376 0
0.797055 0.765835 0
0.823224 0.764294 0
0.848493 0.762814 0
0.873762 0.761379 0
0.898619 0.759731 0
0.922881 0.758053 0
0.946929 0.756313 0
0.97113 0.754894 0
0.984375 0.754467 0
0.992187 0.755352 0
1 0.756649 0
0 0.88838 0
0.00781262 0.88661 0
0.0156252 0.882506 0
0.0234379 0.875914 0
0.0798505 0.864561 0
0.13344 0.857466 0
0.179019 0.85272 0
0.218189 0.84979 0
0.254124 0.847639 0
0.290257 0.845289 0
0.330251 0.841718 0
0.374884 0.836683 0
0.422797 0.830488 0
0.47306 0.823423 0
0.524041 0.816022 0
0.569482 0.810162 0
0.608652 0.805615 0
0.644358 0.801892 0
0.677485 0.798779 0
0.708461 0.796262 0
0.737209 0.794095 0
0.764446 0.792157 0
0.790753 0.790402 0
0.816648 0.788785 0
0.841627 0.787106 0
0.866377 0.785367 0
0.89099 0.783551 0
0.915022 0.781826 0
0.938766 0.779919 0
0.962509 0.778271 0
0.984375 0.778027 0
0.992187 0.779202 0
1 0.780758 0
0 0.916976 0
0.00781262 0.915511 0
0.0156252 0.911589 0
0.0234379 0.904982 0
0.0823987 0.893584 0
0.134661 0.886305 0
0.179034 0.881209 0
0.216815 0.878004 0
0.253559 0.875441 0
0.288258 0.872755 0
0.327565 0.868666 0
0.37142 0.863249 0
0.418723 0.856703 0
0.468666 0.849393 0
0.519295 0.841672 0
0.564706 0.835264 0
0.60354 0.830503 0
0.639063 0.82649 0
0.672084 0.823209 0
0.702739 0.820325 0
0.731136 0.817929 0
0.758297 0.815915 0
0.78407 0.814038 0
0.809552 0.812146 0
0.834379 0.810483 0
0.85893 0.808591 0
0.883268 0.806607 0
0.907027 0.804669 0
0.930694 0.802762 0
0.954162 0.801068 0
0.979309 0.800732 0
0.992187 0.802182 0
1 0.804074 0
0 0.944198 0
0.00781262 0.942763 0
0.0156252 0.938888 0
0.0234379 0.932235 0
0.0858015 0.920653 0
0.137057 0.913375 0
0.180163 0.908125 0
0.21767 0.90454 0
0.251926 0.901778 0
0.286946 0.898573 0
0.326009 0.894102 0
0.369314 0.888365 0
0.415915 0.881773 0
0.465293 0.874098 0
0.515557 0.866072 0
0.56051 0.859419 0
0.599161 0.85452 0
0.634318 0.850278 0
0.666773 0.846662 0
0.697093 0.843702 0
0.725231 0.841108 0
0.751904 0.838819 0
0.777722 0.836835 0
0.802762 0.834821 0
0.827436 0.832868 0
0.851637 0.831022 0
0.875761 0.828992 0
0.899306 0.826947 0
0.922774 0.824994 0
0.946166 0.82324 0
0.971115 0.822919 0
0.992187 0.824537 0
1 0.826749 0
0 0.953124 0
0.00781262 0.953124 0
0.0156252 0.953124 0
0.0234379 0.953124 0
0.0882887 0.946563 0
0.138918 0.938994 0
0.181445 0.933608 0
0.217929 0.929702 0
0.251652 0.926528 0
0.286076 0.923079 0
0.32462 0.918364 0
0.367697 0.912459 0
0.413764 0.905501 0
0.462303 0.897719 0
0.512276 0.889616 0
0.556756 0.882719 0
0.594781 0.877501 0
0.629648 0.873213 0
0.661753 0.869413 0
0.691508 0.866178 0
0.719448 0.863569 0
0.74583 0.861158 0
0.771237 0.858961 0
0.796216 0.856977 0
0.8206 0.854917 0
0.84445 0.852949 0
0.86833 0.85098 0
0.891844 0.848814 0
0.915068 0.846555 0
0.938552 0.844617 0
0.96379 0.843992 0
0.991943 0.845289 0
1 0.847425 0
0 0.960937 0
0.00781262 0.960937 0
0.0156252 0.960937 0
0.0234379 0.960937 0
0.0444343 0.960937 0
0.0965744 0.960937 0
0.142229 0.960937 0
0.181353 0.960937 0
0.217182 0.958068 0
