70 CGC LUTs/Look LUTs/Seven.cube
#Created by: Denver Riddle
#Copyright: (C) Copyright Color Grading Central LLC
#LUT Size
LUT_3D_SIZE 33
0 0 0
0.000915541 0.000488289 6.10361e-05
0.00436408 0.000503548 0.000122072
0.00793469 0.000640879 0.000564584
0.0124514 0.00149538 0.000579843
0.0199741 0.00399786 0.000595102
0.0286107 0.00444038 0.000610361
0.0391546 0.00445563 0.000640879
0.0539254 0.00494392 0.000656138
0.0679179 0.00724804 0.000717174
0.0851911 0.00735485 0.000732433
0.106157 0.00784314 0.000701915
0.131609 0.00781262 0.000488289
0.165087 0.00746166 0
0.20235 0.00596628 0
0.245167 0.00303655 0
0.287739 0 0
0.331334 0 0
0.380774 0 0
0.428916 0 0
0.482017 0 0
0.53109 0 0
0.575814 0 0
0.617639 0 0
0.656321 0 0
0.698207 0 0
0.740505 0 0
0.782849 0 0
0.828916 0 0
0.874769 0 0
0.924697 0 0
0.974762 0 0
0.976272 0 0
0.00102235 0.0040589 0.00062562
0.00392157 0.00448615 0.00105287
0.00453193 0.00453193 0.00112917
0.00856031 0.00454719 0.00108339
0.013077 0.00457771 0.000656138
0.0183871 0.00515755 0.000686656
0.0274205 0.0078584 0.000701915
0.0391852 0.00798047 0.000747692
0.0524605 0.00810254 0.000747692
0.0695048 0.0087129 0.000747692
0.0894484 0.00968948 0.000732433
0.111254 0.0117647 0.000488289
0.137987 0.0116579 0
0.173541 0.0106508 0
0.209628 0.00819409 0
0.248264 0.00616464 0
0.290074 0.000869764 0
0.332662 0 0
0.379339 0 0
0.428794 0 0
0.478431 0 0
0.526741 0 0
0.5691 0 0
0.610773 0 0
0.652689 0 0
0.691356 0 0
0.733333 0 0
0.7794 0 0
0.825254 0 0
0.871336 0 0
0.921218 0 0
0.968414 0 0
0.972961 0 0
0.00392157 0.00619516 0.00163272
0.00404364 0.00851453 0.00393683
0.00523384 0.00854505 0.00404364
0.00866712 0.00856031 0.00357061
0.012726 0.00869764 0.00144961
0.0184939 0.00979629 0.00144961
0.0267185 0.012192 0.00138857
0.037232 0.0132906 0.0012665
0.0536965 0.0133822 0.000747692
0.0734417 0.0143435 0.000732433
0.094255 0.0165866 0.000579843
0.119234 0.0169985 0
0.14873 0.016968 0
0.183719 0.0168002 0
0.220813 0.0158236 0
0.255665 0.0122377 0
0.294453 0.00796521 0
0.3364 0.0016022 0
0.382284 0.00077821 0
0.428153 0 0
0.47361 0 0
0.519203 0 0
0.565133 0 0
0.603632 0 0
0.645884 0 0
0.684443 0 0
0.726787 0 0
0.772457 0 0
0.81857 0 0
0.867918 0 0
0.914885 0 0
0.963729 0 0
0.971969 0 0
0.00392157 0.0132296 0.0040589
0.004654 0.0132296 0.00416571
0.00810254 0.0132601 0.00479133
0.00984207 0.0134127 0.00515755
0.014023 0.0146181 0.00466926
0.021912 0.0173648 0.00456245
0.030045 0.0186313 0.0040589
0.0408026 0.0217899 0.00355535
0.0576638 0.0228122 0.00120546
0.0784619 0.0256352 0.00105287
0.102693 0.0268559 0.000488289
0.130068 0.0292058 0
0.160708 0.0293736 0
0.194568 0.0294499 0
0.228611 0.0291142 0
0.263447 0.0282292 0
0.301732 0.0244297 0
0.340002 0.0199283 0
0.381842 0.0119173 0
0.427527 0 0
0.469673 0 0
0.512032 0 0
0.554849 0 0
0.596979 0 0
0.636011 0 0
0.677516 0 0
0.719814 0 0
0.763012 0 0
0.811246 0 0
0.858763 0 0
0.907713 0 0
0.957382 0 0
0.969375 0 0
0.00392157 0.0226749 0.00468452
0.00466926 0.0226139 0.00466926
0.00869764 0.0225681 0.0052491
0.0130922 0.0233158 0.00738537
0.0178683 0.0264134 0.00529488
0.026276 0.0274968 0.00514229
0.0355535 0.0311284 0.00462348
0.0510567 0.0347601 0.00447089
0.0680705 0.0383001 0.0039826
0.0911574 0.0419776 0.00361639
0.114809 0.0454719 0.000701915
0.142 0.0456855 3.0518e-05
0.172229 0.0487831 0
0.202747 0.0519112 0
0.233082 0.0516213 0
0.267582 0.0513466 0
0.301808 0.0508736 0
0.343816 0.0466011 0
0.382284 0.0421302 0
0.421027 0.0338445 0
0.463127 0.0260929 0
0.502403 0.0155337 0
0.544427 0.0077821 0
0.583917 0.000915541 0
0.625193 0 0
0.667491 0 0
0.709987 0 0
0.75288 0 0
0.800809 0 0
0.849867 0 0
0.900084 0 0
0.950362 0 0
0.965957 0 0
0.00323491 0.040116 0.00531014
0.00392157 0.0399176 0.00523384
0.00828565 0.0399634 0.00561532
0.0149081 0.0410163 0.00808728
0.0216831 0.0435645 0.00885023
0.0336919 0.0469825 0.00843824
0.0456245 0.0507362 0.00552377
0.0613565 0.0541848 0.00488289
0.0811933 0.0579232 0.00425727
0.104051 0.0611276 0.00418097
0.127504 0.0680095 0.00393683
0.15404 0.0711528 0.000183108
0.180606 0.0707256 1.5259e-05
0.211261 0.0741894 0
0.241856 0.0775769 0
0.27248 0.0771496 0
0.306691 0.0800336 0
0.341665 0.0792401 0
0.376486 0.0753796 0
0.412085 0.0732738 0
0.450355 0.06598 0
0.491707 0.0598001 0
0.531228 0.0513619 0
0.572442 0.0426947 0
0.612711 0.0329595 0
0.654246 0.0213779 0
0.696559 0.00743114 0
0.741604 0.00103761 0
0.789593 0 0
0.839094 0 0
0.890059 0 0
0.941833 0 0
0.961395 0 0
0 0.0678416 0.00840772
0.000457771 0.0674907 0.0083772
0.00386053 0.0677043 0.00830091
0.00856031 0.0702983 0.00856031
0.0236667 0.0703136 0.0115358
0.0400397 0.0729534 0.0122835
0.0523842 0.0763104 0.0121614
0.0681773 0.0801099 0.00814832
0.0908064 0.0868849 0.00415045
0.113725 0.0862745 0.00392157
0.140337 0.0933547 0.00392157
0.166949 0.0931868 0.00376898
0.193713 0.0963302 0.00350958
0.220752 0.0997482 0.000244144
0.247303 0.102937 0
0.274739 0.10277 0
0.304982 0.105516 0
0.336172 0.105516 0
0.36817 0.104631 0
0.402564 0.103822 0
0.439658 0.0999771 0
0.47924 0.0972915 0
0.519753 0.0923781 0
0.559487 0.0865339 0
0.600717 0.0780804 0
0.641367 0.0679789 0
0.684138 0.0541695 0
0.729763 0.0396277 0
0.777401 0.0223697 0
0.827771 0.00598154 0
0.879149 0 0
0.931548 0 0
0.955734 0 0
0 0.101518 0.00827039
0 0.100984 0.00819409
0 0.100725 0.00810254
0.000686656 0.103639 0.0080415
0.0158999 0.103136 0.00816358
0.043183 0.102464 0.0156863
0.062623 0.10573 0.015671
0.0777905 0.10898 0.0154116
0.096849 0.115969 0.00799573
0.123049 0.119127 0.00738537
0.14931 0.119127 0.00721752
0.173342 0.122072 0.0071107
0.199786 0.125277 0.00422675
0.223514 0.125475 0.00343328
0.24979 0.128313 0.000534066
0.276081 0.128298 0
0.303807 0.130877 0
0.331731 0.131243 0
0.361929 0.130602 0
0.395712 0.132204 0
0.430838 0.13022 0
0.468635 0.127947 0
0.508049 0.126223 0
0.548074 0.122545 0
0.587945 0.116976 0
0.627894 0.111131 0
0.67126 0.103319 0
0.716747 0.0916152 0
0.764446 0.0733349 0
0.814954 0.0497444 0
0.868025 0.0272221 0
0.921309 0.00881971 0
0.949325 0 0
0 0.13518 0.00817884
0 0.134432 0.00802625
0 0.137392 0.00787366
0 0.136706 0.00784314
0.000518807 0.139895 0.00784314
0.0341955 0.135775 0.0153201
0.0676432 0.135012 0.0224613
0.0874037 0.138003 0.022797
0.106371 0.141619 0.0184482
0.126253 0.144976 0.0116426
0.152255 0.147921 0.00817884
0.175769 0.148226 0.00773632
0.201953 0.1505 0.00721752
0.225589 0.150942 0.00650034
0.251591 0.151232 0.00376898
0.276036 0.153185 0.00294499
0.304417 0.154162 0.00077821
0.331991 0.155856 0
0.35967 0.15613 0
0.392065 0.157504 0
0.424918 0.157855 0
0.4607 0.157076 0
0.497993 0.156252 0
0.536461 0.15378 0
0.576043 0.150317 0
0.615549 0.146319 0
0.658457 0.141161 0
0.703929 0.134798 0
0.750652 0.12488 0
0.801892 0.10901 0
0.856306 0.0842603 0
0.910521 0.0528725 0
0.942596 0.033753 0
0 0.171786 0.00784314
0 0.171023 0.00784314
0 0.170474 0.00784314
0 0.169924 0.00784314
3.0518e-05 0.169543 0.00784314
0.0193637 0.168597 0.0148013
0.0639811 0.164797 0.024979
0.0927138 0.164248 0.0295567
0.112718 0.166918 0.028809
0.129351 0.170336 0.0199588
0.151629 0.173648 0.0123903
0.176516 0.173846 0.00856031
0.201328 0.176028 0.00784314
0.22678 0.176501 0.00761425
0.251499 0.176165 0.0069276
0.276631 0.17818 0.00601205
0.303944 0.178912 0.00361639
0.332799 0.179171 0.000900282
0.360418 0.180606 0
0.390524 0.181567 0
0.422065 0.181933 0
0.455406 0.182879 0
0.490776 0.183215 0
0.527871 0.182177 0
0.566247 0.180545 0
0.604776 0.178439 0
0.646632 0.175006 0
0.691493 0.170336 0
0.737484 0.164202 0
0.788327 0.153857 0
0.843824 0.138247 0
0.899382 0.118151 0
0.935973 0.103624 0
0 0.201221 0.0111238
0 0.200732 0.0110018
0 0.200122 0.0108797
0 0.199512 0.0107424
0 0.198779 0.0105898
0.00875868 0.198169 0.014725
0.0538491 0.194324 0.0248875
0.0930953 0.190646 0.0346838
0.11812 0.190143 0.0369726
0.136477 0.192706 0.0326543
0.154238 0.197971 0.0226291
0.176425 0.199374 0.0144808
0.199893 0.201343 0.0104677
0.225757 0.202228 0.00950637
0.251637 0.201572 0.00939956
0.277943 0.201968 0.00894179
0.304662 0.203372 0.00717174
0.332341 0.203677 0.00392157
0.361166 0.20412 0.0016022
0.391165 0.205661 0.000518807
0.421714 0.205997 0
0.454292 0.207355 0
0.487831 0.208728 0
0.522423 0.208194 0
0.55874 0.208362 0
0.595697 0.208698 0
0.635767 0.207156 0
0.67924 0.203555 0
0.725216 0.198718 0
0.77586 0.191669 0
0.831418 0.18056 0
0.88835 0.165927 0
0.928069 0.153857 0
0 0.227298 0.0116732
0 0.226764 0.0116579
0 0.226123 0.0116274
0 0.225589 0.0115969
0 0.224933 0.0115511
0.00167849 0.224399 0.0146334
0.0446021 0.221103 0.0242771
0.0903334 0.216632 0.0369116
0.12015 0.214847 0.0433356
0.14197 0.216907 0.0435492
0.15967 0.220996 0.0365759
0.178653 0.223865 0.0248112
0.200824 0.226719 0.0160067
0.224781 0.227741 0.0120394
0.250629 0.2271 0.0110018
0.27744 0.226459 0.0109102
0.305394 0.227939 0.0103456
0.333333 0.229404 0.00833143
0.361913 0.228763 0.00573739
0.392599 0.229206 0.00329595
0.423148 0.230549 0.000961318
0.45478 0.231922 0
0.487495 0.233417 0
0.52018 0.233936 0
0.553536 0.234806 0
0.588632 0.23711 0
0.627115 0.237385 0
0.667933 0.23595 0
0.714092 0.232349 0
0.765164 0.227176 0
0.819669 0.219608 0
0.876982 0.209766 0
0.91989 0.198352 0
0 0.256001 0.0117647
0 0.255268 0.0117647
0 0.254536 0.0117647
0 0.253925 0.0117647
0 0.253315 0.0131075
0 0.252689 0.0150149
0.0341192 0.249393 0.0234073
0.0846113 0.244938 0.0370489
0.122332 0.241291 0.0482643
0.146166 0.240665 0.052491
0.165194 0.243214 0.0502022
0.183856 0.246601 0.0404212
0.2038 0.249882 0.0275731
0.225711 0.252171 0.0181582
0.250614 0.252613 0.0136721
0.277333 0.252827 0.0126192
0.30605 0.254276 0.0125582
0.335042 0.254932 0.0116274
0.363363 0.254292 0.0100099
0.394034 0.254337 0.00784314
0.42472 0.255573 0.00392157
0.455406 0.256596 0.000885023
0.487098 0.257481 0
0.5196 0.259937 0
0.550607 0.261082 0
0.583551 0.263691 0
0.620722 0.266041 0
0.660319 0.2663 0
0.704417 0.265248 0
0.753689 0.261524 0
0.806149 0.256489 0
0.86453 0.248768 0
0.912413 0.241886 0
0 0.282261 0.0137484
0 0.281621 0.0136263
0 0.281086 0.0135195
0 0.280552 0.0134127
0 0.280003 0.0144656
0 0.279362 0.0163119
0.0239261 0.276539 0.0231327
0.0751049 0.272053 0.0369726
0.120851 0.267582 0.0511482
0.14966 0.265354 0.059617
0.170703 0.266789 0.0613107
0.189654 0.269978 0.0562448
0.207904 0.273289 0.044419
0.227695 0.276478 0.0298009
0.251637 0.278828 0.0192264
0.27834 0.280232 0.0152285
0.307057 0.281102 0.0141909
0.335973 0.280568 0.0137636
0.364935 0.280369 0.0130922
0.395621 0.281498 0.0117647
0.426581 0.282979 0.00796521
0.457267 0.28278 0.00415045
0.487938 0.283742 0.00077821
0.518624 0.286275 0
0.549447 0.289174 0
0.580789 0.290455 0
0.615961 0.293584 0
0.655177 0.296208 0
0.697185 0.295827 0
0.742153 0.295445 0
0.796719 0.291783 0
0.854627 0.287007 0
0.904723 0.280339 0
0 0.310292 0.0151827
0 0.30956 0.0151064
0 0.309071 0.0150607
0 0.308339 0.0149844
0 0.307713 0.0153506
0 0.306981 0.0173342
0.0139467 0.30425 0.0231632
0.0617533 0.299901 0.0366064
0.11632 0.29543 0.0529946
0.1505 0.292653 0.0645151
0.175647 0.293004 0.0695201
0.195575 0.295216 0.0683757
0.213718 0.298528 0.0615244
0.231739 0.301961 0.0472725
0.252888 0.305272 0.0309606
0.27808 0.307698 0.0215
0.307118 0.307973 0.0169223
0.335973 0.307347 0.0160372
0.366644 0.30753 0.0159915
0.397604 0.309529 0.015198
0.42829 0.309682 0.0123598
0.459113 0.310094 0.00927749
0.489937 0.312627 0.00476081
0.520592 0.312795 0.00122072
0.550851 0.316289 0
0.581979 0.319936 0
0.614282 0.32343 0
0.653086 0.326436 0
0.692103 0.327306 0
0.736507 0.3299 0
0.790631 0.329198 0
0.846677 0.325261 0
0.897093 0.318776 0
0 0.339345 0.0156863
0 0.338842 0.0156863
0 0.338231 0.0156863
0 0.337499 0.0156863
0 0.336767 0.0156863
0 0.336156 0.0175021
0.00561532 0.333791 0.0234531
0.0463264 0.329442 0.036286
0.109483 0.32488 0.0536965
0.149035 0.321935 0.0676738
0.177691 0.321324 0.0756695
0.200702 0.321477 0.0779736
0.220768 0.324025 0.0762188
0.239109 0.327459 0.0664683
0.257069 0.330755 0.0496986
0.279942 0.334066 0.0334325
0.306996 0.336629 0.0222782
0.337682 0.33698 0.0180056
0.36878 0.337407 0.017258
0.399603 0.337514 0.0171969
0.430426 0.339605 0.0170901
0.46125 0.340246 0.0159152
0.491966 0.342397 0.0124208
0.522148 0.342901 0.00802625
0.550469 0.346548 0.00161746
0.581704 0.350332 0.000564584
0.613825 0.353918 0
0.65182 0.357168 0
0.68835 0.360464 0
0.732067 0.360967 0
0.783764 0.361273 0
0.84152 0.360662 0
0.89015 0.356939 0
0 0.370581 0.0156863
0 0.369894 0.0156863
0 0.36907 0.0156863
0 0.368383 0.0156863
0 0.367559 0.0163577
0 0.366766 0.0188449
0.0009308 0.364385 0.0244602
0.0309148 0.360296 0.0359808
0.0994583 0.355764 0.0531472
0.145418 0.352087 0.0696117
0.178317 0.350607 0.0814984
0.204913 0.35024 0.086656
0.227008 0.350683 0.0879072
0.246143 0.353918 0.0830243
0.265522 0.357153 0.0710002
0.285832 0.360525 0.0528115
0.309926 0.364034 0.0353704
0.340688 0.367544 0.0255283
0.370916 0.370214 0.0209812
0.401862 0.369955 0.0205386
0.432822 0.370596 0.0213169
0.463966 0.373251 0.0211795
0.49424 0.373724 0.0204013
0.522606 0.37406 0.0173342
0.553704 0.377234 0.0128786
0.584939 0.381018 0.00582895
0.616663 0.384375 0.00134279
0.652216 0.384909 0
0.691081 0.388586 0
0.731655 0.392233 0
0.782223 0.395468 0
0.836347 0.394873 0
0.885939 0.391272 0
0 0.401831 0.01738
0 0.401099 0.0172885
0 0.400488 0.0172122
0 0.399756 0.0171206
0 0.39939 0.0184787
0 0.398199 0.0222477
0 0.395666 0.0272526
0.0208438 0.392813 0.0371862
0.0868086 0.388876 0.0535897
0.140795 0.384009 0.0717174
0.181048 0.381003 0.0857252
0.209979 0.379782 0.0939498
0.233936 0.379995 0.0974289
0.253452 0.383215 0.09691
0.274067 0.386023 0.090547
0.295705 0.389822 0.0763256
0.317311 0.394018 0.0594644
0.346548 0.397528 0.041001
0.374365 0.400824 0.0301823
0.404959 0.401511 0.0265354
0.436057 0.404166 0.0285039
0.467109 0.404822 0.0287175
0.495186 0.407965 0.0294804
0.525979 0.407843 0.0297856
0.557214 0.408194 0.0285191
0.588312 0.411841 0.0214237
0.619974 0.415198 0.0133974
0.655161 0.415488 0.00234989
0.69102 0.418997 0.000701915
0.733791 0.422644 0
0.780529 0.425879 0
0.830671 0.425605 0
0.882353 0.425315 0
0 0.431006 0.0215457
0 0.430396 0.0214237
0 0.429786 0.0215763
0 0.429404 0.0220645
0 0.428794 0.0230564
0 0.428183 0.0267491
0 0.426825 0.0314336
0.0146487 0.423743 0.0408026
0.0778973 0.421378 0.0569924
0.139986 0.415641 0.0748302
0.183658 0.41323 0.0902571
0.215366 0.409659 0.101564
0.243488 0.409705 0.108461
0.264958 0.412741 0.111131
0.287724 0.413214 0.107164
0.307774 0.417502 0.0987259
0.330922 0.424018 0.0830549
0.354162 0.427771 0.0642405
0.381079 0.431937 0.049073
0.409247 0.434867 0.0411231
0.440131 0.435294 0.0372473
0.470939 0.435645 0.0376135
0.50164 0.438849 0.0409857
0.52958 0.438605 0.0443885
0.560311 0.438743 0.0440528
0.591409 0.44239 0.0409552
0.623011 0.445716 0.0362707
0.658198 0.445624 0.0246586
0.696666 0.449134 0.00939956
0.735683 0.452491 0.000808728
0.781781 0.455863 0
0.828367 0.459251 0
0.882353 0.458824 0
0 0.461601 0.0278935
0 0.461051 0.0276799
0 0.460487 0.0280308
0 0.4598 0.0294804
0 0.459113 0.0303197
0 0.458381 0.0340887
0 0.457237 0.0392004
0.0121462 0.45623 0.048249
0.0758373 0.451911 0.0629587
0.141802 0.447837 0.0790112
0.187564 0.444068 0.0972763
0.225025 0.440879 0.109728
0.253132 0.44033 0.119448
0.280018 0.443626 0.123308
0.302739 0.443839 0.123201
0.322759 0.447181 0.118776
0.345586 0.451041 0.107301
0.36553 0.455665 0.091249
0.389715 0.462089 0.0731365
0.419684 0.462821 0.0605936
0.44686 0.466056 0.0527199
0.474418 0.466194 0.0496376
0.505302 0.469368 0.0526589
0.535683 0.469017 0.0561074
0.563546 0.469398 0.0567788
0.594308 0.472511 0.0597086
0.625498 0.475731 0.0592966
0.663661 0.475334 0.0514382
0.698436 0.478706 0.0393378
0.74078 0.482078 0.0196078
0.783398 0.485588 0.000381476
0.829587 0.485298 0
0.879759 0.488411 0
0 0.493874 0.0383764
0 0.493385 0.0381628
0 0.492897 0.0380865
0 0.492409 0.0384833
0 0.491905 0.039292
0 0.490883 0.043061
0.000106813 0.487495 0.0502785
0.0117189 0.486534 0.0584878
0.0832227 0.482673 0.0706493
0.146151 0.479805 0.0862135
0.195468 0.478157 0.105089
0.234287 0.474418 0.119966
0.268299 0.471534 0.128908
0.295155 0.474083 0.13579
0.318532 0.474388 0.139162
0.338567 0.474586 0.138293
0.360998 0.478599 0.130694
0.380972 0.485664 0.118898
0.403677 0.489219 0.1028
0.427207 0.492897 0.0843214
0.453895 0.496178 0.0725872
0.480949 0.496193 0.0680247
0.511452 0.499504 0.0677653
0.538628 0.499275 0.0712749
0.56939 0.502571 0.074815
0.600153 0.502098 0.0746166
0.630915 0.50547 0.0781567
0.665599 0.505028 0.0776837
0.703868 0.508293 0.0695811
0.746227 0.508293 0.0573434
0.788571 0.511513 0.0276646
0.83122 0.514641 0.00215152
0.880491 0.517845 0
0 0.523659 0.0514229
0 0.523278 0.0511635
0 0.522789 0.0512703
0 0.522545 0.0534524
0 0.522332 0.0540475
0 0.521233 0.0578164
0.00163272 0.518135 0.0621347
0.0226444 0.517372 0.0702373
0.10428 0.513848 0.081529
0.158709 0.513237 0.0945449
0.210956 0.509316 0.113298
0.250156 0.505287 0.129229
0.283818 0.501595 0.14345
0.311208 0.501717 0.151095
0.337194 0.504677 0.154574
0.356954 0.504967 0.15494
0.37969 0.508461 0.153933
0.39884 0.512016 0.145724
0.418204 0.515572 0.130541
0.440894 0.519158 0.114412
0.463752 0.522393 0.0986954
0.490501 0.525765 0.0903792
0.517647 0.529412 0.0862745
0.544549 0.528923 0.0860304
0.57525 0.532235 0.0895857
0.606012 0.531868 0.093019
0.636606 0.531487 0.0964828
0.674662 0.534661 0.0965896
0.713069 0.538003 0.0956436
0.751675 0.537743 0.0876631
0.793622 0.540688 0.0678264
0.835966 0.54406 0.0322423
0.882139 0.547433 0.0041352
0 0.553796 0.0691539
0 0.553674 0.0690776
0 0.553429 0.0690166
0 0.553231 0.0694133
0 0.552209 0.0701915
0.00111391 0.549142 0.0736248
0.0155032 0.54902 0.0778821
0.0728313 0.548424 0.0852522
0.13164 0.544732 0.0941482
0.181781 0.544289 0.109438
0.230472 0.540154 0.125246
0.271214 0.536065 0.143465
0.302419 0.532418 0.155306
0.332616 0.531746 0.166201
0.35581 0.531777 0.170428
0.378622 0.535042 0.173831
0.397604 0.534707 0.173327
0.416602 0.538079 0.169177
0.435599 0.541482 0.160876
0.45449 0.548562 0.144915
0.477668 0.552254 0.129107
0.50071 0.555627 0.117098
0.523888 0.558999 0.108995
0.554009 0.558694 0.104829
0.581247 0.561669 0.107774
0.611704 0.561517 0.11133
0.645884 0.561273 0.115068
0.680644 0.56408 0.11809
0.718685 0.567452 0.118166
0.757168 0.567529 0.113985
0.798688 0.570123 0.1019
0.841016 0.573495 0.0750439
0.884215 0.577005 0.0240787
0 0.584558 0.0859236
0 0.584436 0.085832
0.000320439 0.584436 0.0862135
0.00299077 0.583886 0.0887312
0.0071107 0.580743 0.089128
0.0173648 0.580468 0.0928664
0.0776989 0.580148 0.0966049
0.123079 0.579293 0.101228
0.167437 0.57583 0.112383
0.209964 0.574945 0.124269
0.251698 0.570962 0.13959
0.289281 0.566766 0.154772
0.319997 0.565896 0.169802
0.350378 0.561898 0.181125
0.373465 0.561624 0.188693
0.396231 0.564828 0.192279
0.415229 0.56434 0.195758
0.434073 0.567529 0.195224
0.453071 0.570901 0.18732
0.472358 0.574746 0.178912
0.491615 0.57818 0.163333
0.514122 0.584741 0.147585
0.537041 0.58529 0.135561
0.563821 0.587945 0.13048
0.590677 0.591134 0.127047
0.621042 0.591424 0.129839
0.652277 0.593668 0.133394
0.688807 0.59411 0.136858
0.727092 0.596887 0.139788
0.765316 0.599451 0.139284
0.804822 0.600534 0.132128
0.846281 0.60531 0.113298
0.888624 0.609339 0.0696117
0.0118715 0.616037 0.108263
0.0119936 0.616037 0.108263
0.0140688 0.615763 0.10811
0.0329595 0.615488 0.108034
0.0647746 0.615213 0.108522
0.0978561 0.614771 0.111833
0.131563 0.613931 0.115587
0.165469 0.61033 0.119814
0.196201 0.609567 0.127199
0.233814 0.605447 0.138476
0.27187 0.604654 0.153674
0.30631 0.600244 0.168872
0.341176 0.596078 0.184314
0.367895 0.595529 0.195651
0.394491 0.59498 0.206867
0.413687 0.594476 0.214099
0.432685 0.597406 0.217792
0.455177 0.597528 0.217777
0.471305 0.600748 0.216846
0.48983 0.603983 0.212299
0.508827 0.607355 0.200549
0.528298 0.614099 0.184924
0.547814 0.61735 0.169314
0.573648 0.620706 0.157855
0.600488 0.624018 0.152453
0.630457 0.624201 0.151919
0.663539 0.626719 0.152392
0.698375 0.62916 0.157458
0.73608 0.629999 0.161654
0.774701 0.632715 0.164492
0.813107 0.635233 0.161212
0.852155 0.638834 0.14931
0.893675 0.642496 0.115953
0.10425 0.650782 0.127977
0.10425 0.65037 0.127703
0.111269 0.650095 0.127535
0.118669 0.649683 0.127779
0.130114 0.649271 0.130877
0.148943 0.648783 0.130907
0.171267 0.644663 0.134386
0.197513 0.644053 0.137957
0.22768 0.64329 0.145205
0.254307 0.64268 0.152667
0.288914 0.638483 0.167895
0.323552 0.634195 0.183215
0.357992 0.63331 0.198413
0.384924 0.629145 0.21323
0.411643 0.628336 0.22475
0.43447 0.627787 0.235676
0.453773 0.627649 0.239918
0.473304 0.630304 0.243076
0.49189 0.633555 0.24596
0.510567 0.636698 0.242557
0.529503 0.640009 0.237049
0.545892 0.643931 0.225391
0.564279 0.647456 0.209903
0.587152 0.65333 0.194568
0.613077 0.657176 0.183032
0.642771 0.659724 0.177981
0.674006 0.660502 0.176699
0.709743 0.66302 0.179858
0.746075 0.66566 0.183795
0.783673 0.666728 0.18909
0.820188 0.669032 0.189792
0.859205 0.672175 0.182803
0.899443 0.677028 0.159014
0.160723 0.685389 0.150958
0.160311 0.684886 0.150622
0.16347 0.684199 0.150195
0.170336 0.683528 0.149874
0.181537 0.683192 0.153475
0.192416 0.682521 0.153063
0.210788 0.681743 0.156435
0.229648 0.681132 0.15993
0.256062 0.680522 0.163592
0.282597 0.679896 0.174273
0.309987 0.675959 0.182589
0.34049 0.674586 0.197177
0.371466 0.670741 0.212375
0.401724 0.669337 0.227573
0.428672 0.665553 0.242176
0.452415 0.664775 0.25417
0.474556 0.663996 0.264225
0.494041 0.66659 0.271366
0.512978 0.669841 0.275319
0.531746 0.670527 0.277211
0.550835 0.67332 0.27422
0.569055 0.676631 0.268284
0.587686 0.679927 0.256672
0.607172 0.685908 0.241047
0.629984 0.690318 0.225635
0.65655 0.693477 0.212222
0.688289 0.696071 0.206256
0.723186 0.698894 0.205783
0.756542 0.702144 0.208331
0.792447 0.704295 0.214084
0.828305 0.705318 0.217929
0.866117 0.707622 0.215137
0.905455 0.712001 0.197955
0.212955 0.726406 0.177111
0.212192 0.725795 0.176684
0.215686 0.72549 0.176471
0.218753 0.724819 0.176043
0.225513 0.72398 0.179294
0.236225 0.723293 0.179004
0.25098 0.722622 0.182223
0.266056 0.72195 0.182361
0.285344 0.721447 0.188876
