70 CGC LUTs/Look LUTs/Seven.cube
#Created by: Denver Riddle
#Copyright: (C) Copyright Color Grading Central LLC
#LUT Size
LUT_3D_SIZE 9
0 0 0
0.0124514 0.00149538 0.000579843
0.0539254 0.00494392 0.000656138
0.131609 0.00781262 0.000488289
0.287739 0 0
0.482017 0 0
0.656321 0 0
0.828916 0 0
0.976272 0 0
0.00392157 0.0226749 0.00468452
0.0178683 0.0264134 0.00529488
0.0680705 0.0383001 0.0039826
0.172229 0.0487831 0
0.301808 0.0508736 0
0.463127 0.0260929 0
0.625193 0 0
0.800809 0 0
0.965957 0 0
0 0.13518 0.00817884
0.000518807 0.139895 0.00784314
0.106371 0.141619 0.0184482
0.201953 0.1505 0.00721752
0.304417 0.154162 0.00077821
0.424918 0.157855 0
0.576043 0.150317 0
0.750652 0.12488 0
0.942596 0.033753 0
0 0.256001 0.0117647
0 0.253315 0.0131075
0.122332 0.241291 0.0482643
0.2038 0.249882 0.0275731
0.30605 0.254276 0.0125582
0.42472 0.255573 0.00392157
0.550607 0.261082 0
0.704417 0.265248 0
0.912413 0.241886 0
0 0.370581 0.0156863
0 0.367559 0.0163577
0.0994583 0.355764 0.0531472
0.227008 0.350683 0.0879072
0.309926 0.364034 0.0353704
0.432822 0.370596 0.0213169
0.553704 0.377234 0.0128786
0.691081 0.388586 0
0.885939 0.391272 0
0 0.493874 0.0383764
0 0.491905 0.039292
0.0832227 0.482673 0.0706493
0.268299 0.471534 0.128908
0.360998 0.478599 0.130694
0.453895 0.496178 0.0725872
0.56939 0.502571 0.074815
0.703868 0.508293 0.0695811
0.880491 0.517845 0
0.0118715 0.616037 0.108263
0.0647746 0.615213 0.108522
0.196201 0.609567 0.127199
0.341176 0.596078 0.184314
0.432685 0.597406 0.217792
0.508827 0.607355 0.200549
0.600488 0.624018 0.152453
0.73608 0.629999 0.161654
0.893675 0.642496 0.115953
0.261357 0.763638 0.203174
0.269795 0.761334 0.205447
0.320836 0.759045 0.211612
0.409323 0.755444 0.244236
0.519188 0.748821 0.305028
0.602289 0.750927 0.343542
0.679652 0.76054 0.335851
0.782467 0.775525 0.271412
0.917754 0.784421 0.270741
0.516884 0.920073 0.483604
0.517174 0.917617 0.466453
0.538918 0.917662 0.455711
0.58294 0.915373 0.447898
0.648035 0.912749 0.457847
0.727352 0.911528 0.493065
0.798871 0.911482 0.521416
0.866804 0.916747 0.442267
0.951553 0.925673 0.355734
7.62951e-05 0.000518807 0.00445563
0.0084535 0.00401312 0.00950637
0.0302739 0.00807202 0.0185092
0.116335 0.0130159 0.043122
0.285527 0.00135805 0.0585946
0.532677 0 0.0505226
0.741192 0 0.0300603
0.913725 0 0.0117647
1 0 0.00361639
0.00317388 0.0273136 0.0314946
0.0174868 0.0318456 0.0394293
0.0921187 0.0354162 0.045304
0.224582 0.0292821 0.0515297
0.389715 0.000411994 0.0424964
0.564675 0 0.0288396
0.725658 0 0.0139467
0.884932 0 0.0015259
1 0 0
0 0.141863 0.0709697
0.000228885 0.142794 0.0687572
0.10161 0.14432 0.0754864
0.203128 0.153521 0.0568856
0.32668 0.154574 0.0241855
0.474449 0.142916 0.00573739
0.634791 0.121462 0
0.806683 0.0666972 0
0.980255 0.00546273 0
0 0.256092 0.0726482
0 0.255375 0.0706188
0.0869459 0.253559 0.0728923
0.205982 0.249134 0.0903029
0.306676 0.254612 0.063386
0.4271 0.258595 0.0365759
0.565911 0.263157 0.000411994
0.732906 0.256657 0
0.937728 0.225772 0
0 0.370733 0.0710155
0 0.369116 0.0689555
0.0407111 0.366598 0.0721599
0.22533 0.353063 0.120119
0.312322 0.366552 0.0878614
0.432685 0.373373 0.0708171
0.553948 0.381018 0.055024
0.695384 0.392477 0.00131228
0.901961 0.387198 0
0 0.493263 0.0844739
0 0.491417 0.0830396
0.0237125 0.490211 0.0881208
0.259922 0.478431 0.144717
0.364645 0.478614 0.163531
0.456977 0.495964 0.111803
0.568627 0.501961 0.109804
0.702754 0.507927 0.100099
0.88333 0.520653 0.00112917
0.0106661 0.615763 0.133806
0.0527199 0.614801 0.13637
0.178958 0.613138 0.142657
0.3243 0.603098 0.187579
0.434913 0.596933 0.235904
0.511894 0.606668 0.225788
0.602197 0.623392 0.17641
0.734874 0.630915 0.184421
0.892485 0.64416 0.135134
0.260349 0.76643 0.22562
0.269047 0.76408 0.223651
0.316152 0.761379 0.228702
0.400534 0.757809 0.251072
0.512352 0.750149 0.311009
0.603586 0.749935 0.356298
0.67985 0.760174 0.353384
0.782361 0.775494 0.288228
0.916915 0.785092 0.288991
0.54258 0.908507 0.182864
0.538674 0.90779 0.2159
0.537972 0.91809 0.458671
0.580133 0.915404 0.449668
0.644007 0.913863 0.458534
0.724025 0.910918 0.492164
0.79852 0.911437 0.529076
0.867063 0.915801 0.491234
0.950576 0.924483 0.331914
0.00392157 0.00392157 0.0134127
0.0091249 0.00456245 0.02327
0.0345159 0.00917067 0.0473793
0.108598 0.0199893 0.0884718
0.238254 0.0247349 0.133913
0.391959 0.00900282 0.15935
0.546761 0 0.165713
0.73312 0 0.163851
0.91043 0 0.157473
0.000595102 0.0325933 0.0748913
0.0134585 0.0389105 0.0892348
0.0736248 0.0461433 0.117128
0.1617 0.0593576 0.130175
0.283909 0.0616617 0.151232
0.415717 0.0537423 0.160098
0.574441 0.015259 0.158816
0.76524 0 0.152377
0.943801 0 0.144869
0 0.148867 0.156741
0 0.146319 0.157778
0.0967269 0.150713 0.156283
0.221668 0.147555 0.151308
0.352987 0.141649 0.147601
0.507744 0.121569 0.140063
0.671153 0.0801099 0.131487
0.840848 0.0103304 0.123033
0.991958 0 0.118013
0 0.259052 0.164935
0 0.256809 0.16286
0.0788739 0.256321 0.162158
0.201785 0.255238 0.167041
0.31313 0.259525 0.140459
0.467308 0.256138 0.0984817
0.629084 0.242466 0.0787976
0.804028 0.220264 0.068986
0.987152 0.180026 0.0719921
0 0.373404 0.165057
0 0.370596 0.162921
0.0286564 0.37055 0.161791
0.189609 0.369467 0.164981
0.320058 0.366125 0.191684
0.436332 0.377035 0.163699
0.562127 0.388251 0.124514
0.730785 0.390982 0.0618448
0.937041 0.374395 0.0184482
0 0.496452 0.174914
0 0.494972 0.174075
0.014374 0.494362 0.176715
0.206561 0.494148 0.180819
0.368414 0.485328 0.238025
0.460212 0.49926 0.205737
0.57171 0.505196 0.195392
0.70576 0.514641 0.169848
0.901366 0.517525 0.0517128
0.0154574 0.61941 0.219821
0.0664683 0.618311 0.218509
0.173922 0.616373 0.216678
0.284062 0.614206 0.222202
0.426459 0.604166 0.281727
0.518242 0.609186 0.30547
0.602686 0.625559 0.25742
0.734951 0.632654 0.259968
0.89546 0.649927 0.187869
0.270863 0.766018 0.298833
0.275792 0.763729 0.296376
0.317693 0.763363 0.296986
0.386038 0.762173 0.301534
0.486702 0.758724 0.330327
0.602518 0.753964 0.399741
0.684001 0.760678 0.417777
0.783398 0.777584 0.357748
0.915908 0.786877 0.358083
0.507942 0.92166 0.347204
0.509407 0.918975 0.347799
0.529915 0.916289 0.346593
0.576806 0.913664 0.347997
0.64654 0.911406 0.354299
0.714931 0.912352 0.47567
0.797559 0.913115 0.567926
0.870466 0.915206 0.606744
0.949722 0.925872 0.363851
0.00500496 0.00450141 0.03093
0.0124208 0.0078584 0.0476387
0.0424811 0.0120241 0.0847028
0.120226 0.0210727 0.143877
0.229282 0.0364691 0.192905
0.359274 0.0435645 0.225544
0.510338 0.0238346 0.247593
0.672724 0 0.261357
0.831449 0 0.266941
0 0.0406806 0.128557
0.0114443 0.0461891 0.14847
0.0725414 0.0529183 0.183368
0.164553 0.0626535 0.199863
0.256458 0.0767376 0.216693
0.375265 0.0825971 0.233845
0.521416 0.068986 0.248661
0.675349 0.0333715 0.258625
0.841794 0 0.260853
0 0.151965 0.234302
0 0.153384 0.232197
0.0877699 0.155505 0.233448
0.191546 0.157305 0.240513
0.28716 0.163973 0.237522
0.416327 0.160433 0.248692
0.549645 0.154253 0.254261
0.695781 0.139681 0.25658
0.876799 0.0756085 0.254902
0 0.261036 0.254749
0 0.259266 0.252613
0.0745098 0.257725 0.253803
0.19762 0.258076 0.251438
0.332464 0.256138 0.245075
0.475044 0.247837 0.241947
0.618875 0.238834 0.240833
0.773877 0.224948 0.236515
0.943526 0.199725 0.236255
0 0.375402 0.258427
0 0.373663 0.256382
0.0241703 0.373236 0.256077
0.189944 0.372869 0.256443
0.317906 0.373922 0.267247
0.442695 0.381155 0.231739
0.607233 0.380606 0.192721
0.780484 0.371069 0.18735
0.968322 0.346777 0.201236
0 0.496544 0.273014
0 0.49836 0.271901
0.0218662 0.498161 0.274632
0.209339 0.497459 0.275013
0.341283 0.500099 0.282383
0.463584 0.49865 0.318257
0.571054 0.508324 0.288182
0.720562 0.517891 0.224887
0.925963 0.508583 0.171954
0.0479896 0.619486 0.314015
0.0874495 0.617838 0.312367
0.184314 0.619608 0.313726
0.286534 0.617517 0.315267
0.394553 0.619547 0.324453
0.521462 0.61236 0.384207
0.605676 0.6262 0.35584
0.736614 0.637156 0.349447
0.905394 0.652232 0.244633
0.277943 0.768841 0.388113
0.285878 0.76614 0.385168
0.325093 0.764126 0.385794
0.391745 0.764858 0.388998
0.473594 0.766018 0.394736
0.582086 0.76437 0.431128
0.689433 0.76376 0.490501
0.783703 0.778714 0.444221
0.916365 0.791074 0.43827
0.528908 0.921538 0.493172
0.528588 0.919081 0.489982
0.549081 0.916335 0.489769
0.588235 0.91519 0.492164
0.643 0.915038 0.498161
0.709422 0.915633 0.507042
0.792966 0.915297 0.554757
0.873106 0.916518 0.680629
0.948775 0.928115 0.618189
0.00784314 0.00793469 0.0659037
0.0163882 0.0091249 0.0836194
0.0474556 0.0158389 0.136828
0.128145 0.023743 0.213352
0.236591 0.03682 0.267155
0.347646 0.0554513 0.296422
0.478294 0.0666361 0.321462
0.636316 0.0391852 0.350393
0.801251 0 0.368154
0 0.0475013 0.19588
0.00392157 0.0503243 0.215656
0.067689 0.0563973 0.257755
0.163836 0.0660258 0.288685
0.259266 0.0797742 0.293751
0.358083 0.0943618 0.304524
0.484398 0.100603 0.325643
0.638697 0.0822461 0.349187
0.812528 0.00244144 0.364355
0 0.155154 0.311498
0 0.156832 0.311955
0.0730602 0.158816 0.317388
0.180224 0.161715 0.329732
0.284398 0.16643 0.325124
0.383459 0.174914 0.324636
0.510109 0.176059 0.340932
0.65922 0.163928 0.357488
0.834485 0.126024 0.366049
0 0.261372 0.35024
0 0.260441 0.34699
0.0618906 0.260899 0.342779
0.187839 0.26302 0.340658
0.296941 0.264378 0.348074
0.410849 0.269657 0.346685
0.546273 0.266621 0.358968
0.68069 0.26421 0.36672
0.859205 0.25182 0.372793
0 0.377554 0.365789
0 0.375738 0.363134
0.0166476 0.37467 0.361624
0.187106 0.374502 0.360464
0.312963 0.377432 0.362264
0.462547 0.37792 0.362799
0.598688 0.376318 0.363851
0.744625 0.375433 0.367102
0.917647 0.365545 0.369467
0 0.49926 0.379522
0 0.498527 0.378943
0.0254215 0.497917 0.381216
0.213199 0.501106 0.383917
0.34023 0.503487 0.386664
0.466667 0.501961 0.403922
0.578759 0.51162 0.362799
0.759197 0.509316 0.321828
0.950881 0.492164 0.340078
0.072755 0.622644 0.419089
0.10457 0.620844 0.417197
0.190219 0.618753 0.41471
0.289738 0.620493 0.419791
0.394247 0.622354 0.422202
0.501335 0.626215 0.432212
0.609293 0.628901 0.461189
0.740124 0.642161 0.431098
0.92401 0.649409 0.335363
0.288334 0.768414 0.484825
0.293294 0.765957 0.481727
0.331075 0.766567 0.481422
0.397162 0.764675 0.483528
0.477516 0.76614 0.488273
0.569314 0.770489 0.496498
0.685298 0.768627 0.547555
0.786267 0.781857 0.538643
0.917967 0.794171 0.509133
0.543664 0.920775 0.601328
0.543999 0.918166 0.597955
0.560906 0.917205 0.596536
0.599329 0.916732 0.600351
0.651408 0.915785 0.607446
0.714641 0.916167 0.618891
0.783795 0.919539 0.636286
0.874327 0.91873 0.718975
0.947921 0.930846 0.715724
0.0111238 0.0118715 0.116594
0.0162814 0.0126192 0.142428
0.0494545 0.0176852 0.218906
0.13109 0.0248112 0.316472
0.242557 0.0400397 0.378256
0.354116 0.0591592 0.401846
0.469734 0.0783246 0.42266
0.607141 0.0854658 0.44712
0.766171 0.0127413 0.469368
0 0.0543679 0.29456
0 0.0569772 0.313939
0.047364 0.0632029 0.362463
0.155016 0.0692149 0.403693
0.258122 0.0825971 0.410056
0.361044 0.0975662 0.411139
0.472694 0.111254 0.42472
0.60502 0.116976 0.445747
0.778302 0.0619974 0.467643
0 0.162325 0.419455
0 0.160204 0.416907
0.0396887 0.161975 0.426291
0.163577 0.165179 0.441016
0.273289 0.168627 0.450034
0.382498 0.175601 0.438895
0.489265 0.186221 0.44007
0.618128 0.189715 0.455436
0.8 0.158526 0.47512
0 0.267033 0.456336
0 0.265858 0.453666
0.0208133 0.265415 0.450065
0.166049 0.26659 0.453605
0.280522 0.269017 0.463386
0.40325 0.270649 0.464546
0.508171 0.280751 0.456977
0.641611 0.287022 0.472831
0.831373 0.271214 0.491264
0 0.380026 0.48484
0 0.377691 0.481117
0.00669871 0.376104 0.476234
0.173434 0.378424 0.47364
0.29955 0.381903 0.476036
0.420096 0.388296 0.486824
0.533578 0.395987 0.482612
0.680964 0.401862 0.50013
0.858824 0.396078 0.509804
0 0.498894 0.504616
0 0.498283 0.503761
0.0151522 0.501595 0.506401
0.209262 0.50074 0.505333
0.342565 0.503197 0.507561
0.457908 0.508888 0.508888
0.595712 0.507408 0.512367
0.741802 0.508629 0.517723
0.905943 0.506416 0.522942
0.0831617 0.622095 0.53637
0.107164 0.620157 0.534005
0.193103 0.621866 0.535073
0.292622 0.620218 0.536263
0.396017 0.622156 0.53785
0.499687 0.627024 0.542123
0.608301 0.63209 0.555261
0.755261 0.643091 0.510185
0.941833 0.636362 0.496025
0.295384 0.77142 0.590005
0.301747 0.768811 0.586892
0.33814 0.766354 0.587411
0.401617 0.767697 0.588724
0.480949 0.769299 0.592462
0.570459 0.771282 0.599786
0.67155 0.776684 0.609781
0.787839 0.781613 0.638346
0.921416 0.797787 0.5776
0.555886 0.922896 0.690929
0.554131 0.920623 0.688975
0.572503 0.91841 0.686915
0.608255 0.915969 0.690074
0.658412 0.916396 0.695186
0.718929 0.917449 0.703899
0.78674 0.920501 0.718074
0.867124 0.924285 0.747707
0.950545 0.930449 0.77113
0.00268559 0.0163577 0.215518
0.0030518 0.016556 0.254688
0.0201877 0.0203403 0.365194
0.111177 0.0280308 0.481163
0.232746 0.0398871 0.546593
0.349477 0.0589761 0.558083
0.468879 0.0780194 0.569787
0.599237 0.0935988 0.581537
0.742016 0.0758984 0.592416
0 0.0618296 0.452995
0 0.0607767 0.466621
0 0.0665751 0.517205
0.119295 0.0727703 0.554345
0.238514 0.082948 0.569909
0.35639 0.0972152 0.569894
0.472358 0.111208 0.568444
0.595529 0.124422 0.576593
0.74902 0.108934 0.586419
0 0.165515 0.561959
0 0.165942 0.56141
0 0.166552 0.56965
0.122866 0.169436 0.584192
0.245487 0.172732 0.597528
0.369436 0.177279 0.596338
0.487694 0.187198 0.585184
0.604562 0.196918 0.580438
0.767666 0.191302 0.590036
0 0.271626 0.590921
0 0.269383 0.588647
0 0.270253 0.588174
0.12079 0.271122 0.593561
0.251423 0.27332 0.602838
0.37966 0.275044 0.6112
0.503105 0.283497 0.603265
0.620722 0.298054 0.594232
0.79559 0.2981 0.60441
0 0.383658 0.610742
0 0.381918 0.607538
0 0.382757 0.604791
0.12694 0.385183 0.603159
0.271687 0.389059 0.609201
0.399634 0.395712 0.61709
0.520653 0.39942 0.623621
0.644831 0.413138 0.613306
0.834073 0.411231 0.626612
0 0.502693 0.634348
0 0.502083 0.632883
0.00462348 0.502052 0.631586
0.192157 0.504555 0.630365
0.322408 0.506645 0.628214
0.437385 0.512245 0.629358
0.548852 0.518212 0.638621
0.683558 0.527092 0.63386
0.865827 0.528954 0.653498
0.0823072 0.625452 0.664897
0.109361 0.623392 0.662577
0.188449 0.621439 0.659907
0.291173 0.62298 0.657847
0.394507 0.625238 0.659175
0.495506 0.629862 0.660029
0.600702 0.637293 0.662394
0.75903 0.642664 0.665476
0.912795 0.64535 0.677348
0.301656 0.770657 0.699977
0.305791 0.768048 0.697276
0.341115 0.76878 0.695003
0.403891 0.768017 0.696742
0.483528 0.769589 0.698589
0.572854 0.773007 0.702495
0.673121 0.777737 0.70901
0.78883 0.784878 0.722713
0.931472 0.796292 0.668284
0.56936 0.92285 0.767941
0.568338 0.920104 0.764691
0.582345 0.917647 0.763729
0.617273 0.916548 0.765377
0.664652 0.916213 0.768032
0.72491 0.917769 0.775235
0.790951 0.921859 0.784466
0.865843 0.924453 0.797559
0.950149 0.933089 0.826062
0 0.0156863 0.480262
0 0.0156863 0.534981
0 0.0169375 0.643946
0 0.0245212 0.736095
0.165499 0.0403906 0.771832
0.313634 0.0588083 0.780179
0.456275 0.0741894 0.780133
0.596674 0.0895705 0.77615
0.737255 0.0823529 0.765072
0 0.0621347 0.708705
0 0.0638132 0.717525
0 0.0697337 0.742138
0.000335698 0.0762036 0.761669
0.174792 0.0889754 0.773281
0.31809 0.0991836 0.778332
0.45449 0.110094 0.776349
0.593057 0.12076 0.766155
0.742061 0.118257 0.753887
0 0.171725 0.757183
0 0.169986 0.756573
0 0.170581 0.761151
0.004654 0.173114 0.768521
0.18616 0.178424 0.776501
0.328038 0.183261 0.78114
0.464073 0.188571 0.777539
0.599145 0.197086 0.763378
0.757748 0.201404 0.747021
0 0.278035 0.768566
0 0.275486 0.764706
0 0.275181 0.763912
0.00822461 0.276753 0.765133
0.198016 0.27982 0.770581
0.339452 0.284184 0.775662
0.471977 0.288258 0.775265
0.613062 0.299138 0.766445
0.777798 0.310018 0.746181
0 0.391424 0.766033
0 0.389654 0.763165
0 0.390188 0.760571
0.00898756 0.393469 0.762097
0.220798 0.397162 0.765332
0.364126 0.403769 0.768429
0.488899 0.410498 0.771496
0.636057 0.416449 0.769238
0.805097 0.429725 0.747723
0 0.510842 0.769116
0 0.510018 0.765332
0 0.512596 0.764584
0.125231 0.51194 0.762921
0.282353 0.517647 0.760784
0.405737 0.522881 0.7626
0.524453 0.528496 0.767712
0.668391 0.534066 0.769848
0.833829 0.547021 0.756558
0.0230716 0.632746 0.777569
0.068452 0.630304 0.775616
0.165103 0.628336 0.770474
0.267277 0.63006 0.768383
0.37351 0.634043 0.768368
0.473747 0.639536 0.767773
0.5823 0.646952 0.770611
0.719814 0.654658 0.779034
0.875181 0.669123 0.776318
0.315068 0.776516 0.798108
0.320333 0.773861 0.795727
0.352743 0.771908 0.794491
0.411917 0.771984 0.793103
0.488762 0.7729 0.793271
0.577447 0.776959 0.793622
0.674784 0.782666 0.795697
0.78706 0.790295 0.801007
0.928954 0.79794 0.807095
0.589151 0.922866 0.834806
0.588693 0.921126 0.832715
0.601526 0.918776 0.832502
0.632364 0.918044 0.832059
0.677714 0.918029 0.833936
0.733181 0.919539 0.837308
0.79913 0.922118 0.843046
0.871717 0.926925 0.849958
0.953277 0.935988 0.866773
0 0.000732433 0.762005
0 0.00137331 0.794919
0 0.00857557 0.854078
0 0.0243992 0.894575
0.0314946 0.0477302 0.909804
0.257649 0.0704814 0.91754
0.411826 0.0893416 0.921569
0.572305 0.0974441 0.921569
0.737255 0.0745098 0.913725
0 0.0614023 0.883314
0 0.0633555 0.886503
0 0.0688792 0.897292
0 0.0825208 0.905806
0.0565194 0.0960708 0.913542
0.257786 0.110658 0.919585
0.409293 0.121828 0.921569
0.565072 0.1299 0.921569
0.742947 0.114763 0.913725
0 0.17525 0.905241
0 0.173632 0.904921
0 0.175097 0.908492
0 0.179995 0.913039
0.0592355 0.186389 0.917647
0.265095 0.194827 0.921569
0.411109 0.202823 0.921569
0.5617 0.210544 0.921569
0.75375 0.201755 0.913725
0 0.287984 0.909804
0 0.28542 0.909804
0 0.285237 0.91133
0 0.28751 0.913725
0.0719768 0.291035 0.916686
0.27512 0.299184 0.917647
0.417578 0.307195 0.917647
0.570779 0.317769 0.917586
0.772976 0.317586 0.909804
0 0.406287 0.909804
0 0.4038 0.909804
0 0.405142 0.909804
0 0.408408 0.909331
0.10457 0.412528 0.909331
0.302296 0.419486 0.909804
0.437858 0.429374 0.90959
0.588235 0.439216 0.909804
0.796109 0.440772 0.903059
0 0.529778 0.905348
0 0.529046 0.905043
0 0.531807 0.901961
4.57771e-05 0.530648 0.901961
0.198718 0.53608 0.901106
0.350896 0.541421 0.898924
0.481254 0.550622 0.897337
0.630121 0.556298 0.89778
0.827695 0.563943 0.8916
0 0.651392 0.901961
0 0.652537 0.90013
0.00672923 0.650355 0.897826
0.175326 0.651667 0.895369
0.313161 0.655619 0.892622
0.429526 0.660716 0.891234
0.547631 0.669184 0.889143
0.692897 0.677089 0.890166
0.864713 0.686763 0.888731
0.28246 0.791577 0.898985
0.286564 0.788876 0.896788
0.322744 0.78703 0.894575
0.386038 0.787243 0.892241
0.465476 0.789105 0.89073
0.555993 0.792645 0.889357
0.65803 0.797864 0.889128
0.773602 0.804227 0.89012
0.907988 0.813642 0.894072
0.62417 0.926558 0.912505
0.620615 0.924224 0.910414
0.633387 0.923812 0.908461
0.659785 0.921248 0.906126
0.700954 0.92195 0.904311
0.752071 0.923491 0.905821
0.813367 0.925704 0.905119
0.881621 0.930327 0.909438
0.958648 0.938766 0.911299
