70 CGC LUTs/Look LUTs/Seven.cube
#Created by: Denver Riddle
#Copyright: (C) Copyright Color Grading Central LLC
#LUT Size
LUT_3D_SIZE 5
0 0 0
0.0539254 0.00494392 0.000656138
0.287739 0 0
0.656321 0 0
0.976272 0 0
0 0.13518 0.00817884
0.106371 0.141619 0.0184482
0.304417 0.154162 0.00077821
0.576043 0.150317 0
0.942596 0.033753 0
0 0.370581 0.0156863
0.0994583 0.355764 0.0531472
0.309926 0.364034 0.0353704
0.553704 0.377234 0.0128786
0.885939 0.391272 0
0.0118715 0.616037 0.108263
0.196201 0.609567 0.127199
0.432685 0.597406 0.217792
0.600488 0.624018 0.152453
0.893675 0.642496 0.115953
0.516884 0.920073 0.483604
0.538918 0.917662 0.455711
0.648035 0.912749 0.457847
0.798871 0.911482 0.521416
0.951553 0.925673 0.355734
0.00392157 0.00392157 0.0134127
0.0345159 0.00917067 0.0473793
0.238254 0.0247349 0.133913
0.546761 0 0.165713
0.91043 0 0.157473
0 0.148867 0.156741
0.0967269 0.150713 0.156283
0.352987 0.141649 0.147601
0.671153 0.0801099 0.131487
0.991958 0 0.118013
0 0.373404 0.165057
0.0286564 0.37055 0.161791
0.320058 0.366125 0.191684
0.562127 0.388251 0.124514
0.937041 0.374395 0.0184482
0.0154574 0.61941 0.219821
0.173922 0.616373 0.216678
0.426459 0.604166 0.281727
0.602686 0.625559 0.25742
0.89546 0.649927 0.187869
0.507942 0.92166 0.347204
0.529915 0.916289 0.346593
0.64654 0.911406 0.354299
0.797559 0.913115 0.567926
0.949722 0.925872 0.363851
0.00784314 0.00793469 0.0659037
0.0474556 0.0158389 0.136828
0.236591 0.03682 0.267155
0.478294 0.0666361 0.321462
0.801251 0 0.368154
0 0.155154 0.311498
0.0730602 0.158816 0.317388
0.284398 0.16643 0.325124
0.510109 0.176059 0.340932
0.834485 0.126024 0.366049
0 0.377554 0.365789
0.0166476 0.37467 0.361624
0.312963 0.377432 0.362264
0.598688 0.376318 0.363851
0.917647 0.365545 0.369467
0.072755 0.622644 0.419089
0.190219 0.618753 0.41471
0.394247 0.622354 0.422202
0.609293 0.628901 0.461189
0.92401 0.649409 0.335363
0.543664 0.920775 0.601328
0.560906 0.917205 0.596536
0.651408 0.915785 0.607446
0.783795 0.919539 0.636286
0.947921 0.930846 0.715724
0.00268559 0.0163577 0.215518
0.0201877 0.0203403 0.365194
0.232746 0.0398871 0.546593
0.468879 0.0780194 0.569787
0.742016 0.0758984 0.592416
0 0.165515 0.561959
0 0.166552 0.56965
0.245487 0.172732 0.597528
0.487694 0.187198 0.585184
0.767666 0.191302 0.590036
0 0.383658 0.610742
0 0.382757 0.604791
0.271687 0.389059 0.609201
0.520653 0.39942 0.623621
0.834073 0.411231 0.626612
0.0823072 0.625452 0.664897
0.188449 0.621439 0.659907
0.394507 0.625238 0.659175
0.600702 0.637293 0.662394
0.912795 0.64535 0.677348
0.56936 0.92285 0.767941
0.582345 0.917647 0.763729
0.664652 0.916213 0.768032
0.790951 0.921859 0.784466
0.950149 0.933089 0.826062
0 0.000732433 0.762005
0 0.00857557 0.854078
0.0314946 0.0477302 0.909804
0.411826 0.0893416 0.921569
0.737255 0.0745098 0.913725
0 0.17525 0.905241
0 0.175097 0.908492
0.0592355 0.186389 0.917647
0.411109 0.202823 0.921569
0.75375 0.201755 0.913725
0 0.406287 0.909804
0 0.405142 0.909804
0.10457 0.412528 0.909331
0.437858 0.429374 0.90959
0.796109 0.440772 0.903059
0 0.651392 0.901961
0.00672923 0.650355 0.897826
0.313161 0.655619 0.892622
0.547631 0.669184 0.889143
0.864713 0.686763 0.888731
0.62417 0.926558 0.912505
0.633387 0.923812 0.908461
0.700954 0.92195 0.904311
0.813367 0.925704 0.905119
0.958648 0.938766 0.911299
