70 CGC LUTs/Look LUTs/Spy.cube
#Created by: Denver Riddle
#Copyright: (C) Copyright Color Grading Central LLC
#LUT Size
LUT_3D_SIZE 33
0 0 0
0.0275578 0.0016022 0.00173953
0.0518349 0.00344854 0.00369268
0.074815 0.00511177 0.00547799
0.097261 0.00666819 0.00712596
0.119646 0.0080415 0.00862135
0.142245 0.00915541 0.00984207
0.165026 0.00994888 0.0106813
0.188113 0.0104372 0.0111391
0.212482 0.010544 0.0112306
0.237919 0.0102693 0.0109407
0.264469 0.00956741 0.0104524
0.292134 0.00856031 0.00923171
0.319997 0.0071107 0.00788891
0.345754 0.00531014 0.00706493
0.376699 0.00555428 0.00747692
0.40914 0.00602731 0.0081178
0.442145 0.0065156 0.00877394
0.475181 0.00700389 0.00943008
0.508247 0.00749218 0.0100862
0.540444 0.00796521 0.0107271
0.571054 0.00842298 0.0113375
0.603159 0.00889601 0.0119631
0.635874 0.0093843 0.0126192
0.667552 0.00984207 0.0132448
0.697246 0.0102846 0.0138399
0.723918 0.0106813 0.0143587
0.747662 0.0110323 0.0148318
0.769009 0.0113375 0.015259
0.788678 0.0116274 0.0156558
0.807584 0.0119173 0.016022
0.826505 0.012192 0.0164034
0.826581 0.012192 0.0164034
4.57771e-05 0.030869 0
0.0268559 0.030869 1.5259e-05
0.0523232 0.0319829 0.00187686
0.083711 0.0305486 0.00808728
0.110933 0.0299687 0.0104982
0.135286 0.0300145 0.0115053
0.157412 0.0305638 0.0119783
0.178134 0.0314488 0.0123751
0.198611 0.0322271 0.0126955
0.220157 0.0327611 0.0128634
0.243198 0.0329137 0.0129397
0.267659 0.0326848 0.0129397
0.293736 0.0320439 0.0128939
0.320668 0.03093 0.0128176
0.346059 0.0291295 0.0126345
0.376287 0.0273899 0.012665
0.40763 0.0254215 0.012726
0.439429 0.0232853 0.0128176
0.471824 0.0210117 0.0129549
0.504097 0.0187686 0.0131533
0.536004 0.0165103 0.0133822
0.566155 0.0143282 0.013611
0.598001 0.0123445 0.0139315
0.630045 0.0104829 0.0136873
0.661372 0.00975052 0.0131228
0.691493 0.010193 0.0137179
0.7187 0.010605 0.0142672
0.743008 0.010956 0.0147402
0.764828 0.0112764 0.0151827
0.784985 0.0115816 0.0155795
0.80415 0.0119936 0.0160983
0.823743 0.0121462 0.0163424
0.827039 0.012192 0.0164034
9.15541e-05 0.0580758 0
0.0259556 0.0577401 0
0.049958 0.0578164 3.0518e-05
0.0742809 0.0594644 0.000518807
0.0975967 0.059678 0.00350958
0.127337 0.0576791 0.0106355
0.158419 0.0556497 0.0154269
0.186755 0.0543832 0.0180514
0.214008 0.0532387 0.0195163
0.240284 0.0521401 0.0200961
0.265751 0.0513313 0.0201267
0.290471 0.0507515 0.0199588
0.315084 0.0502327 0.0197604
0.339757 0.0495766 0.0194705
0.364431 0.0486 0.0191196
0.39202 0.0474861 0.0188296
0.420874 0.0461433 0.018555
0.450736 0.0445411 0.0183413
0.481392 0.042771 0.0181735
0.51223 0.0409857 0.0181735
0.54316 0.0391546 0.0181888
0.572869 0.0373388 0.0182498
0.603952 0.0357214 0.0184176
0.635691 0.0339361 0.0186007
0.666865 0.0323491 0.0188449
0.696529 0.0311742 0.0191653
0.723781 0.0307622 0.0196078
0.748165 0.0311589 0.0201419
0.77026 0.0323796 0.020798
0.790585 0.0342107 0.0215305
0.809964 0.0364385 0.0223239
0.82948 0.0369421 0.0227817
0.835615 0.0357824 0.0226749
0.000122072 0.0838636 0
0.0245365 0.0821698 0
0.0492103 0.0834516 0
0.0719463 0.0835126 4.57771e-05
0.0957046 0.0850996 0.000259403
0.118425 0.0856031 0.00166323
0.14255 0.085069 0.00570687
0.173526 0.0827039 0.0134279
0.207538 0.0798199 0.0197299
0.239338 0.0771191 0.0234379
0.270054 0.0746777 0.025742
0.300359 0.0724956 0.0269322
0.330419 0.0704204 0.0272374
0.360143 0.0686046 0.0269169
0.389593 0.0670329 0.0263828
0.418311 0.0656138 0.0257725
0.446601 0.0643168 0.0252537
0.474739 0.0631266 0.0248417
0.503288 0.0618906 0.0244907
0.532219 0.0606241 0.0242313
0.560876 0.0593729 0.0240482
0.589685 0.0581216 0.0239261
0.619348 0.0570077 0.0239414
0.649577 0.0558175 0.0239872
0.679774 0.0546731 0.0241855
0.708736 0.0539559 0.024445
0.735302 0.0538643 0.0248417
0.759457 0.0545357 0.0253758
0.781384 0.0559396 0.0260777
0.801755 0.0579385 0.0268864
0.821225 0.0604105 0.0278019
0.840772 0.0623178 0.0285801
0.84918 0.0617075 0.0285649
0.000167849 0.108339 0
0.0231632 0.105913 0
0.0473335 0.106706 0
0.0707561 0.107942 0
0.0910658 0.105882 4.57771e-05
0.116884 0.110002 0.000167849
0.140627 0.110842 0.00111391
0.164111 0.110704 0.00354009
0.191119 0.109316 0.00907912
0.224781 0.105592 0.0178225
0.261295 0.10161 0.0247349
0.297017 0.098024 0.029099
0.331411 0.0948501 0.0319066
0.365988 0.0919356 0.0335393
0.400397 0.0891127 0.0341192
0.434226 0.0865492 0.0338293
0.467048 0.0843061 0.0331579
0.498894 0.0823835 0.0324254
0.529381 0.0807813 0.0317388
0.558846 0.0794995 0.03122
0.587472 0.0783856 0.0308537
0.615808 0.0775616 0.0306249
0.643931 0.0769207 0.0305486
0.672831 0.0762188 0.0304875
0.701442 0.0756237 0.030518
0.729076 0.0754406 0.0307012
0.754726 0.0758526 0.0310826
0.77818 0.0769665 0.0316625
0.799725 0.0787976 0.0324559
0.819944 0.0812238 0.033402
0.839292 0.0839704 0.0344549
0.858824 0.0864729 0.0354314
0.869307 0.086244 0.035462
0.000198367 0.131609 0
0.0208133 0.127169 0
0.0437781 0.126421 0
0.0687724 0.131273 0
0.0909743 0.131579 0
0.108522 0.12639 6.10361e-05
0.137942 0.134508 0.000137331
0.163256 0.135943 0.000839246
0.187503 0.135897 0.00259403
0.213184 0.134524 0.00660716
0.244419 0.131334 0.014313
0.282612 0.126848 0.0238651
0.323171 0.122438 0.0308995
0.362829 0.118288 0.0355383
0.400961 0.114534 0.0385901
0.438407 0.110964 0.0403296
0.475334 0.107729 0.0410315
0.51136 0.104891 0.0408637
0.546059 0.102419 0.040238
0.579507 0.100404 0.0395056
0.611643 0.0988785 0.038941
0.642481 0.0978561 0.0384375
0.672007 0.0971389 0.0381476
0.70132 0.0965896 0.0379644
0.729534 0.0963149 0.0379187
0.756542 0.0964981 0.0380713
0.78146 0.0973373 0.0384833
0.804273 0.0988327 0.0391241
0.825544 0.101061 0.0400092
0.845457 0.103853 0.0411078
0.864515 0.107012 0.0423285
0.883619 0.110109 0.043534
0.8963 0.110018 0.0435492
0.000244144 0.155245 0
0.019028 0.150149 0
0.0408179 0.14638 0
0.0641794 0.149722 0
0.0893568 0.155856 0
0.111315 0.155856 1.5259e-05
0.124987 0.145846 6.10361e-05
0.159014 0.15877 0.000137331
0.185763 0.160708 0.000656138
0.211978 0.160891 0.00218204
0.238514 0.159792 0.00535592
0.268864 0.157366 0.0116732
0.30663 0.153094 0.0217136
0.349874 0.147814 0.0314183
0.393439 0.142855 0.0380865
0.435447 0.138277 0.0426337
0.475944 0.134173 0.0456397
0.515053 0.130587 0.0474098
0.55317 0.127337 0.048249
0.590341 0.12462 0.0483101
0.626245 0.122454 0.0479591
0.660533 0.120836 0.0475166
0.693339 0.119722 0.0471046
0.725521 0.118807 0.0467994
0.756268 0.118395 0.0465248
0.784894 0.118608 0.0465705
0.810727 0.119554 0.046952
0.834134 0.121324 0.0476387
0.855634 0.123796 0.0486152
0.875685 0.126787 0.0497902
0.894835 0.130205 0.051133
0.913619 0.133791 0.0525368
0.928176 0.133822 0.0525521
0.000274662 0.179095 0
0.0172732 0.174792 0
0.0389105 0.170367 0
0.0594034 0.166949 0
0.0839094 0.173617 0
0.109438 0.180453 0
0.130983 0.179736 1.5259e-05
0.142214 0.166186 7.62951e-05
0.179187 0.181918 0.00015259
0.209659 0.186343 0.000564584
0.238041 0.186877 0.0019379
0.266072 0.185855 0.00463874
0.29659 0.18381 0.0100099
0.33341 0.179965 0.0192569
0.377111 0.17438 0.0306249
0.42356 0.168795 0.0395972
0.469245 0.163622 0.0457618
0.512627 0.159121 0.0500954
0.554101 0.155322 0.0530556
0.594141 0.152026 0.0549325
0.632929 0.149294 0.0560769
0.670298 0.147173 0.0565499
0.706142 0.14551 0.0566415
0.741543 0.144091 0.0564736
0.775357 0.143191 0.0562753
0.806638 0.143038 0.0562753
0.834897 0.143816 0.0565805
0.860304 0.14548 0.0572213
0.883558 0.148119 0.0582589
0.904738 0.151415 0.0595712
0.924804 0.155001 0.0609751
0.944595 0.158709 0.0624094
0.960082 0.159075 0.0626078
0.00030518 0.202579 0
0.0149386 0.199573 0
0.0370794 0.195865 0
0.0574044 0.191272 0
0.0792248 0.192737 0
0.104875 0.201373 0
0.130678 0.207721 0
0.151736 0.205051 3.0518e-05
0.162707 0.190356 9.15541e-05
0.201785 0.207233 0.000167849
0.235096 0.213046 0.000518807
0.265217 0.213581 0.00178531
0.295109 0.213046 0.00418097
0.326604 0.211109 0.00894179
0.362722 0.20763 0.0171664
0.40589 0.202396 0.028809
0.453513 0.196567 0.0397955
0.501793 0.19118 0.0478828
0.54818 0.186435 0.0536049
0.59202 0.182406 0.0578164
0.63386 0.17911 0.0608225
0.673579 0.176562 0.0629435
0.711971 0.174456 0.0643931
0.750011 0.17258 0.0654002
0.786572 0.171298 0.0659495
0.8206 0.170718 0.0663462
0.851179 0.171115 0.0668345
0.878935 0.172656 0.0675975
0.904036 0.175189 0.0686809
0.926833 0.178408 0.0699626
0.948623 0.182071 0.0714122
0.969863 0.185916 0.0729381
0.976959 0.186755 0.0732738
0.000350958 0.224384 0
0.0115358 0.222797 0
0.0343175 0.221347 0
0.0553292 0.217777 0
0.0755322 0.214115 0
0.100038 0.222126 0
0.12639 0.230991 0
0.152102 0.235874 0
0.173068 0.231388 3.0518e-05
0.184543 0.216114 0.000106813
0.225406 0.233555 0.000183108
0.261799 0.241062 0.00047303
0.293706 0.241703 0.00166323
0.325582 0.241489 0.00389105
0.358129 0.239689 0.00808728
0.394095 0.236759 0.0153201
0.436225 0.232197 0.0262608
0.483452 0.226658 0.038468
0.532815 0.22121 0.0485237
0.581537 0.216266 0.0559548
0.627741 0.212253 0.0614176
0.670954 0.209033 0.0655985
0.712093 0.20647 0.0687877
0.752605 0.204227 0.0713054
0.791211 0.202609 0.0731823
0.827268 0.201694 0.0746166
0.859983 0.201785 0.0759442
0.889876 0.20322 0.0772106
0.916579 0.205737 0.078584
0.94107 0.208881 0.0800183
0.964324 0.212512 0.0815747
0.984314 0.216327 0.0831006
0.984619 0.217594 0.0834669
0.000381476 0.246677 0
0.00712596 0.245365 0
0.030045 0.244572 0
0.0520638 0.243671 0
0.0729229 0.24065 0
0.0947127 0.242069 0
0.120638 0.252445 0
0.14818 0.261845 0
0.174334 0.265248 0
0.19501 0.258915 4.57771e-05
0.207568 0.243244 0.000106813
0.249561 0.260563 0.000198367
0.289754 0.270497 0.000442512
0.323384 0.271366 0.00154116
0.357397 0.271366 0.00367742
0.391257 0.270008 0.00737011
0.427192 0.267567 0.0137179
0.467567 0.26392 0.0233005
0.513283 0.259037 0.035462
0.562219 0.253803 0.0471351
0.6121 0.249058 0.0565042
0.659754 0.24506 0.0634928
0.705119 0.24181 0.0688945
0.748791 0.239033 0.0733196
0.790082 0.236866 0.0768292
0.82826 0.235615 0.0796216
0.862821 0.235676 0.0819257
0.89424 0.23714 0.0839704
0.922316 0.239597 0.0858625
0.948058 0.242802 0.0876936
0.972457 0.246464 0.0895094
0.991714 0.250309 0.0910811
0.992065 0.252018 0.0914168
0.000411994 0.269627 0
0.00209049 0.268513 0
0.02533 0.267918 0
0.0475013 0.267308 0
0.0691081 0.266514 0
0.0901656 0.264912 0
0.114733 0.273274 0
0.141848 0.28397 0
0.170779 0.294041 0
0.197665 0.296208 0
0.218799 0.288518 4.57771e-05
0.232731 0.272923 0.000122072
0.275807 0.289693 0.000213626
0.319188 0.301427 0.000442512
0.35465 0.302586 0.00144961
0.390158 0.302693 0.0034638
0.425406 0.302083 0.00668345
0.461372 0.30013 0.0122072
0.500038 0.297383 0.0203098
0.543709 0.293523 0.0313878
0.590921 0.289097 0.043595
0.639597 0.28481 0.0545205
0.68838 0.280812 0.063447
0.736355 0.277195 0.070573
0.781415 0.274449 0.0761273
0.82269 0.272801 0.0805829
0.859709 0.272755 0.0841535
0.892927 0.274067 0.0871595
0.922423 0.27657 0.0897078
0.949416 0.279713 0.0920424
0.974746 0.283436 0.0942245
0.998535 0.287388 0.0962844
0.998886 0.289448 0.0964828
0.000457771 0.295186 0
0.000457771 0.294362 0
0.0204013 0.29427 0
0.0429236 0.294209 0
0.0648966 0.294194 0
0.086717 0.294026 0
0.109712 0.297398 0
0.136065 0.307973 0
0.164691 0.31899 0
0.194781 0.32781 0
0.222522 0.328862 0
0.244556 0.320394 6.10361e-05
0.259876 0.304646 0.000137331
0.303563 0.320455 0.000228885
0.350057 0.333913 0.000427253
0.387213 0.335515 0.00135805
0.423926 0.335882 0.00323491
0.460075 0.335866 0.00608835
0.49633 0.334615 0.0107424
0.533822 0.332891 0.0175174
0.574578 0.330282 0.0267643
0.618738 0.326863 0.0380713
0.665614 0.323064 0.0498665
0.714656 0.319142 0.0607156
0.763165 0.315724 0.0696574
0.80798 0.313527 0.0765393
0.848417 0.313252 0.0817884
0.884062 0.314351 0.0859541
0.915496 0.316609 0.0893721
0.943847 0.319738 0.0923323
0.970413 0.323369 0.0950179
0.996567 0.327214 0.0976272
1 0.329381 0.0984512
0.000503548 0.324208 0
0.000488289 0.323674 0
0.0153048 0.324407 0
0.0383154 0.325307 0
0.0608377 0.325643 0
0.0831769 0.32575 0
0.105577 0.32578 0
0.130785 0.334234 0
0.15874 0.345037 0
0.189105 0.355718 0
0.219791 0.362554 0
0.248951 0.363241 0
0.271275 0.353185 7.62951e-05
0.289113 0.338857 0.00015259
0.333761 0.35378 0.000259403
0.381826 0.367834 0.000427253
0.420569 0.370245 0.00125124
0.458198 0.370993 0.00296025
0.495354 0.371618 0.00550851
0.531655 0.371298 0.00929274
0.568292 0.370169 0.0149233
0.606149 0.368719 0.0223087
0.647349 0.366461 0.0319066
0.692073 0.3635 0.0432593
0.738842 0.360174 0.0548867
0.78468 0.3579 0.0649119
0.827344 0.357214 0.0728771
0.865171 0.358053 0.0789502
0.898833 0.359991 0.0837873
0.929 0.362951 0.0877394
0.957519 0.366323 0.0912337
0.984848 0.369589 0.0944839
1 0.371756 0.0967422
0.000549325 0.354482 0
0.000549325 0.353964 0
0.00959792 0.354894 0
0.0331121 0.356191 0
0.0561532 0.357717 0
0.0790875 0.358907 0
0.101946 0.359243 0
0.126009 0.362646 0
0.153277 0.373037 0
0.183108 0.383932 0
0.215061 0.394125 0
0.246571 0.398795 0
0.277089 0.399237 0
0.299611 0.387686 9.15541e-05
0.320333 0.374899 0.000167849
0.365759 0.389151 0.000274662
0.414115 0.402762 0.000427253
0.454826 0.406821 0.00114443
0.493034 0.40798 0.00265507
0.530556 0.408972 0.00492866
0.566857 0.409644 0.00799573
0.602609 0.409262 0.0124971
0.639216 0.408606 0.0185397
0.677958 0.407324 0.0263523
0.719051 0.405554 0.0359197
0.760998 0.404379 0.0460517
0.80145 0.404028 0.0555276
0.839063 0.404807 0.0635691
0.873457 0.406592 0.0702525
0.904631 0.409125 0.0756847
0.933776 0.411994 0.0804456
0.962676 0.414862 0.084947
0.983398 0.416953 0.0880446
0.000595102 0.386007 0
0.000595102 0.385489 0
0.00347906 0.386633 0
0.0273747 0.388144 0
0.0508278 0.389899 0
0.0741436 0.391775 0
0.0976883 0.393576 0
0.121569 0.394842 0
0.147982 0.402975 0
0.177493 0.413718 0
0.209247 0.424399 0
0.242969 0.43386 0
0.275212 0.436851 0
0.306996 0.436805 1.5259e-05
0.33286 0.427832 0.000106813
0.357046 0.41706 0.000198367
0.3991 0.426017 0.00030518
0.44802 0.440009 0.000427253
0.49041 0.445533 0.00103761
0.528206 0.44654 0.00234989
0.565805 0.447883 0.00434882
0.602029 0.449195 0.0069276
0.637369 0.449607 0.0104524
0.67364 0.449439 0.0154879
0.710048 0.449256 0.0216983
0.746624 0.449805 0.028687
0.782208 0.450858 0.0360571
0.816037 0.452338 0.0432898
0.847059 0.454429 0.0498512
0.876707 0.456947 0.0559396
0.905745 0.459739 0.0617685
0.934157 0.462699 0.0672313
0.955505 0.464637 0.0713207
0.000640879 0.419165 0
0.000640879 0.418357 0
0.000640879 0.419654 0
0.0215915 0.421271 0
0.0454566 0.42356 0
0.0692302 0.4262 0
0.0933394 0.42887 0
0.117922 0.431678 0
0.143603 0.435706 0
0.172396 0.445167 0
0.204166 0.456168 0
0.238285 0.46717 0
0.27396 0.476066 0
0.3066 0.47686 0
0.340673 0.477485 3.0518e-05
0.371588 0.473198 0.000122072
0.397192 0.46276 0.000213626
0.435996 0.466957 0.000320439
0.483101 0.47866 0.000442512
0.526955 0.486091 0.0009308
0.564492 0.487068 0.00207523
0.601129 0.488197 0.00378424
0.637385 0.489632 0.00607309
0.673106 0.490669 0.00898756
0.708598 0.491661 0.0129091
0.742626 0.493065 0.0175479
0.774014 0.494865 0.0224308
0.803159 0.497276 0.0272374
0.830686 0.50016 0.0319982
0.857008 0.503487 0.0366369
0.882979 0.50695 0.0413062
0.909361 0.510399 0.0462043
0.929778 0.51281 0.0501564
0.000701915 0.455421 0
0.000701915 0.455726 0
0.000701915 0.459098 0
0.0167391 0.462959 0
0.0412146 0.465599 0
0.0657054 0.468391 0
0.0904707 0.471443 0
0.115724 0.474479 0
0.141985 0.477653 0
0.169665 0.482582 0
0.199771 0.489632 0
0.233661 0.50013 0
0.270024 0.511025 0
0.306844 0.518288 0
0.340948 0.518624 0
0.375937 0.518776 4.57771e-05
0.410346 0.517525 0.00015259
0.44004 0.510582 0.000244144
0.478004 0.512993 0.000350958
0.520485 0.520088 0.000457771
0.563806 0.527474 0.000854505
0.601022 0.528832 0.00180056
0.637568 0.530159 0.00329595
0.674235 0.531518 0.00535592
0.709148 0.532982 0.0077821
0.741741 0.534554 0.0106355
0.772137 0.536721 0.013901
0.799802 0.539635 0.0172427
0.825208 0.54313 0.0204776
0.848951 0.547219 0.0235752
0.872129 0.551324 0.0267643
0.895537 0.555428 0.0301213
0.91429 0.558694 0.0329595
0.000747692 0.492424 0
0.000747692 0.492409 0
0.000762951 0.495995 0
0.0125429 0.50045 0
0.0376287 0.505714 0
0.0629129 0.511177 0
0.0885023 0.515785 0
0.114504 0.519081 0
0.141344 0.522454 0
0.169497 0.526329 0
0.199496 0.531823 0
0.231479 0.537514 0
0.266178 0.545037 0
0.304585 0.555352 0
0.341909 0.560418 0
0.377554 0.561181 0
0.413382 0.561196 6.10361e-05
0.449516 0.561166 0.000167849
0.483558 0.558526 0.000274662
0.522652 0.561868 0.000381476
0.562539 0.566308 0.000488289
0.600671 0.569406 0.00077821
0.637491 0.570733 0.00158694
0.674266 0.571939 0.00291447
0.709789 0.573236 0.00468452
0.742748 0.575143 0.00669871
0.772519 0.577676 0.00875868
0.799558 0.580758 0.0109255
0.824323 0.584573 0.013077
0.847486 0.588815 0.0152895
0.869596 0.59321 0.0175631
0.891798 0.597864 0.0199588
0.9093 0.60145 0.0219425
0.000808728 0.530449 0
0.000808728 0.530175 0
0.000823987 0.533837 0
0.00926223 0.538445 0
0.0348058 0.54377 0
0.0604715 0.549783 0
0.0867628 0.556405 0
0.113924 0.563104 0
0.141939 0.568322 0
0.17055 0.571862 0
0.201022 0.576638 0
0.233265 0.582132 0
0.267399 0.587549 0
0.302953 0.592615 0
0.341817 0.599756 0
0.379126 0.602625 0
0.415976 0.603555 0
0.452583 0.603952 9.15541e-05
0.488869 0.603845 0.000198367
0.5252 0.603769 0.00030518
0.562844 0.605692 0.000411994
0.600427 0.608423 0.000518807
0.63743 0.610803 0.000747692
0.674281 0.612009 0.00143435
0.710063 0.61326 0.00257877
0.743542 0.615091 0.00402838
0.773907 0.617716 0.00560006
0.801129 0.621012 0.00717174
0.825605 0.624781 0.00868238
0.84831 0.629114 0.0101472
0.870115 0.633707 0.0116884
0.891844 0.638437 0.0133211
0.909026 0.642191 0.0147555
0.000869764 0.569375 0
0.000869764 0.56878 0
0.000869764 0.572549 0
0.00727855 0.577234 0
0.0331121 0.582544 0
0.0590219 0.588586 0
0.0856489 0.595117 0
0.113207 0.60206 0
0.142153 0.6094 0
0.172564 0.616526 0
0.203784 0.621988 0
0.236439 0.62707 0
0.27068 0.63183 0
0.306706 0.636393 0
0.343603 0.640146 0
0.381048 0.642863 0
0.417975 0.643931 0
0.455253 0.644724 1.5259e-05
0.492439 0.645472 0.000122072
0.528847 0.645533 0.000228885
0.564691 0.645518 0.000335698
0.601221 0.646967 0.000442512
0.638193 0.649378 0.000534066
0.675456 0.651682 0.000747692
0.711269 0.653101 0.00134279
0.744717 0.654719 0.00225834
0.77528 0.65713 0.00337224
0.80296 0.660334 0.00456245
0.827787 0.664195 0.00575265
0.850706 0.668345 0.00691234
0.872511 0.672862 0.00808728
0.894072 0.677531 0.009308
0.91107 0.681147 0.0103456
0.0009308 0.608804 0
0.0009308 0.607874 0
0.0009308 0.61178 0
0.00680552 0.616434 0
0.0329442 0.621744 0
0.0591592 0.627619 0
0.0860914 0.634028 0
0.113939 0.640726 0
0.143084 0.647837 0
0.173724 0.65507 0
0.206058 0.662379 0
0.239048 0.667308 0
0.272969 0.671138 0
0.308537 0.674815 0
0.345525 0.678386 0
0.383444 0.68162 0
0.421378 0.683742 0
0.458503 0.684443 0
0.49572 0.685023 6.10361e-05
0.533104 0.686076 0.000167849
0.569512 0.68661 0.000259403
0.604898 0.686748 0.000366217
0.640955 0.687984 0.00047303
0.677394 0.689632 0.000579843
0.713436 0.691936 0.000747692
0.747066 0.693889 0.00122072
0.777661 0.696178 0.0019379
0.805295 0.699077 0.00277714
0.83032 0.702739 0.00366217
0.853407 0.70692 0.00456245
0.875349 0.711162 0.00550851
0.896986 0.715557 0.0065156
0.91429 0.719234 0.00737011
0.000991836 0.648508 0
0.000991836 0.647227 0
0.000991836 0.651148 0
0.00836194 0.655802 0
0.0346227 0.661021 0
0.0611582 0.666804 0
0.0883345 0.672938 0
0.116365 0.679454 0
0.14551 0.686275 0
0.176287 0.693248 0
0.208743 0.700298 0
0.242679 0.706676 0
0.276188 0.709972 0
0.311452 0.712978 0
0.348226 0.716182 0
0.386084 0.719249 0
0.424704 0.722179 0
0.46273 0.723934 0
0.499886 0.724514 0
0.536889 0.725017 9.15541e-05
0.573587 0.725902 0.000198367
0.609827 0.72694 0.00030518
0.645258 0.727245 0.000411994
0.681346 0.72842 0.000503548
0.716365 0.7299 0.000610361
0.749554 0.731991 0.000747692
0.780072 0.734493 0.00109865
0.807691 0.737423 0.00161746
0.832868 0.740917 0.00222782
0.856229 0.745037 0.00288396
0.878523 0.749325 0.00360113
0.900435 0.753857 0.00437934
0.917967 0.75761 0.00564584
0.00105287 0.688411 0
0.00105287 0.686915 0
0.00105287 0.690806 0
0.0112306 0.695323 0
0.0376135 0.700496 0
0.0641489 0.706065 0
0.091371 0.712093 0
0.119387 0.718395 0
0.148501 0.724941 0
0.179294 0.73164 0
0.211658 0.738369 0
0.245777 0.744991 0
0.280049 0.749386 0
0.31519 0.752178 0
0.351522 0.754757 0
0.389044 0.757092 0
0.427207 0.759655 0
0.466056 0.762234 0
0.503761 0.763394 0
0.54078 0.764035 3.0518e-05
0.577356 0.764553 0.000137331
0.613352 0.765454 0.000228885
0.649332 0.766339 0.000335698
0.685405 0.767193 0.000442512
0.720165 0.768322 0.000534066
0.752911 0.769985 0.00062562
0.782834 0.772473 0.000732433
0.810361 0.775647 0.000961318
0.835752 0.779324 0.00131228
0.859266 0.783459 0.00175479
0.881773 0.787808 0.00224308
0.903914 0.792248 0.00282292
0.921416 0.795972 0.00839246
0.00111391 0.728328 0
0.00111391 0.726787 0
0.00111391 0.730556 0
0.0150301 0.734997 0
0.041413 0.740047 0
0.0679789 0.74551 0
0.0952773 0.751263 0
0.123278 0.757351 0
0.152453 0.763622 0
0.183108 0.769924 0
0.215366 0.776303 0
0.249363 0.782574 0
0.284688 0.788342 0
0.319738 0.791012 0
0.356085 0.793393 0.00047303
0.393378 0.795453 0.0019379
0.431403 0.797421 0.00259403
0.46952 0.799283 0.00155642
0.507866 0.800992 0.00015259
0.544961 0.801755 0
0.581491 0.80235 6.10361e-05
0.617578 0.803174 0.000167849
0.653483 0.803937 0.000274662
0.689418 0.804868 0.000381476
0.724483 0.805997 0.00047303
0.757351 0.807691 0.000564584
0.787305 0.810178 0.000656138
0.814557 0.813489 0.000732433
0.839597 0.817197 0.000854505
0.863066 0.821286 0.00108339
0.885527 0.825528 0.00138857
0.907546 0.829709 0.00567636
0.924987 0.833295 0.0126192
0.00117494 0.76788 0
0.00117494 0.766384 0
0.00117494 0.770062 0
0.0205081 0.77435 0
0.0467689 0.779187 0
0.0733806 0.784451 0
0.100618 0.790036 0
0.12871 0.795789 0
0.157885 0.801709 0
0.188525 0.807645 0
0.220752 0.813581 0
0.254475 0.819471 0.000381476
0.289998 0.825086 0.00344854
0.325826 0.828794 0.00579843
0.361929 0.830869 0.00761425
0.399115 0.832685 0.0090486
0.437003 0.834272 0.010132
0.475135 0.835813 0.0100099
0.513298 0.837354 0.00886549
0.551064 0.83859 0.00729381
0.587686 0.839261 0.00535592
0.623774 0.840131 0.00337224
0.659876 0.841047 0.0010071
0.695766 0.841947 0.000320439
0.730709 0.84303 0.000411994
0.763546 0.844709 0.000518807
0.793423 0.846937 0.000595102
0.820508 0.850004 0.000671397
0.844999 0.85362 0.000732433
0.867979 0.857527 0.00141909
0.890074 0.861494 0.0059205
0.911864 0.86537 0.010193
0.929046 0.868482 0.0160525
0.00123598 0.807141 0
0.00123598 0.805356 0
0.00248722 0.808667 0
0.0284276 0.812772 0
0.0545968 0.817472 0
0.0811475 0.822507 0
0.108415 0.827817 0
0.1364 0.83331 0
0.16556 0.838804 0
0.19617 0.844388 0.00201419
0.228275 0.849867 0.00610361
0.262013 0.855283 0.00976577
0.297337 0.860517 0.0129397
0.334142 0.865034 0.0155795
0.369924 0.866651 0.0173037
0.406714 0.868101 0.0188296
0.444724 0.86978 0.0202487
0.483162 0.871321 0.0213931
0.521584 0.872923 0.0210422
0.559808 0.874525 0.0200504
0.597025 0.875685 0.0184634
0.632837 0.876356 0.016495
0.668666 0.876997 0.0142519
0.704524 0.877668 0.0115206
0.739086 0.878599 0.00851453
0.771603 0.879957 0.0062562
0.801266 0.881941 0.00537118
0.827985 0.884611 0.00500496
0.852232 0.88777 0.00616464
0.874556 0.89134 0.00869764
0.895842 0.894926 0.0121309
0.917067 0.898314 0.0159304
0.933761 0.900999 0.0201114
0.00129702 0.848783 0
0.00129702 0.847089 0
0.0161746 0.8495 0
0.0408789 0.852506 0
0.0661784 0.856138 0
0.0920272 0.860105 0
0.118715 0.864485 0.000137331
0.146715 0.869612 0.00511177
0.175814 0.8748 0.00984207
