70 CGC LUTs/Look LUTs/Spy.cube
#Created by: Denver Riddle
#Copyright: (C) Copyright Color Grading Central LLC
#LUT Size
LUT_3D_SIZE 5
0 0 0
0.188113 0.0104372 0.0111391
0.40914 0.00602731 0.0081178
0.667552 0.00984207 0.0132448
0.826581 0.012192 0.0164034
0.00030518 0.202579 0
0.162707 0.190356 9.15541e-05
0.453513 0.196567 0.0397955
0.786572 0.171298 0.0659495
0.976959 0.186755 0.0732738
0.000640879 0.419165 0
0.143603 0.435706 0
0.397192 0.46276 0.000213626
0.708598 0.491661 0.0129091
0.929778 0.51281 0.0501564
0.00111391 0.728328 0
0.152453 0.763622 0
0.431403 0.797421 0.00259403
0.724483 0.805997 0.00047303
0.924987 0.833295 0.0126192
0.0549783 0.999756 0.051545
0.257633 0.999664 0.0897841
0.5187 0.999512 0.0995651
0.789685 0.999344 0.111574
0.954513 0.99939 0.274205
0.000640879 0.0124514 0.203693
0.193866 0.00680552 0.222843
0.387869 0.00215152 0.196231
0.651423 0.00772107 0.186175
0.827512 0.0106661 0.195529
0 0.190677 0.186938
0.158007 0.210346 0.199115
0.377478 0.185657 0.174548
0.640879 0.189929 0.187716
0.869108 0.205844 0.207584
0.000259403 0.456764 0.16051
0.150912 0.447959 0.177111
0.392233 0.443793 0.170932
0.730938 0.489464 0.19559
1 0.501442 0.233219
0.000717174 0.74847 0.155718
0.15938 0.759854 0.185901
0.429603 0.793606 0.207858
0.730556 0.810803 0.212772
0.933425 0.838407 0.243229
0.0539712 0.999954 0.264897
0.205463 0.999832 0.230915
0.508324 0.99968 0.280339
0.78407 0.999496 0.280964
0.951583 0.999481 0.3794
0 0.0353857 0.451102
0.184817 0.0083772 0.49308
0.417533 0.00015259 0.480812
0.652323 0.00122072 0.447196
0.838285 0.00349432 0.469932
0 0.202487 0.313237
0.110323 0.198856 0.349767
0.41384 0.201419 0.479088
0.645777 0.181918 0.442161
0.885466 0.179019 0.484871
0 0.436728 0.429404
0.13225 0.414908 0.410605
0.366339 0.493507 0.469642
0.715602 0.46186 0.427192
0.904097 0.531701 0.530419
0 0.757702 0.448127
0.168322 0.783917 0.479454
0.427466 0.788815 0.487327
0.742947 0.787289 0.461143
0.932357 0.837629 0.535515
0.0539864 1 0.565377
0.240574 1 0.573999
0.480308 0.999939 0.549477
0.771725 0.999756 0.552666
0.942763 0.999695 0.611429
0.00123598 0.0580148 0.739559
0.174899 0.0165713 0.808911
0.406973 0.000427253 0.778134
0.689647 0.000259403 0.78822
0.844129 0.000213626 0.78967
0 0.235508 0.600168
0.124376 0.232273 0.669841
0.36524 0.18291 0.729641
0.694957 0.190616 0.794095
0.886702 0.100175 0.805112
0 0.440009 0.705577
0.0580148 0.460533 0.680491
0.24239 0.452308 0.617914
0.693523 0.497627 0.801999
0.923598 0.481575 0.831312
0 0.748745 0.755138
0.147173 0.726513 0.73228
0.386694 0.790158 0.803983
0.664591 0.822904 0.814176
0.924254 0.833921 0.845014
0.062211 1 0.862577
0.177172 1 0.865431
0.471992 1 0.869886
0.748714 1 0.846448
0.93312 0.999924 0.870329
0.00343328 0.0793011 0.933288
0.171771 0.0253147 0.977371
0.425971 0.00294499 0.961837
0.648615 0.000396735 0.916823
0.852247 0.000289921 0.949126
0.00434882 0.253498 0.858076
0.149722 0.213413 0.983719
0.423621 0.20174 0.985595
0.699916 0.114885 0.973953
0.901854 0.161013 0.993103
0 0.492973 0.770108
0 0.4907 0.85069
0.414572 0.509041 0.987747
0.722179 0.488426 0.995056
0.933577 0.502495 1
0 0.778317 0.941833
0.137682 0.804349 0.978759
0.336339 0.83534 0.997375
0.726833 0.824277 0.999557
0.934768 0.827344 1
0.0903334 1 0.99736
0.229999 1 0.997757
0.480278 1 0.998489
0.748226 1 0.999268
0.932891 1 0.999802
