70 CGC LUTs/Look LUTs/Spy.cube
#Created by: Denver Riddle
#Copyright: (C) Copyright Color Grading Central LLC
#LUT Size
LUT_3D_SIZE 9
0 0 0
0.097261 0.00666819 0.00712596
0.188113 0.0104372 0.0111391
0.292134 0.00856031 0.00923171
0.40914 0.00602731 0.0081178
0.540444 0.00796521 0.0107271
0.667552 0.00984207 0.0132448
0.769009 0.0113375 0.015259
0.826581 0.012192 0.0164034
0.000167849 0.108339 0
0.0910658 0.105882 4.57771e-05
0.191119 0.109316 0.00907912
0.331411 0.0948501 0.0319066
0.467048 0.0843061 0.0331579
0.587472 0.0783856 0.0308537
0.701442 0.0756237 0.030518
0.799725 0.0787976 0.0324559
0.869307 0.086244 0.035462
0.00030518 0.202579 0
0.0792248 0.192737 0
0.162707 0.190356 9.15541e-05
0.295109 0.213046 0.00418097
0.453513 0.196567 0.0397955
0.63386 0.17911 0.0608225
0.786572 0.171298 0.0659495
0.904036 0.175189 0.0686809
0.976959 0.186755 0.0732738
0.000457771 0.295186 0
0.0648966 0.294194 0
0.164691 0.31899 0
0.259876 0.304646 0.000137331
0.423926 0.335882 0.00323491
0.574578 0.330282 0.0267643
0.763165 0.315724 0.0696574
0.915496 0.316609 0.0893721
1 0.329381 0.0984512
0.000640879 0.419165 0
0.0454566 0.42356 0
0.143603 0.435706 0
0.27396 0.476066 0
0.397192 0.46276 0.000213626
0.564492 0.487068 0.00207523
0.708598 0.491661 0.0129091
0.830686 0.50016 0.0319982
0.929778 0.51281 0.0501564
0.000869764 0.569375 0
0.0331121 0.582544 0
0.142153 0.6094 0
0.27068 0.63183 0
0.417975 0.643931 0
0.564691 0.645518 0.000335698
0.711269 0.653101 0.00134279
0.827787 0.664195 0.00575265
0.91107 0.681147 0.0103456
0.00111391 0.728328 0
0.041413 0.740047 0
0.152453 0.763622 0
0.284688 0.788342 0
0.431403 0.797421 0.00259403
0.581491 0.80235 6.10361e-05
0.724483 0.805997 0.00047303
0.839597 0.817197 0.000854505
0.924987 0.833295 0.0126192
0.00134279 0.889113 0.00378424
0.0829328 0.896422 0.00801099
0.188937 0.910323 0.0247959
0.320241 0.928878 0.0409705
0.470161 0.939803 0.0499275
0.619883 0.942718 0.05037
0.759854 0.94345 0.0395209
0.867964 0.948135 0.0294347
0.944213 0.957046 0.0505226
0.0549783 0.999756 0.051545
0.150851 0.999725 0.0718547
0.257633 0.999664 0.0897841
0.38027 0.999603 0.0995651
0.5187 0.999512 0.0995651
0.658167 0.99942 0.0993362
0.789685 0.999344 0.111574
0.888472 0.999252 0.0682994
0.954513 0.99939 0.274205
0.00103761 0.00502022 0.100557
0.101595 0.00518807 0.116396
0.19028 0.00741588 0.114733
0.283513 0.00686656 0.109041
0.400977 0.00500496 0.103075
0.531441 0.00733959 0.0952773
0.661585 0.00950637 0.0881208
0.767483 0.0111543 0.0877699
0.827359 0.0120546 0.0894484
0 0.103532 0.10161
0.0842451 0.109377 0.10338
0.174853 0.0986191 0.092134
0.259815 0.0982834 0.0967575
0.383825 0.0955215 0.0948501
0.514214 0.0884871 0.0887465
0.648478 0.0831617 0.0844434
0.762768 0.0841993 0.0859693
0.843153 0.0570993 0.0607004
6.10361e-05 0.207218 0.0956588
0.0814679 0.197498 0.0938582
0.160616 0.181491 0.0818647
0.295674 0.204395 0.0897383
0.465019 0.187518 0.0910506
0.601144 0.181186 0.103227
0.719875 0.183246 0.1093
0.822461 0.192767 0.118837
0.908797 0.200839 0.120195
0.000274662 0.309316 0.0759442
0.0681621 0.302251 0.0806744
0.154147 0.295613 0.0826734
0.258442 0.301991 0.0836042
0.420478 0.333547 0.089601
0.601251 0.322515 0.0941176
0.790585 0.310155 0.0978561
0.926925 0.315373 0.114214
1 0.328374 0.124498
0.000518807 0.430549 0.053666
0.0510872 0.428855 0.0640421
0.145174 0.435416 0.0714275
0.263142 0.455909 0.0793317
0.395605 0.460334 0.0796979
0.564996 0.487068 0.0823072
0.712444 0.493141 0.0960403
0.854292 0.497185 0.114549
0.972122 0.506294 0.126635
0.00077821 0.577234 0.039765
0.0408942 0.580392 0.0538338
0.141833 0.600931 0.065507
0.271458 0.629664 0.0802777
0.418952 0.644053 0.0854963
0.566735 0.647211 0.0851606
0.713985 0.655238 0.0847181
0.8309 0.666362 0.0978714
0.91606 0.683925 0.123796
0.000991836 0.733318 0.0485237
0.0505074 0.738476 0.064332
0.152804 0.758053 0.0768902
0.283177 0.783185 0.0933394
0.431922 0.797452 0.100237
0.583841 0.804105 0.100526
0.727169 0.808438 0.100313
0.843137 0.819364 0.105806
0.929992 0.835843 0.129809
0.00111391 0.893034 0.0926375
0.0890822 0.898344 0.103502
0.190387 0.910536 0.115785
0.317296 0.925566 0.130617
0.471229 0.941207 0.142184
0.618845 0.942992 0.14229
0.759945 0.944427 0.138598
0.868193 0.948394 0.138231
0.945144 0.956542 0.146807
0.050721 0.999847 0.149432
0.0606088 0.999771 0.0587015
0.218006 0.999695 0.0856794
0.359411 0.999634 0.129
0.514519 0.999588 0.180301
0.655451 0.999496 0.181796
0.786862 0.99942 0.182818
0.886213 0.999344 0.16286
0.953689 0.99942 0.308385
0.000640879 0.0124514 0.203693
0.100084 0.00715648 0.222034
0.193866 0.00680552 0.222843
0.296757 0.00332647 0.216419
0.387869 0.00215152 0.196231
0.515282 0.00497444 0.189212
0.651423 0.00772107 0.186175
0.765164 0.00970474 0.188876
0.827512 0.0106661 0.195529
0 0.109926 0.163256
0.0552377 0.101427 0.163424
0.182025 0.107576 0.211383
0.281346 0.100877 0.201907
0.372915 0.0917372 0.185901
0.497566 0.0855421 0.180453
0.637629 0.0814832 0.179568
0.758633 0.0827192 0.183169
0.844663 0.025864 0.167269
0 0.190677 0.186938
0.0641947 0.168887 0.16611
0.158007 0.210346 0.199115
0.277394 0.191501 0.179355
0.377478 0.185657 0.174548
0.499352 0.186542 0.181994
0.640879 0.189929 0.187716
0.767483 0.197513 0.19585
0.869108 0.205844 0.207584
0 0.3149 0.180743
0.0718547 0.322026 0.188693
0.15256 0.290257 0.175662
0.269184 0.294881 0.171527
0.426322 0.312505 0.15935
0.617502 0.304738 0.165301
0.761181 0.305135 0.19498
0.867628 0.322103 0.227741
0.958312 0.350958 0.256458
0.000259403 0.456764 0.16051
0.0550393 0.458122 0.170443
0.150912 0.447959 0.177111
0.255619 0.439811 0.178347
0.392233 0.443793 0.170932
0.570443 0.4822 0.178592
0.730938 0.489464 0.19559
0.897322 0.489006 0.205066
1 0.501442 0.233219
0.000518807 0.597864 0.146273
0.0458228 0.601343 0.15938
0.14696 0.603326 0.17322
0.262242 0.612161 0.18233
0.415259 0.637934 0.193408
0.567452 0.645899 0.194324
0.717845 0.65713 0.19527
0.833936 0.66891 0.210086
0.921401 0.68661 0.243946
0.000717174 0.74847 0.155718
0.0559396 0.754177 0.16968
0.15938 0.759854 0.185901
0.27747 0.77055 0.196536
0.429603 0.793606 0.207858
0.583566 0.803403 0.210834
0.730556 0.810803 0.212772
0.847013 0.821546 0.216617
0.933425 0.838407 0.243229
0.0052491 0.903166 0.203738
0.0951095 0.908431 0.212528
0.198306 0.916533 0.226566
0.31751 0.923735 0.236454
0.46479 0.9355 0.245991
0.620066 0.944518 0.250401
0.759731 0.944579 0.246967
0.868574 0.948577 0.248264
0.94519 0.95613 0.253117
0.0539712 0.999954 0.264897
0.0554818 0.999908 0.218845
0.205463 0.999832 0.230915
0.352789 0.999756 0.256703
0.508324 0.99968 0.280339
0.65272 0.999588 0.284215
0.78407 0.999496 0.280964
0.883864 0.999435 0.267964
0.951583 0.999481 0.3794
4.57771e-05 0.0231479 0.320104
0.0964828 0.00903334 0.351003
0.181781 0.00888075 0.328908
0.291279 0.00143435 0.335485
0.41323 0.00030518 0.32903
0.51667 0.00181582 0.304921
0.640604 0.00430304 0.298299
0.761776 0.00663767 0.304036
0.829221 0.00764477 0.317357
0 0.122667 0.248737
0.064271 0.116915 0.282826
0.148547 0.088426 0.276005
0.284199 0.100084 0.327947
0.393149 0.090074 0.311742
0.503075 0.0818647 0.294224
0.6271 0.0775464 0.289723
0.752865 0.079118 0.296834
0.85008 0.00881971 0.291417
0 0.187854 0.286656
0.0343786 0.187976 0.261952
0.103975 0.180957 0.231373
0.281758 0.210025 0.330098
0.391516 0.19234 0.30663
0.509834 0.18616 0.296635
0.635386 0.185031 0.296117
0.768215 0.194629 0.309926
0.87306 0.192111 0.327947
0 0.302403 0.296513
0.0593729 0.262013 0.257542
0.14023 0.292638 0.287861
0.249088 0.336202 0.317861
0.398337 0.310536 0.295354
0.540978 0.302586 0.278416
0.672663 0.317708 0.298405
0.794476 0.340154 0.32752
0.892821 0.371298 0.369955
0 0.431113 0.276463
0.0555581 0.45864 0.298695
0.157031 0.469123 0.311269
0.267384 0.444205 0.295842
0.411231 0.44387 0.287251
0.582086 0.464439 0.272312
0.781689 0.469993 0.267643
0.914534 0.479255 0.302998
0.998184 0.506462 0.379675
0.000167849 0.605051 0.280476
0.0492866 0.617273 0.294621
0.156329 0.630823 0.311162
0.272847 0.621622 0.312032
0.398444 0.60972 0.306203
0.580423 0.634607 0.303624
0.73753 0.647547 0.283772
0.842924 0.664515 0.303227
0.942031 0.683146 0.375235
0.000381476 0.765972 0.295048
0.0614328 0.77351 0.307362
0.166827 0.778439 0.320653
0.283284 0.778439 0.327886
0.413535 0.772885 0.327352
0.577996 0.793301 0.336004
0.736873 0.805264 0.32958
0.856428 0.819348 0.324529
0.934325 0.839078 0.377279
0.00816358 0.912001 0.343557
0.100923 0.919982 0.351507
0.206302 0.929732 0.364569
0.327916 0.933639 0.374197
0.459663 0.93135 0.372564
0.610758 0.937331 0.376318
0.759487 0.943023 0.37586
0.867613 0.946319 0.374075
0.942977 0.95378 0.383352
0.0547799 1 0.403754
0.0874037 1 0.380362
0.220554 0.999954 0.39382
0.341711 0.999878 0.389731
0.495491 0.999786 0.399435
0.648356 0.99971 0.412528
0.779202 0.999619 0.405066
0.879606 0.999542 0.396231
0.947845 0.999573 0.483879
0 0.0353857 0.451102
0.0888075 0.010193 0.499016
0.184817 0.0083772 0.49308
0.2607 0.00421149 0.431678
0.417533 0.00015259 0.480812
0.551858 0.000228885 0.475135
0.652323 0.00122072 0.447196
0.767376 0.00276188 0.449363
0.838285 0.00349432 0.469932
0 0.128634 0.370794
0.0665599 0.122011 0.396994
0.164675 0.101045 0.481361
0.235355 0.084947 0.393393
0.409659 0.0890211 0.472038
0.535988 0.0784009 0.458793
0.639841 0.071519 0.434836
0.762692 0.0725109 0.44065
0.859571 0.00427253 0.453864
0 0.202487 0.313237
0.0233616 0.205371 0.338888
0.110323 0.198856 0.349767
0.22591 0.177737 0.408026
0.41384 0.201419 0.479088
0.536675 0.189761 0.46157
0.645777 0.181918 0.442161
0.780316 0.192828 0.460441
0.885466 0.179019 0.484871
0 0.301122 0.437858
0.0484016 0.293797 0.416342
0.0892958 0.286931 0.371481
0.183703 0.320302 0.381949
0.385931 0.343648 0.480659
0.542565 0.319036 0.456306
0.669245 0.31429 0.447623
0.79675 0.334325 0.472557
0.899992 0.360922 0.514931
0 0.436728 0.429404
0.0503243 0.411612 0.405325
0.13225 0.414908 0.410605
0.241062 0.456458 0.44979
0.366339 0.493507 0.469642
0.554116 0.470207 0.448661
0.715602 0.46186 0.427192
0.832471 0.483726 0.449226
0.904097 0.531701 0.530419
0 0.553033 0.393347
0.0436255 0.58053 0.419669
0.151751 0.621592 0.460136
0.273259 0.635737 0.474617
0.417273 0.637156 0.469459
0.564691 0.620569 0.449516
0.739773 0.631281 0.421317
0.882689 0.648676 0.410651
0.986755 0.670481 0.524208
0 0.757702 0.448127
0.0599527 0.768643 0.461173
0.168322 0.783917 0.479454
0.291478 0.795712 0.492454
0.427466 0.788815 0.487327
0.570764 0.774136 0.471565
0.742947 0.787289 0.461143
0.868833 0.81207 0.442481
0.932357 0.837629 0.535515
0.00648508 0.909636 0.500694
0.099794 0.919142 0.508965
0.207675 0.933043 0.52517
0.330373 0.940581 0.534142
0.46775 0.942351 0.529564
0.607874 0.934173 0.518273
0.753902 0.936172 0.514244
0.872694 0.938384 0.54078
0.938323 0.949294 0.537408
0.0539864 1 0.565377
0.129946 1 0.564752
0.240574 1 0.573999
0.353597 1 0.568978
0.480308 0.999939 0.549477
0.635416 0.999832 0.55346
0.771725 0.999756 0.552666
0.87332 0.99968 0.548501
0.942763 0.999695 0.611429
0 0.0467079 0.597864
0.080827 0.0127108 0.660502
0.180377 0.0112154 0.656962
0.287892 0.00621042 0.644297
0.356909 0.000259403 0.554055
0.552926 0.000213626 0.635035
0.692821 0.000183108 0.638529
0.770169 0.000610361 0.607889
0.839597 0.000946059 0.629999
0.000457771 0.132692 0.517845
0.0656443 0.125109 0.549905
0.160067 0.0994583 0.6495
0.269718 0.0945754 0.617899
0.333867 0.0764172 0.523339
0.545159 0.0759747 0.626719
0.680446 0.0686046 0.625025
0.765759 0.0656748 0.597589
0.861708 0.00115969 0.626551
0 0.220203 0.440131
0.0487221 0.223819 0.461219
0.122698 0.221057 0.517433
0.232486 0.184344 0.587015
0.344656 0.17261 0.544854
0.554559 0.194324 0.638972
0.685939 0.188373 0.632364
0.77818 0.183627 0.611444
0.89305 0.152651 0.653315
0 0.303761 0.496925
0 0.304128 0.491447
0.0607919 0.318425 0.48806
0.160845 0.297673 0.452033
0.359945 0.319295 0.624582
0.551553 0.338094 0.647745
0.692866 0.327062 0.638544
0.79295 0.320699 0.622309
0.913207 0.338735 0.676387
0 0.447349 0.601556
0.0367742 0.446006 0.593957
0.113222 0.430304 0.561181
0.150988 0.407202 0.495842
0.300908 0.495232 0.569863
0.518074 0.503548 0.643931
0.70074 0.475441 0.613779
0.817121 0.467033 0.60943
0.914168 0.520073 0.683757
0 0.586236 0.581109
0.0437934 0.569512 0.564645
0.127398 0.54522 0.541405
0.23801 0.605341 0.60737
0.386648 0.643381 0.641184
0.508934 0.663966 0.643656
0.703517 0.644129 0.618158
0.856657 0.634211 0.602457
0.911955 0.689372 0.692836
0 0.704692 0.557748
0.0512093 0.722454 0.57702
0.157549 0.757137 0.615091
0.284703 0.787671 0.649226
0.424399 0.797101 0.659068
0.572946 0.802869 0.653696
0.728038 0.794934 0.635721
0.863416 0.809979 0.621027
0.945693 0.831388 0.691371
0.00740063 0.903181 0.65481
0.0976883 0.914412 0.6654
0.203571 0.927398 0.68072
0.326406 0.93724 0.693034
0.462242 0.94342 0.697063
0.606867 0.940475 0.685267
0.745022 0.934478 0.656382
0.868147 0.933913 0.685756
0.932723 0.944137 0.697475
0.0550088 1 0.723857
0.0706493 1 0.709743
0.223957 1 0.731014
0.354696 1 0.737621
0.492226 1 0.731777
0.618402 0.999985 0.705852
0.763684 0.999893 0.709514
0.866499 0.999832 0.706554
0.937514 0.999817 0.745037
0.00123598 0.0580148 0.739559
0.0719615 0.0166781 0.811826
0.174899 0.0165713 0.808911
0.288121 0.007187 0.802228
0.406973 0.000427253 0.778134
0.47631 0.00030518 0.690059
0.689647 0.000259403 0.78822
0.80116 0.000198367 0.80119
0.844129 0.000213626 0.78967
0.00149538 0.13666 0.673091
0.064744 0.128649 0.703456
0.153979 0.0985733 0.804593
0.27277 0.0964675 0.78439
0.386023 0.0852369 0.752667
0.45687 0.0662242 0.668009
0.683742 0.0666361 0.781918
0.800168 0.0690318 0.792462
0.85687 0.000228885 0.782177
0 0.235508 0.600168
0.0535439 0.234943 0.614878
0.124376 0.232273 0.669841
0.246204 0.199695 0.795987
0.36524 0.18291 0.729641
0.48014 0.169635 0.700084
0.694957 0.190616 0.794095
0.81207 0.196277 0.802548
0.886702 0.100175 0.805112
0 0.323415 0.528878
0 0.322835 0.548058
0.0775921 0.341024 0.627939
0.179919 0.336751 0.633249
0.319417 0.289723 0.725124
0.506783 0.310018 0.752194
0.701442 0.335119 0.802716
0.820859 0.340948 0.810132
0.913848 0.284428 0.82504
0 0.440009 0.705577
0 0.440879 0.697612
0.0580148 0.460533 0.680491
0.123079 0.480339 0.661936
0.24239 0.452308 0.617914
0.473457 0.488441 0.810559
0.693523 0.497627 0.801999
0.828138 0.492546 0.810819
0.923598 0.481575 0.831312
0 0.608972 0.759808
0.0371099 0.61442 0.762448
0.131334 0.614939 0.75697
0.191913 0.590494 0.71368
0.249439 0.598184 0.686656
0.45359 0.674037 0.747921
0.657023 0.668574 0.806195
0.831098 0.640223 0.798871
0.922347 0.674739 0.834302
0 0.748745 0.755138
0.0585184 0.742107 0.748333
0.147173 0.726513 0.73228
0.251179 0.745953 0.755642
0.386694 0.790158 0.803983
0.543816 0.806226 0.811963
0.664591 0.822904 0.814176
0.854337 0.797864 0.788815
0.924254 0.833921 0.845014
0.00854505 0.878431 0.772931
0.0868086 0.884352 0.776989
0.188907 0.901167 0.795865
0.318456 0.928923 0.829831
0.453162 0.939986 0.842496
0.59588 0.939773 0.840818
0.745632 0.933577 0.83122
0.863172 0.928328 0.826642
0.927855 0.939727 0.844434
0.062211 1 0.862577
0.0626688 1 0.853407
0.177172 1 0.865431
0.335103 1 0.876036
0.471992 1 0.869886
0.621561 1 0.862882
0.748714 1 0.846448
0.860014 0.999954 0.849287
0.93312 0.999924 0.870329
0.00457771 0.0699931 0.863157
0.0639811 0.0232853 0.917159
0.172229 0.0246128 0.914916
0.287953 0.0163882 0.910842
0.41799 0.0068513 0.901274
0.532494 0.000442512 0.876539
0.605371 0.000350958 0.825345
0.794095 0.000289921 0.894377
0.859342 0.000259403 0.908248
0.00309758 0.141695 0.817945
0.064744 0.134157 0.840818
0.149889 0.101442 0.912917
0.272953 0.100557 0.901259
0.404089 0.0918593 0.894118
0.514549 0.0774548 0.864988
0.596139 0.0585641 0.817426
0.795697 0.0684977 0.895201
0.87805 0.0415351 0.913588
0.000122072 0.244465 0.744289
0.0565347 0.243107 0.759106
0.13138 0.24358 0.789578
0.246571 0.207309 0.917937
0.390249 0.200153 0.895506
0.502358 0.179477 0.855589
0.617533 0.167865 0.840162
0.811887 0.197833 0.909331
0.904967 0.19707 0.932982
0 0.342458 0.667216
0.0258183 0.348852 0.684794
0.0986801 0.362158 0.745815
0.194781 0.361151 0.787701
0.341268 0.314214 0.889052
0.471595 0.291371 0.842481
0.649317 0.307958 0.871534
0.822965 0.346242 0.919356
0.923232 0.351766 0.945815
0 0.466285 0.73875
0 0.462821 0.73315
0.0142824 0.481422 0.743114
0.139116 0.500221 0.780484
0.246754 0.471351 0.755871
0.444984 0.439963 0.879942
0.661524 0.476524 0.901701
0.828687 0.503365 0.926528
0.928054 0.506279 0.946715
0 0.615518 0.864134
0.0204929 0.622766 0.868513
0.0891127 0.635523 0.862272
0.151873 0.651469 0.851377
0.208682 0.655055 0.825666
0.33904 0.621012 0.848951
0.653941 0.636057 0.916548
0.8262 0.663127 0.925978
0.92723 0.667231 0.943389
0 0.773098 0.883543
0.0599374 0.777234 0.889937
0.154177 0.78262 0.895399
0.244877 0.764706 0.883101
0.304341 0.759564 0.867704
0.340825 0.787533 0.892989
0.541482 0.817716 0.920058
0.827207 0.821164 0.931487
0.930983 0.821424 0.945937
0.0345464 0.913329 0.917525
0.107225 0.916075 0.920455
0.201465 0.920027 0.924697
0.302174 0.91281 0.918975
0.419425 0.92961 0.936141
0.534279 0.942184 0.948745
0.711925 0.939666 0.94522
0.833097 0.938338 0.939223
0.926482 0.938476 0.945327
0.0761578 1 0.960708
0.0758373 1 0.955749
0.0775616 1 0.955016
0.229679 1 0.97142
0.40087 1 0.971374
0.571633 1 0.960204
0.746609 1 0.952193
0.854643 1 0.94696
0.931991 1 0.956436
0.00343328 0.0793011 0.933288
0.0563668 0.0238041 0.980255
0.171771 0.0253147 0.977371
0.290944 0.0174716 0.971847
0.425971 0.00294499 0.961837
0.559991 0.00047303 0.949371
0.648615 0.000396735 0.916823
0.748516 0.000320439 0.905287
0.852247 0.000289921 0.949126
0.00396735 0.148531 0.91078
0.0276951 0.102846 0.980835
0.158495 0.10103 0.984344
0.280613 0.0929885 0.98323
0.420615 0.0736706 0.977569
0.562997 0.0457618 0.969741
0.667323 0.000411994 0.94255
0.742138 0.000335698 0.912413
0.867658 0.00030518 0.963394
0.00434882 0.253498 0.858076
0.0110628 0.235889 0.919997
0.149722 0.213413 0.983719
0.279988 0.21146 0.98677
0.423621 0.20174 0.985595
0.570947 0.185092 0.982269
0.699916 0.114885 0.973953
0.770306 0.000335698 0.940719
0.901854 0.161013 0.993103
0 0.364263 0.800473
0 0.364019 0.850477
0.0115816 0.353414 0.943435
0.272419 0.349889 0.98674
0.423621 0.345312 0.989685
0.576684 0.334188 0.990845
0.71725 0.300084 0.991424
0.814054 0.160601 0.983551
0.926223 0.33228 1
0 0.492973 0.770108
0 0.486503 0.787182
0 0.4907 0.85069
0.0756847 0.515953 0.960769
0.414572 0.509041 0.987747
0.574929 0.501686 0.991226
0.722179 0.488426 0.995056
0.835966 0.400534 1
0.933577 0.502495 1
0 0.633341 0.888472
0 0.631281 0.886931
0 0.640177 0.89218
0 0.65771 0.902647
0.201114 0.697597 0.97908
0.570123 0.669871 0.990906
0.719387 0.659281 0.99382
0.835264 0.61738 1
0.933196 0.673686 1
0 0.778317 0.941833
0 0.777157 0.950011
0.137682 0.804349 0.978759
0.266682 0.818112 0.991669
0.336339 0.83534 0.997375
0.405936 0.857038 0.99855
0.726833 0.824277 0.999557
0.846601 0.815229 0.999924
0.934768 0.827344 1
0.0328222 0.926757 0.988663
0.102525 0.932586 0.997513
0.210849 0.945083 0.997803
0.326299 0.952377 0.998138
0.458076 0.95317 0.99852
0.601389 0.948241 0.998947
0.731334 0.943786 0.999329
0.848402 0.937957 0.99968
0.927474 0.936324 0.999924
0.0903334 1 0.99736
0.106432 1 0.997406
0.229999 1 0.997757
0.348531 1 0.998108
0.480278 1 0.998489
0.617197 1 0.998886
0.748226 1 0.999268
0.854612 1 0.999573
0.932891 1 0.999802
