70 CGC LUTs/Look LUTs/Vinteo.cube
#Created by: Denver Riddle
#Copyright: (C) Copyright Color Grading Central LLC
#LUT Size
LUT_3D_SIZE 5
0.155322 0.157214 0.15758
0.215595 0.145174 0.143862
0.399908 0.107988 0.103029
0.561456 0.13611 0.129244
0.713191 0.195651 0.183581
0.119432 0.194995 0.118837
0.180804 0.184909 0.147066
0.443641 0.186923 0.143236
0.641718 0.273945 0.193515
0.780728 0.352087 0.242374
0.132082 0.379217 0.127321
0.185824 0.421622 0.158892
0.428656 0.402365 0.184253
0.673503 0.447532 0.234424
0.826734 0.552834 0.271412
0.221637 0.591806 0.214817
0.308217 0.641138 0.24686
0.612955 0.61944 0.306844
0.746578 0.717861 0.299916
0.85539 0.699657 0.29929
0.311406 0.81471 0.301915
0.355673 0.845029 0.322225
0.723278 0.802533 0.3579
0.826352 0.827878 0.356954
0.880262 0.853361 0.320745
0.140383 0.160876 0.202197
0.210697 0.145296 0.179675
0.413748 0.108095 0.116991
0.578149 0.14583 0.164157
0.717403 0.198596 0.221897
0.132204 0.180362 0.169528
0.217243 0.255055 0.259373
0.487373 0.203159 0.178683
0.637552 0.251911 0.211627
0.779492 0.336187 0.267094
0.1337 0.368322 0.137697
0.190631 0.464088 0.180179
0.499535 0.472526 0.226764
0.712001 0.497398 0.254322
0.830793 0.577615 0.283238
0.211872 0.573281 0.229633
0.288594 0.646693 0.260197
0.631769 0.650156 0.344823
0.751125 0.726238 0.309651
0.860792 0.712749 0.311727
0.317311 0.825666 0.310277
0.34284 0.85005 0.328634
0.708263 0.812116 0.357855
0.834302 0.835401 0.370642
0.884138 0.861585 0.376806
0.0898604 0.169284 0.331533
0.109209 0.167269 0.324102
0.418784 0.130922 0.267842
0.604501 0.175219 0.301686
0.762356 0.246342 0.368231
0.0887007 0.196811 0.295247
0.106432 0.251423 0.361959
0.48661 0.25864 0.355993
0.676112 0.317739 0.381964
0.805005 0.389838 0.43209
0.130129 0.361181 0.332372
0.181338 0.44564 0.417258
0.576288 0.584909 0.56672
0.729397 0.545342 0.506859
0.833143 0.576135 0.509896
0.239643 0.627146 0.469017
0.252583 0.629099 0.440009
0.566339 0.694362 0.439078
0.749889 0.740108 0.498085
0.86334 0.738079 0.567025
0.317021 0.84033 0.509026
0.333303 0.856168 0.454887
0.598749 0.873823 0.376165
0.817945 0.844068 0.569635
0.873732 0.863569 0.599649
0.0511635 0.188968 0.416571
0.0717327 0.199634 0.426093
0.414023 0.192828 0.459297
0.655802 0.237354 0.475074
0.792691 0.327504 0.567086
0.0705272 0.263416 0.417365
0.0996414 0.301396 0.451835
0.359365 0.317876 0.522576
0.697643 0.399695 0.561547
0.822507 0.491798 0.62826
0.138689 0.384222 0.459617
0.186069 0.466682 0.539376
0.365789 0.542824 0.611994
0.724117 0.578882 0.644144
0.840421 0.645624 0.68011
0.255131 0.64622 0.624125
0.290364 0.693568 0.663279
0.415976 0.734859 0.701793
0.769162 0.77322 0.728573
0.861952 0.759777 0.714015
0.326711 0.857862 0.747082
0.346777 0.884581 0.746181
0.395529 0.890105 0.71133
0.747097 0.872694 0.658839
0.872633 0.871046 0.725063
0.0428168 0.241627 0.476951
0.0662547 0.257984 0.489509
0.312978 0.277287 0.562799
0.678889 0.345266 0.64799
0.842481 0.429053 0.737835
0.0869001 0.338659 0.506355
0.112718 0.370047 0.535515
0.294865 0.411963 0.589166
0.708339 0.471305 0.712077
0.855161 0.560479 0.768246
0.164874 0.484428 0.586007
0.206775 0.539666 0.634546
0.322637 0.577386 0.667796
0.663981 0.614725 0.75581
0.865461 0.676173 0.797345
0.261616 0.673625 0.714458
0.297948 0.718349 0.755627
0.439628 0.732174 0.767208
0.683146 0.759411 0.797208
0.870817 0.782437 0.813825
0.320562 0.824308 0.810925
0.347936 0.854673 0.83563
0.439826 0.86389 0.839368
0.745846 0.864515 0.820462
0.871336 0.87715 0.821302
