70 CGC LUTs/Look LUTs/Vinteo.cube
#Created by: Denver Riddle
#Copyright: (C) Copyright Color Grading Central LLC
#LUT Size
LUT_3D_SIZE 33
0.155322 0.157214 0.15758
0.15581 0.157366 0.157748
0.156512 0.15761 0.157931
0.157519 0.157885 0.158145
0.159472 0.157916 0.158068
0.165759 0.156847 0.156664
0.176226 0.154574 0.154208
0.193805 0.150423 0.14963
0.215595 0.145174 0.143862
0.23888 0.139559 0.137743
0.260151 0.134447 0.132204
0.28014 0.12961 0.126848
0.303746 0.124315 0.121019
0.328511 0.118807 0.115007
0.35285 0.113756 0.109514
0.376379 0.110033 0.105318
0.399908 0.107988 0.103029
0.420539 0.107347 0.101946
0.43917 0.107713 0.10193
0.459083 0.109606 0.103548
0.479408 0.113146 0.107042
0.499428 0.117586 0.111269
0.519158 0.122438 0.115923
0.538567 0.128283 0.121614
0.561456 0.13611 0.129244
0.584985 0.14435 0.137316
0.60798 0.152499 0.145266
0.630671 0.161059 0.153307
0.650217 0.168917 0.160464
0.665736 0.175235 0.166064
0.682643 0.182239 0.172305
0.698985 0.189334 0.178073
0.713191 0.195651 0.183581
0.155688 0.158068 0.157961
0.156069 0.158068 0.158038
0.156664 0.158221 0.15816
0.157626 0.158541 0.158404
0.159319 0.158602 0.158419
0.165316 0.157488 0.157168
0.176394 0.155016 0.154421
0.1944 0.150805 0.149783
0.214908 0.145953 0.144411
0.23801 0.140398 0.138338
0.260227 0.134951 0.132403
0.281071 0.130175 0.127169
0.304433 0.12491 0.12137
0.329656 0.119539 0.115511
0.354406 0.115099 0.110643
0.378683 0.1122 0.107485
0.40267 0.110872 0.105623
0.423804 0.110719 0.105333
0.443351 0.111955 0.106294
0.464576 0.115282 0.109224
0.485496 0.119387 0.113115
0.506233 0.124437 0.117952
0.527504 0.13048 0.12372
0.549264 0.138003 0.13077
0.570672 0.145602 0.138033
0.5935 0.153826 0.145571
0.616678 0.162799 0.153628
0.639033 0.171572 0.161532
0.657908 0.179156 0.167926
0.673152 0.185657 0.173373
0.690028 0.192905 0.179507
0.706035 0.19968 0.185306
0.719844 0.206088 0.190249
0.156115 0.159106 0.158404
0.156481 0.159106 0.15848
0.157046 0.158999 0.158541
0.157824 0.159213 0.158633
0.159548 0.159319 0.158694
0.164767 0.158511 0.157733
0.175677 0.156069 0.155093
0.19382 0.151736 0.150362
0.215854 0.14641 0.14464
0.238071 0.140932 0.138598
0.260075 0.13579 0.132967
0.281941 0.130724 0.127443
0.305852 0.125597 0.121736
0.331884 0.120638 0.116197
0.357366 0.117082 0.112154
0.382467 0.115175 0.109941
0.406638 0.114214 0.108537
0.428473 0.115068 0.108873
0.449363 0.1178 0.111437
0.471443 0.121981 0.115312
0.492729 0.126848 0.119615
0.514107 0.132708 0.125246
0.536385 0.140154 0.132052
0.558648 0.148333 0.139513
0.579416 0.156237 0.146319
0.602213 0.164843 0.153658
0.624903 0.173785 0.161501
0.646693 0.182361 0.168795
0.665766 0.190402 0.17557
0.680705 0.196704 0.180819
0.697185 0.203937 0.186374
0.713024 0.211307 0.192157
0.726879 0.217914 0.197223
0.156191 0.160464 0.158495
0.156619 0.160494 0.158572
0.157198 0.160571 0.158633
0.158267 0.160464 0.158999
0.159548 0.160433 0.158953
0.165011 0.159503 0.157946
0.175677 0.157259 0.155413
0.193652 0.15288 0.150713
0.215625 0.147524 0.144915
0.239475 0.141909 0.138735
0.262394 0.136446 0.13283
0.285069 0.131426 0.127352
0.309606 0.126864 0.122179
0.336751 0.12314 0.117861
0.363226 0.120775 0.115129
0.388495 0.119341 0.112993
0.413458 0.119722 0.113008
0.436881 0.122545 0.115175
0.458091 0.126238 0.118395
0.480003 0.130953 0.122408
0.501915 0.136858 0.127611
0.524804 0.14493 0.134447
0.547326 0.153231 0.141573
0.56878 0.161135 0.148425
0.589761 0.16936 0.155505
0.612421 0.178195 0.162936
0.634363 0.18674 0.170108
0.655497 0.19559 0.17705
0.672251 0.202731 0.182544
0.688502 0.210208 0.187854
0.704463 0.217746 0.193301
0.720775 0.225971 0.199268
0.734813 0.233265 0.204623
0.15436 0.162875 0.156313
0.154742 0.163043 0.156298
0.155016 0.163348 0.15613
0.156863 0.162799 0.157214
0.159014 0.162295 0.15819
0.163684 0.161105 0.157839
0.175387 0.158251 0.155276
0.194354 0.153979 0.150591
0.216922 0.148699 0.144732
0.240055 0.143648 0.138811
0.263188 0.138766 0.133516
0.287602 0.134615 0.128908
0.315053 0.130968 0.124834
0.34374 0.128283 0.121279
0.371344 0.126619 0.118502
0.397253 0.126864 0.117968
0.421836 0.128771 0.119081
0.444678 0.131762 0.121309
0.467414 0.13637 0.125154
0.490135 0.142519 0.130098
0.513802 0.150805 0.137224
0.537377 0.160052 0.144778
0.559564 0.168429 0.151781
0.580758 0.176638 0.158572
0.600824 0.184604 0.164782
0.622538 0.193484 0.171603
0.643946 0.202426 0.178164
0.663935 0.210864 0.184268
0.680018 0.218235 0.189197
0.696605 0.226062 0.194949
0.712932 0.234302 0.200671
0.729366 0.243183 0.20708
0.743297 0.250889 0.2121
0.149157 0.166339 0.150729
0.148699 0.167071 0.149981
0.149126 0.167346 0.149905
0.150942 0.166979 0.151019
0.153536 0.166613 0.15227
0.159243 0.164675 0.155047
0.169146 0.161791 0.154406
0.189303 0.15671 0.150347
0.21387 0.151369 0.144167
0.238987 0.146609 0.138445
0.262211 0.143282 0.134249
0.28632 0.141146 0.131319
0.315892 0.137942 0.127214
0.343877 0.136553 0.12459
0.376272 0.136492 0.123522
0.405585 0.138201 0.124163
0.430655 0.141024 0.126009
0.454658 0.145495 0.129442
0.478767 0.15172 0.134722
0.502846 0.158923 0.140581
0.526375 0.167102 0.146944
0.548486 0.175647 0.153506
0.569986 0.184192 0.160098
0.590906 0.192691 0.166583
0.610758 0.200885 0.172488
0.632151 0.209674 0.178958
0.652934 0.218585 0.185153
0.672694 0.227176 0.191012
0.688853 0.235203 0.19649
0.704967 0.24361 0.201801
0.721019 0.252262 0.207568
0.736934 0.261433 0.213367
0.75079 0.269764 0.218677
0.1402 0.172 0.141314
0.13959 0.1729 0.140307
0.139437 0.173556 0.139651
0.140551 0.17409 0.140047
0.143633 0.174197 0.142275
0.150134 0.172076 0.145907
0.16199 0.167452 0.151308
0.176989 0.163027 0.149538
0.202121 0.15697 0.145296
0.231632 0.152193 0.13962
0.258106 0.149065 0.135851
0.28217 0.14696 0.132738
0.31107 0.145815 0.13022
0.3402 0.14641 0.128695
0.373114 0.147997 0.128511
0.407889 0.151522 0.12961
0.438666 0.156924 0.133013
0.465431 0.163897 0.138186
0.489326 0.170336 0.143374
0.513329 0.177783 0.149233
0.537804 0.186557 0.156085
0.561044 0.19588 0.162905
0.582086 0.204257 0.1691
0.602533 0.213077 0.17496
0.621714 0.221302 0.18056
0.64184 0.229694 0.185763
0.662272 0.239185 0.191638
0.682338 0.249271 0.19823
0.698329 0.25745 0.203433
0.714275 0.266316 0.20911
0.730465 0.275273 0.214984
0.74612 0.284611 0.220768
0.759915 0.292958 0.226047
0.128573 0.181445 0.128832
0.12845 0.182925 0.128313
0.128985 0.184253 0.12842
0.128862 0.187594 0.12781
0.132738 0.187869 0.130846
0.138918 0.187396 0.135393
0.151812 0.181567 0.140734
0.169772 0.174975 0.148989
0.187243 0.169451 0.144839
0.217746 0.161746 0.141161
0.247303 0.156985 0.136965
0.27483 0.155154 0.134188
0.303807 0.155688 0.132753
0.335302 0.157458 0.132143
0.368277 0.159304 0.131762
0.405921 0.164706 0.133913
0.443839 0.174289 0.139818
0.472908 0.181704 0.145083
0.496696 0.188586 0.150484
0.520745 0.197559 0.156329
0.547265 0.208896 0.163882
0.572015 0.219715 0.170657
0.592508 0.228656 0.176104
0.61239 0.237095 0.181338
0.631434 0.245533 0.186679
0.652705 0.255528 0.193118
0.673396 0.265904 0.199527
0.693629 0.276448 0.206287
0.710781 0.285924 0.212024
0.725216 0.293996 0.217288
0.740551 0.303075 0.222599
0.756344 0.312688 0.228733
0.769665 0.320974 0.233661
0.119432 0.194995 0.118837
0.120058 0.195743 0.119158
0.120485 0.198398 0.119112
0.120546 0.202396 0.118578
0.122621 0.205493 0.119966
0.129152 0.205371 0.125582
0.138689 0.201816 0.131716
0.16025 0.191211 0.137407
0.180804 0.184909 0.147066
0.200671 0.177447 0.140948
0.233417 0.16846 0.137926
0.264683 0.165179 0.135698
0.295674 0.166186 0.134981
0.329549 0.167391 0.134615
0.365209 0.170459 0.134905
0.40415 0.177127 0.137636
0.443641 0.186923 0.143236
0.477012 0.19675 0.149493
0.503288 0.206577 0.155428
0.526925 0.216922 0.161685
0.552239 0.228214 0.16817
0.577996 0.240452 0.175006
0.599802 0.251453 0.180941
0.621546 0.262974 0.187228
0.641718 0.273945 0.193515
0.663661 0.285374 0.200412
0.684611 0.296681 0.207202
0.705074 0.307988 0.214389
0.722698 0.317876 0.220645
0.737041 0.325963 0.226032
0.752224 0.335042 0.231632
0.767834 0.344305 0.237598
0.780728 0.352087 0.242374
0.11284 0.211124 0.111559
0.114305 0.212039 0.11281
0.115618 0.216007 0.113619
0.11722 0.221241 0.114687
0.119554 0.225208 0.11635
0.124315 0.227771 0.120577
0.131838 0.225513 0.126131
0.149203 0.217151 0.131273
0.177905 0.204578 0.140627
0.198764 0.2 0.147356
0.219165 0.190402 0.139605
0.251331 0.181674 0.137881
0.284443 0.178408 0.13669
0.320592 0.179461 0.136416
0.361074 0.183597 0.137942
0.401892 0.190845 0.140917
0.442664 0.200549 0.146227
0.478645 0.211856 0.152911
0.5084 0.223468 0.159686
0.533669 0.234714 0.165713
0.558465 0.246693 0.171954
0.582971 0.259541 0.17818
0.606409 0.27277 0.185565
0.629755 0.286107 0.192752
0.651926 0.299351 0.200183
0.673259 0.312093 0.207446
0.696681 0.326467 0.215946
0.71783 0.340276 0.224018
0.736187 0.3523 0.231052
0.750118 0.360845 0.236103
0.765255 0.369574 0.241764
0.780529 0.378698 0.247669
0.791226 0.38439 0.251499
0.11107 0.230365 0.1093
0.112703 0.231907 0.110506
0.114565 0.235874 0.11194
0.116426 0.240421 0.113252
0.119539 0.245731 0.115908
0.124117 0.248936 0.119905
0.129946 0.249485 0.124392
0.142153 0.244099 0.129305
0.167269 0.233082 0.132601
0.199649 0.218647 0.145892
0.217334 0.218647 0.146334
0.238529 0.207401 0.139574
0.274235 0.197101 0.138964
0.308614 0.193317 0.138369
0.34934 0.19765 0.140352
0.392844 0.204929 0.143404
0.436759 0.214939 0.148425
0.474128 0.2271 0.154849
0.505714 0.239551 0.161654
0.532387 0.251286 0.167346
0.557366 0.263508 0.173556
0.583413 0.277119 0.181079
0.606958 0.289891 0.18883
0.63064 0.302678 0.196094
0.658396 0.319493 0.206027
0.680949 0.334279 0.214069
0.705623 0.352087 0.223774
0.727077 0.366781 0.232044
0.747005 0.380941 0.240055
0.76347 0.392477 0.246616
0.778851 0.402762 0.25211
0.793149 0.41268 0.257084
0.800778 0.41593 0.259617
0.112795 0.251987 0.110307
0.114153 0.25333 0.111437
0.116426 0.256718 0.113588
0.119234 0.262104 0.115801
0.12311 0.269673 0.119005
0.127184 0.271504 0.122759
0.132509 0.272312 0.127031
0.141131 0.273213 0.131701
0.160815 0.264393 0.1337
0.195254 0.247791 0.141238
0.227588 0.2383 0.15491
0.239246 0.239551 0.147356
0.263249 0.225925 0.14287
0.299397 0.216693 0.142473
0.336309 0.214389 0.142626
0.376196 0.218708 0.144594
0.421408 0.227359 0.148638
0.464317 0.240406 0.155276
0.498741 0.252827 0.161929
0.526528 0.265095 0.167895
0.553948 0.278569 0.175326
0.580896 0.29308 0.183566
0.604913 0.305989 0.191592
0.630625 0.320241 0.199985
0.659541 0.337743 0.210346
0.686564 0.355016 0.220554
0.712032 0.372351 0.230274
0.733303 0.387289 0.238514
0.754025 0.402487 0.246372
0.771557 0.416205 0.252628
0.788083 0.429236 0.258198
0.800565 0.438392 0.262165
0.806973 0.440726 0.264042
0.116136 0.278981 0.113054
0.118395 0.281239 0.115099
0.120424 0.283925 0.117052
0.122484 0.288548 0.118669
0.124987 0.294652 0.120623
0.129793 0.297322 0.12491
0.135119 0.298482 0.129427
0.142733 0.29839 0.134508
0.157916 0.298054 0.137514
0.18854 0.285252 0.13933
0.227359 0.268788 0.153399
0.257816 0.261982 0.163668
0.264942 0.263233 0.151629
0.287098 0.247288 0.147707
0.324819 0.241474 0.147005
0.361715 0.239918 0.147524
0.403998 0.244526 0.149966
0.447486 0.254337 0.155367
0.484749 0.266545 0.161349
0.51812 0.279774 0.168688
0.549599 0.294972 0.177508
0.57818 0.310018 0.186618
0.603494 0.324132 0.195193
0.63006 0.339574 0.204685
0.658824 0.356603 0.21503
0.688762 0.375189 0.226154
0.716381 0.393606 0.236179
0.737713 0.408789 0.24361
0.757122 0.423529 0.25037
0.776654 0.439277 0.25687
0.794629 0.454017 0.262181
0.806699 0.462623 0.265202
0.812161 0.464164 0.266697
0.118914 0.306355 0.115465
0.120806 0.308461 0.116991
0.123018 0.311101 0.118883
0.125124 0.315282 0.12079
0.127153 0.321157 0.122286
0.131395 0.324849 0.125841
0.136767 0.325048 0.130648
0.144411 0.324376 0.135866
0.157275 0.324666 0.139116
0.181033 0.321279 0.140108
0.225559 0.304097 0.15201
0.259785 0.288838 0.166583
0.286366 0.287343 0.170565
0.2934 0.289769 0.158465
0.315679 0.27921 0.155505
0.351812 0.271702 0.153658
0.392905 0.270024 0.154055
0.434165 0.272984 0.156542
0.470726 0.281254 0.161608
0.505867 0.293019 0.169024
0.540413 0.308614 0.178683
0.57229 0.324651 0.188891
0.601556 0.340734 0.199023
0.629191 0.356847 0.208911
0.657038 0.373526 0.218692
0.686397 0.392355 0.229068
0.716091 0.412299 0.23949
0.739239 0.428809 0.247013
0.759014 0.443778 0.253162
0.778317 0.459358 0.258732
0.796246 0.474052 0.263066
0.810651 0.48603 0.266835
0.817105 0.487556 0.268269
0.120729 0.331899 0.116686
0.122606 0.334157 0.118395
0.124773 0.336843 0.120287
0.126925 0.341146 0.121843
0.130343 0.347951 0.124743
0.135027 0.352819 0.129
0.141024 0.354528 0.134051
0.147967 0.354849 0.138323
0.16054 0.353994 0.141115
0.181155 0.350637 0.143313
0.223438 0.337423 0.150423
0.267048 0.320424 0.166827
0.299794 0.312428 0.179797
0.312169 0.313115 0.17319
0.326116 0.318624 0.165148
0.353918 0.310185 0.163119
0.393317 0.301701 0.161059
0.433783 0.300893 0.162081
0.46891 0.30367 0.16582
0.503548 0.313313 0.173068
0.538659 0.327138 0.182635
0.571679 0.342657 0.192981
0.601587 0.359045 0.203143
0.630686 0.376761 0.213535
0.661158 0.395956 0.22417
0.689662 0.414115 0.233814
0.718029 0.433265 0.242618
0.742473 0.45124 0.249928
0.762737 0.466407 0.255589
0.780377 0.479393 0.259846
0.799222 0.495674 0.264805
0.813962 0.508171 0.267597
0.8215 0.510033 0.269459
0.126574 0.355291 0.122087
0.12842 0.357061 0.123781
0.130709 0.360311 0.125841
0.133516 0.366445 0.128099
0.136812 0.373449 0.1308
0.142504 0.379339 0.135836
0.150118 0.384848 0.142184
0.157671 0.385611 0.146349
0.171603 0.385931 0.148821
0.192798 0.3832 0.149325
0.232303 0.371099 0.152605
0.277378 0.351751 0.166979
0.311192 0.339101 0.182605
0.336858 0.33933 0.188113
0.345571 0.345922 0.175875
0.373022 0.356985 0.172763
0.405127 0.3458 0.170993
0.446555 0.339971 0.172076
0.481407 0.34139 0.175891
0.513588 0.345098 0.181521
0.547234 0.356069 0.190265
0.580056 0.371359 0.200488
0.609277 0.386252 0.210285
0.63769 0.402304 0.219867
0.667094 0.421225 0.229618
0.694896 0.438804 0.238025
0.723125 0.457679 0.246082
0.747051 0.47451 0.252522
0.767254 0.490028 0.257664
0.785321 0.503731 0.261738
0.803067 0.51902 0.265782
0.817349 0.530053 0.268818
0.824552 0.531548 0.270222
0.132082 0.379217 0.127321
0.134035 0.382101 0.128817
0.136904 0.387304 0.131228
0.139834 0.394461 0.13373
0.14519 0.401679 0.138521
0.151568 0.407843 0.144259
0.160159 0.415656 0.151186
0.170214 0.41944 0.156405
0.185824 0.421622 0.158892
0.209995 0.419913 0.158938
0.249073 0.407889 0.159594
0.294316 0.387472 0.171603
0.328847 0.372122 0.187823
0.357382 0.369451 0.198093
0.377676 0.378347 0.193545
0.394781 0.391546 0.184665
0.428656 0.402365 0.184253
0.461616 0.38912 0.183536
0.496468 0.386755 0.187533
0.528222 0.389258 0.193133
0.558831 0.394797 0.199634
0.590036 0.404273 0.20824
0.618769 0.418357 0.217533
0.646036 0.432639 0.2262
0.673503 0.447532 0.234424
0.700587 0.463874 0.241932
0.728298 0.482139 0.248905
0.751675 0.499443 0.254383
0.772107 0.513649 0.259541
0.789792 0.527321 0.263355
0.808148 0.542092 0.267796
0.819348 0.551324 0.26978
0.826734 0.552834 0.271412
0.138415 0.406073 0.133059
0.14107 0.409583 0.135393
0.144045 0.415503 0.137758
0.149279 0.424414 0.14255
0.155245 0.431525 0.148013
0.162097 0.43801 0.15433
0.171023 0.445945 0.161288
0.183368 0.451743 0.166552
0.202396 0.45687 0.170153
0.228733 0.455528 0.169772
0.26894 0.444038 0.169436
0.314366 0.42533 0.17966
0.348791 0.407752 0.19472
0.376669 0.401663 0.206561
0.408377 0.410498 0.212436
0.42472 0.425452 0.201358
0.453254 0.442985 0.198245
0.482292 0.448035 0.198566
0.510216 0.436454 0.199344
0.541436 0.434226 0.203937
0.572076 0.438178 0.210163
0.601328 0.444282 0.21709
0.626764 0.451682 0.223697
0.652354 0.463294 0.230793
0.679667 0.477134 0.23856
0.705058 0.489906 0.244587
0.732021 0.506111 0.251072
0.755657 0.522988 0.256733
0.776699 0.537331 0.261646
0.794644 0.550027 0.265782
0.812619 0.562509 0.269764
0.822019 0.570809 0.272267
0.829496 0.572473 0.273808
0.14696 0.433417 0.140978
0.149569 0.437522 0.143359
0.153658 0.443641 0.14699
0.160174 0.452384 0.152926
0.166445 0.459632 0.158816
0.173968 0.46717 0.165484
0.183474 0.475685 0.172686
0.196979 0.481285 0.177569
0.218906 0.488014 0.18117
0.248722 0.488396 0.181781
0.289982 0.477211 0.180987
0.335088 0.45977 0.189883
0.369314 0.442115 0.203815
0.396597 0.43415 0.215671
0.432364 0.440757 0.226032
0.45684 0.457771 0.221057
0.474632 0.471946 0.212314
0.508186 0.491402 0.214084
0.52845 0.49218 0.214328
0.555978 0.481971 0.215534
0.584329 0.480659 0.219867
0.611811 0.4851 0.225513
0.636332 0.490288 0.230976
0.659236 0.494514 0.23592
0.684276 0.504005 0.241581
0.7093 0.515953 0.247272
0.735836 0.529473 0.253162
0.759686 0.544274 0.259098
0.780957 0.558267 0.264103
0.799527 0.570901 0.268696
0.816297 0.58323 0.27335
0.825086 0.590005 0.275685
0.832547 0.591241 0.276753
0.158236 0.463416 0.151965
0.161135 0.467353 0.154543
0.165484 0.473365 0.15845
0.172427 0.481132 0.164858
0.178714 0.488487 0.17084
0.187076 0.497795 0.178164
0.197696 0.507973 0.186267
0.212116 0.513787 0.190997
0.235279 0.519799 0.19408
0.267597 0.519844 0.194141
0.311742 0.509041 0.193698
0.356497 0.49276 0.201816
0.391714 0.476524 0.215702
0.418616 0.46717 0.227131
0.454108 0.470573 0.238926
0.485313 0.486076 0.240131
0.503243 0.503838 0.228611
0.524529 0.517601 0.226337
0.553643 0.535073 0.230182
0.570642 0.534569 0.229755
0.596658 0.52636 0.230991
0.6224 0.525093 0.234287
0.646159 0.527855 0.238682
0.668208 0.530739 0.242618
0.691066 0.534524 0.246738
0.715862 0.542992 0.252003
0.742031 0.555367 0.257572
0.764675 0.56762 0.262913
0.786679 0.579858 0.268498
0.805142 0.590906 0.272862
0.820005 0.602609 0.276905
0.828779 0.607782 0.279301
0.835843 0.608545 0.279973
0.171572 0.49398 0.165118
0.174487 0.497856 0.167742
0.179461 0.505165 0.172244
0.18645 0.5131 0.178698
0.192905 0.520623 0.184817
0.201266 0.530007 0.192279
0.212772 0.541588 0.200916
0.228687 0.548974 0.206134
0.252125 0.552117 0.208011
0.285908 0.550454 0.207004
0.330709 0.540719 0.20679
0.376699 0.525933 0.214862
0.412573 0.509499 0.227878
0.441062 0.499275 0.239216
0.475578 0.500069 0.251011
0.510765 0.513817 0.257069
0.53109 0.532708 0.248142
0.548836 0.546929 0.241306
0.56849 0.560281 0.242634
0.597604 0.579522 0.248188
0.611841 0.577539 0.246586
0.635996 0.570077 0.246784
0.658656 0.568582 0.249119
0.680323 0.570901 0.252537
0.702861 0.573754 0.256153
0.724865 0.575113 0.259159
0.749722 0.582559 0.263691
0.77261 0.593515 0.269154
0.793515 0.603159 0.273686
0.811856 0.61268 0.278141
0.824842 0.622446 0.281529
0.832532 0.625757 0.283009
0.840085 0.626871 0.284184
0.185458 0.523964 0.178988
0.188296 0.527153 0.181384
0.19295 0.532845 0.185626
0.199481 0.540291 0.191653
0.206394 0.548302 0.198062
0.215244 0.55845 0.205997
0.226764 0.569726 0.214115
0.243717 0.578195 0.21944
0.268238 0.579995 0.220111
0.303197 0.578683 0.219181
0.348455 0.568872 0.218341
0.394141 0.554421 0.226001
0.431998 0.540505 0.23978
0.462409 0.529885 0.251575
0.497398 0.530205 0.263981
0.530114 0.538384 0.270466
0.555764 0.557107 0.266636
0.574334 0.575967 0.259327
0.591043 0.588525 0.257481
0.61059 0.601999 0.259785
0.63827 0.621073 0.2654
0.651896 0.618982 0.2636
0.673457 0.614054 0.263523
0.692775 0.609995 0.264149
0.71516 0.611048 0.266819
0.736416 0.610956 0.268849
0.759106 0.611582 0.271611
0.780011 0.617594 0.275227
0.800793 0.626657 0.279698
0.817868 0.634562 0.283055
0.829221 0.641993 0.285878
0.83682 0.644099 0.287175
0.844083 0.645136 0.288121
0.198306 0.548379 0.191608
0.20148 0.551904 0.194522
0.204822 0.55555 0.19765
0.211658 0.563134 0.2038
0.217624 0.570214 0.209277
0.226719 0.580621 0.21709
0.238163 0.591302 0.224445
0.256336 0.599771 0.229587
0.282002 0.602564 0.230167
0.318013 0.601083 0.228565
0.363729 0.592081 0.228153
0.4094 0.579171 0.23592
0.448676 0.567041 0.249683
0.480385 0.556497 0.261982
0.514717 0.554894 0.273625
0.54815 0.561807 0.282109
0.576059 0.577951 0.281682
0.59527 0.597681 0.275196
0.612161 0.613153 0.272129
0.627802 0.624247 0.271916
0.651041 0.641489 0.276143
0.673945 0.65594 0.279561
0.685756 0.653437 0.277302
0.705211 0.64831 0.27628
0.72517 0.644038 0.276799
0.747173 0.643778 0.278676
0.769451 0.643793 0.280415
0.78793 0.643 0.282109
0.807218 0.648325 0.285084
0.823392 0.654551 0.288075
0.833509 0.660868 0.290166
0.840467 0.661387 0.290745
0.847623 0.662165 0.291524
0.209995 0.570108 0.203235
0.213489 0.574426 0.20647
0.216983 0.578271 0.209705
0.222766 0.585092 0.214954
0.229404 0.592782 0.22092
0.23743 0.601404 0.227497
0.249485 0.611185 0.234089
0.267659 0.618723 0.23801
0.294789 0.622248 0.238453
0.332647 0.622461 0.237751
0.37969 0.614649 0.237705
0.425361 0.603159 0.245716
0.464515 0.591882 0.259342
0.497093 0.581521 0.271733
0.53167 0.578668 0.283436
0.566079 0.584924 0.293019
0.594385 0.598108 0.29485
0.616251 0.618402 0.291142
0.632151 0.634867 0.287633
0.648386 0.648798 0.285725
0.662684 0.658732 0.285481
0.686091 0.676463 0.290074
0.704799 0.688045 0.292103
0.717403 0.686778 0.289754
0.736919 0.680674 0.287938
0.756115 0.675639 0.287709
0.778103 0.675105 0.289082
0.796689 0.673259 0.289738
0.813733 0.671702 0.290761
0.828473 0.674342 0.292683
0.837873 0.67985 0.29453
0.84477 0.680125 0.295064
0.851774 0.680842 0.295674
0.221637 0.591806 0.214817
0.224475 0.594781 0.217395
0.228031 0.598886 0.22063
0.233661 0.605203 0.225711
0.240604 0.613504 0.231907
0.248173 0.6215 0.237751
0.261128 0.630503 0.243336
0.279805 0.637797 0.246403
0.308217 0.641138 0.24686
0.347539 0.641398 0.245701
0.395697 0.635386 0.246891
0.441505 0.625864 0.255634
0.481025 0.615732 0.269154
0.513436 0.606134 0.281163
0.547677 0.60235 0.292851
0.584543 0.608179 0.303319
0.612955 0.61944 0.306844
0.634775 0.636912 0.305165
0.651148 0.654093 0.301885
0.665599 0.668299 0.299077
0.682292 0.681895 0.298222
0.695628 0.691295 0.298161
0.715114 0.706294 0.300954
0.734112 0.718685 0.302724
0.746578 0.717861 0.299916
0.766644 0.710903 0.296971
0.78529 0.704189 0.296452
0.803098 0.700999 0.296712
0.8206 0.699001 0.297414
0.833997 0.69723 0.297765
0.84184 0.699321 0.298512
0.848676 0.699229 0.29897
0.85539 0.699657 0.29929
0.232563 0.611795 0.225666
0.235752 0.615763 0.22858
0.239292 0.619791 0.231785
0.24419 0.625437 0.236133
0.250355 0.632136 0.241413
0.258198 0.639826 0.246784
0.272053 0.648127 0.25182
0.29221 0.655009 0.2542
0.321691 0.657496 0.253727
0.360967 0.657511 0.252628
0.409064 0.653651 0.25449
0.457481 0.645899 0.264759
0.497826 0.638392 0.278889
0.531746 0.629679 0.291447
0.566033 0.62562 0.302998
0.602838 0.631144 0.31397
0.632197 0.641382 0.318517
0.652995 0.655787 0.317845
0.668513 0.671138 0.314839
0.683223 0.686564 0.31194
0.697734 0.700206 0.309773
0.713344 0.712901 0.308843
0.724636 0.720775 0.308385
0.74165 0.733669 0.309468
0.759838 0.745556 0.309712
0.772198 0.74377 0.306157
0.793835 0.736584 0.303227
0.809491 0.729702 0.302449
0.824857 0.725887 0.302647
0.837125 0.723445 0.302525
0.844587 0.721065 0.302541
0.850904 0.718654 0.302464
0.857847 0.71928 0.302968
0.245182 0.638666 0.238071
0.248127 0.642222 0.240726
0.251743 0.646448 0.24419
0.257374 0.653208 0.249058
0.264286 0.663355 0.255009
0.272419 0.672953 0.260884
0.285878 0.682948 0.266194
0.304555 0.69221 0.269612
0.331777 0.697749 0.269978
0.368856 0.697765 0.267689
0.417899 0.690715 0.266499
0.468406 0.682277 0.274174
0.514153 0.673274 0.288792
0.551766 0.66038 0.302525
0.585779 0.65391 0.313909
0.621393 0.656825 0.324086
0.652262 0.666163 0.330068
0.674495 0.679164 0.33164
0.689082 0.691722 0.329656
0.702129 0.705058 0.32668
0.715541 0.719066 0.323339
0.728115 0.730983 0.31989
0.74081 0.741207 0.318029
0.751217 0.748409 0.316518
0.766659 0.759823 0.315892
0.783566 0.770245 0.314305
0.796323 0.767559 0.30985
0.815549 0.760906 0.307057
0.830503 0.754696 0.3066
0.840299 0.750072 0.306371
0.847181 0.746746 0.306493
0.853483 0.743358 0.306249
0.859815 0.743725 0.306264
0.26067 0.679042 0.253193
0.264332 0.685344 0.256352
0.268254 0.689952 0.259831
0.273472 0.696483 0.264683
0.279072 0.703548 0.269398
