70 CGC LUTs/Look LUTs/Vinteo.cube
#Created by: Denver Riddle
#Copyright: (C) Copyright Color Grading Central LLC
#LUT Size
LUT_3D_SIZE 9
0.155322 0.157214 0.15758
0.159472 0.157916 0.158068
0.215595 0.145174 0.143862
0.303746 0.124315 0.121019
0.399908 0.107988 0.103029
0.479408 0.113146 0.107042
0.561456 0.13611 0.129244
0.650217 0.168917 0.160464
0.713191 0.195651 0.183581
0.15436 0.162875 0.156313
0.159014 0.162295 0.15819
0.216922 0.148699 0.144732
0.315053 0.130968 0.124834
0.421836 0.128771 0.119081
0.513802 0.150805 0.137224
0.600824 0.184604 0.164782
0.680018 0.218235 0.189197
0.743297 0.250889 0.2121
0.119432 0.194995 0.118837
0.122621 0.205493 0.119966
0.180804 0.184909 0.147066
0.295674 0.166186 0.134981
0.443641 0.186923 0.143236
0.552239 0.228214 0.16817
0.641718 0.273945 0.193515
0.722698 0.317876 0.220645
0.780728 0.352087 0.242374
0.116136 0.278981 0.113054
0.124987 0.294652 0.120623
0.157916 0.298054 0.137514
0.264942 0.263233 0.151629
0.403998 0.244526 0.149966
0.549599 0.294972 0.177508
0.658824 0.356603 0.21503
0.757122 0.423529 0.25037
0.812161 0.464164 0.266697
0.132082 0.379217 0.127321
0.14519 0.401679 0.138521
0.185824 0.421622 0.158892
0.328847 0.372122 0.187823
0.428656 0.402365 0.184253
0.558831 0.394797 0.199634
0.673503 0.447532 0.234424
0.772107 0.513649 0.259541
0.826734 0.552834 0.271412
0.171572 0.49398 0.165118
0.192905 0.520623 0.184817
0.252125 0.552117 0.208011
0.412573 0.509499 0.227878
0.53109 0.532708 0.248142
0.611841 0.577539 0.246586
0.702861 0.573754 0.256153
0.793515 0.603159 0.273686
0.840085 0.626871 0.284184
0.221637 0.591806 0.214817
0.240604 0.613504 0.231907
0.308217 0.641138 0.24686
0.481025 0.615732 0.269154
0.612955 0.61944 0.306844
0.682292 0.681895 0.298222
0.746578 0.717861 0.299916
0.8206 0.699001 0.297414
0.85539 0.699657 0.29929
0.27245 0.709773 0.26421
0.288975 0.725399 0.278767
0.350301 0.739635 0.285374
0.522972 0.727474 0.296407
0.689342 0.725353 0.350103
0.751705 0.754513 0.348669
0.786313 0.787381 0.328023
0.834531 0.804303 0.314443
0.866011 0.787137 0.310185
0.311406 0.81471 0.301915
0.318944 0.823896 0.308644
0.355673 0.845029 0.322225
0.533608 0.830045 0.30663
0.723278 0.802533 0.3579
0.796857 0.808789 0.372946
0.826352 0.827878 0.356954
0.855848 0.85156 0.332937
0.880262 0.853361 0.320745
0.154711 0.158434 0.161471
0.160555 0.15819 0.162173
0.224414 0.142962 0.143893
0.303807 0.123552 0.122057
0.398718 0.106004 0.103487
0.479149 0.112535 0.110353
0.561303 0.13666 0.136461
0.649119 0.168521 0.169406
0.711772 0.194018 0.193423
0.155779 0.161822 0.162127
0.157534 0.164004 0.165408
0.225635 0.151827 0.146609
0.328618 0.135378 0.127977
0.430091 0.1337 0.124315
0.519539 0.154177 0.143008
0.603113 0.185214 0.170687
0.682277 0.218662 0.19762
0.745571 0.251057 0.222171
0.121904 0.194446 0.123033
0.126558 0.219287 0.126619
0.212207 0.213214 0.151064
0.351278 0.189837 0.144121
0.469291 0.201343 0.152712
0.561379 0.2327 0.174853
0.639948 0.267491 0.196933
0.718227 0.308446 0.223484
0.779812 0.345556 0.247013
0.118914 0.279896 0.117235
0.129778 0.300359 0.127108
0.177737 0.342412 0.145678
0.311894 0.301793 0.165881
0.468391 0.272084 0.163561
0.587671 0.32311 0.195071
0.687327 0.382193 0.230991
0.76643 0.437354 0.258137
0.813565 0.471077 0.270848
0.134768 0.381369 0.131212
0.14699 0.406058 0.14168
0.194491 0.452338 0.17174
0.362081 0.416083 0.204562
0.457176 0.428244 0.196719
0.588235 0.414267 0.212955
0.699092 0.472404 0.24622
0.780148 0.528695 0.265095
0.830777 0.563058 0.276768
0.174655 0.495857 0.169787
0.194095 0.523583 0.187289
0.24947 0.561776 0.215442
0.427878 0.546578 0.241505
0.548455 0.549905 0.263096
0.620066 0.587137 0.253483
0.709148 0.584924 0.262531
0.798108 0.611505 0.279377
0.84477 0.638025 0.290349
0.225803 0.597345 0.220478
0.241093 0.61384 0.233921
0.302007 0.644617 0.251637
0.485054 0.63621 0.276143
0.628122 0.637095 0.320058
0.688869 0.689174 0.304356
0.74876 0.72195 0.304387
0.824109 0.704036 0.301793
0.858015 0.70544 0.304158
0.275135 0.715694 0.268376
0.290257 0.730343 0.281621
0.346761 0.748714 0.292103
0.51696 0.739086 0.298085
0.68896 0.732006 0.353124
0.756252 0.759045 0.353826
0.788632 0.789761 0.331746
0.83624 0.805615 0.317906
0.868788 0.792035 0.314488
0.314733 0.821561 0.306401
0.321492 0.827985 0.312154
0.355444 0.847303 0.325505
0.523018 0.833204 0.308019
0.716884 0.807446 0.358083
0.798444 0.81297 0.376684
0.83006 0.831586 0.362158
0.857908 0.853773 0.336782
0.883268 0.857435 0.325185
0.140383 0.160876 0.202197
0.143496 0.161044 0.200458
0.210697 0.145296 0.179675
0.303853 0.124224 0.139773
0.413748 0.108095 0.116991
0.494377 0.119432 0.131838
0.578149 0.14583 0.164157
0.659144 0.175113 0.197635
0.717403 0.198596 0.221897
0.141817 0.163546 0.197986
0.136614 0.167285 0.210758
0.230335 0.15491 0.202579
0.347875 0.137652 0.154116
0.456214 0.137911 0.143084
0.535119 0.162173 0.165667
0.611292 0.190631 0.195972
0.684367 0.219623 0.223911
0.744625 0.248371 0.249134
0.132204 0.180362 0.169528
0.131533 0.206577 0.198795
0.217243 0.255055 0.259373
0.37586 0.235111 0.215991
0.487373 0.203159 0.178683
0.563561 0.218173 0.187106
0.637552 0.251911 0.211627
0.71696 0.29662 0.241611
0.779492 0.336187 0.267094
0.12166 0.272419 0.13724
0.135531 0.306004 0.150652
0.166369 0.373831 0.176501
0.376806 0.362051 0.219852
0.518395 0.321004 0.204547
0.609628 0.349294 0.223713
0.69221 0.386664 0.246479
0.764599 0.433753 0.266682
0.816236 0.468467 0.280339
0.1337 0.368322 0.137697
0.148867 0.396506 0.152483
0.190631 0.464088 0.180179
0.397116 0.474449 0.235386
0.499535 0.472526 0.226764
0.614633 0.439841 0.227375
0.712001 0.497398 0.254322
0.786877 0.548669 0.27277
0.830793 0.577615 0.283238
0.163073 0.46392 0.17174
0.192157 0.516335 0.193637
0.238529 0.56524 0.221408
0.418036 0.573083 0.248417
0.568704 0.571099 0.2963
0.630762 0.604288 0.263722
0.715541 0.59295 0.269261
0.805371 0.626871 0.288548
0.849348 0.650523 0.298222
0.211872 0.573281 0.229633
0.240208 0.61445 0.245502
0.288594 0.646693 0.260197
0.46862 0.6477 0.280964
0.631769 0.650156 0.344823
0.694743 0.696666 0.312184
0.751125 0.726238 0.309651
0.82269 0.707439 0.307652
0.860792 0.712749 0.311727
0.268376 0.696727 0.278202
0.288182 0.72987 0.284993
0.330297 0.768124 0.303685
0.500023 0.76202 0.299184
0.686503 0.744274 0.355581
0.761685 0.765133 0.363073
0.790661 0.792218 0.33753
0.838453 0.808957 0.324788
0.870329 0.793225 0.322698
0.317311 0.825666 0.310277
0.326116 0.836713 0.317983
0.34284 0.85005 0.328634
0.504097 0.840131 0.31046
0.708263 0.812116 0.357855
0.799435 0.817441 0.381262
0.834302 0.835401 0.370642
0.859632 0.85655 0.361288
0.884138 0.861585 0.376806
0.116152 0.164492 0.267781
0.118563 0.164614 0.266789
0.141176 0.159823 0.262409
0.286091 0.128038 0.21297
0.400107 0.115221 0.182498
0.504509 0.130098 0.196109
0.594339 0.15668 0.220752
0.66923 0.184497 0.241245
0.732021 0.211734 0.266529
0.112871 0.168902 0.263645
0.111315 0.171969 0.269062
0.135943 0.176165 0.278462
0.327871 0.155993 0.248447
0.457176 0.156298 0.221027
0.562371 0.186038 0.241901
0.643793 0.213275 0.260792
0.708431 0.240269 0.274372
0.760891 0.269459 0.29395
0.116274 0.179034 0.226642
0.112703 0.202884 0.261784
0.14757 0.250401 0.311482
0.378408 0.255512 0.316381
0.509682 0.237507 0.275456
0.590127 0.24741 0.271061
0.665476 0.275013 0.289143
0.736828 0.303944 0.30161
0.78436 0.333974 0.313741
0.119554 0.243 0.220462
0.136919 0.289204 0.270832
0.154818 0.35874 0.345312
0.383719 0.426581 0.421469
0.543053 0.385946 0.368185
0.619303 0.359243 0.331106
0.69337 0.376028 0.335119
0.76965 0.417075 0.353323
0.822828 0.449851 0.367483
0.132158 0.386358 0.242817
0.148638 0.408179 0.239521
0.170703 0.440314 0.257176
0.337438 0.532692 0.309407
0.558679 0.54226 0.361242
0.65388 0.507195 0.365057
0.728679 0.538613 0.379797
0.79321 0.566217 0.384207
0.837034 0.587457 0.39089
0.169635 0.477134 0.263584
0.184131 0.496132 0.260929
0.216785 0.553872 0.270085
0.369345 0.602579 0.284169
0.582956 0.603387 0.387076
0.651408 0.632868 0.341054
0.731792 0.609659 0.349691
0.811887 0.647227 0.389334
0.854231 0.666514 0.410605
0.205661 0.55964 0.307134
0.216022 0.568948 0.30135
0.262455 0.640192 0.321645
0.414405 0.669535 0.31136
0.617594 0.666941 0.396887
0.699107 0.703777 0.405371
0.751415 0.731929 0.36199
0.821454 0.712734 0.367788
0.863294 0.724987 0.412375
0.257771 0.678355 0.351156
0.27686 0.709331 0.344717
0.306096 0.765072 0.338506
0.441825 0.800229 0.314656
0.672053 0.766827 0.37705
0.757137 0.770184 0.43917
0.788556 0.793256 0.449516
0.838376 0.808988 0.347799
0.866941 0.793042 0.46006
0.31783 0.826673 0.326162
0.327688 0.837919 0.326223
0.33756 0.852857 0.334264
0.462776 0.852918 0.320134
0.688975 0.819364 0.358907
0.796643 0.83006 0.411933
0.831632 0.836881 0.480125
0.854978 0.856779 0.489723
0.878798 0.862425 0.493095
0.0898604 0.169284 0.331533
0.0927596 0.16939 0.329473
0.109209 0.167269 0.324102
0.264591 0.13666 0.308797
0.418784 0.130922 0.267842
0.512932 0.143633 0.270863
0.604501 0.175219 0.301686
0.694957 0.21091 0.336156
0.762356 0.246342 0.368231
0.0837415 0.178439 0.322774
0.0864576 0.183825 0.329625
0.103258 0.193469 0.339467
0.255726 0.175509 0.359472
0.457527 0.182116 0.307866
0.55259 0.197787 0.30959
0.644999 0.237324 0.340581
0.729335 0.280446 0.373754
0.787366 0.317189 0.400824
0.0887007 0.196811 0.295247
0.0905776 0.21973 0.328084
0.106432 0.251423 0.361959
0.216983 0.267201 0.399664
0.48661 0.25864 0.355993
0.582925 0.270665 0.348486
0.676112 0.317739 0.381964
0.756649 0.356725 0.408164
0.805005 0.389838 0.43209
0.11339 0.237003 0.280339
0.123903 0.27924 0.340322
0.140398 0.32752 0.4038
0.25185 0.391867 0.468818
0.541878 0.403983 0.463813
0.637934 0.401221 0.439002
0.711177 0.413855 0.437476
0.778943 0.436561 0.44831
0.819028 0.462303 0.464958
0.130129 0.361181 0.332372
0.151751 0.396338 0.364477
0.181338 0.44564 0.417258
0.280537 0.537987 0.516442
0.576288 0.584909 0.56672
0.662013 0.557534 0.533013
0.729397 0.545342 0.506859
0.790768 0.556817 0.499718
0.833143 0.576135 0.509896
0.19971 0.534554 0.431113
0.216968 0.559533 0.439673
0.225574 0.564324 0.422599
0.287922 0.606363 0.442222
0.538994 0.646357 0.468391
0.67599 0.668879 0.508492
0.752789 0.651621 0.536004
0.816129 0.671366 0.550256
0.854917 0.679606 0.551766
0.239643 0.627146 0.469017
0.243244 0.622232 0.443992
0.252583 0.629099 0.440009
0.324819 0.661189 0.436835
0.566339 0.694362 0.439078
0.701701 0.711696 0.524742
0.749889 0.740108 0.498085
0.821759 0.723903 0.533211
0.86334 0.738079 0.567025
0.275303 0.712963 0.488487
0.287892 0.729259 0.48336
0.301488 0.749477 0.468162
0.337728 0.806332 0.442847
0.579202 0.801282 0.410895
0.738872 0.784878 0.505241
0.78764 0.793652 0.564324
0.828977 0.809766 0.511345
0.865446 0.797955 0.586511
0.317021 0.84033 0.509026
0.325048 0.847501 0.487709
0.333303 0.856168 0.454887
0.348669 0.874861 0.429343
0.598749 0.873823 0.376165
0.764492 0.846433 0.478599
0.817945 0.844068 0.569635
0.852293 0.85655 0.600641
0.873732 0.863569 0.599649
0.0655375 0.176059 0.382269
0.069688 0.177371 0.382422
0.0854963 0.180331 0.385382
0.194598 0.161578 0.39736
0.41387 0.158724 0.372595
0.55024 0.175982 0.358099
0.630289 0.200855 0.378805
0.712139 0.236698 0.409476
0.779461 0.285908 0.476204
0.0622416 0.195224 0.375158
0.0684825 0.202976 0.381506
0.0857252 0.215457 0.390906
0.18027 0.218463 0.417182
0.429419 0.218921 0.412192
0.570489 0.2309 0.387167
0.651347 0.262364 0.410361
0.736446 0.311025 0.452522
0.800153 0.367636 0.512505
0.0694591 0.228382 0.36669
0.081178 0.247456 0.386603
0.0959182 0.26894 0.406104
0.175235 0.29572 0.440497
0.434882 0.286641 0.455039
0.584375 0.299794 0.42414
0.672526 0.341146 0.454307
0.764263 0.395712 0.506294
0.81532 0.44358 0.551492
0.0982681 0.272557 0.363653
0.117922 0.312932 0.412711
0.132784 0.336309 0.438895
0.195315 0.377752 0.478141
0.400458 0.386694 0.522225
0.621561 0.412787 0.506477
0.704448 0.448173 0.527672
0.781674 0.49041 0.558541
0.821118 0.518212 0.574853
0.135302 0.352987 0.398795
0.154391 0.388403 0.43621
0.176272 0.428183 0.478645
0.256153 0.489555 0.540246
0.421744 0.550317 0.600183
0.652766 0.560296 0.592905
0.731044 0.573602 0.591623
0.793835 0.578302 0.589776
0.829984 0.597314 0.601801
0.190768 0.506279 0.488014
0.212314 0.538155 0.511955
0.233616 0.569757 0.539406
0.266423 0.61294 0.581109
0.440085 0.669978 0.638514
0.694667 0.698634 0.666285
0.759396 0.676753 0.641474
0.815198 0.673213 0.6336
0.850889 0.679377 0.635538
0.26009 0.665507 0.584955
0.276646 0.688853 0.603967
0.291539 0.708431 0.619852
0.302602 0.704158 0.606394
0.444953 0.713542 0.596506
0.669718 0.735225 0.602075
0.755734 0.755169 0.625681
0.827527 0.74638 0.647334
0.865873 0.756802 0.657115
0.30219 0.776165 0.647532
0.307576 0.773571 0.633875
0.315602 0.779248 0.618921
0.332052 0.789166 0.61236
0.432349 0.825269 0.571969
0.674662 0.80972 0.557229
0.777569 0.801678 0.637186
0.823713 0.814374 0.62446
0.867491 0.805234 0.661295
0.322286 0.856382 0.648737
0.329656 0.86125 0.632685
0.337758 0.868528 0.627619
0.353048 0.87454 0.609659
0.429679 0.899306 0.549172
0.687236 0.867582 0.543206
0.792889 0.857099 0.620005
0.852232 0.857527 0.670802
0.872602 0.866819 0.66685
0.0511635 0.188968 0.416571
0.0566567 0.192523 0.419059
0.0717327 0.199634 0.426093
0.165057 0.193317 0.443488
0.414023 0.192828 0.459297
0.552148 0.207858 0.452216
0.655802 0.237354 0.475074
0.732876 0.271321 0.514305
0.792691 0.327504 0.567086
0.0543984 0.219303 0.41265
0.0629282 0.230076 0.421439
0.0784619 0.243015 0.429816
0.160784 0.255039 0.456352
0.419989 0.253391 0.490074
0.565881 0.271321 0.477119
0.675044 0.310643 0.509194
0.753994 0.355047 0.550286
0.812284 0.41445 0.600946
0.0705272 0.263416 0.417365
0.0843366 0.280537 0.433341
0.0996414 0.301396 0.451835
0.165225 0.325322 0.474601
0.359365 0.317876 0.522576
0.579583 0.354437 0.527337
0.697643 0.399695 0.561547
0.771221 0.438804 0.591455
0.822507 0.491798 0.62826
0.101915 0.311421 0.426566
0.12079 0.347784 0.46424
0.13286 0.360891 0.478157
0.166232 0.39086 0.50573
0.333837 0.429496 0.561791
0.600977 0.444968 0.583749
0.708446 0.485145 0.601617
0.778363 0.525704 0.624872
0.828229 0.571298 0.652323
0.138689 0.384222 0.459617
0.162539 0.429221 0.502266
0.186069 0.466682 0.539376
0.222797 0.495781 0.568841
0.365789 0.542824 0.611994
0.579156 0.545678 0.641642
0.724117 0.578882 0.644144
0.794415 0.616022 0.661906
0.840421 0.645624 0.68011
0.190204 0.505638 0.533074
0.21619 0.545098 0.565942
0.236973 0.574716 0.593942
0.264302 0.601526 0.623209
0.425071 0.633692 0.659998
0.58764 0.668147 0.696193
0.751476 0.674357 0.69247
0.814221 0.692424 0.693431
0.849928 0.703441 0.698329
0.255131 0.64622 0.624125
0.272663 0.669673 0.642496
0.290364 0.693568 0.663279
0.314656 0.714183 0.682353
0.415976 0.734859 0.701793
0.586526 0.760342 0.711223
0.769162 0.77322 0.728573
0.826658 0.756359 0.712963
0.861952 0.759777 0.714015
0.304051 0.771511 0.700298
0.317845 0.792645 0.714717
0.331411 0.812787 0.729625
0.352193 0.825696 0.738384
0.381735 0.823987 0.722057
0.584009 0.82739 0.676127
0.749279 0.822828 0.675776
0.823682 0.822171 0.698451
0.868605 0.819028 0.719783
0.326711 0.857862 0.747082
0.337682 0.878294 0.755444
0.346777 0.884581 0.746181
0.36492 0.887861 0.730388
0.395529 0.890105 0.71133
0.593759 0.882765 0.662684
0.747097 0.872694 0.658839
0.847089 0.861799 0.718227
0.872633 0.871046 0.725063
0.0433051 0.212222 0.447623
0.0519875 0.219257 0.453254
0.063859 0.226841 0.45977
0.151873 0.230488 0.482109
0.388296 0.228214 0.527825
0.553613 0.260761 0.540627
0.6636 0.298878 0.576883
0.765713 0.348196 0.626688
0.817655 0.39266 0.662577
0.0551156 0.25481 0.451637
0.0673533 0.266773 0.46186
0.0805829 0.278935 0.46923
0.154955 0.296147 0.492927
0.337438 0.29424 0.54052
0.569741 0.331991 0.567697
0.684367 0.377432 0.608179
0.783337 0.421363 0.652232
0.831586 0.463325 0.681636
0.0784924 0.303517 0.46627
0.0924697 0.31928 0.48101
0.106996 0.337285 0.496956
0.157626 0.358831 0.513466
0.305852 0.36939 0.55462
0.589776 0.394781 0.613413
0.701167 0.445899 0.639841
0.795453 0.487694 0.677058
0.836637 0.530373 0.695842
0.106676 0.350683 0.47921
0.125658 0.38172 0.508537
0.13901 0.395361 0.522316
0.163973 0.422934 0.547372
0.314107 0.467018 0.590143
0.549294 0.466148 0.650828
0.710246 0.513771 0.670985
0.802747 0.559014 0.701732
0.842283 0.599435 0.713573
0.150027 0.435676 0.526726
0.177371 0.478904 0.565606
0.198444 0.508721 0.594537
0.219272 0.518196 0.604349
0.339513 0.555184 0.635325
0.50454 0.570733 0.684932
0.715923 0.594934 0.715465
0.812955 0.630457 0.729839
0.852399 0.666316 0.737163
0.203571 0.542733 0.594736
0.229648 0.581353 0.627619
0.248844 0.608026 0.654429
0.274937 0.626505 0.673533
0.405997 0.641627 0.688289
0.524315 0.669337 0.729397
0.705501 0.677409 0.745373
0.822202 0.695109 0.751842
0.859068 0.723156 0.755428
0.255787 0.65156 0.667765
0.276219 0.680827 0.693797
0.293385 0.701335 0.712596
0.317861 0.713314 0.724529
0.445228 0.72166 0.734646
0.574853 0.739452 0.752499
0.708782 0.755199 0.765301
0.823743 0.75877 0.766384
0.862287 0.777096 0.769238
0.301015 0.757229 0.738338
0.314992 0.775372 0.752895
0.329717 0.792264 0.767163
0.3552 0.804273 0.77731
0.417914 0.811032 0.781521
0.590921 0.812818 0.772747
0.718563 0.821485 0.770321
0.826627 0.831693 0.778912
0.868009 0.82829 0.77557
0.323735 0.834653 0.783856
0.335439 0.85243 0.795773
0.348669 0.868605 0.806073
0.373892 0.880903 0.811978
0.411978 0.889006 0.812055
0.59942 0.878218 0.785107
0.702754 0.885023 0.749142
0.827146 0.874525 0.756252
0.872374 0.874922 0.781613
0.0428168 0.241627 0.476951
0.0540017 0.250187 0.483619
0.0662547 0.257984 0.489509
0.144518 0.270665 0.514382
0.312978 0.277287 0.562799
0.566033 0.299306 0.608865
0.678889 0.345266 0.64799
0.781003 0.385077 0.695979
0.842481 0.429053 0.737835
0.062089 0.289204 0.488487
0.0746929 0.302434 0.499565
0.0888685 0.314855 0.507042
0.151873 0.330877 0.524544
0.298161 0.336355 0.566262
0.571069 0.359884 0.642771
0.701305 0.411902 0.67924
0.799832 0.452171 0.721874
0.852247 0.497108 0.754696
0.0869001 0.338659 0.506355
0.10016 0.354437 0.521218
0.112718 0.370047 0.535515
0.147631 0.390723 0.548913
0.294865 0.411963 0.589166
0.532738 0.417197 0.667002
0.708339 0.471305 0.712077
0.806317 0.513069 0.743313
0.855161 0.560479 0.768246
0.114336 0.389715 0.52578
0.13225 0.411704 0.545098
0.149584 0.435035 0.567208
0.17467 0.461875 0.59176
0.308873 0.501366 0.623209
0.480003 0.494865 0.674525
0.686717 0.53846 0.736721
0.805631 0.578058 0.763439
0.859388 0.619867 0.782696
0.164874 0.484428 0.586007
0.190295 0.521035 0.617639
0.206775 0.539666 0.634546
0.224475 0.542672 0.638407
0.322637 0.577386 0.667796
0.481086 0.599542 0.715648
0.663981 0.614725 0.75581
0.809552 0.647059 0.786145
0.865461 0.676173 0.797345
0.21735 0.584237 0.653651
0.23946 0.616419 0.682017
0.257618 0.638376 0.701778
0.281376 0.648646 0.711788
0.387717 0.654536 0.715434
0.511254 0.678767 0.747112
0.669017 0.687633 0.773404
0.814557 0.707881 0.80119
0.869413 0.728603 0.807385
0.261616 0.673625 0.714458
0.281743 0.701549 0.740154
0.297948 0.718349 0.755627
0.324132 0.727886 0.765057
0.439628 0.732174 0.767208
0.563149 0.743191 0.777218
0.683146 0.759411 0.797208
0.813062 0.767956 0.808057
0.870817 0.782437 0.813825
0.299382 0.758709 0.771191
0.314015 0.778866 0.789654
0.329854 0.793347 0.802762
0.356954 0.799878 0.808301
0.470359 0.798199 0.804562
0.606119 0.802915 0.803235
0.723156 0.814817 0.800397
0.810849 0.826917 0.806638
0.868452 0.837827 0.817441
0.320562 0.824308 0.810925
0.333654 0.842252 0.825895
0.347936 0.854673 0.83563
0.376745 0.862028 0.840513
0.439826 0.86389 0.839368
0.631022 0.8589 0.824247
0.745846 0.864515 0.820462
0.827131 0.870588 0.818341
0.871336 0.87715 0.821302
