70 CGC LUTs/Look LUTs/Wonder Woman.cube
#Created by: Denver Riddle
#Copyright: (C) Copyright Color Grading Central LLC
#LUT Size
LUT_3D_SIZE 5
0 0.00352483 0
0.085481 0.00259403 0
0.261479 0.000427253 0
0.527108 0 0
0.87451 0 0
0 0.13666 0
0.0253758 0.138277 0
0.268498 0.13312 0
0.541741 0.109514 0
0.907881 0 0
0 0.361776 0
0 0.360433 0
0.234577 0.376104 0
0.579187 0.379278 0
0.960098 0.372091 0
0 0.703548 0
0 0.704692 0
0.220569 0.723751 0
0.610727 0.748226 0
0.988296 0.757412 0.0552987
0.259678 0.987869 0.215442
0.330114 0.988235 0.227588
0.519799 0.988235 0.27512
0.735531 0.987411 0.369436
0.971008 0.972549 0.444541
0 0.0071107 0.0549477
0.0192569 0.0133669 0.0710155
0.202365 0.0271916 0.109407
0.550729 0 0.145037
0.953765 0 0.161395
0 0.134997 0.126787
0.0210269 0.136721 0.11928
0.279393 0.131075 0.125017
0.595651 0.0827039 0.131914
0.981262 0 0.144472
0 0.365576 0.154681
0 0.36643 0.149294
0.226749 0.383948 0.135698
0.586404 0.385824 0.153841
0.963073 0.382895 0.190631
0 0.71014 0.188083
0 0.712169 0.186679
0.229007 0.731868 0.19443
0.611032 0.756268 0.183169
0.988403 0.762295 0.264042
0.231464 0.992157 0.321248
0.306752 0.988235 0.323064
0.503807 0.988235 0.315572
0.729824 0.985016 0.36614
0.966079 0.968322 0.380362
0 0.0141909 0.14229
0 0.0235904 0.180606
0.152712 0.0492409 0.243778
0.410407 0.0628824 0.299504
0.845212 0 0.3841
0 0.148089 0.245914
0 0.154192 0.238224
0.173022 0.16347 0.285359
0.472724 0.156924 0.33048
0.920989 0.00169375 0.40119
0 0.370672 0.362585
0 0.373007 0.357961
0.235325 0.391302 0.363531
0.61619 0.388434 0.384527
0.998779 0.378805 0.433585
0 0.720974 0.438468
0 0.72369 0.441245
0.249165 0.744183 0.450004
0.615473 0.768399 0.450492
0.992157 0.766796 0.535668
0.231373 0.992157 0.553552
0.306981 0.988235 0.555398
0.494865 0.988235 0.553689
0.709529 0.981704 0.541283
0.950439 0.963226 0.493034
0 0.0278172 0.290059
0 0.0381323 0.341588
0.0846723 0.0682231 0.44651
0.383551 0.0861982 0.528313
0.765652 0 0.583612
0 0.172992 0.39443
0 0.172076 0.413764
0.0876478 0.183429 0.484276
0.408209 0.187213 0.550149
0.824186 0.145907 0.601114
0 0.39678 0.545983
0 0.404211 0.538445
0.0744335 0.429664 0.552285
0.466239 0.442496 0.619058
0.942931 0.433799 0.700313
0 0.732052 0.700862
0 0.735576 0.704601
0.300542 0.7523 0.713176
0.632532 0.773037 0.72604
1 0.763516 0.762615
0.255299 0.988235 0.765896
0.323003 0.988235 0.766735
0.498955 0.987228 0.75996
0.700267 0.977386 0.745754
0.939666 0.958099 0.698955
0 0.0258183 0.71342
0 0.0393988 0.765728
0 0.0838178 0.844175
0.122988 0.140414 0.897658
0.670588 0.117647 0.92549
0 0.197436 0.817441
0 0.196475 0.83444
0 0.213687 0.873655
0.111788 0.244923 0.910582
0.710857 0.234195 0.933684
0 0.476478 0.882887
0 0.478218 0.886641
0 0.495583 0.902205
0.0741131 0.519982 0.924132
0.805524 0.538689 0.943862
0 0.80592 0.919921
0 0.810712 0.920638
0 0.822705 0.924743
0.276631 0.832715 0.933501
0.886885 0.817517 0.948714
0.364706 0.988235 0.94902
0.41268 0.988235 0.948791
0.539986 0.982498 0.942885
0.708812 0.972869 0.932784
0.929 0.952163 0.914229
