70 CGC LUTs/Look LUTs/Wonder Woman.cube
#Created by: Denver Riddle
#Copyright: (C) Copyright Color Grading Central LLC
#LUT Size
LUT_3D_SIZE 33
0 0.00352483 0
0 0.00337224 0
0.00062562 0.00326543 0
0.00830091 0.00317388 0
0.0213779 0.0030518 0
0.0377966 0.00294499 0
0.0528878 0.00282292 0
0.0686198 0.00271611 0
0.085481 0.00259403 0
0.10396 0.00250248 0
0.12401 0.00239567 0
0.144656 0.00227359 0
0.16669 0.00216678 0
0.18967 0.00204471 0
0.213031 0.0019379 0
0.236805 0.00137331 0
0.261479 0.000427253 0
0.287816 0 0
0.315953 0 0
0.345296 0 0
0.377417 0 0
0.412116 0 0
0.449027 0 0
0.487572 0 0
0.527108 0 0
0.568368 0 0
0.612039 0 0
0.657908 0 0
0.707179 0 0
0.757809 0 0
0.818448 0 0
0.87454 0 0
0.87451 0 0
0 0.0100862 0
0 0.00987259 0
0 0.00970474 0
0.0030518 0.00946059 0
0.0113985 0.00743114 0
0.0253147 0.00646983 0
0.0423896 0.00634775 0
0.0611429 0.00627146 0
0.0806744 0.00614939 0
0.100862 0.00602731 0
0.122377 0.00694286 0
0.144244 0.00766003 0
0.166705 0.00741588 0
0.189776 0.00682078 0
0.213001 0.00584421 0
0.236912 0.00476081 0
0.261769 0.00320439 0
0.288151 0.00201419 0
0.315587 0.000762951 0
0.345327 0 0
0.377646 0 0
0.411612 0 0
0.447044 0 0
0.485588 0 0
0.526604 0 0
0.565866 0 0
0.611475 0 0
0.656794 0 0
0.702815 0 0
0.756268 0 0
0.813611 0 0
0.874159 0 0
0.877958 0 0
0 0.0197147 0
0 0.0196689 0
0 0.0193027 0
0.000579843 0.0189822 0
0.00462348 0.0176547 0
0.0145724 0.0152743 0
0.0303807 0.0140536 0
0.0517128 0.0137331 0
0.0745861 0.0133516 0
0.0972457 0.0129854 0
0.120317 0.0136416 0
0.143023 0.0147402 0
0.166339 0.0145571 0
0.189746 0.0137026 0
0.212558 0.0119326 0
0.236423 0.0109712 0
0.262592 0.0104219 0
0.288746 0.00891127 0
0.316136 0.00529488 0
0.34432 0.0016022 0
0.377646 0.000457771 0
0.412039 0 0
0.446983 0 0
0.485328 0 0
0.526818 0 0
0.564813 0 0
0.610483 0 0
0.652735 0 0
0.701549 0 0
0.752178 0 0
0.808164 0 0
0.86862 0 0
0.878431 0 0
0 0.0327306 0
0 0.0332952 0
0 0.0325933 0
0 0.0316167 0
0.000991836 0.0311284 0
0.00677501 0.0297704 0
0.0199435 0.0280308 0
0.0411078 0.0274968 0
0.0668956 0.0268864 0
0.0920729 0.026276 0
0.117906 0.0258183 0
0.141848 0.0252689 0
0.166049 0.0246586 0
0.190951 0.0240482 0
0.21413 0.0235142 0
0.238102 0.0229038 0
0.263783 0.0218967 0
0.290394 0.0183261 0
0.317281 0.0166629 0
0.347662 0.0120851 0
0.378347 0.00442512 0
0.412512 0 0
0.450614 0 0
0.488518 0 0
0.526604 0 0
0.567788 0 0
0.609827 0 0
0.654597 0 0
0.70103 0 0
0.750607 0 0
0.805707 0 0
0.865309 0 0
0.881148 0 0
0 0.0510719 0
0 0.0509041 0
0 0.0503395 0
0 0.0491493 0
0 0.0484932 0
0.00183108 0.0477607 0
0.0112917 0.0471199 0
0.0316625 0.0463874 0
0.0584268 0.045655 0
0.0856947 0.0451057 0
0.113024 0.0444495 0
0.139605 0.0437171 0
0.166613 0.0429847 0
0.192233 0.0423438 0
0.215671 0.0416114 0
0.241657 0.0410468 0
0.264866 0.0401617 0
0.291203 0.0356451 0
0.317739 0.0311894 0
0.348013 0.0269474 0
0.381842 0.022385 0
0.416251 0.0147707 0
0.453895 0.00759899 0
0.488746 0.000885023 0
0.529046 0 0
0.567987 0 0
0.611978 0 0
0.654948 0 0
0.702144 0 0
0.751461 0 0
0.806027 0 0
0.863844 0 0
0.884733 0 0
0 0.0707103 0
0 0.0702525 0
0 0.0697185 0
0 0.0691844 0
0 0.0689097 0
0 0.0690929 0
0.00422675 0.0684062 0
0.0236667 0.0679179 0
0.0509041 0.0677806 0
0.0793469 0.0670329 0
0.109346 0.0661784 0
0.136736 0.0654307 0
0.166644 0.0645609 0
0.193271 0.0638132 0
0.216342 0.0630655 0
0.242863 0.0623789 0
0.269154 0.0616464 0
0.295598 0.0572518 0
0.321981 0.0559701 0
0.352056 0.0518349 0
0.385824 0.0472572 0
0.419913 0.0419776 0
0.457145 0.0314641 0
0.492439 0.0225071 0
0.532021 0.01149 0
0.570962 0.00231937 0
0.613062 0 0
0.656672 0 0
0.702434 0 0
0.752651 0 0
0.806745 0 0
0.864256 0 0
0.890318 0 0
0 0.0897078 0
0 0.0891585 0
0 0.088777 0
0 0.0886854 0
0 0.0884413 0
0 0.0904402 0
0.00161746 0.0903182 0
0.0145266 0.0902724 0
0.0415808 0.0922408 0
0.0721904 0.0917983 0
0.102708 0.0909438 0
0.133333 0.0901961 0
0.163973 0.0894484 0
0.190875 0.0887007 0
0.217151 0.0878309 0
0.243717 0.0839704 0
0.270298 0.0828717 0
0.296788 0.0816663 0
0.32607 0.0809186 0
0.356222 0.0770886 0
0.387243 0.0740826 0
0.422965 0.0683757 0
0.458518 0.0614481 0
0.49691 0.0532998 0
0.536294 0.0429084 0
0.57438 0.0307012 0
0.615061 0.0182803 0
0.658961 0.00630198 0
0.704356 0.000503548 0
0.754467 0 0
0.808194 0 0
0.864332 0 0
0.895781 0 0
0 0.111894 0
0 0.111131 0
0 0.110903 0
0 0.112993 0
0 0.112596 0
0 0.112108 0
0.000381476 0.114931 0
0.00822461 0.11426 0
0.035111 0.113542 0
0.0655985 0.116426 0
0.0961013 0.115724 0
0.12694 0.115175 0
0.15758 0.114321 0
0.187716 0.113466 0
0.214893 0.112718 0
0.241596 0.108721 0
0.270619 0.107286 0
0.297993 0.106538 0
0.327291 0.105791 0
0.359564 0.102327 0
0.390661 0.0999466 0
0.426108 0.0958572 0
0.461799 0.090959 0
0.500542 0.0852979 0
0.538872 0.0776379 0
0.57705 0.06804 0
0.617929 0.0554208 0
0.661555 0.0381476 0
0.7075 0.0209049 0
0.75668 0.00730907 0
0.809873 0 0
0.864546 0 0
0.900679 0 0
0 0.13666 0
0 0.135912 0
0 0.135164 0
0 0.134539 0
0 0.137575 0
0 0.136828 0
0 0.136141 0
0.000564584 0.13875 0
0.0253758 0.138277 0
0.0586404 0.140932 0
0.0898299 0.14081 0
0.120348 0.139956 0
0.151095 0.139193 0
0.18172 0.138338 0
0.209461 0.137591 0
0.238209 0.136004 0
0.268498 0.13312 0
0.297993 0.131411 0
0.329427 0.130663 0
0.361593 0.128954 0
0.394018 0.12607 0
0.429725 0.123491 0
0.465766 0.119875 0
0.502846 0.11519 0
0.541741 0.109514 0
0.580377 0.101869 0
0.62118 0.0939345 0
0.664897 0.0838636 0
0.710597 0.0652476 0
0.759106 0.0394903 0
0.812314 0.0159609 0
0.866667 0.0047303 0
0.907881 0 0
0 0.161425 0
0 0.160784 0
0 0.15993 0
0 0.162753 0
0 0.162432 0
0 0.161593 0
0 0.160739 0
0 0.163241 0
0.0169528 0.163165 0
0.0487831 0.16556 0
0.0824903 0.165576 0
0.113848 0.164828 0
0.144488 0.163973 0
0.175235 0.163226 0
0.205035 0.16257 0
0.23505 0.161822 0
0.266361 0.160113 0
0.297841 0.158572 0
0.330755 0.156619 0
0.363989 0.154894 0
0.397436 0.153262 0
0.433524 0.15053 0
0.469734 0.147845 0
0.505455 0.144106 0
0.544884 0.139437 0
0.585412 0.133944 0
0.624842 0.127642 0
0.667796 0.12079 0
0.713726 0.108141 0
0.761547 0.0918441 0
0.814771 0.0687114 0
0.869276 0.03299 0
0.915099 0.0124056 0
0 0.186297 0
0 0.185657 0
0 0.184909 0
0 0.184649 0
0 0.186633 0
0 0.186374 0
0 0.185611 0
0 0.187869 0
0.00799573 0.188144 0
0.0375219 0.190066 0
0.0744793 0.190463 0
0.107347 0.1897 0
0.138094 0.190372 0
0.168948 0.19057 0
0.199573 0.1897 0
0.230198 0.188846 0
0.262272 0.187991 0
0.295644 0.18616 0
0.329442 0.183581 0
0.364599 0.181613 0
0.399893 0.180148 0
0.435721 0.177554 0
0.472847 0.17467 0
0.509224 0.172183 0
0.548348 0.168444 0
0.589395 0.164263 0
0.628305 0.160235 0
0.671138 0.154681 0
0.717021 0.145418 0
0.764782 0.133654 0
0.818509 0.120699 0
0.873381 0.100557 0
0.922515 0.0781872 0
0 0.211185 0
0 0.210544 0
0 0.209781 0
0 0.211139 0
0 0.21181 0
0 0.211246 0
0 0.210712 0
0 0.212375 0
0.00184634 0.213016 0
0.0263523 0.214588 0
0.0647135 0.215442 0
0.0998856 0.215686 0
0.131823 0.217044 0
0.162554 0.217212 0
0.193179 0.216464 0
0.224537 0.215717 0
0.257618 0.214969 0
0.292226 0.213367 0
0.327047 0.211154 0
0.363485 0.2103 0
0.400809 0.208209 0
0.437003 0.204654 0
0.47509 0.203006 0
0.51339 0.199939 0
0.552209 0.197848 0
0.593347 0.194308 0
0.632166 0.192569 0
0.674907 0.188022 0
0.722072 0.180316 0
0.772763 0.172412 0
0.823835 0.163699 0
0.881605 0.151141 0
0.929763 0.137911 0
0 0.239094 0
0 0.238239 0
0 0.237385 0
0 0.237369 0
0 0.237079 0
0 0.236332 0
0 0.236912 0
0 0.237964 0
0 0.239094 0
0.0155642 0.240192 0
0.0520485 0.241413 0
0.0914168 0.242512 0
0.125307 0.243656 0
0.156054 0.243748 0
0.186679 0.242893 0
0.218647 0.242039 0
0.253727 0.241428 0
0.289052 0.240681 0
0.324453 0.239826 0
0.362829 0.238972 0
0.401724 0.23743 0
0.440238 0.234058 0
0.479133 0.232837 0
0.517525 0.231678 0
0.556878 0.228351 0
0.59791 0.227344 0
0.63743 0.223697 0
0.680461 0.222675 0
0.727886 0.218936 0
0.778836 0.214282 0
0.830701 0.206119 0
0.888167 0.195254 0
0.933974 0.188495 0
0 0.266636 0
0 0.266438 0
0 0.265812 0
0 0.26508 0
0 0.264332 0
0 0.263355 0
0 0.264393 0
0 0.265568 0
0 0.26566 0
0.0062562 0.266926 0
0.03505 0.268666 0
0.080766 0.270222 0
0.118029 0.270665 0
0.149645 0.272419 0
0.180575 0.271565 0
0.212894 0.271229 0
0.247623 0.271153 0
0.285222 0.270191 0
0.32108 0.269368 0
0.360021 0.268528 0
0.402136 0.267979 0
0.441886 0.266957 0
0.483955 0.263569 0
0.522942 0.262959 0
0.56492 0.262455 0
0.600992 0.261997 0
0.644373 0.261631 0
0.688258 0.258427 0
0.735058 0.257893 0
0.786374 0.25333 0
0.840803 0.24625 0
0.895125 0.241932 0
0.941726 0.238605 0
0 0.295186 0
0 0.29482 0
0 0.294606 0
0 0.293751 0
0 0.293568 0
0 0.293599 0
0 0.293553 0
0 0.294789 0
0 0.294896 0
0.000839246 0.294911 0
0.017258 0.297261 0
0.0645151 0.299184 0
0.10721 0.299748 0
0.142794 0.301427 0
0.175006 0.301289 0
0.208988 0.301167 0
0.241428 0.303548 0
0.280018 0.302998 0
0.318624 0.30251 0
0.357992 0.302632 0
0.400839 0.302174 0
0.444129 0.301717 0
0.486564 0.301564 0
0.526284 0.301411 0
0.568872 0.300938 0
0.608637 0.297826 0
0.651926 0.297658 0
0.698466 0.29749 0
0.74226 0.296834 0
0.79324 0.292897 0
0.847425 0.292012 0
0.902037 0.284932 0
0.949203 0.284566 0
0 0.326345 0
0 0.325795 0
0 0.324834 0
0 0.324468 0
0 0.325231 0
0 0.325856 0
0 0.325277 0
0 0.326162 0
0 0.327153 0
0 0.326589 0
0.00581369 0.327443 0
0.0384527 0.329168 0
0.0903639 0.33167 0
0.133013 0.331975 0
0.16846 0.33431 0
0.203494 0.334798 0
0.239155 0.337621 0
0.277958 0.337194 0
0.317205 0.337896 0
0.356985 0.340932 0
0.400488 0.34078 0
0.447181 0.340627 0
0.49015 0.34049 0
0.533318 0.340475 0
0.576257 0.340352 0
0.615686 0.340291 0
0.658701 0.33994 0
0.705333 0.339406 0
0.752377 0.338888 0
0.803326 0.33518 0
0.853788 0.334508 0
0.90782 0.33051 0
0.953063 0.330083 0
0 0.361776 0
0 0.360769 0
0 0.359594 0
0 0.359197 0
0 0.360052 0
0 0.359548 0
0 0.359991 0
0 0.361212 0
0 0.360433 0
0 0.360525 0
0 0.362829 0
0.00790417 0.363668 0
0.0681163 0.366415 0
0.119463 0.369039 0
0.158846 0.369299 0
0.19501 0.372824 0
0.234577 0.376104 0
0.274113 0.376776 0
0.313512 0.380179 0
0.356481 0.380011 0
0.399939 0.379873 0
0.44651 0.379797 0
0.489494 0.379828 0
0.532952 0.379416 0
0.579187 0.379278 0
0.622156 0.382422 0
0.665049 0.38175 0
0.711467 0.377569 0
0.758679 0.377462 0
0.809369 0.37702 0
0.859815 0.376471 0
0.91017 0.376074 0
0.960098 0.372091 0
0 0.400031 0
0 0.399115 0
0 0.398276 0
0 0.398001 0
0 0.397162 0
0 0.396536 0
0 0.398444 0
0 0.397742 0
0 0.397955 0
0 0.400565 0
0 0.401144 0
0.00222782 0.404181 0
0.0311894 0.40763 0
0.0992142 0.407935 0
0.143908 0.411551 0
0.187381 0.415167 0
0.230823 0.415808 0
0.273365 0.419333 0
0.31284 0.422385 0
0.35581 0.422477 0
0.39884 0.422187 0
0.445838 0.425681 0
0.488853 0.425376 0
0.53518 0.42504 0
0.577951 0.424536 0
0.624689 0.424201 0
0.671351 0.423865 0
0.718273 0.423697 0
0.768734 0.423163 0
0.819425 0.422797 0
0.866117 0.422431 0
0.916609 0.422065 0
0.963302 0.422141 0
0 0.436713 0
0 0.435706 0
0 0.435187 0
0 0.437583 0
0 0.437446 0
0 0.436759 0
0 0.436088 0
0 0.435904 0
0 0.439155 0
0 0.439643 0
0 0.442802 0
0 0.443412 0
0.00523384 0.446983 0
0.0719768 0.450431 0
0.13193 0.450736 0
0.179507 0.454276 0
0.226154 0.457786 0
0.2692 0.461128 0
0.311833 0.461036 0
0.35462 0.464424 0
0.39791 0.464271 0
0.444389 0.463966 0
0.48719 0.46717 0
0.533837 0.466835 0
0.576669 0.466499 0
0.627207 0.466163 0
0.674083 0.465995 0
0.724514 0.46566 0
0.775433 0.465324 0
0.826185 0.465156 0
0.873106 0.464988 0
0.920501 0.468681 0
0.966842 0.46894 0
0 0.476661 0
0 0.476478 0
0 0.476036 0
0 0.476066 0
0 0.478889 0
0 0.478553 0
0 0.478386 0
0 0.478584 0
0 0.479026 0
0 0.482185 0
0 0.482643 0
0 0.485817 0
0.0016022 0.489372 0
0.0314031 0.492821 0
0.116258 0.492958 0
0.174228 0.496147 0
0.221118 0.495918 0
0.267735 0.499321 0
0.310643 0.502876 0
0.353674 0.506554 0
0.396429 0.506081 0
0.439246 0.509438 0
0.485908 0.509133 0
0.532601 0.508797 0
0.575799 0.508797 0
0.626459 0.512367 0
0.677119 0.512261 0
0.731563 0.512078 0
0.78262 0.511894 0
0.833799 0.511894 0
0.884871 0.515785 0
0.928298 0.515984 0
0.974762 0.51986 0
0 0.518685 0
0 0.518502 0
0 0.518578 0
0 0.521691 0
0 0.521523 0
0 0.521355 0
0 0.521385 0
0 0.521767 0
0 0.524773 0
0 0.524651 0
0 0.528023 0
0 0.528206 0
0 0.531441 0
0.00303655 0.531182 0
0.0988785 0.5346 0
0.161364 0.537926 0
0.215839 0.537606 0
0.262745 0.541344 0
0.309438 0.5449 0
0.356085 0.548455 0
0.399084 0.54818 0
0.442023 0.551675 0
0.4851 0.551598 0
0.532235 0.555489 0
0.578988 0.555398 0
0.625971 0.555337 0
0.680278 0.558816 0
0.735164 0.558953 0
0.790387 0.559136 0
0.841901 0.559319 0
0.892882 0.563165 0
0.936172 0.566964 0
0.978927 0.571038 0
0 0.564828 0
0 0.564828 0
0 0.56466 0
0 0.564324 0
0 0.56434 0
0 0.564462 0
0 0.564279 0
0 0.567407 0
0 0.566903 0
0 0.566812 0
0 0.570321 0
0 0.569955 0
0 0.573404 0
0 0.576806 0
0.07364 0.576471 0
0.155306 0.579812 0
0.210742 0.579889 0
0.261357 0.583368 0
0.312047 0.587106 0
0.355337 0.590845 0
0.398322 0.594278 0
0.441459 0.594385 0
0.488609 0.598413 0
0.531807 0.602136 0
0.578744 0.602274 0
0.62945 0.60592 0
0.684215 0.60618 0
0.743542 0.610483 0
0.798749 0.610574 0
0.850004 0.610574 0
0.897215 0.614435 0
0.940414 0.618357 0
0.983063 0.622431 0
0 0.607782 0
0 0.607599 0
0 0.607233 0
0 0.60705 0
0 0.607019 0
0 0.61004 0
0 0.609674 0
0 0.609308 0
0 0.608774 0
0 0.612604 0
0 0.612131 0
0 0.615625 0
0 0.615183 0
0 0.618662 0
0.0537728 0.622507 0
0.146273 0.622522 0
0.209567 0.626032 0
0.264408 0.629755 0
0.311696 0.633478 0
0.358633 0.633768 0
0.402289 0.637736 0
0.449271 0.64155 0
0.492638 0.645472 0
0.53579 0.649393 0
0.586404 0.653193 0
0.637613 0.657328 0
0.689128 0.657832 0
0.747799 0.661677 0
0.806775 0.661753 0
0.858076 0.661753 0
0.901198 0.665415 0
0.944335 0.669337 0
0.983551 0.673838 0.0113985
0 0.653971 0
0 0.653773 0
0 0.653574 0
0 0.653178 0
0 0.652567 0
0 0.651987 0
0 0.655238 0
0 0.6551 0
0 0.654902 0
0 0.654398 0
0 0.657954 0
0 0.661494 0
0 0.661463 0
0 0.665248 0
0.0345006 0.668971 0
0.144594 0.669123 0
0.209064 0.672694 0
0.267933 0.676616 0
0.31548 0.680537 0
0.362951 0.684749 0
0.410086 0.688685 0
0.457328 0.692622 0
0.500572 0.696544 0
0.547646 0.696941 0
0.594797 0.700771 0
0.646143 0.705089 0
0.700923 0.70515 0
0.755642 0.708812 0
0.810834 0.712673 0
0.858274 0.712734 0
0.905653 0.713176 0
0.948989 0.717281 0
0.987762 0.717479 0.03093
0 0.703548 0
0 0.703548 0
0 0.702953 0
0 0.702556 0
0 0.701961 0
0 0.701564 0
0 0.701228 0
0 0.704967 0
0 0.704692 0
0 0.704494 0
0 0.708034 0
0 0.708141 0
0 0.711971 0
0 0.715908 0
0.0339208 0.716167 0
0.151873 0.719829 0
0.220569 0.723751 0
0.279957 0.724193 0
0.33138 0.728191 0
0.378805 0.732311 0
0.422293 0.736248 0
0.469444 0.740185 0
0.512657 0.744106 0
0.559869 0.744366 0
0.610727 0.748226 0
0.657908 0.752148 0
0.708888 0.752209 0
0.763729 0.756069 0
0.815244 0.756359 0
0.862913 0.756695 0
0.91014 0.756863 0.00015259
0.953353 0.757 0.0201267
0.988296 0.757412 0.0552987
0 0.753307 0.000274662
0 0.752941 0
0 0.752544 0
0 0.752148 0
0 0.751751 0
0 0.751949 0
0 0.751751 0
0 0.751644 0
0 0.755093 0
0 0.755077 0.00358587
0 0.755383 0.0037995
0 0.759228 0.00381476
0 0.759487 0.00381476
0 0.763287 0.00381476
0.0818952 0.767102 0.00381476
0.180087 0.76733 0.00381476
0.244541 0.771328 0.00383001
0.304143 0.771817 9.15541e-05
0.355306 0.775647 0
0.398688 0.779568 0
0.445502 0.783307 0
0.488975 0.783475 0
0.532357 0.787503 0
0.579614 0.787732 0
0.626719 0.791608 0
0.674022 0.791852 0
0.72134 0.792004 0
0.772549 0.796078 0
0.820386 0.79649 0.000228885
0.867842 0.796628 0.000640879
0.911315 0.796765 0.0101015
0.954467 0.793256 0.049012
0.992157 0.793667 0.0792401
0 0.799084 0.0346075
0 0.799084 0.0346075
0 0.798718 0.0343328
0 0.798535 0.0341955
0 0.798718 0.0343328
0 0.798535 0.0341955
0 0.798535 0.0378119
0 0.802152 0.037995
0 0.802441 0.037995
0 0.802457 0.0417334
0 0.802823 0.0422217
0 0.806592 0.0458991
0 0.806745 0.0460517
0.0408026 0.806836 0.0460517
0.151675 0.810636 0.0460517
0.225116 0.811093 0.0501564
0.284276 0.814923 0.050248
0.335561 0.815015 0.0501869
0.382788 0.818845 0.0501869
0.426017 0.818998 0.0464179
0.469642 0.819196 0.0465095
0.513207 0.823194 0.0389715
0.556603 0.823392 0.035172
0.6 0.827451 0.027451
0.643381 0.827588 0.0276493
0.686763 0.827726 0.0200961
0.734478 0.828214 0.0208743
0.781857 0.832349 0.0213321
0.825528 0.832593 0.0220645
0.869032 0.832837 0.0303044
0.912337 0.832731 0.0462501
0.95555 0.829267 0.0728313
0.992157 0.829496 0.0946975
0 0.841794 0.0808881
0 0.841794 0.0808881
0 0.841962 0.0810712
0 0.845579 0.0810712
0 0.845777 0.0810712
0 0.845777 0.0847028
0 0.845777 0.0849775
0 0.845869 0.0849928
0 0.84622 0.0890669
