70 CGC LUTs/Look LUTs/Wonder Woman.cube
#Created by: Denver Riddle
#Copyright: (C) Copyright Color Grading Central LLC
#LUT Size
LUT_3D_SIZE 9
0 0.00352483 0
0.0213779 0.0030518 0
0.085481 0.00259403 0
0.16669 0.00216678 0
0.261479 0.000427253 0
0.377417 0 0
0.527108 0 0
0.707179 0 0
0.87451 0 0
0 0.0510719 0
0 0.0484932 0
0.0584268 0.045655 0
0.166613 0.0429847 0
0.264866 0.0401617 0
0.381842 0.022385 0
0.529046 0 0
0.702144 0 0
0.884733 0 0
0 0.13666 0
0 0.137575 0
0.0253758 0.138277 0
0.151095 0.139193 0
0.268498 0.13312 0
0.394018 0.12607 0
0.541741 0.109514 0
0.710597 0.0652476 0
0.907881 0 0
0 0.239094 0
0 0.237079 0
0 0.239094 0
0.125307 0.243656 0
0.253727 0.241428 0
0.401724 0.23743 0
0.556878 0.228351 0
0.727886 0.218936 0
0.933974 0.188495 0
0 0.361776 0
0 0.360052 0
0 0.360433 0
0.0681163 0.366415 0
0.234577 0.376104 0
0.399939 0.379873 0
0.579187 0.379278 0
0.758679 0.377462 0
0.960098 0.372091 0
0 0.518685 0
0 0.521523 0
0 0.524773 0
0 0.531441 0
0.215839 0.537606 0
0.399084 0.54818 0
0.578988 0.555398 0
0.790387 0.559136 0
0.978927 0.571038 0
0 0.703548 0
0 0.701961 0
0 0.704692 0
0 0.711971 0
0.220569 0.723751 0
0.422293 0.736248 0
0.610727 0.748226 0
0.815244 0.756359 0
0.988296 0.757412 0.0552987
0 0.88098 0.120195
0 0.881529 0.120653
0 0.881941 0.125078
0.159655 0.885603 0.128801
0.368078 0.886275 0.133333
0.530846 0.891051 0.138231
0.681422 0.892012 0.130953
0.83444 0.892027 0.107439
0.992157 0.884276 0.102464
0.259678 0.987869 0.215442
0.274495 0.988235 0.215686
0.330114 0.988235 0.227588
0.417151 0.988235 0.243626
0.519799 0.988235 0.27512
0.625025 0.988235 0.318288
0.735531 0.987411 0.369436
0.848096 0.981064 0.400961
0.971008 0.972549 0.444541
0 0.00332647 0.0205539
0.000732433 0.00662242 0.0179294
0.0415198 0.00820935 0.0204929
0.153231 0.00738537 0.0294499
0.275273 0 0.0326238
0.415915 0 0.0337987
0.583703 0 0.0317388
0.773159 0 0.0324407
0.942885 0 0.0297246
0 0.0518196 0.0307622
0 0.0495308 0.0253605
0.062562 0.0448157 0.0241703
0.162295 0.0452277 0.0300145
0.267445 0.039353 0.0316472
0.391241 0.0193484 0.0329137
0.548226 0 0.0311589
0.731182 0 0.0314946
0.926207 0 0.0249943
0 0.135698 0.0375677
0 0.136263 0.0344854
0.0212406 0.140688 0.0251164
0.156924 0.137575 0.0218662
0.27097 0.131624 0.0304417
0.391791 0.127199 0.0349889
0.538109 0.112474 0.037232
0.707576 0.0716411 0.0373999
0.916915 0 0.0304723
0 0.239124 0.042771
0 0.237964 0.0391852
0 0.239948 0.032929
0.120165 0.243992 0.0213474
0.252399 0.244114 0.0173495
0.40119 0.236622 0.0238499
0.556069 0.2309 0.0309453
0.727993 0.219059 0.0385748
0.934203 0.192477 0.0462043
0 0.363439 0.0429541
0 0.359976 0.0394141
0 0.360784 0.035111
0.0640574 0.36907 0.026215
0.230793 0.376837 0.0101778
0.399771 0.383429 0.00549325
0.579141 0.382422 0.0167849
0.761746 0.380728 0.0313725
0.959716 0.375555 0.0573739
0 0.521889 0.0417029
0 0.521416 0.0414435
0 0.524636 0.0373693
0 0.531044 0.032166
0.215274 0.540978 0.0153964
0.395071 0.551675 0
0.579004 0.55903 0
0.790478 0.562631 0.0112154
0.979309 0.575372 0.0762951
0 0.702953 0.0552071
0 0.705272 0.0538796
0 0.704692 0.0532082
0 0.712245 0.0527504
0.220996 0.723964 0.0487526
0.426291 0.740169 0.0337682
0.610727 0.75201 0.018677
0.815671 0.756695 0.0304417
0.988342 0.757824 0.12224
0 0.881254 0.158724
0 0.881666 0.159335
0 0.881941 0.163531
0.164614 0.885863 0.167468
0.368765 0.886488 0.172457
0.531624 0.891371 0.177859
0.681575 0.892119 0.171084
0.830823 0.892027 0.151232
0.991943 0.883848 0.149752
0.276448 0.988083 0.223407
0.290135 0.988235 0.21976
0.334691 0.988235 0.228382
0.417731 0.988235 0.243717
0.519692 0.988235 0.27509
0.624384 0.988235 0.318013
0.732723 0.986206 0.361761
0.844068 0.979706 0.384573
0.968322 0.970642 0.412573
0 0.0071107 0.0549477
0 0.00668345 0.0595865
0.0192569 0.0133669 0.0710155
0.0911116 0.0233005 0.0854963
0.202365 0.0271916 0.109407
0.353033 0.00354009 0.131273
0.550729 0 0.145037
0.774105 0 0.153353
0.953765 0 0.161395
0 0.0522927 0.0950179
0 0.0524147 0.083238
0.0180972 0.0564736 0.0800488
0.108721 0.0605478 0.0975662
0.238499 0.0543984 0.120684
0.383536 0.0250553 0.132326
0.570123 0 0.137835
0.77612 0 0.144793
0.966522 0 0.152087
0 0.134997 0.126787
0 0.135332 0.123278
0.0210269 0.136721 0.11928
0.159213 0.133471 0.120134
0.279393 0.131075 0.125017
0.42266 0.117388 0.128695
0.595651 0.0827039 0.131914
0.785183 0.0110628 0.136278
0.981262 0 0.144472
0 0.240558 0.143297
0 0.237247 0.140078
0 0.240177 0.136782
0.115633 0.245869 0.12781
0.261295 0.243931 0.121477
0.408164 0.237308 0.1411
0.559853 0.234638 0.151553
0.744732 0.2215 0.155169
0.973312 0.180087 0.158984
0 0.365576 0.154681
0 0.362509 0.151751
0 0.36643 0.149294
0.0592355 0.372854 0.147646
0.226749 0.383948 0.135698
0.403769 0.387427 0.131426
0.586404 0.385824 0.153841
0.76492 0.383978 0.172122
0.963073 0.382895 0.190631
0 0.525475 0.167224
0 0.525902 0.166979
0 0.531945 0.166232
0 0.534325 0.164996
0.214832 0.54464 0.15996
0.394888 0.555673 0.14374
0.582757 0.563226 0.143481
0.798459 0.567147 0.174685
0.98323 0.583108 0.225711
0 0.71014 0.188083
0 0.708888 0.187137
0 0.712169 0.186679
0 0.719814 0.190433
0.229007 0.731868 0.19443
0.430091 0.744167 0.19089
0.611032 0.756268 0.183169
0.816098 0.760937 0.191882
0.988403 0.762295 0.264042
0 0.881392 0.268467
0 0.881804 0.269123
0 0.885863 0.269444
0.174182 0.886137 0.273671
0.373571 0.89073 0.278843
0.535912 0.891798 0.284367
0.681666 0.892348 0.277562
0.830518 0.892317 0.257511
0.99202 0.883314 0.266712
0.231464 0.992157 0.321248
0.247196 0.992157 0.32221
0.306752 0.988235 0.323064
0.401312 0.988235 0.31986
0.503807 0.988235 0.315572
0.627558 0.988235 0.317708
0.729824 0.985016 0.36614
0.838743 0.978073 0.396048
0.966079 0.968322 0.380362
0 0.0105135 0.0933852
0 0.0104372 0.104799
0.00761425 0.0189822 0.125505
0.0751659 0.0299077 0.150973
0.167483 0.0429847 0.169818
0.286427 0.0479896 0.196902
0.471 0.00479133 0.229664
0.697841 0 0.262013
0.904173 0 0.281865
0 0.0601968 0.133577
0 0.0609903 0.126101
0.00181582 0.0661631 0.138857
0.0794995 0.071519 0.166171
0.178927 0.0768749 0.182315
0.308324 0.0753948 0.206378
0.492973 0.0304723 0.233539
0.70779 0 0.258
0.926421 0 0.275471
0 0.137575 0.196338
0 0.138613 0.192462
0.00166323 0.146105 0.182849
0.0937057 0.151629 0.186847
0.213504 0.150881 0.209796
0.375494 0.13901 0.231067
0.553552 0.112398 0.246983
0.751995 0.0378271 0.259968
0.964675 0 0.276219
0 0.239338 0.234501
0 0.238148 0.232227
0 0.240131 0.228367
0.119966 0.245487 0.228412
0.270802 0.242695 0.23006
0.428519 0.236591 0.239582
0.604669 0.223209 0.24686
0.800626 0.202914 0.261646
0.996094 0.17229 0.280873
0 0.368826 0.256733
0 0.365057 0.253574
0 0.366812 0.251575
0.0634318 0.376547 0.253605
0.226612 0.388235 0.245762
0.422324 0.390585 0.241459
0.593347 0.388907 0.274937
0.776226 0.387518 0.285573
0.997894 0.375128 0.292775
0 0.529809 0.281254
0 0.532616 0.280842
0 0.535531 0.280003
0 0.541512 0.278492
0.214572 0.551904 0.277531
0.39472 0.563241 0.265354
0.590417 0.57055 0.261326
0.806699 0.575006 0.312154
0.983474 0.591196 0.3635
0 0.713726 0.313237
0 0.716533 0.31252
0 0.719875 0.315831
0 0.72401 0.315938
0.237263 0.736324 0.324102
0.43444 0.748455 0.324453
0.614816 0.760281 0.31664
0.824384 0.765255 0.325917
0.992157 0.762707 0.401724
0 0.885451 0.390387
0 0.885863 0.391028
0 0.885725 0.390875
0.183154 0.890074 0.39173
0.378286 0.891051 0.397055
0.540108 0.892012 0.402365
0.681834 0.892454 0.398672
0.826398 0.892012 0.374228
0.991958 0.882582 0.387854
0.227481 0.992157 0.439323
0.243549 0.992157 0.440391
0.303181 0.991913 0.441032
0.393896 0.988235 0.44126
0.495705 0.988235 0.436759
0.605798 0.98732 0.433646
0.716701 0.983551 0.421836
0.835096 0.977478 0.432685
0.956054 0.965835 0.415305
0 0.0141909 0.14229
0 0.0151217 0.154437
0 0.0235904 0.180606
0.0538338 0.0360418 0.214832
0.152712 0.0492409 0.243778
0.265202 0.0607462 0.267384
0.410407 0.0628824 0.299504
0.625269 0.000793469 0.342931
0.845212 0 0.3841
0 0.0673686 0.171832
0 0.0677348 0.176165
0 0.0703746 0.19675
0.0552224 0.0749523 0.228275
0.161242 0.0838331 0.258778
0.275563 0.0910964 0.275624
0.421759 0.0910506 0.302525
0.634333 0.0229801 0.344549
0.86862 0 0.386206
0 0.148089 0.245914
0 0.149004 0.238621
0 0.154192 0.238224
0.0597696 0.160281 0.256519
0.173022 0.16347 0.285359
0.305272 0.164965 0.303044
0.472724 0.156924 0.33048
0.6813 0.114809 0.367041
0.920989 0.00169375 0.40119
0 0.245136 0.314199
0 0.243381 0.310094
0 0.24744 0.304494
0.0852827 0.25565 0.298177
0.191363 0.265217 0.305348
0.351461 0.26273 0.338598
0.557015 0.249897 0.368444
0.758083 0.226932 0.394995
0.972717 0.195193 0.421897
0 0.370672 0.362585
0 0.367773 0.359228
0 0.373007 0.357961
0.0788434 0.380194 0.360235
0.235325 0.391302 0.363531
0.440223 0.390768 0.370504
0.61619 0.388434 0.384527
0.814817 0.383215 0.402823
0.998779 0.378805 0.433585
0 0.533745 0.395743
0 0.53637 0.398474
0 0.538613 0.397177
0 0.54493 0.395834
0.225956 0.555749 0.398871
0.394736 0.570947 0.390692
0.609903 0.574685 0.390936
0.81091 0.582956 0.44947
0.999084 0.591379 0.469734
0 0.720974 0.438468
0 0.720378 0.441672
0 0.72369 0.441245
0 0.732036 0.44538
0.249165 0.744183 0.450004
0.441642 0.755825 0.457481
0.615473 0.768399 0.450492
0.832731 0.769406 0.456199
0.992157 0.766796 0.535668
0 0.885664 0.516167
0 0.88603 0.51667
0 0.885908 0.516686
0.199924 0.89041 0.521492
0.383017 0.891478 0.523049
0.536843 0.892119 0.523964
0.681666 0.892348 0.52398
0.825696 0.891585 0.495537
0.990631 0.881758 0.515419
0.231373 0.992157 0.553552
0.24744 0.992157 0.554772
0.306981 0.988235 0.555398
0.393805 0.988235 0.555276
0.494865 0.988235 0.553689
0.602335 0.986114 0.549096
0.709529 0.981704 0.541283
0.824323 0.975097 0.526116
0.950439 0.963226 0.493034
0 0.0184176 0.201114
0 0.021622 0.215076
0 0.0295872 0.24625
0.0236515 0.0433967 0.288502
0.130526 0.0576638 0.331182
0.255024 0.0681621 0.366262
0.396994 0.0784772 0.392874
0.579965 0.058732 0.427878
0.79704 0 0.473564
0 0.0742046 0.232013
0 0.072694 0.239643
0 0.0762951 0.266819
0.0192569 0.0817884 0.304845
0.133532 0.090898 0.346639
0.26125 0.0982834 0.377386
0.401785 0.106432 0.396994
0.580041 0.0918135 0.428153
0.816495 0 0.476341
0 0.159014 0.302907
0 0.159716 0.298955
0 0.163165 0.310948
0.0108339 0.167132 0.339254
0.141985 0.173205 0.375814
0.279728 0.175158 0.406851
0.430625 0.176516 0.42182
0.612345 0.168353 0.448814
0.866941 0.0777905 0.502541
0 0.258961 0.384054
0 0.257877 0.377691
0 0.262654 0.372351
0.00395209 0.268498 0.376043
0.152377 0.276661 0.399191
0.298177 0.282185 0.436194
0.475212 0.281361 0.455467
0.679988 0.272877 0.493507
0.929503 0.230121 0.547158
0 0.377905 0.460517
0 0.378485 0.457145
0 0.381018 0.454963
0.00939956 0.392065 0.454597
0.198383 0.406821 0.453941
0.33901 0.421164 0.46453
0.529656 0.419287 0.497917
0.771267 0.406577 0.53994
0.982483 0.39823 0.586313
0 0.540627 0.520729
0 0.539788 0.519966
0 0.542046 0.518486
0 0.54844 0.517189
0.245258 0.559487 0.524086
0.406088 0.574807 0.527901
0.629602 0.578805 0.547448
0.838239 0.587121 0.575463
0.999466 0.595209 0.618647
0 0.724498 0.571344
0 0.724193 0.57113
0 0.727932 0.574456
0 0.736156 0.578973
0.27274 0.748196 0.583459
0.449897 0.75996 0.59115
0.615946 0.76878 0.588281
0.844541 0.766232 0.605997
0.996063 0.766918 0.649454
0 0.885786 0.646021
0 0.885786 0.646021
0 0.890059 0.646632
0.220798 0.89073 0.647532
0.391424 0.891798 0.64892
0.540658 0.892592 0.649302
0.681636 0.892561 0.645747
0.82089 0.894591 0.623957
0.98851 0.876905 0.642664
0.235431 0.988235 0.671412
0.251392 0.988235 0.672145
0.311254 0.988235 0.669032
0.393896 0.988235 0.668315
0.497765 0.988144 0.666651
0.599542 0.984924 0.658503
0.70399 0.979599 0.649393
0.818616 0.972519 0.637934
0.944488 0.960479 0.591836
0 0.0278172 0.290059
0 0.0298619 0.303929
0 0.0381323 0.341588
0 0.0507973 0.393393
0.0846723 0.0682231 0.44651
0.225589 0.0795148 0.49482
0.383551 0.0861982 0.528313
0.569894 0.0780346 0.550484
0.765652 0 0.583612
0 0.0808576 0.324987
0 0.079408 0.332753
0 0.0834669 0.364645
0 0.0889906 0.408286
0.0858778 0.101686 0.457313
0.227573 0.110887 0.49929
0.385428 0.114061 0.526375
0.566674 0.109133 0.548821
0.78024 0.036759 0.580484
0 0.172992 0.39443
0 0.169665 0.396445
0 0.172076 0.413764
0 0.176654 0.446159
0.0876478 0.183429 0.484276
0.238483 0.187564 0.52491
0.408209 0.187213 0.550149
0.589731 0.18407 0.562646
0.824186 0.145907 0.601114
0 0.27628 0.466133
0 0.274998 0.462562
0 0.277867 0.464561
0 0.282979 0.47953
0.0794995 0.288243 0.509819
0.250889 0.297475 0.550011
0.439658 0.29723 0.585168
0.635813 0.296635 0.600565
0.882353 0.280217 0.644968
0 0.39678 0.545983
0 0.397498 0.540139
0 0.404211 0.538445
0 0.415183 0.541451
0.0744335 0.429664 0.552285
0.282994 0.439918 0.581399
0.466239 0.442496 0.619058
0.684993 0.441825 0.641962
0.942931 0.433799 0.700313
0 0.548608 0.634974
0 0.547707 0.633875
0 0.549447 0.631846
0 0.559853 0.634333
0.205585 0.571191 0.633692
0.370809 0.590509 0.637507
0.524117 0.61413 0.653666
0.767895 0.618448 0.701152
0.987533 0.615122 0.752453
0 0.732052 0.700862
0 0.731624 0.700496
0 0.735576 0.704601
0 0.740261 0.70869
0.300542 0.7523 0.713176
0.473564 0.760327 0.717189
0.632532 0.773037 0.72604
0.848997 0.770596 0.739437
1 0.763516 0.762615
0 0.885786 0.7523
0 0.885863 0.7523
0.0153201 0.890196 0.75285
0.260899 0.89102 0.753933
0.411063 0.891905 0.754788
0.548714 0.892454 0.755077
0.681407 0.892012 0.750973
0.819608 0.894118 0.737148
0.98706 0.87541 0.752087
0.255299 0.988235 0.765896
0.271351 0.988235 0.766537
0.323003 0.988235 0.766735
0.405142 0.988235 0.765988
0.498955 0.987228 0.75996
0.596643 0.983459 0.75555
0.700267 0.977386 0.745754
0.813382 0.969665 0.73402
0.939666 0.958099 0.698955
0 0.0337987 0.485451
0 0.0363165 0.496956
0 0.0462043 0.534325
0 0.0609903 0.583551
0 0.0793927 0.641947
0.118837 0.0985275 0.691463
0.312169 0.109117 0.729595
0.537102 0.0980392 0.754162
0.754009 0.0281071 0.766445
0 0.0881971 0.515816
0 0.089128 0.520317
0 0.090547 0.547723
0 0.0991836 0.588769
0 0.112642 0.640818
0.127108 0.125765 0.685634
0.315892 0.134829 0.719265
0.532937 0.127153 0.741482
0.767559 0.073991 0.754025
0 0.183658 0.573236
0 0.183276 0.573648
0 0.1841 0.590173
0 0.188159 0.619745
0 0.195254 0.657481
0.140291 0.204334 0.695766
0.333486 0.20763 0.72639
0.552651 0.200839 0.749096
0.804578 0.175937 0.762158
0 0.297505 0.625391
0 0.29485 0.622766
0 0.296666 0.628443
0 0.298817 0.647272
0 0.307057 0.679423
0.151537 0.317189 0.715679
0.359319 0.321874 0.746593
0.591165 0.320241 0.77232
0.851072 0.310704 0.782055
0 0.430976 0.681453
0 0.428473 0.67805
0 0.432242 0.681361
0 0.442908 0.695323
0 0.4533 0.713466
0.156146 0.46302 0.738018
0.383658 0.46952 0.764141
0.626078 0.472724 0.794705
0.895399 0.476234 0.810437
0 0.583886 0.74847
0 0.582086 0.746807
0 0.588067 0.745312
0 0.594858 0.747982
0 0.61001 0.751736
0.21387 0.625589 0.767239
0.438285 0.645624 0.787579
0.685573 0.654002 0.81915
0.932433 0.65832 0.835111
0 0.747662 0.810788
0 0.747265 0.810483
0 0.751705 0.81088
0 0.760082 0.815106
0.216358 0.767895 0.815015
0.403388 0.78027 0.815625
0.565942 0.793057 0.820554
0.756222 0.798321 0.833921
0.967941 0.7832 0.86041
0 0.885954 0.854536
0 0.885954 0.854536
0.176654 0.890425 0.855177
0.315953 0.891295 0.856001
0.446311 0.891844 0.856306
0.574899 0.892027 0.853132
0.699702 0.891402 0.852369
0.822034 0.889357 0.849882
0.99118 0.871473 0.850584
0.290929 0.988235 0.860288
0.303532 0.988235 0.860945
0.347204 0.988235 0.860945
0.424262 0.988235 0.859648
0.508461 0.986114 0.856992
0.604242 0.981613 0.849348
0.701213 0.975006 0.841947
0.808377 0.966918 0.829938
0.935134 0.955657 0.805325
0 0.0258183 0.71342
0 0.0281834 0.730953
0 0.0393988 0.765728
0 0.0583963 0.803693
0 0.0838178 0.844175
0 0.113893 0.874678
0.122988 0.140414 0.897658
0.401343 0.152941 0.916854
0.670588 0.117647 0.92549
0 0.0877089 0.760693
0 0.0886397 0.770336
0 0.0931716 0.795285
0 0.10251 0.825162
0 0.122423 0.855634
0 0.144518 0.882124
0.106279 0.167208 0.90222
0.386465 0.17911 0.919371
0.679683 0.150118 0.929412
0 0.197436 0.817441
0 0.194736 0.822843
0 0.196475 0.83444
0 0.202533 0.853803
0 0.213687 0.873655
0 0.228672 0.892424
0.111788 0.244923 0.910582
0.390967 0.2542 0.92256
0.710857 0.234195 0.933684
0 0.325795 0.856306
0 0.323598 0.857664
0 0.323369 0.865385
0 0.328206 0.875731
0 0.337896 0.891035
0 0.35259 0.902632
0.109422 0.367788 0.917967
0.416312 0.381903 0.929641
0.753063 0.368933 0.941176
0 0.476478 0.882887
0 0.474632 0.883085
0 0.478218 0.886641
0 0.485466 0.894621
0 0.495583 0.902205
0 0.505684 0.913542
0.0741131 0.519982 0.924132
0.443595 0.538735 0.932082
0.805524 0.538689 0.943862
0 0.645899 0.90219
0 0.644068 0.902113
0 0.649973 0.905165
0 0.656794 0.908339
0 0.671595 0.912169
0 0.688075 0.920333
0.0965133 0.704356 0.928588
0.506096 0.716381 0.936522
0.846677 0.709514 0.944915
0 0.80592 0.919921
0 0.806241 0.920073
0 0.810712 0.920638
0 0.815015 0.924666
0 0.822705 0.924743
0 0.827665 0.929442
0.276631 0.832715 0.933501
0.606241 0.832914 0.941176
0.886885 0.817517 0.948714
0 0.912856 0.936446
0 0.913405 0.936873
0 0.914092 0.937346
0 0.91487 0.937469
0.00575265 0.915251 0.937255
0.242084 0.918868 0.937255
0.477607 0.918074 0.937255
0.693553 0.911299 0.938186
0.916838 0.89482 0.939269
0.364706 0.988235 0.94902
0.373098 0.988235 0.94902
0.41268 0.988235 0.948791
0.473304 0.988083 0.944976
0.539986 0.982498 0.942885
0.618128 0.978866 0.939284
0.708812 0.972869 0.932784
0.818601 0.960418 0.924849
0.929 0.952163 0.914229
