70 CGC LUTs/Beginner to Hero tutorial LUT/Crash Course Orange Teal LUT.cube
#Created by: Denver Riddle
#Copyright: (C) Copyright Color Grading Central LLC
#LUT Size
LUT_3D_SIZE 9
0 0 0
0.0167391 0.0129549 0.0146334
0.0699779 0.0248112 0.0293431
0.17052 0.0315709 0.0377813
0.297902 0.0327916 0.0400092
0.472129 0.026154 0.0350195
0.655543 0.016907 0.0270542
0.814557 0.00947585 0.0202029
0.914199 0.00646983 0.0173648
0.00366217 0.0951553 0.037995
0.0498665 0.11249 0.0365759
0.194842 0.108156 0.00234989
0.392889 0.0880598 0
0.535576 0.0820783 0
0.644587 0.08336 0
0.752773 0.0857099 0
0.853788 0.0875563 0.00172427
0.935882 0.0884871 0.00440986
0 0.256672 0.0170748
0.0299687 0.25716 0.0128481
0.142 0.250355 0.0116732
0.282017 0.23061 0.0117189
0.508751 0.20708 0
0.724498 0.187625 0
0.869429 0.178439 0
0.963607 0.174884 0
1 0.176501 0
0 0.388617 0.010544
0.0270695 0.386831 0.00987259
0.125826 0.38349 0.0093843
0.25008 0.36669 0.00929274
0.390448 0.345205 0.0100252
0.545769 0.342214 0.0111086
0.805844 0.32842 0
0.988235 0.318685 0
1 0.326543 0
0 0.519966 0.00933852
0.0268101 0.519844 0.00953689
0.122042 0.519539 0.0103914
0.245106 0.519326 0.0145266
0.38941 0.503655 0.0247959
0.553063 0.517937 0.0382239
0.712779 0.526589 0.0475013
0.877913 0.525414 0.0285039
1 0.502571 0
0 0.662654 0.016968
0.0476844 0.68127 0.0303349
0.157046 0.695567 0.0407568
0.282078 0.700114 0.0449989
0.414191 0.674479 0.0450752
0.556909 0.667216 0.0449836
0.704356 0.66421 0.044831
0.848035 0.662257 0.0462959
0.970504 0.66038 0.0477302
0 0.830533 0.0449989
0.0624704 0.829496 0.0450446
0.160723 0.827893 0.0448463
0.278843 0.825864 0.0443427
0.407446 0.811719 0.0434424
0.547768 0.802701 0.0424811
0.692317 0.796597 0.0414282
0.835721 0.792477 0.0402533
0.965164 0.788678 0.040238
0 0.942657 0.0439307
0.0605783 0.941009 0.043122
0.156252 0.938491 0.0420996
0.271824 0.935943 0.0407568
0.398642 0.931075 0.0394293
0.536355 0.922835 0.0379797
0.678248 0.916991 0.0364385
0.821363 0.912077 0.0348363
0.953536 0.907835 0.0334173
0 1 0.0402838
0.0563668 1 0.0389105
0.14902 1 0.0374304
0.262913 1 0.0357061
0.387488 1 0.0340887
0.523461 1 0.0324407
0.66424 1 0.0307469
0.806638 1 0.0290532
0.940108 1 0.0275731
0.00129702 0.00221256 0.00384527
0.0231479 0.0174868 0.0387427
0.0837568 0.0272679 0.0743877
0.186587 0.0319219 0.10103
0.321859 0.0309606 0.115343
0.4972 0.0228428 0.124086
0.672969 0.0138705 0.126299
0.819593 0.00794995 0.12372
0.913237 0.00628672 0.121813
0.00105287 0.0993057 0.111589
0.0480659 0.112856 0.129168
0.164126 0.11722 0.138079
0.299229 0.109728 0.12929
0.43679 0.102098 0.120851
0.567773 0.0991684 0.117754
0.696025 0.0975967 0.11548
0.814984 0.0966659 0.114183
0.911421 0.0959793 0.112779
0 0.25565 0.119844
0.0293889 0.254124 0.117296
0.145892 0.249866 0.119005
0.326497 0.218875 0.0655222
0.529702 0.198306 0.0491951
0.658778 0.195804 0.0621195
0.76408 0.199542 0.0767681
0.863279 0.204044 0.0877241
0.945541 0.207492 0.0944533
0 0.387121 0.104799
0.0267796 0.38529 0.103609
0.126207 0.382239 0.102708
0.251484 0.369802 0.103822
0.392676 0.345907 0.102953
0.63267 0.330312 0.0357519
0.849531 0.318746 0.00323491
0.979446 0.324392 0.0138399
1 0.339559 0.0371557
0 0.519432 0.0991073
0.0270237 0.519417 0.0993668
0.122621 0.520043 0.100649
0.247623 0.522744 0.107485
0.396597 0.513375 0.123644
0.556619 0.521035 0.13756
0.716915 0.526299 0.140276
0.957717 0.509117 0.0373693
1 0.486427 0
0 0.667277 0.109514
0.0523537 0.688029 0.12697
0.159411 0.697902 0.136065
0.28159 0.699428 0.139635
0.413245 0.677287 0.139223
0.555566 0.665934 0.138018
0.702663 0.662745 0.136278
0.846326 0.6607 0.13666
0.985489 0.655787 0.109529
0 0.830213 0.138949
0.0624094 0.829114 0.138216
0.15993 0.826932 0.136706
0.277592 0.824643 0.135744
0.406043 0.811719 0.13344
0.545876 0.800778 0.130404
0.689937 0.794461 0.127962
0.833432 0.790097 0.126772
0.963775 0.786114 0.126787
0 0.941939 0.136645
0.0602274 0.940124 0.134676
0.155032 0.937438 0.132113
0.27039 0.934798 0.129824
0.396704 0.929625 0.126696
0.53402 0.920974 0.124453
0.675395 0.914549 0.122759
0.81857 0.909682 0.121263
0.951049 0.905379 0.119844
0 1 0.131151
0.0558633 1 0.128634
0.147601 1 0.125704
0.261128 1 0.122911
0.385382 1 0.120516
0.52076 1 0.118868
0.661326 1 0.117052
0.803693 1 0.11548
0.937621 1 0.114031
0.00419623 0.00807202 0.0210574
0.0296178 0.0213016 0.0843824
0.0961013 0.0289769 0.143587
0.200793 0.0307164 0.183993
0.341329 0.0268101 0.210391
0.516594 0.0187839 0.234012
0.687648 0.0110018 0.245884
0.821958 0.00715648 0.247684
0.913802 0.00610361 0.245838
0 0.101884 0.206409
0.0452125 0.109194 0.2486
0.157061 0.111589 0.272251
0.295506 0.105852 0.263584
0.43003 0.101488 0.245457
0.565576 0.0994125 0.241764
0.694926 0.0977951 0.239582
0.813977 0.0972152 0.2383
0.911482 0.0965896 0.237415
0 0.239185 0.25716
0.0289616 0.237125 0.25565
0.1467 0.240391 0.262821
0.293278 0.239994 0.263096
0.427604 0.223865 0.243259
0.560128 0.217609 0.235904
0.689998 0.21709 0.23505
0.812238 0.217762 0.23534
0.915602 0.219272 0.236728
0 0.374853 0.226825
0.0265202 0.37377 0.225757
0.129183 0.37789 0.22771
0.266255 0.377462 0.23949
0.452399 0.339391 0.184695
0.659236 0.32282 0.160418
0.791699 0.330358 0.187533
0.901564 0.353857 0.226474
0.989715 0.374685 0.255375
0 0.516228 0.214405
0.0272221 0.516823 0.214939
0.125505 0.520806 0.217716
0.253101 0.530068 0.229023
0.406226 0.537148 0.254856
0.566308 0.524636 0.26775
0.800961 0.513771 0.178561
0.987488 0.494789 0.12134
1 0.483894 0.121981
0 0.674006 0.231296
0.0556497 0.692424 0.248737
0.163653 0.69929 0.256046
0.280842 0.698131 0.257618
0.411612 0.691722 0.264134
0.553979 0.66601 0.265858
0.700755 0.661311 0.270283
0.847501 0.658549 0.269078
1 0.638224 0.116899
0 0.829755 0.257328
0.0622568 0.82855 0.256062
0.161517 0.826566 0.253849
0.276326 0.823011 0.252171
0.404456 0.818723 0.257679
0.54377 0.801556 0.260212
0.687556 0.792157 0.261967
0.830854 0.787594 0.263767
0.961883 0.783963 0.264927
0 0.941375 0.25359
0.0598001 0.939559 0.25069
0.155535 0.936934 0.247501
0.26891 0.933425 0.245029
0.394598 0.928756 0.248859
0.531319 0.920821 0.250843
0.672938 0.9122 0.250736
0.815625 0.907271 0.251102
0.94844 0.903075 0.249363
0 1 0.246448
0.0552834 1 0.242817
0.147005 1 0.238437
0.259327 1 0.23592
0.383093 1 0.238071
0.517708 1 0.238987
0.658579 1 0.238148
0.800397 1 0.237049
0.935012 1 0.23447
0.00637827 0.0132601 0.0566567
0.0347295 0.0246586 0.148806
0.102876 0.029984 0.225223
0.206348 0.0297246 0.282246
0.351232 0.0211032 0.327016
0.521874 0.0116274 0.362142
0.691249 0.00640879 0.37763
0.824262 0.00556954 0.379248
0.918273 0.00474556 0.377371
0 0.102342 0.316945
0.0426184 0.106172 0.377111
0.147951 0.105013 0.41178
0.277028 0.101381 0.409644
0.41474 0.0964675 0.383734
0.553933 0.0959182 0.374823
0.68925 0.0961013 0.369879
0.814618 0.0962844 0.368124
0.914885 0.0960708 0.367559
0 0.226856 0.406149
0.0286259 0.224643 0.40441
0.140429 0.223529 0.412192
0.275319 0.227726 0.409567
0.417807 0.222171 0.382803
0.554925 0.22002 0.36553
0.689479 0.221775 0.364462
0.812665 0.222812 0.364996
0.917235 0.225208 0.366949
0 0.351431 0.363043
0.0263371 0.350439 0.362219
0.128862 0.35285 0.36788
0.269612 0.364874 0.388113
0.422568 0.366537 0.390097
0.560983 0.350637 0.37023
0.702296 0.358648 0.377462
0.843442 0.380758 0.399191
0.953506 0.393683 0.412268
0 0.492088 0.343267
0.0274205 0.492943 0.344091
0.129015 0.502297 0.348791
0.267704 0.532555 0.366354
0.426734 0.551095 0.399496
0.629297 0.519203 0.355917
0.828153 0.505638 0.338369
0.937728 0.504753 0.3579
1 0.508324 0.377249
0 0.664729 0.36849
0.057969 0.676493 0.383215
0.167224 0.690684 0.387732
0.289235 0.696773 0.385794
0.411566 0.694575 0.387076
0.552499 0.677012 0.394553
0.700374 0.659373 0.398322
0.922667 0.64509 0.307973
1 0.623117 0.245853
0 0.821805 0.388128
0.0619974 0.820447 0.386404
0.1635 0.822232 0.383429
0.283711 0.821469 0.379568
0.403876 0.817288 0.37879
0.541527 0.807782 0.387655
0.684672 0.790448 0.391501
0.827909 0.784787 0.398337
0.962844 0.780301 0.396933
0 0.940246 0.383871
0.0593118 0.938109 0.380392
0.156298 0.934859 0.375463
0.275242 0.931792 0.370459
0.392569 0.927031 0.367605
0.528756 0.921431 0.376699
0.669902 0.911482 0.382391
0.812451 0.904738 0.387732
0.945602 0.90042 0.390845
0 1 0.37528
0.0546426 1 0.370871
0.146777 1 0.36492
0.264637 1 0.359548
0.38088 1 0.356252
0.514733 1 0.363989
0.655482 1 0.370718
0.796689 1 0.375799
0.931899 1 0.378958
0.0078584 0.0177615 0.117174
0.0385595 0.0272068 0.224857
0.109331 0.0305943 0.317418
0.213718 0.0275273 0.398764
0.361898 0.017258 0.460853
0.536217 0.00648508 0.509102
0.703258 0.000808728 0.526192
0.832731 0.00138857 0.521782
0.929534 0.00102235 0.520287
0 0.102831 0.440497
0.0402991 0.105577 0.514778
0.145983 0.102312 0.55375
0.273121 0.0991836 0.558923
0.407431 0.095552 0.528908
0.549828 0.0920882 0.521065
0.691005 0.090959 0.514824
0.820844 0.0919661 0.509758
0.925277 0.092546 0.509316
0 0.224659 0.555917
0.0283055 0.222629 0.553887
0.137499 0.218921 0.553643
0.263264 0.218463 0.551537
0.397467 0.217655 0.533684
0.541253 0.214893 0.510582
0.683665 0.219959 0.505562
0.813855 0.225086 0.504021
0.924712 0.230625 0.507729
0 0.346792 0.516106
0.0262608 0.345724 0.515633
0.129183 0.343664 0.524254
0.260685 0.343221 0.541009
0.398688 0.350118 0.540093
0.551278 0.350958 0.516396
0.703532 0.370108 0.52221
0.848966 0.395346 0.542626
0.957702 0.405921 0.552941
0 0.480583 0.485801
0.0282139 0.482261 0.487465
0.131426 0.489281 0.494697
0.27538 0.510246 0.522118
0.436667 0.538125 0.559274
0.602686 0.54699 0.569757
0.733654 0.52961 0.548989
0.855192 0.528862 0.54815
0.959915 0.528832 0.547356
0 0.659937 0.518746
0.0600595 0.670954 0.530007
0.167269 0.671641 0.531121
0.293584 0.674891 0.528862
0.423377 0.688685 0.527077
0.561898 0.686641 0.534051
0.755108 0.651316 0.486458
0.938476 0.635081 0.467353
1 0.631235 0.483436
0 0.816175 0.531563
0.061677 0.813993 0.529244
0.163928 0.8103 0.525429
0.291676 0.813596 0.521202
0.414969 0.814542 0.515953
0.539513 0.809903 0.514397
0.682338 0.793973 0.522484
0.82565 0.781903 0.530114
1 0.76556 0.430808
0 0.938399 0.526024
0.0587625 0.935729 0.522133
0.156374 0.931624 0.516442
0.28336 0.929229 0.510384
0.403494 0.92491 0.503548
0.526574 0.919982 0.501335
0.666804 0.911269 0.511467
0.80914 0.902159 0.520104
0.942687 0.897917 0.52752
0 1 0.516396
0.0539712 1 0.511498
0.145968 1 0.504585
0.271687 1 0.49749
0.390799 1 0.490013
0.512474 1 0.487098
0.652247 1 0.499062
0.792889 1 0.509453
0.928191 1 0.516777
0.00866712 0.0214847 0.1888
0.0415351 0.0289769 0.31223
0.114839 0.0307469 0.42063
0.227222 0.024506 0.536782
0.376822 0.0135195 0.611521
0.546426 0.00357061 0.663249
0.707973 0 0.678553
0.839994 0 0.673732
0.939101 0 0.671168
0 0.105333 0.578882
0.0378882 0.105608 0.657725
0.145296 0.100816 0.694881
0.271489 0.0977188 0.698268
0.405615 0.0948806 0.676753
0.547524 0.0917067 0.667872
0.693294 0.0890059 0.66424
0.82948 0.0884718 0.6607
0.936324 0.0888075 0.659434
0 0.223194 0.694896
0.0280003 0.221225 0.692927
0.136065 0.218036 0.690059
0.261631 0.217136 0.687144
0.3953 0.219501 0.681224
0.537896 0.217823 0.658488
0.683864 0.220447 0.655085
0.822583 0.225315 0.653681
0.93904 0.234958 0.659052
0 0.345602 0.669291
0.0262303 0.344701 0.668788
0.129854 0.342962 0.676738
0.259831 0.341726 0.679942
0.391424 0.345373 0.680156
0.541588 0.354711 0.670054
0.707195 0.377951 0.678401
0.857328 0.403189 0.692576
0.968475 0.413748 0.698711
0 0.480049 0.636744
0.0297551 0.483742 0.640452
0.137499 0.493919 0.650752
0.289769 0.514458 0.685573
0.437217 0.523568 0.714092
0.578805 0.530251 0.715557
0.725155 0.529274 0.694453
0.854398 0.53756 0.687861
0.963394 0.540154 0.686763
0 0.663951 0.674388
0.0614786 0.672007 0.682597
0.169177 0.670588 0.680934
0.300175 0.667948 0.67805
0.426398 0.664057 0.677104
0.56614 0.668208 0.68716
0.722515 0.67013 0.691737
0.848737 0.657938 0.677653
0.959457 0.656291 0.675227
0 0.81445 0.681147
0.0614328 0.812009 0.678233
0.163973 0.807965 0.673671
0.297017 0.803082 0.668696
0.42295 0.798825 0.66276
0.551843 0.802457 0.657588
0.68719 0.799176 0.659709
0.871565 0.773037 0.615091
1 0.754391 0.589899
0 0.937179 0.674449
0.0581216 0.934173 0.669764
0.155749 0.929519 0.663478
0.289097 0.924102 0.657023
0.415717 0.920699 0.649729
0.53962 0.916945 0.641749
0.665141 0.912352 0.639658
0.805844 0.903075 0.650629
0.939696 0.895354 0.659297
0 1 0.663691
0.0531319 1 0.658137
0.144274 1 0.651011
0.277119 1 0.643778
0.403174 1 0.635294
0.525383 1 0.626825
0.650309 1 0.624308
0.78941 1 0.638697
0.925185 1 0.649699
0.00885023 0.0247959 0.272923
0.0438544 0.0300603 0.411582
0.121828 0.0298009 0.541314
0.239445 0.0210269 0.682322
0.389181 0.0099031 0.767819
0.553521 0.00125124 0.812329
0.705409 0 0.81799
0.840436 0 0.815808
0.941405 0 0.814313
0 0.105791 0.722133
0.0355535 0.103197 0.796628
0.144045 0.0992599 0.824704
0.270283 0.0966354 0.823713
0.404334 0.0941939 0.815335
0.546105 0.0911879 0.809949
0.69163 0.0888228 0.806699
0.830594 0.0872511 0.805936
0.939895 0.0872358 0.805768
0 0.222141 0.821118
0.0277256 0.220249 0.819547
0.134966 0.217044 0.817166
0.260777 0.216388 0.814862
0.394247 0.219348 0.812924
0.53669 0.221302 0.801541
0.683314 0.224414 0.799527
0.826001 0.229374 0.800565
0.946853 0.240696 0.808438
0 0.344854 0.808957
0.026215 0.344121 0.80853
0.129549 0.342473 0.809705
0.259632 0.341726 0.809979
0.393149 0.347189 0.812238
0.546136 0.365621 0.8177
0.714046 0.392966 0.827131
0.864042 0.413092 0.8383
0.975341 0.419959 0.841474
0 0.480262 0.790158
0.0316777 0.486351 0.795895
0.145586 0.500954 0.809308
0.300511 0.51928 0.835325
0.44065 0.525521 0.846235
0.574777 0.528817 0.845518
0.719066 0.536431 0.837064
0.856931 0.543389 0.832547
0.973053 0.548302 0.829908
0 0.667567 0.825818
0.0619516 0.672465 0.830427
0.170626 0.670253 0.828336
0.307057 0.667399 0.82594
0.437751 0.663386 0.825208
0.57174 0.658946 0.832868
0.707469 0.659083 0.831403
0.845457 0.660746 0.818235
0.963821 0.667567 0.813169
0 0.813321 0.828168
0.0611734 0.810742 0.825467
0.165087 0.806577 0.821317
0.303136 0.801663 0.816464
0.433845 0.795712 0.810407
0.56141 0.789364 0.805615
0.694041 0.787564 0.807401
0.835294 0.785245 0.806455
0.951736 0.777371 0.796948
0 0.936294 0.821591
0.0576333 0.933043 0.81706
0.155337 0.928084 0.811002
0.294392 0.92253 0.80444
0.425589 0.916121 0.796262
0.552789 0.909972 0.78764
0.677317 0.908019 0.780148
0.806714 0.904036 0.780011
0.977356 0.887343 0.738491
0 1 0.810956
0.0525826 1 0.805554
0.142794 1 0.798321
0.28188 1 0.790387
0.413428 1 0.780941
0.540764 1 0.771618
0.664561 1 0.764019
0.787686 1 0.763165
0.923354 1 0.776684
0.00839246 0.0272984 0.368261
0.0463417 0.0307164 0.524956
0.129274 0.0275273 0.681224
0.249958 0.0172732 0.822736
0.399619 0.00656138 0.89807
0.5579 0 0.925155
0.704021 0 0.925902
0.839506 0 0.925063
0.941131 0 0.924376
0 0.104646 0.857725
0.0334325 0.101869 0.911376
0.143496 0.0983291 0.926055
0.26949 0.0959182 0.925093
0.40351 0.0935531 0.924392
0.546181 0.0907607 0.923796
0.690837 0.088426 0.923247
0.829587 0.0870832 0.923125
0.940063 0.0871595 0.923308
0 0.221485 0.924269
0.0274662 0.219654 0.923491
0.134356 0.21648 0.92285
0.259831 0.216052 0.922576
0.394095 0.219348 0.922698
0.536309 0.22298 0.923033
0.68336 0.22649 0.923644
0.828595 0.233967 0.926207
0.950576 0.247456 0.9337
0 0.344518 0.922087
0.0262455 0.343984 0.922118
0.129564 0.342596 0.922408
0.259861 0.342184 0.923384
0.395636 0.349615 0.92726
0.553735 0.373938 0.938277
0.719173 0.402899 0.951614
0.86598 0.419638 0.957931
0.975692 0.423529 0.958724
0 0.481254 0.922118
0.0339055 0.489448 0.928542
0.15465 0.508446 0.943221
0.30547 0.52311 0.953597
0.441672 0.527291 0.958007
0.575601 0.529473 0.958236
0.718532 0.540429 0.958297
0.856168 0.550057 0.957961
0.974227 0.553887 0.957153
0 0.670954 0.955612
0.0618753 0.672267 0.957397
0.171237 0.670069 0.957549
0.31104 0.666987 0.957488
0.443732 0.662791 0.956252
0.573419 0.658045 0.95349
0.70489 0.659419 0.950851
0.842115 0.668574 0.946868
0.967437 0.674281 0.943664
0 0.814084 0.95697
0.0608225 0.81117 0.956207
0.164981 0.806073 0.955215
0.307515 0.800671 0.951202
0.441352 0.794278 0.945434
0.571313 0.787274 0.94049
0.698421 0.781353 0.938796
0.827405 0.780026 0.934813
0.952987 0.784314 0.927932
0 0.93547 0.95317
0.0571756 0.932021 0.950835
0.154177 0.926879 0.945678
0.298039 0.921218 0.939788
0.433021 0.91458 0.932754
0.563684 0.907485 0.925582
0.689372 0.901289 0.919097
0.814298 0.898405 0.91635
0.940658 0.89778 0.915618
0 1 0.945281
0.052018 1 0.940398
0.141634 1 0.933898
0.285039 1 0.927245
0.420996 1 0.919158
0.552789 1 0.911803
0.680491 1 0.904112
0.800992 1 0.899763
0.92369 1 0.901442
0.00733959 0.0290379 0.477943
0.0484016 0.0308537 0.644465
0.135561 0.024445 0.823117
0.258595 0.013489 0.935927
0.406958 0.00363165 0.995438
0.558648 0 1
0.70312 0 1
0.838788 0 1
0.940764 0 1
0 0.104173 0.962112
0.0316625 0.100664 1
0.142702 0.0974899 1
0.268894 0.0953689 1
0.40293 0.093019 1
0.545647 0.0904097 1
0.690364 0.0882124 1
0.829328 0.0870069 1
0.940047 0.0873274 1
0 0.220905 1
0.0272374 0.219196 1
0.133959 0.216098 1
0.259632 0.215839 1
0.394034 0.219318 1
0.536248 0.223011 1
0.683833 0.227054 1
0.831159 0.237018 1
0.955184 0.255131 1
0 0.344442 1
0.0263066 0.343999 1
0.129839 0.342855 1
0.261021 0.343343 1
0.399008 0.353109 1
0.56199 0.381964 1
0.723018 0.406897 1
0.866682 0.420645 1
0.97554 0.42356 1
0 0.483864 1
0.0375067 0.494942 1
0.161959 0.515633 1
0.308782 0.526406 1
0.441733 0.527352 1
0.575494 0.529381 1
0.718196 0.540139 1
0.855695 0.549676 1
0.973785 0.553399 1
0 0.673213 1
0.0619364 0.672358 1
0.171069 0.669947 1
0.310719 0.666712 1
0.443015 0.662089 1
0.572824 0.657389 1
0.703883 0.658839 1
0.841016 0.669276 1
0.966491 0.675044 1
0 0.813565 1
0.0605478 0.810575 1
0.164141 0.805371 1
0.306905 0.799863 1
0.441306 0.793286 1
0.572274 0.78616 1
0.697887 0.780148 1
0.825605 0.780545 1
0.951782 0.787839 1
0 0.934585 1
0.0567025 0.931136 1
0.152911 0.925887 1
0.297444 0.92018 1
0.434165 0.913344 1
0.566903 0.906279 1
0.695369 0.900008 1
0.817517 0.895766 1
0.938277 0.896391 1
0 1 1
0.0514534 1 1
0.14049 1 1
0.284031 1 1
0.422995 1 1
0.558526 1 1
0.688731 1 1
0.811215 1 1
0.930373 1 1
