70 CGC LUTs/Beginner to Hero tutorial LUT/Crash Course Orange Teal LUT.cube
#Created by: Denver Riddle
#Copyright: (C) Copyright Color Grading Central LLC
#LUT Size
LUT_3D_SIZE 5
0 0 0
0.0699779 0.0248112 0.0293431
0.297902 0.0327916 0.0400092
0.655543 0.016907 0.0270542
0.914199 0.00646983 0.0173648
0 0.256672 0.0170748
0.142 0.250355 0.0116732
0.508751 0.20708 0
0.869429 0.178439 0
1 0.176501 0
0 0.519966 0.00933852
0.122042 0.519539 0.0103914
0.38941 0.503655 0.0247959
0.712779 0.526589 0.0475013
1 0.502571 0
0 0.830533 0.0449989
0.160723 0.827893 0.0448463
0.407446 0.811719 0.0434424
0.692317 0.796597 0.0414282
0.965164 0.788678 0.040238
0 1 0.0402838
0.14902 1 0.0374304
0.387488 1 0.0340887
0.66424 1 0.0307469
0.940108 1 0.0275731
0.00419623 0.00807202 0.0210574
0.0961013 0.0289769 0.143587
0.341329 0.0268101 0.210391
0.687648 0.0110018 0.245884
0.913802 0.00610361 0.245838
0 0.239185 0.25716
0.1467 0.240391 0.262821
0.427604 0.223865 0.243259
0.689998 0.21709 0.23505
0.915602 0.219272 0.236728
0 0.516228 0.214405
0.125505 0.520806 0.217716
0.406226 0.537148 0.254856
0.800961 0.513771 0.178561
1 0.483894 0.121981
0 0.829755 0.257328
0.161517 0.826566 0.253849
0.404456 0.818723 0.257679
0.687556 0.792157 0.261967
0.961883 0.783963 0.264927
0 1 0.246448
0.147005 1 0.238437
0.383093 1 0.238071
0.658579 1 0.238148
0.935012 1 0.23447
0.0078584 0.0177615 0.117174
0.109331 0.0305943 0.317418
0.361898 0.017258 0.460853
0.703258 0.000808728 0.526192
0.929534 0.00102235 0.520287
0 0.224659 0.555917
0.137499 0.218921 0.553643
0.397467 0.217655 0.533684
0.683665 0.219959 0.505562
0.924712 0.230625 0.507729
0 0.480583 0.485801
0.131426 0.489281 0.494697
0.436667 0.538125 0.559274
0.733654 0.52961 0.548989
0.959915 0.528832 0.547356
0 0.816175 0.531563
0.163928 0.8103 0.525429
0.414969 0.814542 0.515953
0.682338 0.793973 0.522484
1 0.76556 0.430808
0 1 0.516396
0.145968 1 0.504585
0.390799 1 0.490013
0.652247 1 0.499062
0.928191 1 0.516777
0.00885023 0.0247959 0.272923
0.121828 0.0298009 0.541314
0.389181 0.0099031 0.767819
0.705409 0 0.81799
0.941405 0 0.814313
0 0.222141 0.821118
0.134966 0.217044 0.817166
0.394247 0.219348 0.812924
0.683314 0.224414 0.799527
0.946853 0.240696 0.808438
0 0.480262 0.790158
0.145586 0.500954 0.809308
0.44065 0.525521 0.846235
0.719066 0.536431 0.837064
0.973053 0.548302 0.829908
0 0.813321 0.828168
0.165087 0.806577 0.821317
0.433845 0.795712 0.810407
0.694041 0.787564 0.807401
0.951736 0.777371 0.796948
0 1 0.810956
0.142794 1 0.798321
0.413428 1 0.780941
0.664561 1 0.764019
0.923354 1 0.776684
0.00733959 0.0290379 0.477943
0.135561 0.024445 0.823117
0.406958 0.00363165 0.995438
0.70312 0 1
0.940764 0 1
0 0.220905 1
0.133959 0.216098 1
0.394034 0.219318 1
0.683833 0.227054 1
0.955184 0.255131 1
0 0.483864 1
0.161959 0.515633 1
0.441733 0.527352 1
0.718196 0.540139 1
0.973785 0.553399 1
0 0.813565 1
0.164141 0.805371 1
0.441306 0.793286 1
0.697887 0.780148 1
0.951782 0.787839 1
0 1 1
0.14049 1 1
0.422995 1 1
0.688731 1 1
0.930373 1 1
