70 CGC LUTs/Beginner to Hero tutorial LUT/Crash Course Orange Teal LUT.cube
#Created by: Denver Riddle
#Copyright: (C) Copyright Color Grading Central LLC
#LUT Size
LUT_3D_SIZE 33
0 0 0
0.000457771 0.000503548 0.000518807
0.00447089 0.00495918 0.00552377
0.0100099 0.00923171 0.0103609
0.0167391 0.0129549 0.0146334
0.0255436 0.0163272 0.0185397
0.0369879 0.0193637 0.0221561
0.0504463 0.0220645 0.0260319
0.0699779 0.0248112 0.0293431
0.0924544 0.0272374 0.0322576
0.117388 0.0291295 0.0345922
0.143145 0.0305638 0.0364691
0.17052 0.0315709 0.0377813
0.199222 0.0322728 0.0387274
0.229587 0.0328374 0.0395056
0.262104 0.0332189 0.040116
0.297902 0.0327916 0.0400092
0.337377 0.0317082 0.0391546
0.380713 0.0301518 0.0381018
0.424994 0.0282292 0.0366522
0.472129 0.026154 0.0350195
0.518044 0.0238651 0.0331273
0.564614 0.0215305 0.0311284
0.610269 0.0191806 0.0290684
0.655543 0.016907 0.0270542
0.700282 0.0148165 0.0251469
0.741817 0.0128481 0.0233616
0.778973 0.011017 0.0216526
0.814557 0.00947585 0.0202029
0.845365 0.00819409 0.0189975
0.8701 0.007187 0.0180667
0.892546 0.00674449 0.0176394
0.914199 0.00646983 0.0173648
0.00527962 0.0125734 0.011841
0.00958267 0.0170138 0.0159915
0.0164797 0.021088 0.0184024
0.0267185 0.0246281 0.0204166
0.0373083 0.0282292 0.0241398
0.0483558 0.0315557 0.027924
0.0651713 0.0346075 0.0310674
0.0847181 0.0373236 0.0336614
0.107225 0.0394598 0.0355535
0.131502 0.0411231 0.0369421
0.157214 0.042359 0.0378576
0.184024 0.0432136 0.0383917
0.212482 0.0439612 0.0387427
0.245869 0.0442969 0.0385901
0.281926 0.044007 0.0377813
0.319341 0.0432746 0.0364996
0.360006 0.0422522 0.0349584
0.40148 0.0409705 0.0331731
0.443976 0.0395209 0.0312505
0.486961 0.0380102 0.0292973
0.529686 0.0363775 0.0272526
0.572229 0.0347753 0.0252689
0.613367 0.0332341 0.0233921
0.654002 0.0317998 0.0216526
0.693675 0.0306096 0.0201877
0.730846 0.0296483 0.0189975
0.763668 0.028809 0.0180209
0.794064 0.0283207 0.0174105
0.822553 0.0281529 0.0171511
0.847959 0.0279545 0.0169223
0.870497 0.0277409 0.0167086
0.892134 0.027512 0.0164797
0.91371 0.0272068 0.0161746
0.00866712 0.0328985 0.0251164
0.0146487 0.0375982 0.0285801
0.0219577 0.0417029 0.0314031
0.031693 0.0452583 0.0336614
0.049485 0.0476539 0.027985
0.0780804 0.0491798 0.0246281
0.105714 0.0511025 0.0251011
0.131762 0.052903 0.0264439
0.156344 0.0548562 0.0283207
0.181567 0.0562905 0.0297398
0.208911 0.0571145 0.0303044
0.239048 0.0575113 0.0301823
0.272251 0.0577249 0.0296025
0.306401 0.0571298 0.0285344
0.342367 0.0561837 0.0271458
0.380133 0.0552224 0.0255741
0.418158 0.0540475 0.0238804
0.457191 0.0528267 0.0221408
0.495918 0.0517128 0.0205081
0.534386 0.0505684 0.0188907
0.572457 0.0495918 0.0174563
0.608988 0.0488289 0.0162509
0.644633 0.0482338 0.0153201
0.679301 0.0480354 0.0148775
0.711788 0.0479438 0.0146792
0.741756 0.0479896 0.0147097
0.769696 0.0479744 0.0146792
0.797726 0.0479591 0.0146487
0.825574 0.0479896 0.0146487
0.850996 0.0480049 0.0146639
0.873243 0.0478065 0.0144961
0.894621 0.0475776 0.0142977
0.91606 0.0473487 0.0140841
0.0080415 0.0598611 0.0343786
0.015671 0.0655528 0.0359503
0.0247044 0.070573 0.0370489
0.0353399 0.0749523 0.0377356
0.048661 0.078584 0.0380865
0.0699016 0.0811933 0.037644
0.112184 0.0799878 0.0235142
0.157565 0.0781872 0.0138857
0.197391 0.0755627 0.00962844
0.235782 0.0733349 0.00654612
0.273625 0.0721141 0.00462348
0.3093 0.0706035 0.00373846
0.343862 0.0694896 0.00354009
0.378012 0.0688945 0.00370794
0.411444 0.0682841 0.00392157
0.444923 0.0676738 0.00410468
0.478691 0.067216 0.0043183
0.511696 0.0666667 0.00445563
0.544503 0.0661936 0.004654
0.576852 0.0658579 0.00497444
0.607645 0.0656901 0.00552377
0.637263 0.0657511 0.00633249
0.66714 0.0660563 0.00733959
0.696971 0.0661936 0.00802625
0.726482 0.066331 0.00856031
0.754665 0.0664225 0.00891127
0.781308 0.0664988 0.00921645
0.808652 0.0666361 0.00952163
0.835645 0.0668498 0.00988785
0.859876 0.066865 0.0100557
0.880827 0.0667735 0.0101472
0.901808 0.0666819 0.0102235
0.922881 0.0665751 0.0102388
0.00366217 0.0951553 0.037995
0.0130312 0.100191 0.0383764
0.0234989 0.104738 0.0383764
0.0348974 0.109133 0.0377508
0.0498665 0.11249 0.0365759
0.0720226 0.114305 0.0349889
0.0975052 0.11487 0.0331426
0.132113 0.114366 0.0265049
0.194842 0.108156 0.00234989
0.253986 0.100145 0
0.302358 0.0958114 0
0.348562 0.0911727 0
0.392889 0.0880598 0
0.432975 0.0855573 0
0.470375 0.08365 0
0.504479 0.0826123 0
0.535576 0.0820783 0
0.564492 0.0820172 0
0.591669 0.0823682 0
0.618112 0.0828565 0
0.644587 0.08336 0
0.671794 0.0841382 0
0.699168 0.0847028 0
0.72636 0.0852216 0
0.752773 0.0857099 0
0.777722 0.0861067 0
0.803677 0.0867475 0
0.829511 0.0872053 0.000793469
0.853788 0.0875563 0.00172427
0.874754 0.0877852 0.00247196
0.894926 0.0879225 0.00311284
0.915251 0.0881208 0.00370794
0.935882 0.0884871 0.00440986
0 0.134157 0.0372625
0.00407416 0.139483 0.0359808
0.0155795 0.143954 0.0343328
0.0288853 0.147494 0.0324102
0.0440223 0.14992 0.0302586
0.0682078 0.150713 0.027985
0.0958724 0.150469 0.0256657
0.12697 0.149386 0.0233768
0.161105 0.148104 0.0213474
0.209796 0.143114 0.0078584
0.281788 0.131334 0
0.346777 0.122408 0
0.400519 0.116609 0
0.446876 0.112749 0
0.489998 0.109575 0
0.528817 0.10695 0
0.565377 0.104982 0
0.599466 0.103609 0
0.630579 0.102876 0
0.659663 0.102815 0
0.687831 0.103029 0
0.714931 0.103441 0
0.740719 0.104021 0
0.764782 0.104707 0
0.788434 0.10547 0
0.812558 0.106508 0
0.836469 0.107362 0
0.859342 0.108171 0
0.878218 0.108782 0
0.897185 0.109407 0
0.916335 0.109987 0
0.935866 0.110735 0
0.955428 0.111299 0
0 0.176349 0.0316167
0 0.180575 0.0294652
0.00477607 0.183566 0.0271611
0.020737 0.185519 0.0248417
0.0381018 0.186755 0.0225528
0.0608682 0.187182 0.0203708
0.0892805 0.186252 0.0183719
0.122225 0.184161 0.0166323
0.157015 0.18146 0.0151217
0.192065 0.178134 0.0141604
0.23032 0.173602 0.0120699
0.286961 0.165286 0
0.360204 0.155047 0
0.426703 0.147494 0
0.479835 0.142123 0
0.52575 0.138079 0
0.56939 0.134615 0
0.610483 0.131685 0
0.648508 0.129427 0
0.684535 0.127626 0
0.718624 0.126314 0
0.749264 0.125566 0
0.776471 0.125261 0
0.802319 0.125368 0
0.827558 0.126055 0
0.851133 0.126665 0
0.871412 0.127398 0
0.889723 0.128115 0
0.90779 0.128939 0
0.926146 0.130007 0
0.944472 0.130983 0
0.962921 0.131914 0
0.981537 0.132784 0
0 0.21709 0.0240177
0 0.219501 0.0217746
0 0.221241 0.0196384
0.0132296 0.222095 0.0176852
0.0327001 0.222202 0.0159762
0.054612 0.221897 0.0145724
0.0816815 0.220859 0.0135958
0.114565 0.218555 0.0129244
0.149981 0.215579 0.0125887
0.18439 0.211414 0.012314
0.219272 0.206195 0.0122683
0.25597 0.202167 0.0130007
0.297887 0.197192 0.00776684
0.358862 0.188922 0
0.434836 0.180285 0
0.500786 0.172992 0
0.55584 0.167895 0
0.603952 0.164645 0
0.647623 0.161028 0
0.689418 0.157885 0
0.728817 0.155276 0
0.764385 0.153185 0
0.797101 0.151751 0
0.828122 0.150713 0
0.856703 0.149996 0
0.879377 0.149584 0
0.899794 0.149538 0
0.919387 0.149844 0
0.938628 0.15053 0
0.957336 0.151293 0
0.975784 0.152163 0
0.994141 0.15314 0
1 0.154192 0
0 0.256672 0.0170748
0 0.257649 0.0154574
0 0.258091 0.0141451
0.00859083 0.257862 0.0131991
0.0299687 0.25716 0.0128481
0.0522164 0.256062 0.0125429
0.0780499 0.254627 0.0122377
0.108812 0.25275 0.0119478
0.142 0.250355 0.0116732
0.176501 0.24622 0.0114443
0.210544 0.240742 0.0113375
0.245701 0.234943 0.0112764
0.282017 0.23061 0.0117189
0.318364 0.226398 0.0120851
0.365225 0.22092 0.00199893
0.432395 0.214054 0
0.508751 0.20708 0
0.575738 0.200397 0
0.631708 0.195148 0
0.680003 0.190921 0
0.724498 0.187625 0
0.765164 0.184787 0
0.802548 0.1823 0
0.837949 0.180209 0
0.869429 0.178439 0
0.895155 0.176944 0
0.918776 0.175814 0
0.941894 0.175235 0
0.963607 0.174884 0
0.984497 0.174868 0
1 0.175097 0
1 0.175586 0
1 0.176501 0
0 0.291966 0.0130159
0 0.291585 0.0126192
0 0.291096 0.0123293
0.00758373 0.290715 0.012192
0.0290532 0.289631 0.011902
0.0508736 0.288563 0.0116426
0.0755932 0.287144 0.011368
0.105425 0.285451 0.0111086
0.136584 0.283986 0.0108797
0.16939 0.28101 0.0107881
0.202853 0.275395 0.0105592
0.236698 0.268925 0.0103761
0.271717 0.263203 0.0103151
0.308003 0.258564 0.0106966
0.34403 0.25478 0.0119631
0.382681 0.251286 0.0099794
0.436027 0.247135 0
0.508949 0.241932 0
0.583993 0.234836 0
0.650278 0.228321 0
0.706325 0.223209 0
0.755291 0.219074 0
0.796796 0.215686 0
0.836103 0.212833 0
0.871794 0.210285 0
0.901091 0.208026 0
0.928008 0.206088 0
0.953826 0.204364 0
0.978698 0.203067 0
1 0.202029 0
1 0.201297 0
1 0.20116 0
1 0.201419 0
0 0.324025 0.0119783
0 0.323842 0.011841
0 0.323461 0.0115969
0.00674449 0.322911 0.0113375
0.0282292 0.321996 0.0110781
0.0497749 0.321065 0.0108186
0.0734112 0.319875 0.0105898
0.102968 0.318456 0.010544
0.133394 0.317266 0.0103304
0.163912 0.314916 0.0101167
0.196063 0.310323 0.00993362
0.229358 0.303532 0.00976577
0.263539 0.296849 0.0096437
0.298466 0.291234 0.00979629
0.334585 0.287053 0.010132
0.370977 0.28333 0.0111696
0.407431 0.280293 0.0124666
0.452216 0.278538 0.00682078
0.513558 0.275715 0
0.58526 0.270558 0
0.659266 0.263874 0
0.723934 0.257633 0
0.779232 0.252552 0
0.824948 0.248463 0
0.866423 0.245228 0
0.899702 0.242435 0
0.929137 0.239673 0
0.957763 0.237247 0
0.985397 0.235157 0
1 0.233539 0
1 0.233082 0
1 0.233173 0
1 0.233829 0
0 0.355657 0.0112459
0 0.355322 0.0110323
0 0.354955 0.0107881
0.0059968 0.354513 0.0105592
0.0275273 0.353674 0.0103609
0.049073 0.352865 0.0101472
0.0720684 0.352193 0.0101015
0.0995651 0.351186 0.00993362
0.129412 0.350057 0.00976577
0.159991 0.348257 0.00962844
0.1906 0.344594 0.00949111
0.222446 0.338155 0.00935378
0.256504 0.331579 0.00943008
0.290181 0.325063 0.00936904
0.325032 0.319966 0.00941482
0.361929 0.315816 0.00978103
0.399176 0.312032 0.0108339
0.436042 0.310826 0.0123903
0.476112 0.310445 0.0122835
0.526604 0.309209 0.00315862
0.588678 0.305898 0
0.661372 0.300298 0
0.732906 0.294011 0
0.795254 0.288441 0
0.847578 0.283558 0
0.8916 0.279622 0
0.92491 0.276509 0
0.956588 0.274525 0
0.987686 0.273335 0
1 0.272618 0
1 0.272175 0
1 0.272984 0
1 0.275196 0
0 0.388617 0.010544
0 0.388312 0.0103304
0 0.387961 0.010132
0.00537118 0.387518 0.00993362
0.0270695 0.386831 0.00987259
0.0487221 0.386038 0.00978103
0.0711986 0.385214 0.00962844
0.0973068 0.38436 0.00949111
0.125826 0.38349 0.0093843
0.156115 0.382086 0.00929274
0.186435 0.378988 0.00936904
0.217319 0.373388 0.00933852
0.25008 0.36669 0.00929274
0.283482 0.360143 0.00926223
0.316976 0.354131 0.00929274
0.352468 0.348562 0.00943008
0.390448 0.345205 0.0100252
0.427146 0.342992 0.0109102
0.463935 0.342489 0.012192
0.503532 0.342489 0.0139162
0.545769 0.342214 0.0111086
0.598306 0.34078 0
0.663157 0.337377 0
0.736217 0.333181 0
0.805844 0.32842 0
0.866789 0.3243 0
0.913542 0.320974 0
0.951797 0.318791 0
0.988235 0.318685 0
1 0.319814 0
1 0.322011 0
1 0.324422 0
1 0.326543 0
0 0.421378 0.00991836
0 0.421134 0.00975052
0 0.42089 0.00961318
0.00503548 0.420737 0.00956741
0.0267185 0.420111 0.00950637
0.0483558 0.419409 0.00939956
0.070634 0.418738 0.00932326
0.0958419 0.418112 0.00926223
0.123873 0.417517 0.00920119
0.153262 0.41677 0.00929274
0.182757 0.41416 0.00932326
0.21326 0.409003 0.00935378
0.244968 0.402335 0.00939956
0.277211 0.396368 0.00944533
0.310597 0.390326 0.00952163
0.344778 0.384466 0.00982681
0.380713 0.379263 0.010071
0.417685 0.377172 0.0104524
0.454047 0.376913 0.0112001
0.492485 0.37705 0.0126345
0.53167 0.378134 0.0149386
0.57174 0.379614 0.016846
0.617761 0.380728 0.0121614
0.674647 0.380774 0
0.745281 0.379782 0
0.817456 0.378439 0
0.888747 0.377951 0
0.940124 0.377203 0
0.984695 0.376974 0
1 0.376547 0
1 0.375677 0
1 0.374517 0
1 0.373785 0
0 0.453666 0.00947585
0 0.453468 0.00935378
0 0.453574 0.00943008
0.00483711 0.453361 0.00935378
0.0265202 0.452827 0.00929274
0.0482338 0.452262 0.00924697
0.0703136 0.451743 0.00921645
0.0948196 0.451392 0.009308
0.122988 0.451057 0.00943008
0.151781 0.450568 0.00947585
0.180499 0.449104 0.00953689
0.210727 0.444877 0.00961318
0.241901 0.438636 0.00975052
0.273442 0.432532 0.0100252
0.305806 0.426642 0.0102693
0.33994 0.420645 0.010544
0.374853 0.41532 0.0111238
0.410742 0.412818 0.0121462
0.448859 0.41352 0.01355
0.4878 0.415305 0.0155032
0.526711 0.417304 0.0179141
0.567788 0.420401 0.0213474
0.610071 0.424857 0.0258183
0.654337 0.430182 0.0280613
0.708492 0.435523 0.0230106
0.772671 0.439246 0.00921645
0.840192 0.439063 0
0.909575 0.437491 0
0.961105 0.433326 0
1 0.429084 0
1 0.425055 0
1 0.421347 0
1 0.417182 0
0 0.486366 0.00926223
0 0.486488 0.00933852
0 0.486442 0.00929274
0.00476081 0.486275 0.00927749
0.0265354 0.485847 0.00929274
0.0483253 0.485374 0.00933852
0.0703441 0.485084 0.00944533
0.0941329 0.484855 0.00962844
0.122271 0.484535 0.00972
0.150958 0.48426 0.00987259
0.179706 0.483635 0.0100404
0.209812 0.481163 0.0102235
0.241367 0.476829 0.0106966
0.27335 0.471595 0.01149
0.306447 0.466087 0.012604
0.341833 0.46038 0.0139467
0.377508 0.455619 0.0153964
0.414878 0.454246 0.0172427
0.455299 0.457511 0.0201724
0.496712 0.462119 0.0236667
0.53875 0.467384 0.0277714
0.582834 0.472801 0.0322576
0.625711 0.477668 0.0366064
0.666835 0.48188 0.0406348
0.707485 0.484993 0.0437476
0.752865 0.487419 0.0415656
0.803525 0.488609 0.0315709
0.860822 0.487709 0.0125734
0.923659 0.484306 0
0.971222 0.478355 0
1 0.471321 0
1 0.464515 0
1 0.458289 0
0 0.519966 0.00933852
0 0.520043 0.00936904
0 0.520088 0.00941482
0.00497444 0.520104 0.00946059
0.0268101 0.519844 0.00953689
0.0488594 0.519844 0.00984207
0.0707713 0.519677 0.00999466
0.0941634 0.519554 0.0101625
0.122042 0.519539 0.0103914
0.151019 0.51989 0.0108492
0.18085 0.520531 0.01178
0.212329 0.520623 0.0131533
0.245106 0.519326 0.0145266
0.278218 0.516121 0.0160678
0.313069 0.511543 0.0181582
0.350393 0.506783 0.0210574
0.38941 0.503655 0.0247959
0.430808 0.506218 0.028809
0.471992 0.510964 0.0325322
0.512703 0.514763 0.0357214
0.553063 0.517937 0.0382239
0.594324 0.520455 0.0404364
0.634501 0.523033 0.0428779
0.674189 0.525185 0.0453498
0.712779 0.526589 0.0475013
0.7514 0.527535 0.0493172
0.788983 0.528023 0.049073
0.829847 0.527153 0.0424811
0.877913 0.525414 0.0285039
0.931334 0.52224 0.00610361
0.976471 0.516793 0
1 0.509911 0
1 0.502571 0
0 0.552834 0.00955215
0 0.552972 0.0096437
0 0.55314 0.00976577
0.00546273 0.553292 0.00993362
0.0275731 0.553429 0.0102998
0.0496223 0.553399 0.0105898
0.0719768 0.553857 0.0111849
0.0963302 0.55491 0.0122072
0.12491 0.556435 0.0135042
0.155108 0.558648 0.0149538
0.186252 0.560967 0.0168307
0.219242 0.562875 0.0192264
0.254444 0.564675 0.0224155
0.290623 0.566491 0.026154
0.328359 0.56434 0.029984
0.366964 0.559945 0.0336309
0.405844 0.556161 0.0366827
0.443992 0.555856 0.0388342
0.482734 0.557214 0.0406195
0.520897 0.558953 0.042298
0.559503 0.560403 0.0437018
0.599496 0.561547 0.044892
0.637552 0.56173 0.0455634
0.674632 0.561669 0.0462196
0.711589 0.561639 0.0470741
0.749798 0.561578 0.0482185
0.786084 0.562097 0.0494087
0.820569 0.562127 0.0504768
0.856535 0.561273 0.0477607
0.898573 0.559915 0.0387121
0.943328 0.557702 0.0217746
0.98349 0.553506 0
1 0.547707 0
0 0.586496 0.0100557
0 0.58677 0.0102541
0 0.587366 0.0106355
0.00714122 0.588678 0.0115816
0.0300298 0.589929 0.012726
0.0531472 0.591531 0.0140841
0.0763409 0.593332 0.0155489
0.102052 0.595743 0.0174411
0.132494 0.599878 0.0204013
0.165621 0.604776 0.0238499
0.199039 0.610117 0.0276646
0.234501 0.614847 0.0314336
0.270069 0.617502 0.0347601
0.305165 0.617365 0.0373999
0.340734 0.613367 0.0395819
0.376928 0.60618 0.0412757
0.413581 0.600732 0.0428473
0.450126 0.599496 0.0440528
0.487617 0.598779 0.0447089
0.523445 0.598367 0.0449989
0.559792 0.597986 0.0451972
0.597803 0.597467 0.0452735
0.63563 0.596887 0.0453956
0.672587 0.596613 0.0456855
0.709468 0.596353 0.0461738
0.747646 0.59617 0.0470588
0.784146 0.596246 0.0480201
0.819196 0.596109 0.0489357
0.852064 0.595666 0.0497902
0.885756 0.595056 0.0497902
0.922927 0.594293 0.0446784
0.959182 0.592767 0.0327611
0.993851 0.5897 0.0127565
0 0.622187 0.0118257
0 0.624308 0.0132601
0 0.626459 0.0146792
0.0118105 0.628641 0.0162356
0.0357214 0.631449 0.0184024
0.0604562 0.635508 0.0213931
0.085832 0.640482 0.0250095
0.114778 0.646296 0.0291752
0.147463 0.65153 0.0328222
0.180087 0.655802 0.0358892
0.212161 0.65922 0.0382391
0.245212 0.661677 0.0400702
0.278523 0.662486 0.0417334
0.312352 0.661189 0.0434272
0.34641 0.655146 0.044419
0.380972 0.646754 0.0448768
0.415625 0.639429 0.0449836
0.450126 0.636362 0.0450141
0.486625 0.634943 0.0450752
0.52256 0.634241 0.0452125
0.558373 0.633478 0.0451972
0.596063 0.632746 0.045182
0.633463 0.631998 0.0451667
0.670085 0.631342 0.045182
0.70724 0.631052 0.0455482
0.74493 0.630503 0.0459907
0.781659 0.630076 0.0466011
0.817136 0.629755 0.047303
0.850278 0.629419 0.0479744
0.883482 0.629114 0.0487831
0.915877 0.628931 0.0495766
0.948714 0.628412 0.0476844
0.976318 0.627207 0.0393225
0 0.662654 0.016968
0 0.666331 0.0194858
0 0.671061 0.0227665
0.0221103 0.676219 0.0265202
0.0476844 0.68127 0.0303349
0.0729381 0.685832 0.0338293
0.0984207 0.689998 0.0369268
0.126421 0.693217 0.0390326
0.157046 0.695567 0.0407568
0.187472 0.697688 0.0423743
0.21857 0.699397 0.0437018
0.250599 0.700359 0.0447089
0.282078 0.700114 0.0449989
0.313542 0.697826 0.0450599
0.346258 0.691081 0.0450904
0.380041 0.682567 0.0450904
0.414191 0.674479 0.0450752
0.448951 0.671183 0.045182
0.485008 0.669627 0.0451209
0.520897 0.668559 0.0450446
0.556909 0.667216 0.0449836
0.594263 0.666285 0.0449073
0.631083 0.665415 0.0448157
0.667567 0.664851 0.0448615
0.704356 0.66421 0.044831
0.741756 0.663691 0.0449683
0.778836 0.663386 0.045304
0.814389 0.662898 0.0457618
0.848035 0.662257 0.0462959
0.881361 0.66183 0.0469978
0.913787 0.661372 0.0475776
0.945724 0.660945 0.0481727
0.970504 0.66038 0.0477302
0 0.710918 0.0280461
0 0.716442 0.0317845
0.00891127 0.721126 0.03505
0.0332036 0.724468 0.037583
0.0570535 0.727138 0.0396887
0.0805676 0.729229 0.0414435
0.104402 0.73106 0.0429847
0.132372 0.732601 0.0441444
0.161608 0.733104 0.0447395
0.190112 0.733501 0.0449226
0.219699 0.733349 0.0451057
0.250492 0.73286 0.0451514
0.281514 0.732326 0.0451514
0.312734 0.731167 0.0451209
0.34522 0.725872 0.0450446
0.378775 0.7178 0.0449836
0.412528 0.709484 0.0450752
0.447303 0.705516 0.0449683
0.483101 0.704082 0.0448463
0.518929 0.702983 0.0446937
0.554635 0.700984 0.0445411
0.591653 0.699779 0.044419
0.628748 0.698985 0.0444343
0.66482 0.698054 0.0442664
0.701427 0.697215 0.0440986
0.738445 0.696651 0.044007
0.775692 0.696361 0.0440833
0.811612 0.69604 0.0444648
0.845563 0.694972 0.0447852
0.878737 0.694057 0.0451667
0.911345 0.693416 0.0456092
0.943404 0.692836 0.0460822
0.969665 0.69221 0.0461891
0 0.758694 0.0384375
0 0.761334 0.0402228
0.0157626 0.763455 0.041886
0.0390936 0.765286 0.0434577
0.0618753 0.766308 0.0444953
0.0840467 0.766476 0.0449073
0.106172 0.766186 0.0449989
0.133135 0.766278 0.0450294
0.161532 0.765942 0.0450446
0.190066 0.765972 0.0451972
0.219211 0.765515 0.0451514
0.249805 0.764874 0.0450904
0.280705 0.764233 0.0450141
0.311742 0.763012 0.0449378
0.344274 0.759197 0.0449531
0.377615 0.752834 0.0448463
0.410697 0.744457 0.0446937
0.445411 0.740215 0.0445411
0.481041 0.738354 0.0443732
0.516854 0.737087 0.0441749
0.552575 0.735271 0.0441138
0.589319 0.733806 0.0439155
0.626123 0.73257 0.0437171
0.662074 0.731487 0.0435187
0.698436 0.73048 0.0432898
0.735042 0.729534 0.043061
0.772564 0.728893 0.0430915
0.808454 0.728099 0.0431067
0.842695 0.727291 0.0432136
0.875853 0.726543 0.0433967
0.908583 0.725826 0.0436561
0.940795 0.725078 0.044007
0.968719 0.724453 0.0442512
0 0.798398 0.0438087
0 0.799573 0.0446326
0.0189212 0.799786 0.0450141
0.0407263 0.799451 0.0450752
0.062501 0.799054 0.0450904
0.0842603 0.798657 0.0451057
0.10605 0.798184 0.0450752
0.132982 0.798215 0.0451057
0.161318 0.797833 0.0451209
0.189578 0.797772 0.0450446
0.218509 0.797314 0.0449531
0.248981 0.796674 0.044831
0.279744 0.795911 0.0446784
0.310796 0.794659 0.0446479
0.343038 0.791135 0.0445411
0.376135 0.78616 0.044358
0.409171 0.779034 0.0441596
0.443244 0.774807 0.0439307
0.478859 0.772457 0.0437018
0.514855 0.77116 0.0436103
0.550256 0.769451 0.0433814
0.586664 0.767788 0.0431067
0.623423 0.766079 0.0428473
0.659251 0.764767 0.0426032
0.695338 0.763561 0.0423438
0.731914 0.762768 0.0422522
0.769177 0.761746 0.0419776
0.805127 0.7608 0.0417792
0.83949 0.759899 0.0417029
0.872709 0.758953 0.0417182
0.905837 0.758236 0.0419928
0.938109 0.757336 0.0421607
0.967147 0.75639 0.0422217
0 0.830533 0.0449989
0 0.830762 0.0451667
0.0190738 0.830442 0.0451514
0.0407874 0.829953 0.0451057
0.0624704 0.829496 0.0450446
0.0841535 0.828977 0.0449836
0.105898 0.828519 0.0449683
0.132631 0.828428 0.0449683
0.160723 0.827893 0.0448463
0.188907 0.827619 0.0446937
0.217624 0.827146 0.0445411
0.247868 0.826444 0.0443732
0.278843 0.825864 0.0443427
0.309621 0.82504 0.0441291
0.341604 0.821775 0.0439155
0.374502 0.817334 0.0436866
0.407446 0.811719 0.0434424
0.44126 0.808179 0.0432746
0.476783 0.805814 0.043061
0.512596 0.80412 0.0427863
0.547768 0.802701 0.0424811
0.583917 0.801175 0.0421912
0.620584 0.799146 0.0418708
0.656321 0.797803 0.0416876
0.692317 0.796597 0.0414282
0.72842 0.795499 0.0411383
0.765621 0.794461 0.0408331
0.801587 0.793439 0.0405127
0.835721 0.792477 0.0402533
0.869444 0.791699 0.040238
0.902647 0.790722 0.0402075
0.935042 0.7897 0.0402228
0.965164 0.788678 0.040238
0 0.86041 0.0451514
0 0.860319 0.0450904
0.0189517 0.859937 0.0450141
0.0406043 0.859403 0.0449226
0.0622721 0.858869 0.044831
0.0840314 0.858457 0.0448463
0.105623 0.857816 0.0446937
0.13196 0.857221 0.0445411
0.159915 0.85658 0.044358
0.188037 0.856138 0.0441596
0.216648 0.855634 0.0439918
0.246632 0.85507 0.0438849
0.277409 0.854307 0.0436561
0.307897 0.853483 0.0434119
0.33991 0.851148 0.0431373
0.372686 0.847364 0.0428626
0.405661 0.842481 0.042649
0.439231 0.839353 0.0424353
0.474327 0.837308 0.0421302
0.510063 0.835508 0.0418097
0.545174 0.834028 0.0414588
0.580972 0.832578 0.0411231
0.61767 0.830869 0.0408942
0.653132 0.829206 0.0406043
0.688746 0.827924 0.0402686
0.724926 0.82678 0.0399329
0.761883 0.825727 0.0395972
0.798077 0.824674 0.0392462
0.832532 0.82388 0.0390631
0.865934 0.822843 0.0387579
0.899214 0.821866 0.0385443
0.931853 0.820859 0.0384375
0.962768 0.819806 0.0383612
0 0.889052 0.0449531
0 0.888869 0.0448157
0.018616 0.88838 0.0446784
0.0402228 0.8878 0.0445258
0.0619669 0.887388 0.0445258
0.0835431 0.886732 0.0443427
0.105089 0.886046 0.0441444
0.13109 0.885359 0.0439155
0.158831 0.884657 0.0436866
0.186954 0.884001 0.0434882
0.215564 0.883406 0.0433661
0.245106 0.882551 0.0430915
0.275654 0.881621 0.0428016
0.30573 0.880659 0.0425116
0.337835 0.87953 0.0422217
0.370809 0.877119 0.0420691
0.403632 0.872801 0.0417334
0.436835 0.8692 0.0413977
0.471626 0.867231 0.041062
0.507301 0.865614 0.0407111
0.542504 0.864164 0.0404059
0.578073 0.862867 0.0401312
0.614496 0.861112 0.0397498
0.649989 0.859327 0.0393683
0.685344 0.857893 0.0390021
0.721279 0.856733 0.0386511
0.758099 0.855787 0.0383764
0.794461 0.854795 0.0380713
0.828916 0.853803 0.0376898
0.861921 0.852781 0.0373083
0.895186 0.851774 0.0369879
0.928435 0.850721 0.036759
0.960235 0.849867 0.0367132
0 0.917037 0.0445258
0 0.916808 0.044358
0.0182803 0.916442 0.0443275
0.039826 0.91577 0.0441138
0.0613413 0.915068 0.0438849
0.0828717 0.914351 0.0436713
0.104372 0.913634 0.0434272
0.129992 0.912825 0.0431678
0.157763 0.912245 0.0430457
