public/luts/creative_looks/3Strip.cube
#Created by: Denver Riddle
#Copyright: (C) Copyright Color Grading Central LLC
#LUT Size
LUT_3D_SIZE 33
0 0 0
0 0 0
0.0225528 0.000762951 0.000503548
0.0700999 0.00234989 0.00155642
0.121523 0.00407416 0.00268559
0.16553 0.00555428 0.00366217
0.204654 0.00686656 0.00451667
0.246448 0.00825513 0.00544747
0.286427 0.00959792 0.00633249
0.32488 0.0108949 0.007187
0.360586 0.0120851 0.00796521
0.403677 0.0135348 0.00892653
0.440314 0.0147555 0.00973526
0.477272 0.0159915 0.010544
0.517845 0.0173648 0.0114443
0.551629 0.0184939 0.012192
0.588754 0.0197299 0.0130159
0.625544 0.0209659 0.0138247
0.66099 0.0221561 0.0146181
0.694438 0.02327 0.0153506
0.73019 0.0244755 0.016144
0.764981 0.0256352 0.016907
0.797848 0.0267491 0.0176394
0.823529 0.0276036 0.018204
0.845533 0.028336 0.0186923
0.86891 0.0291295 0.0192111
0.889082 0.0298009 0.0196536
0.892638 0.0299229 0.0197299
0.892638 0.0299229 0.0197299
0.892638 0.0299229 0.0197299
0.892638 0.0299229 0.0197299
0.892638 0.0299229 0.0197299
0.892638 0.0299229 0.0197299
0 0 0
0 0 0
0.0166781 0.000564584 0.000366217
0.0633097 0.002121 0.00140383
0.115175 0.00386053 0.00254826
0.159243 0.00534066 0.00352483
0.199619 0.00668345 0.00440986
0.240452 0.00805676 0.00531014
0.28101 0.00941482 0.00621042
0.31986 0.0107271 0.00706493
0.35555 0.0119173 0.0078584
0.397665 0.0133364 0.0087892
0.435309 0.0145876 0.00962844
0.47245 0.0158389 0.0104372
0.512306 0.0171664 0.0113222
0.546609 0.0183261 0.0120851
0.583612 0.0195621 0.0129091
0.620386 0.020798 0.0137179
0.656596 0.0220035 0.0145113
0.689525 0.0231174 0.0152438
0.725048 0.0243076 0.016022
0.759838 0.0254673 0.0168002
0.793439 0.0265965 0.0175479
0.820325 0.0274968 0.0181277
0.841749 0.0282139 0.0186007
0.865232 0.0290074 0.0191348
0.885878 0.0296941 0.0195773
0.892638 0.0299229 0.0197299
0.892638 0.0299229 0.0197299
0.892638 0.0299229 0.0197299
0.892638 0.0299229 0.0197299
0.892638 0.0299229 0.0197299
0.892638 0.0299229 0.0197299
3.0518e-05 0.0154726 0
1.5259e-05 0.0133211 0
0.0107424 0.0106966 1.5259e-05
0.0555581 0.009308 0.00205997
0.106584 0.00903334 0.00317388
0.152255 0.00854505 0.0041352
0.194614 0.00798047 0.00500496
0.233616 0.00782788 0.00515755
0.274739 0.00921645 0.00607309
0.314382 0.010544 0.00694286
0.350072 0.0117342 0.00773632
0.390692 0.0130922 0.00863661
0.429953 0.0144045 0.00950637
0.466865 0.0156558 0.0103151
0.506157 0.016968 0.0111849
0.541207 0.018143 0.0119631
0.578027 0.019379 0.0127718
0.614908 0.0206149 0.0135958
0.651514 0.0218357 0.0144045
0.684047 0.0229343 0.0151217
0.719478 0.0241093 0.0158999
0.754253 0.0252842 0.0166781
0.788205 0.0264134 0.0174258
0.817044 0.0273899 0.0180667
0.837705 0.0280766 0.0185245
0.861143 0.0288701 0.0190433
0.88246 0.029572 0.019501
0.892638 0.0299229 0.0197299
0.892638 0.0299229 0.0197299
0.892638 0.0299229 0.0197299
0.892638 0.0299229 0.0197299
0.892638 0.0299229 0.0197299
0.892638 0.0299229 0.0197299
9.15541e-05 0.0616312 0
9.15541e-05 0.059266 0
0.00326543 0.0562142 0
0.0479896 0.0491493 4.57771e-05
0.0969711 0.0460517 0.00375372
0.144076 0.0460365 0.00648508
0.189441 0.0414588 0.00770581
0.230213 0.0370947 0.00839246
0.269871 0.0365148 0.00926223
0.308492 0.0361639 0.0101015
0.347478 0.0323644 0.0106355
0.386755 0.0321813 0.0114748
0.426947 0.0319219 0.0123293
0.463691 0.0313878 0.0130922
0.502129 0.0308995 0.0138857
0.538415 0.0303349 0.0146334
0.574609 0.0299382 0.0153811
0.611353 0.0294957 0.0161288
0.647608 0.029099 0.0168917
0.681025 0.0287022 0.0175784
0.715343 0.0284276 0.0182956
0.750088 0.0283513 0.0190433
0.784161 0.0286259 0.0196994
0.813596 0.0288701 0.0196078
0.834195 0.0290532 0.0195468
0.85742 0.0295415 0.0197604
0.879393 0.0300603 0.0200351
0.892851 0.0303655 0.0201724
0.892851 0.0303655 0.0201724
0.892851 0.0303655 0.0201724
0.892821 0.0302892 0.0201114
0.892821 0.0302892 0.0201114
0.892821 0.0302892 0.0201114
0.000167849 0.109987 0
0.000167849 0.107622 0
0.000167849 0.105104 0
0.0402838 0.0978561 0
0.0850538 0.0893111 6.10361e-05
0.137545 0.0860609 0.00282292
0.182712 0.0814221 0.00755322
0.224369 0.07187 0.0101167
0.266346 0.0665141 0.0113222
0.304006 0.0658122 0.012314
0.342351 0.0616007 0.0129854
0.383093 0.0572213 0.013611
0.424582 0.0569314 0.0145418
0.46128 0.0564889 0.0153201
0.498863 0.0559701 0.0161135
0.536721 0.0556344 0.0169375
0.572076 0.0551461 0.0176699
0.608789 0.0545968 0.0184329
0.645045 0.0542 0.0191958
0.680873 0.0538949 0.0199588
0.71284 0.0535439 0.0206302
0.747707 0.0537118 0.0214084
0.781567 0.0537881 0.0221561
0.81207 0.0539864 0.0228428
0.834104 0.0540932 0.023331
0.85687 0.0544137 0.0238651
0.879759 0.0550698 0.0244297
0.896513 0.0555428 0.0248417
0.896498 0.0554513 0.0248264
0.896498 0.0553597 0.0248264
0.896498 0.0553597 0.0248264
0.896498 0.0553597 0.0248264
0.896513 0.0556344 0.0248264
0.000244144 0.158282 0
0.000244144 0.155932 0
0.000228885 0.153582 0
0.0341802 0.14728 0
0.0755779 0.139315 0
0.124025 0.131395 9.15541e-05
0.173358 0.125551 0.00190738
0.218479 0.115618 0.00709544
0.262577 0.102907 0.0116884
0.301762 0.0984054 0.0136263
0.340825 0.0948501 0.0149538
0.380636 0.0895705 0.0158694
0.423056 0.0857099 0.0167391
0.459831 0.0851148 0.0176242
0.496727 0.0844282 0.0184634
0.535698 0.0838026 0.0193332
0.570153 0.0829023 0.0200656
0.60679 0.0822003 0.0208286
0.642985 0.0815747 0.0216068
0.678965 0.081239 0.022385
0.711452 0.0807813 0.0230716
0.745556 0.0804761 0.0238193
0.779477 0.0803693 0.024567
0.809949 0.0804608 0.0252384
0.83357 0.0806439 0.0257725
0.856306 0.0810864 0.0263218
0.879179 0.0816358 0.0268864
0.898375 0.082063 0.0273289
0.899611 0.0821088 0.0273594
0.899611 0.0821088 0.0273594
0.899611 0.0821088 0.0273594
0.899641 0.0823072 0.0273899
0.899641 0.082414 0.0274052
0.00030518 0.19971 0
0.00030518 0.198062 0
0.00030518 0.19585 0
0.0230716 0.19292 0
0.0628214 0.183612 0
0.111528 0.175021 0
0.156237 0.165621 0.000122072
0.203983 0.153903 0.00178531
0.253147 0.140871 0.00735485
0.295155 0.131334 0.0122225
0.334524 0.124544 0.0150607
0.373938 0.119051 0.0168307
0.418097 0.114702 0.018265
0.458442 0.11397 0.0194705
0.495644 0.113603 0.0204929
0.532006 0.109316 0.0211795
0.568536 0.108904 0.0220645
0.605127 0.108476 0.0229191
0.641932 0.110979 0.0240024
0.677714 0.110536 0.0248264
0.710689 0.110109 0.0255589
0.744213 0.109804 0.0263066
0.778088 0.109804 0.0271
0.808667 0.109895 0.0278019
0.832792 0.110292 0.0283818
0.856214 0.110658 0.0289464
0.879088 0.111223 0.0295109
0.899001 0.111772 0.0300145
0.903304 0.111925 0.0301213
0.903319 0.112123 0.0301366
0.903334 0.11223 0.0301518
0.903349 0.112322 0.0301518
0.90338 0.112535 0.0301671
0.000366217 0.239445 0
0.000366217 0.237491 0
0.000366217 0.235416 0
0.0122835 0.233341 0
0.0452735 0.227146 0
0.0932021 0.219913 0
0.136904 0.210071 0
0.177493 0.192432 0.000122072
0.228473 0.178836 0.00158694
0.276493 0.167498 0.00631724
0.319753 0.156527 0.0118715
0.359838 0.14844 0.0156863
0.403876 0.143267 0.0182803
0.446372 0.139223 0.0200504
0.489647 0.138827 0.0215763
0.527443 0.138125 0.0227512
0.564401 0.137591 0.0238041
0.60325 0.137194 0.0248722
0.64065 0.137148 0.025864
0.676387 0.137011 0.0267796
0.709957 0.136843 0.0276036
0.742824 0.136721 0.0284123
0.776806 0.137072 0.0292668
0.808865 0.137453 0.0300603
0.832792 0.137728 0.0306554
0.856123 0.138247 0.0312505
0.879072 0.138842 0.0318303
0.899641 0.139528 0.0323644
0.906981 0.139956 0.032578
0.906996 0.140032 0.032578
0.907012 0.140215 0.0325933
0.907027 0.140307 0.0325933
0.907057 0.140566 0.0326238
0.000427253 0.283009 0
0.000427253 0.280949 0
0.000427253 0.278874 0
0.0077821 0.276646 0
0.0353552 0.272129 0
0.0705119 0.267887 0
0.114504 0.256962 0
0.154452 0.240589 0
0.196719 0.22002 0.000122072
0.246342 0.206195 0.00103761
0.294987 0.193591 0.00508125
0.338384 0.180377 0.0108339
0.382757 0.173892 0.0155489
0.424964 0.168627 0.0188449
0.473655 0.167819 0.0214389
0.521843 0.167987 0.0235294
0.559915 0.166796 0.0249332
0.59823 0.166308 0.0262303
0.63917 0.165896 0.0274968
0.675593 0.165545 0.0285496
0.709804 0.165301 0.0294957
0.742199 0.165194 0.0303655
0.776074 0.165438 0.031281
0.809018 0.165728 0.0321508
0.833173 0.166033 0.0327916
0.856519 0.166522 0.0334173
0.879561 0.167193 0.0340276
0.900862 0.168109 0.034638
0.910964 0.168566 0.0349126
0.910994 0.168765 0.0349126
0.911025 0.168963 0.0349279
0.911055 0.169162 0.0349584
0.911116 0.169574 0.0349889
0.000488289 0.322728 0
0.000488289 0.320653 0
0.000488289 0.318593 0
0.00401312 0.316091 0
0.0303807 0.310811 0
0.0601205 0.308705 0
0.094316 0.302739 0
0.133639 0.286397 0
0.172946 0.265476 0
0.214572 0.24564 0.000122072
0.263645 0.230198 0.000762951
0.311864 0.216983 0.00416571
0.358312 0.206516 0.00949111
0.402792 0.198276 0.0148318
0.45069 0.196674 0.0189517
0.506661 0.19855 0.0225528
0.552148 0.196002 0.024979
0.589776 0.195377 0.0266728
0.634516 0.195346 0.0284428
0.675349 0.19527 0.0298924
0.710536 0.195193 0.0310521
0.742138 0.195071 0.0320439
0.775876 0.195224 0.033051
0.808774 0.195651 0.0340276
0.83714 0.196201 0.0348669
0.857679 0.196704 0.035462
0.880781 0.197589 0.0361334
0.902525 0.198428 0.0367742
0.915465 0.198978 0.0371405
0.915511 0.199191 0.037171
0.915557 0.199496 0.0371862
0.915618 0.199908 0.0372168
0.915663 0.200214 0.037232
0.000549325 0.361059 0
0.000549325 0.359457 0
0.000549325 0.357733 0
0.000549325 0.355901 0
0.0248875 0.35079 0
0.0546883 0.348501 0
0.0817273 0.343801 0
0.114763 0.332906 0
0.15227 0.311116 0
0.193469 0.289006 0
0.233661 0.267506 0.000137331
0.28098 0.254078 0.000579843
0.33048 0.241703 0.00343328
0.379385 0.230015 0.00863661
0.428748 0.22501 0.0141604
0.483177 0.224842 0.0191348
0.538186 0.224918 0.0232853
0.581842 0.224765 0.0260014
0.625193 0.224704 0.0282597
0.669978 0.224994 0.0303197
0.709865 0.225086 0.0319524
0.742275 0.225025 0.0331731
0.775921 0.225284 0.0343786
0.809003 0.225742 0.0354925
0.838376 0.226444 0.0364843
0.859495 0.227192 0.0371557
0.882155 0.22797 0.0378882
0.904433 0.22884 0.0386053
0.920302 0.229587 0.0391089
0.920348 0.229786 0.0391241
0.920424 0.230289 0.0391394
0.92047 0.230594 0.0391699
0.920516 0.2309 0.0391852
0.000610361 0.396857 0
0.000610361 0.395254 0
0.000595102 0.393439 0
0.000595102 0.391714 0
0.0166018 0.389853 0
0.0423133 0.387182 0
0.0729229 0.383398 0
0.100877 0.37467 0
0.131441 0.354864 0
0.171679 0.332921 0
0.210208 0.310735 0
0.250645 0.292073 0.000137331
0.300038 0.278752 0.000457771
0.352956 0.263935 0.00325017
0.400351 0.258122 0.00738537
0.453376 0.256809 0.0125887
0.511406 0.25626 0.0183413
0.563256 0.256306 0.0228428
0.608835 0.256153 0.0262455
0.655375 0.256092 0.0292058
0.695872 0.255009 0.0313878
0.738628 0.255146 0.0334478
0.771282 0.255756 0.0348821
0.807187 0.257343 0.0363622
0.83772 0.257954 0.0375372
0.861387 0.258564 0.0384222
0.883894 0.259464 0.0392462
0.906432 0.260365 0.0400549
0.925505 0.261387 0.0407263
0.925719 0.261845 0.0407568
0.92578 0.262196 0.0407721
0.925826 0.262425 0.0407874
0.925902 0.262882 0.0408179
0.000671397 0.438178 0
0.000671397 0.436194 0
0.000671397 0.43389 0
0.000656138 0.431754 0
0.0131228 0.42974 0
0.0332799 0.427756 0
0.0612345 0.425147 0
0.088716 0.416159 0
0.116869 0.399542 0
0.151644 0.377386 0
0.190204 0.355886 0
0.226932 0.335897 0
0.267933 0.314061 0.000137331
0.321355 0.301411 0.000442512
0.37145 0.291722 0.00251774
0.415824 0.289021 0.0055848
0.475654 0.288304 0.0108339
0.529015 0.287816 0.0162051
0.577142 0.287648 0.0208438
0.627512 0.287846 0.0252537
0.66894 0.286961 0.0284733
0.716243 0.286748 0.031632
0.757961 0.287556 0.0339971
0.795895 0.290166 0.0359197
0.827863 0.291005 0.0374762
0.857923 0.291981 0.0388342
0.884978 0.292943 0.0400092
0.908614 0.29398 0.0409857
0.928359 0.295079 0.0417945
0.931731 0.295491 0.0419318
0.931777 0.295689 0.0419623
0.931823 0.29601 0.0419471
0.931884 0.2963 0.0419776
0.000732433 0.476997 0
0.000732433 0.47541 0
0.000732433 0.473686 0
0.000717174 0.472099 0
0.00950637 0.470497 0
0.0293278 0.468772 0
0.0532235 0.467002 0
0.0771038 0.460731 0
0.104753 0.445396 0
0.136461 0.422415 0
0.168353 0.403159 0
0.206531 0.383124 0
0.243992 0.362661 0
0.286671 0.340597 0.00015259
0.337469 0.331075 0.000320439
0.382895 0.329381 0.00128176
0.434501 0.327352 0.00383001
0.488121 0.325536 0.00787366
0.541939 0.324285 0.0128634
0.59411 0.323705 0.018143
0.639155 0.323644 0.0225376
0.685695 0.323659 0.0267338
0.734752 0.324285 0.0306249
0.781003 0.325139 0.033875
0.814817 0.325948 0.0360113
0.846555 0.32694 0.0378271
0.879637 0.328374 0.0395819
0.909377 0.329702 0.0410925
0.931716 0.330755 0.0421607
0.938506 0.331258 0.0424811
0.938582 0.33164 0.0424811
0.938659 0.332036 0.0424811
0.938781 0.332692 0.0424811
0.00077821 0.513329 0
0.00077821 0.511742 0
0.00077821 0.510399 0
0.00077821 0.50869 0
0.00593576 0.507088 0
0.0258183 0.505486 0
0.0489967 0.503883 0
0.0700694 0.501839 0
0.0966049 0.490181 0
0.12665 0.469718 0
0.156924 0.44744 0
0.187869 0.427024 0
0.227237 0.406348 0
0.267872 0.384985 0
0.30724 0.367803 0.00015259
0.35436 0.362936 0.000289921
0.40528 0.360952 0.000976577
0.452186 0.359014 0.00283818
0.502083 0.357504 0.0059968
0.555886 0.356756 0.0104372
0.607202 0.356359 0.0152895
0.654124 0.356283 0.0199741
0.703899 0.356847 0.0247654
0.756161 0.357885 0.0293736
0.799817 0.359045 0.0328527
0.834241 0.360327 0.0353552
0.868315 0.361532 0.0376593
0.900832 0.363775 0.0396582
0.93019 0.367102 0.0413062
0.945724 0.368017 0.0421912
0.945785 0.368246 0.0422065
0.945876 0.368704 0.0421912
0.945953 0.369055 0.0421759
0.000839246 0.550759 0
0.000839246 0.549233 0
0.000839246 0.547448 0
0.000839246 0.545647 0
0.00241093 0.544106 0
0.022385 0.542489 0
0.044831 0.541131 0
0.0662547 0.539788 0
0.0916152 0.533333 0
0.12166 0.519661 0
0.152026 0.499489 0
0.181491 0.477226 0
0.219257 0.451621 0
0.25893 0.428321 0
0.297124 0.40795 4.57771e-05
0.342916 0.401938 0.000183108
0.390646 0.39971 0.000335698
0.438636 0.397604 0.000885023
0.486366 0.395941 0.00254826
0.540719 0.394171 0.00572213
0.591119 0.392935 0.00965896
0.63856 0.393042 0.013901
0.689693 0.395666 0.0185092
0.74052 0.396429 0.0234836
0.789929 0.397482 0.0281376
0.830091 0.398627 0.0316625
0.863722 0.396155 0.0347601
0.897963 0.401007 0.0370642
0.930571 0.402258 0.0394141
0.953017 0.40351 0.0409247
0.953063 0.403738 0.0409094
0.953109 0.403967 0.0409094
0.953155 0.404196 0.0408942
0.000900282 0.58967 0
0.000900282 0.588495 0
0.000900282 0.587091 0
0.000900282 0.585809 0
0.000900282 0.584527 0
0.0192569 0.583459 0
0.0408331 0.582391 0
0.0630045 0.581079 0
0.0868238 0.575708 0
0.116854 0.567803 0
0.147311 0.553094 0
0.178103 0.532326 0
0.213855 0.504311 0
0.252491 0.476066 0
0.291157 0.452384 0
0.336583 0.444144 7.62951e-05
0.382895 0.442039 0.000213626
0.430274 0.440085 0.000366217
0.477424 0.438117 0.000839246
0.530526 0.436164 0.00257877
0.584329 0.434638 0.00553903
0.632151 0.433433 0.0090486
0.682826 0.433051 0.0133974
0.733227 0.433219 0.0180972
0.783871 0.434302 0.0230106
0.826078 0.434867 0.0271153
0.863737 0.435599 0.0306401
0.898589 0.43682 0.0337072
0.932189 0.438285 0.0364996
0.960418 0.43949 0.0387427
0.960433 0.439628 0.0387274
0.960449 0.43975 0.0387121
0.960494 0.439887 0.0387121
0.000961318 0.624079 0
0.000946059 0.622736 0
0.000946059 0.621256 0
0.000946059 0.619913 0
0.000946059 0.618692 0
0.0161135 0.617197 0
0.0369726 0.616526 0
0.0599222 0.617594 0
0.0830396 0.613718 0
0.112322 0.607111 0
0.142855 0.597147 0
0.173587 0.58265 0
0.208453 0.555856 0
0.246448 0.52604 0
0.285771 0.497719 0
0.33051 0.48632 0
0.375433 0.483391 0.000106813
0.422309 0.479515 0.000259403
0.467536 0.477638 0.000396735
0.520516 0.476005 0.000946059
0.575845 0.475532 0.00270085
0.624384 0.475227 0.00517281
0.676478 0.474266 0.00872816
0.72665 0.47393 0.0128176
0.778729 0.474907 0.0174563
0.822995 0.475715 0.0216373
0.860624 0.475456 0.0254368
0.896986 0.475517 0.0290379
0.931487 0.476036 0.0323186
0.962966 0.477089 0.0350652
0.967956 0.477363 0.0355383
0.967956 0.477363 0.0355383
0.968002 0.477592 0.0355077
0.0010071 0.661234 0
0.0010071 0.659876 0
0.0010071 0.658412 0
0.0010071 0.657313 0
0.0010071 0.655955 0
0.0132753 0.65449 0
0.0333562 0.653117 0
0.057084 0.651759 0
0.0796521 0.650523 0
0.108248 0.646677 0
0.138582 0.636179 0
0.169238 0.627253 0
0.203494 0.60589 0
0.240742 0.576959 0
0.28101 0.544854 0
0.324239 0.529076 0
0.368139 0.522515 1.5259e-05
0.416358 0.519997 0.00015259
0.460838 0.517922 0.000289921
0.511391 0.515953 0.000442512
0.567391 0.514824 0.00112917
0.617823 0.514061 0.00273136
0.667979 0.513039 0.00523384
0.717449 0.512413 0.0084535
0.771908 0.512673 0.012665
0.818143 0.514748 0.0165103
0.857588 0.514397 0.0202182
0.893492 0.513069 0.0239261
0.929015 0.512886 0.027512
0.962402 0.513756 0.0307012
0.974685 0.514076 0.0318914
0.974701 0.514229 0.0318608
0.974731 0.514351 0.0318608
0.00106813 0.698268 0
0.00106813 0.697169 0
0.00106813 0.695827 0
0.00106813 0.694469 0
0.00106813 0.693004 0
0.0106355 0.69163 0
0.0305791 0.692439 0
0.0546273 0.691478 0
0.0763256 0.68983 0
0.10428 0.688151 0
0.134585 0.681987 0
0.165286 0.672236 0
0.198749 0.654719 0
0.23566 0.627192 0
0.276539 0.594614 0
0.318166 0.573678 0
0.361349 0.567864 0
0.410803 0.561578 6.10361e-05
0.454566 0.559274 0.000183108
0.504097 0.557443 0.000335698
0.558923 0.555489 0.000503548
0.611063 0.55378 0.00123598
0.660975 0.554391 0.00274662
0.711009 0.554238 0.005066
0.766674 0.553994 0.00849927
0.812696 0.554818 0.011841
0.855283 0.55462 0.0154421
0.891325 0.553323 0.0188449
0.928084 0.551904 0.0224613
0.96202 0.552605 0.025742
0.981048 0.553033 0.0275883
0.981048 0.552895 0.0276188
0.981018 0.552758 0.0276188
0.00112917 0.734936 0
0.00112917 0.733974 0
0.00111391 0.732631 0
0.00111391 0.731289 0
0.00111391 0.729809 0
0.00828565 0.728466 0
0.0283055 0.727871 0
0.0522164 0.726772 0
0.0733196 0.726268 0
0.100557 0.726879 0
0.130877 0.725261 0
0.161761 0.717189 0
0.194629 0.701686 0
0.23122 0.674403 0
0.272389 0.643473 0
0.31426 0.621363 0
0.356008 0.613886 0
0.40621 0.610239 0
0.451087 0.608011 7.62951e-05
0.497566 0.60592 0.000228885
0.551278 0.603952 0.000381476
0.604059 0.601846 0.000534066
0.653666 0.600107 0.00114443
0.704448 0.599313 0.00257877
0.759014 0.598276 0.00502022
0.807157 0.597818 0.00784314
0.851942 0.597467 0.0109712
0.888029 0.597436 0.0138094
0.926482 0.596933 0.0171359
0.961135 0.597436 0.0202335
0.987137 0.597528 0.0225986
0.987106 0.597192 0.0226291
0.987045 0.596704 0.0226902
0.00117494 0.768078 0
0.00117494 0.766735 0
0.00117494 0.765393 0
0.00117494 0.763912 0
0.00115969 0.762692 0
0.00633249 0.762585 0
0.0262913 0.763745 0
0.0496223 0.762264 0
0.0706188 0.760861 0
0.0972915 0.759854 0
0.12781 0.758648 0
0.158419 0.756024 0
0.190738 0.743618 0
0.227192 0.717845 0
0.267689 0.68925 0
0.309438 0.664515 0
0.351537 0.656916 0
0.400687 0.652003 0
0.446998 0.649012 0
0.49482 0.645899 0.000137331
0.547936 0.643793 0.000289921
0.597543 0.641978 0.000442512
0.646571 0.640711 0.000595102
0.697185 0.639277 0.00123598
0.750896 0.638148 0.00277714
0.80087 0.637491 0.00495918
0.846281 0.637049 0.00749218
0.884153 0.636942 0.00996414
0.923186 0.636805 0.0128481
0.958236 0.636744 0.0156863
0.991363 0.636728 0.018555
0.991318 0.636316 0.0186007
0.991272 0.63592 0.0186313
0.00122072 0.802701 0
0.00122072 0.801526 0
0.00122072 0.800244 0
0.00122072 0.799176 0
0.00122072 0.798001 0
0.004654 0.796857 0
0.0245365 0.795773 0
0.0474403 0.794293 0
0.068452 0.796613 0
0.0948806 0.795224 0
0.125017 0.7935 0
0.155596 0.791638 0
0.187366 0.786191 0
0.223835 0.763134 0
0.263951 0.73434 0
0.303807 0.70779 0
0.347295 0.698528 0
0.395392 0.695735 0
0.441962 0.692378 0
0.489204 0.686427 3.0518e-05
0.541939 0.684245 0.000198367
0.591913 0.682063 0.000335698
0.639887 0.680049 0.000488289
0.690623 0.678477 0.000656138
0.743053 0.678721 0.00137331
0.794598 0.679774 0.00277714
0.840742 0.67924 0.00466926
0.879911 0.676066 0.00688182
0.918624 0.674525 0.00935378
0.954757 0.674006 0.0119173
0.989441 0.673747 0.0145876
0.994476 0.673243 0.0150454
0.994446 0.672831 0.0150759
0.00128176 0.837995 0
0.00128176 0.836622 0
0.00128176 0.835111 0
0.00128176 0.833448 0
0.0012665 0.831662 0
0.00341802 0.830381 0
0.0232547 0.831128 0
0.0458076 0.829648 0
0.0671244 0.828733 0
0.0927291 0.826825 0
0.122866 0.82472 0
0.153338 0.82266 0
0.184649 0.820005 0
0.221103 0.805005 0
0.260578 0.779797 0
0.298619 0.751858 0
0.343801 0.741619 0
0.390707 0.738659 0
0.437751 0.735622 0
0.48452 0.72929 0
0.536446 0.726802 9.15541e-05
0.586603 0.72433 0.000244144
0.63389 0.722148 0.000381476
0.684459 0.720439 0.000534066
0.735653 0.718883 0.000732433
0.788815 0.718059 0.00151064
0.834821 0.71696 0.00282292
0.87538 0.716045 0.00444038
0.913848 0.715343 0.00633249
0.950957 0.714534 0.00849927
0.986313 0.714244 0.0108186
0.997086 0.713237 0.0116426
0.99704 0.712322 0.0117189
0.00134279 0.872511 0
0.00132753 0.871443 0
0.00132753 0.870054 0
0.00132753 0.868757 0
0.00132753 0.867262 0
0.00248722 0.86598 0
0.022385 0.86595 0
0.0446479 0.864469 0
0.0660868 0.865263 0
0.0910201 0.863996 0
0.121157 0.862272 0
0.151553 0.860533 0
0.182666 0.854597 0
0.218906 0.841825 0
0.257939 0.825101 0
0.295552 0.797726 0
0.338933 0.788327 0
0.387091 0.78323 0
0.434363 0.779995 0
0.480293 0.774655 0
0.531624 0.770581 0
0.582208 0.766842 0.000137331
0.629297 0.764294 0.000289921
0.679301 0.762402 0.000427253
0.729549 0.760693 0.000579843
0.783139 0.759136 0.000823987
0.829053 0.757733 0.0015259
0.870802 0.756527 0.00265507
0.90898 0.755169 0.00407416
0.947112 0.75436 0.00582895
0.982284 0.753277 0.00776684
0.998978 0.752163 0.00883497
0.998932 0.750942 0.00891127
0.00138857 0.902831 0
0.00137331 0.901549 0
0.00137331 0.900145 0
0.00137331 0.898756 0
0.00137331 0.897261 0
0.00204471 0.896056 0
0.0218204 0.89662 0
0.0437476 0.895323 0
0.0653086 0.895003 0
0.0898756 0.893523 0
0.119829 0.891783 0
0.150317 0.890043 0
0.181125 0.887999 0
0.217121 0.875608 0
0.255665 0.860349 0
0.29337 0.841077 0
0.335424 0.831815 0
0.383932 0.825742 0
0.43125 0.822492 0
0.476692 0.819409 0
0.527306 0.814893 0
0.578134 0.809628 4.57771e-05
0.624277 0.807446 0.000183108
0.674434 0.80528 0.000335698
0.72343 0.803403 0.00047303
0.77763 0.801694 0.000640879
0.82266 0.80029 0.000839246
0.863661 0.798856 0.00140383
0.904311 0.797909 0.00236515
0.942855 0.796521 0.00367742
0.978286 0.7953 0.00518807
1 0.79382 0.00631724
1 0.792477 0.00639353
0.00141909 0.929305 0
0.00141909 0.928115 0
0.00141909 0.926833 0
0.00141909 0.925551 0
0.00141909 0.924346 0
0.00158694 0.923064 0
0.0213016 0.921675 0
0.0430304 0.920195 0
0.064683 0.920546 0
0.0887617 0.919844 0
0.118151 0.918685 0
0.149065 0.917205 0
0.179309 0.915587 0
0.215335 0.904723 0
0.253635 0.891859 0
0.291691 0.875471 0
0.332998 0.869825 0
0.380758 0.864302 0
0.428275 0.859815 0
0.473213 0.856886 0
0.523308 0.853498 0
0.574334 0.848417 0
0.618311 0.845182 9.15541e-05
0.669017 0.842954 0.000244144
0.717693 0.841123 0.000381476
0.772274 0.839445 0.000549325
0.817838 0.83801 0.000686656
0.858701 0.836759 0.000854505
0.899031 0.835477 0.00138857
0.938277 0.834012 0.00228885
0.973831 0.832624 0.00343328
1 0.831098 0.00451667
1 0.829862 0.00457771
0.00146487 0.954437 0
0.00146487 0.953246 0
0.00144961 0.952041 0
0.00144961 0.950576 0
0.00144961 0.949187 0
0.00144961 0.947707 0
0.0208438 0.946334 0
0.0423896 0.944747 0
0.0642252 0.943343 0
