public/luts/creative_looks/3Strip.cube
#Created by: Denver Riddle
#Copyright: (C) Copyright Color Grading Central LLC
#LUT Size
LUT_3D_SIZE 9
0 0 0
0.121523 0.00407416 0.00268559
0.286427 0.00959792 0.00633249
0.440314 0.0147555 0.00973526
0.588754 0.0197299 0.0130159
0.73019 0.0244755 0.016144
0.845533 0.028336 0.0186923
0.892638 0.0299229 0.0197299
0.892638 0.0299229 0.0197299
0.000167849 0.109987 0
0.0850538 0.0893111 6.10361e-05
0.266346 0.0665141 0.0113222
0.424582 0.0569314 0.0145418
0.572076 0.0551461 0.0176699
0.71284 0.0535439 0.0206302
0.834104 0.0540932 0.023331
0.896498 0.0554513 0.0248264
0.896513 0.0556344 0.0248264
0.000427253 0.283009 0
0.0353552 0.272129 0
0.196719 0.22002 0.000122072
0.382757 0.173892 0.0155489
0.559915 0.166796 0.0249332
0.709804 0.165301 0.0294957
0.833173 0.166033 0.0327916
0.910964 0.168566 0.0349126
0.911116 0.169574 0.0349889
0.000671397 0.438178 0
0.0131228 0.42974 0
0.116869 0.399542 0
0.267933 0.314061 0.000137331
0.475654 0.288304 0.0108339
0.66894 0.286961 0.0284733
0.827863 0.291005 0.0374762
0.928359 0.295079 0.0417945
0.931884 0.2963 0.0419776
0.000900282 0.58967 0
0.000900282 0.584527 0
0.0868238 0.575708 0
0.213855 0.504311 0
0.382895 0.442039 0.000213626
0.584329 0.434638 0.00553903
0.783871 0.434302 0.0230106
0.932189 0.438285 0.0364996
0.960494 0.439887 0.0387121
0.00112917 0.734936 0
0.00111391 0.729809 0
0.0733196 0.726268 0
0.194629 0.701686 0
0.356008 0.613886 0
0.551278 0.603952 0.000381476
0.759014 0.598276 0.00502022
0.926482 0.596933 0.0171359
0.987045 0.596704 0.0226902
0.00134279 0.872511 0
0.00132753 0.867262 0
0.0660868 0.865263 0
0.182666 0.854597 0
0.338933 0.788327 0
0.531624 0.770581 0
0.729549 0.760693 0.000579843
0.90898 0.755169 0.00407416
0.998932 0.750942 0.00891127
0.00149538 0.975494 0
0.00148013 0.970825 0
0.0635233 0.966918 0
0.173007 0.959762 0
0.327169 0.932082 0
0.514473 0.916976 0
0.707317 0.904356 0.000228885
0.884962 0.897917 0.000762951
1 0.892653 0.00239567
0.0015259 0.999756 0
0.0015259 0.999756 0
0.0585336 0.99971 0
0.163638 0.999649 0
0.314748 0.999557 0
0.494133 0.999435 0
0.68336 0.999329 0
0.864393 0.999207 0.000488289
1 0.999115 0.000900282
0 0.000122072 0.13817
0.116686 3.0518e-05 0.116838
0.283314 0.00923171 0.0787366
0.437552 0.0148013 0.0663767
0.587701 0.0197757 0.0629129
0.728466 0.0243992 0.0623026
0.844709 0.0281834 0.0592966
0.893904 0.0298009 0.0597238
0.893904 0.0298009 0.0594644
0 0.0950332 0.0896468
0.0923323 0.0925917 0.0923323
0.266377 0.0759747 0.0737163
0.420951 0.0586252 0.0543374
0.568704 0.0546426 0.0485847
0.709514 0.0528725 0.0451209
0.833005 0.0518196 0.048188
0.895323 0.0541695 0.0442359
0.895323 0.0541695 0.0442359
0.000320439 0.276585 0.037995
0.0430762 0.270146 0.0422675
0.211475 0.227787 0.0413977
0.393957 0.175463 0.0452735
0.559136 0.164843 0.0444953
0.706722 0.16318 0.0421759
0.830732 0.163943 0.0421759
0.910384 0.166613 0.0443122
0.910491 0.167544 0.0452583
0.00062562 0.434531 0.0134585
0.0115511 0.42594 0.010071
0.117571 0.40235 0.0105135
0.268864 0.314611 0.00637827
0.474434 0.285893 0.0111238
0.667704 0.284886 0.0285344
0.826139 0.28893 0.0374151
0.926711 0.293004 0.0417029
0.931517 0.294286 0.0419013
0.000900282 0.587411 0
0.000885023 0.582391 0
0.085359 0.573236 0
0.211704 0.50248 0
0.379812 0.439277 0.000213626
0.581247 0.431876 0.00553903
0.780148 0.431205 0.0230411
0.928954 0.435309 0.0365148
0.959899 0.437018 0.0389105
0.00111391 0.732754 0
0.00111391 0.727367 0
0.0717937 0.723842 0
0.192386 0.700435 0
0.353414 0.610864 0
0.547341 0.600214 0.000381476
0.754253 0.594614 0.0049897
0.922606 0.592599 0.017258
0.986496 0.592279 0.0231937
0.00132753 0.870161 0
0.00132753 0.864897 0
0.0646525 0.862333 0
0.180163 0.851896 0
0.33579 0.783719 0
0.526879 0.765774 0
0.723354 0.755459 0.000579843
0.903914 0.749996 0.00408942
0.998688 0.745617 0.00926223
0.00149538 0.973495 0
0.00148013 0.968673 0
0.061738 0.964141 0
0.170031 0.956924 0
0.322988 0.927932 0
0.508858 0.912825 0
0.700908 0.899367 0.000213626
0.879683 0.893248 0.000747692
1 0.887861 0.00251774
0.0015259 0.999756 0
0.0015259 0.999756 0
0.0563211 0.99971 0
0.160235 0.999649 0
0.309346 0.999557 0
0.488151 0.999435 0
0.676417 0.999329 0
0.858885 0.999207 0.00047303
1 0.999115 0.000900282
0 0.000289921 0.329824
0.0848096 0.000228885 0.318318
0.250828 6.10361e-05 0.251713
0.409293 0.00924697 0.192844
0.583871 0.0183413 0.186908
0.731456 0.0242313 0.184146
0.847272 0.0284428 0.183551
0.897932 0.0302586 0.180362
0.897932 0.0302586 0.180179
0 0.0696269 0.297444
0.0733349 0.0741131 0.293721
0.249943 0.0661326 0.250584
0.41088 0.0605783 0.182635
0.568627 0.0565042 0.171435
0.710994 0.0544747 0.166506
0.832059 0.0545968 0.165103
0.898787 0.0561379 0.165148
0.898787 0.0562448 0.16524
0 0.226368 0.198825
0.0450752 0.232303 0.214343
0.247822 0.249302 0.247822
0.40763 0.200885 0.198444
0.558175 0.164767 0.162936
0.701564 0.163928 0.15758
0.826566 0.165469 0.157671
0.907881 0.167636 0.158907
0.908003 0.168765 0.160037
0.000289921 0.405951 0.120989
0.0142367 0.407324 0.118868
0.150774 0.414221 0.149844
0.333608 0.357839 0.162036
0.533089 0.291646 0.163714
0.694347 0.286091 0.166796
0.828824 0.290486 0.16965
0.917037 0.290944 0.169986
0.924514 0.292729 0.171557
0.000656138 0.581155 0.0883345
0.000656138 0.576318 0.0849928
0.087602 0.574075 0.0857557
0.217838 0.547982 0.105852
0.400015 0.452323 0.107942
0.61738 0.429847 0.129793
0.798764 0.431128 0.154482
0.922652 0.435325 0.166323
0.950072 0.436973 0.16846
0.000915541 0.730419 0.0741894
0.000915541 0.725292 0.0709087
0.0703899 0.721141 0.0680858
0.189715 0.710933 0.0844434
0.350378 0.637217 0.092134
0.546532 0.596246 0.0982681
0.748425 0.589822 0.111788
0.9149 0.589014 0.132982
0.98088 0.588769 0.138949
0.00114443 0.871565 0.0667277
0.00114443 0.866209 0.0633097
0.0630198 0.856916 0.0601968
0.177584 0.851652 0.0736095
0.333974 0.803388 0.0824292
0.521599 0.760189 0.0856947
0.717113 0.750347 0.0907759
0.898238 0.744915 0.0960861
0.997421 0.740353 0.0999924
0.00131228 0.974533 0.0646677
0.00131228 0.968154 0.0607004
0.0596933 0.961547 0.0564736
0.170855 0.953933 0.0674296
0.318502 0.931899 0.0727703
0.502983 0.907317 0.0720989
0.694301 0.894789 0.0733196
0.874113 0.888548 0.0711833
1 0.883024 0.0679484
0.00135805 0.999802 0.0613107
0.00137331 0.999802 0.0560464
0.0538643 0.999756 0.0505226
0.158984 0.999695 0.0576181
0.303609 0.999619 0.0569009
0.481712 0.999496 0.0532692
0.66923 0.999374 0.0525368
0.853056 0.999252 0.0487984
1 0.999161 0.0422522
0 0.000442512 0.501869
0.0695048 0.000396735 0.496452
0.204349 0.000259403 0.444739
0.361425 9.15541e-05 0.362875
0.537453 0.00492866 0.342962
0.705043 0.0163577 0.326818
0.848463 0.024445 0.321874
0.912795 0.0274662 0.322469
0.912734 0.0274815 0.322118
0 0.0567178 0.479316
0.0526741 0.0541543 0.473976
0.192645 0.055024 0.44889
0.356603 0.0442664 0.357229
0.531655 0.0428016 0.319677
0.695155 0.0504005 0.305562
0.832258 0.0526284 0.301305
0.909682 0.0550851 0.301656
0.909728 0.0553292 0.302068
0 0.182116 0.403433
0.0365606 0.179873 0.422126
0.198474 0.200031 0.440024
0.381613 0.19321 0.382284
0.548455 0.176181 0.29987
0.700862 0.179324 0.2916
0.829923 0.180484 0.291463
0.913146 0.183352 0.293111
0.913283 0.184665 0.294514
0 0.324651 0.273579
0.0116121 0.322988 0.274205
0.16524 0.361028 0.335882
0.389273 0.39147 0.389838
0.550591 0.317891 0.315145
0.69427 0.288975 0.287098
0.824109 0.291035 0.284733
0.914229 0.294545 0.287236
0.922118 0.296239 0.288838
0.000198367 0.511315 0.219776
0.000198367 0.507576 0.215061
0.109255 0.552392 0.218921
0.255726 0.559731 0.254643
0.457938 0.488914 0.272725
0.665232 0.430625 0.286915
0.818738 0.432349 0.300252
0.917647 0.435599 0.305486
0.941299 0.436774 0.30663
0.000534066 0.703853 0.199985
0.000549325 0.701228 0.195407
0.0891585 0.715099 0.190814
0.188144 0.709682 0.186343
0.34902 0.683757 0.215747
0.545357 0.594217 0.225422
0.755505 0.585077 0.262837
0.916014 0.586542 0.299519
0.969894 0.587274 0.305028
0.000808728 0.862226 0.188617
0.000823987 0.858213 0.183505
0.0789807 0.853697 0.178378
0.175433 0.845045 0.173053
0.329976 0.832288 0.206485
0.515846 0.765972 0.22208
0.710628 0.744991 0.244938
0.888869 0.739483 0.269596
0.993698 0.735332 0.285084
0.000991836 0.969451 0.182193
0.000991836 0.964309 0.175158
0.0739757 0.958709 0.172274
0.168215 0.950713 0.165423
0.315755 0.940963 0.195117
0.496468 0.914046 0.220096
0.686961 0.889906 0.239414
0.867811 0.884825 0.257191
1 0.878264 0.267323
0.00105287 0.999908 0.175708
0.00106813 0.999893 0.167422
0.0661936 0.999847 0.162722
0.156985 0.999786 0.153719
0.297429 0.999725 0.180819
0.474708 0.999634 0.204242
0.661875 0.999527 0.223499
0.849165 0.999435 0.243168
0.997024 0.994934 0.250507
0 0.000595102 0.678401
0.0656138 0.000549325 0.670466
0.200183 0.000442512 0.65182
0.353674 0.000259403 0.555734
0.532311 0.000137331 0.534844
0.71902 0.00341802 0.518807
0.872618 0.0119936 0.502739
0.949584 0.0169223 0.500786
0.949554 0.0169375 0.500633
0 0.0550698 0.653361
0.048661 0.0480201 0.646387
0.179324 0.0483711 0.634623
0.332662 0.0411536 0.558282
0.507469 0.0326543 0.509163
0.689067 0.0325017 0.495583
0.845258 0.0373846 0.475914
0.942016 0.0424353 0.474601
0.942138 0.0431983 0.475303
0 0.175235 0.614389
0.0318151 0.167849 0.615579
0.160418 0.16202 0.616114
0.309895 0.171298 0.592279
0.491371 0.154269 0.492348
0.675349 0.168353 0.467674
0.830747 0.187503 0.457633
0.930816 0.195224 0.457755
0.931075 0.19678 0.45951
0 0.303685 0.485786
0.00979629 0.296513 0.490257
0.15378 0.296193 0.565515
0.312459 0.313832 0.58555
0.510155 0.309667 0.510857
0.683619 0.307057 0.443885
0.828824 0.318914 0.443473
0.920516 0.322911 0.446021
0.93019 0.324865 0.447868
0 0.458076 0.39765
0 0.45214 0.390921
0.113497 0.461631 0.406912
0.275654 0.494636 0.461936
0.532052 0.534386 0.532052
0.687114 0.447349 0.444511
0.81445 0.432288 0.427771
0.909651 0.435676 0.430076
0.937697 0.437003 0.431098
0 0.631342 0.369757
0 0.625132 0.363195
0.10132 0.649775 0.356771
0.222431 0.686992 0.350057
0.377584 0.698833 0.376333
0.5944 0.626902 0.401663
0.791485 0.585016 0.434989
0.91249 0.584817 0.451301
0.958724 0.584146 0.450126
0.000289921 0.812039 0.355169
0.000289921 0.803952 0.348867
0.0951553 0.819059 0.341833
0.213443 0.837247 0.331304
0.326925 0.83061 0.325124
0.509087 0.80444 0.368109
0.703517 0.738979 0.382956
0.879728 0.733471 0.423056
0.986603 0.730312 0.451301
0.000518807 0.95729 0.349874
0.000534066 0.948837 0.340368
0.0881208 0.945083 0.330022
0.204105 0.947143 0.318624
0.313878 0.937209 0.312428
0.489219 0.926635 0.357107
0.678965 0.887785 0.384665
0.861036 0.87805 0.418875
0.999863 0.872557 0.4421
0.000610361 1 0.340414
0.000640879 1 0.328023
0.0755627 0.999985 0.315923
0.190921 0.999893 0.303273
0.295811 0.999817 0.290272
0.467491 0.999756 0.337575
0.653544 0.999664 0.376638
0.838285 0.995178 0.412375
0.989899 0.989212 0.434226
0 0.000732433 0.840543
0.0621805 0.000701915 0.8336
0.196628 0.000595102 0.826764
0.349889 0.000457771 0.76289
0.527596 0.000320439 0.735866
0.723308 0.000183108 0.725887
0.901198 0.00210575 0.715755
0.986236 0.00477607 0.709499
0.986236 0.00477607 0.709499
0 0.0542763 0.816541
0.0452125 0.0479133 0.809613
0.178012 0.0454261 0.802792
0.328893 0.0420233 0.759869
0.503517 0.0339513 0.706035
0.693996 0.0281224 0.696361
0.877195 0.0268406 0.686336
0.982055 0.0295872 0.679164
0.982162 0.030457 0.68014
0 0.171954 0.792126
0.0283665 0.16495 0.786099
0.156268 0.15848 0.782086
0.303014 0.17113 0.769726
0.479515 0.166491 0.701503
0.667674 0.170184 0.669444
0.848569 0.181781 0.659464
0.971405 0.198459 0.65182
0.97174 0.199954 0.653849
0 0.30016 0.705226
0.00764477 0.293477 0.708782
0.153338 0.288167 0.752407
0.281407 0.28307 0.751415
0.454414 0.299916 0.719402
0.644388 0.29369 0.64535
0.826413 0.318593 0.633173
0.944717 0.342916 0.627527
0.957702 0.345129 0.628885
0 0.454948 0.603601
0 0.449012 0.59707
0.128328 0.442893 0.632883
0.2757 0.435676 0.69131
0.442252 0.443381 0.717876
0.64744 0.444282 0.64741
0.812818 0.460365 0.60293
0.920653 0.474678 0.604059
0.948974 0.47631 0.604883
0 0.626169 0.575525
0 0.620111 0.568795
0.110323 0.613275 0.561608
0.235233 0.605478 0.557198
0.405066 0.630777 0.596918
0.657633 0.662989 0.657603
0.800656 0.592691 0.590234
0.906172 0.58703 0.583261
0.954223 0.586358 0.58201
0 0.805966 0.559823
0 0.798032 0.551431
0.105043 0.784573 0.541711
0.236912 0.783291 0.529992
0.376547 0.81059 0.515694
0.518822 0.814679 0.517769
0.722469 0.752178 0.54548
0.899092 0.729839 0.591714
0.975372 0.727199 0.602975
0 0.94966 0.553399
0 0.940841 0.541588
0.101137 0.930816 0.528634
0.238666 0.930053 0.511498
0.365728 0.933639 0.49688
0.485832 0.923827 0.483955
0.671366 0.905455 0.532189
0.854688 0.872923 0.567849
0.997848 0.870405 0.607446
7.62951e-05 1 0.540963
0.000122072 1 0.525322
0.0856489 1 0.509422
0.225895 1 0.492287
0.345708 0.999954 0.471412
0.465614 0.999863 0.463706
0.645747 0.99736 0.515785
0.831281 0.990021 0.567102
0.98349 0.984085 0.603494
0 0.000854505 0.964385
0.0637064 0.000808728 0.960204
0.19585 0.000717174 0.956069
0.347402 0.000610361 0.937179
0.524483 0.00047303 0.919371
0.719905 0.000350958 0.908125
0.903777 0.000228885 0.906996
0.997772 0.000549325 0.904982
0.997772 0.000549325 0.904982
0 0.0484779 0.948119
0.0400092 0.0457008 0.942916
0.173449 0.0436103 0.937865
0.326162 0.0412299 0.918013
0.500801 0.0343938 0.89546
0.69073 0.0278477 0.886397
0.880796 0.023331 0.883848
0.997208 0.0231174 0.881956
0.997238 0.0241855 0.882826
0 0.169741 0.930129
0.0260471 0.16286 0.925856
0.153338 0.156039 0.919768
0.299504 0.169162 0.914397
0.476829 0.176394 0.886427
0.665095 0.183688 0.862913
0.855116 0.193149 0.857466
0.995254 0.206577 0.855451
0.995926 0.20856 0.85745
0 0.297993 0.893523
0.00518807 0.291905 0.891173
0.15108 0.286488 0.902632
0.281453 0.282658 0.896864
0.452033 0.304707 0.888167
0.641215 0.315572 0.843732
0.831174 0.334905 0.832944
0.972686 0.354238 0.830152
0.992935 0.358984 0.830869
0 0.453208 0.823499
0 0.447272 0.817044
0.13991 0.441016 0.840955
0.2851 0.431403 0.868971
0.423835 0.425406 0.867506
0.611872 0.453117 0.844053
0.80148 0.462837 0.799237
0.941115 0.492515 0.793194
0.983551 0.501213 0.79028
0 0.62443 0.786465
0 0.618357 0.778378
0.122744 0.611368 0.772946
0.267247 0.602914 0.777844
0.426993 0.590738 0.814939
0.588357 0.589853 0.82974
0.775128 0.592065 0.775677
0.913802 0.620478 0.750423
0.967651 0.628534 0.74728
0 0.800412 0.77052
0 0.791348 0.760128
0.11664 0.780972 0.748363
0.264027 0.768551 0.734295
0.397299 0.753262 0.716793
0.5505 0.757321 0.726101
0.774273 0.781491 0.773861
0.900145 0.733776 0.731716
0.970184 0.729809 0.72697
0 0.947158 0.762219
0 0.937972 0.747311
0.110735 0.926894 0.731517
0.266484 0.91368 0.713695
0.403098 0.898711 0.695476
0.5411 0.910536 0.678004
0.673518 0.912383 0.672663
0.855985 0.872892 0.705898
0.991089 0.863722 0.748318
0 1 0.745388
0 1 0.72668
0.0920424 1 0.708827
0.255039 1 0.691295
0.395819 1 0.671183
0.526238 1 0.652384
0.645685 0.994492 0.64445
0.825391 0.986908 0.702129
0.978424 0.980056 0.746334
0 0.000885023 0.999115
0.0627451 0.000839246 0.999298
0.19498 0.000762951 0.99968
0.346242 0.000656138 1
0.527047 0.000549325 1
0.718441 0.000427253 1
0.898528 0.00030518 1
0.998474 0.000244144 1
0.998474 0.000244144 1
0 0.0476997 0.999008
0.0396277 0.0445869 0.99913
0.175402 0.0428168 0.999542
0.324834 0.0403754 0.999985
0.500481 0.0348821 1
0.689509 0.0268711 1
0.875715 0.0225223 1
0.998505 0.0218357 1
0.998505 0.0230564 1
0 0.168948 0.998764
0.0251011 0.162066 0.998856
0.151995 0.155169 0.999237
0.298695 0.168521 0.999649
0.475837 0.181064 1
0.664195 0.190082 1
0.857786 0.20145 0.999741
0.997818 0.211398 1
0.998795 0.213336 1
0 0.296986 0.998505
0.00428778 0.291585 0.998535
0.150408 0.286259 0.998978
0.27895 0.281468 0.995499
0.451484 0.30779 0.991928
0.640162 0.332235 0.985489
0.830365 0.355032 0.978271
0.976867 0.373022 0.979019
0.999054 0.377081 0.980102
0 0.452216 0.98471
0 0.445609 0.979339
0.145266 0.440711 0.980255
0.285527 0.4336 0.976226
0.42295 0.424903 0.974685
0.610864 0.459327 0.96669
0.79675 0.488045 0.950866
0.948974 0.514672 0.95053
0.998825 0.523247 0.949615
0 0.62417 0.957885
0 0.617685 0.951431
0.133059 0.610834 0.945098
0.289891 0.602106 0.954116
0.437308 0.587182 0.95523
0.580255 0.581552 0.948714
0.757778 0.61677 0.937057
0.916182 0.637293 0.917174
0.996475 0.653864 0.911849
0 0.799771 0.942794
0 0.789975 0.934676
0.125643 0.779431 0.926528
0.288045 0.766827 0.915618
0.43653 0.751095 0.901854
0.589578 0.737224 0.915282
0.732006 0.733059 0.923018
0.891081 0.744121 0.891615
0.987991 0.76762 0.88159
0 0.945724 0.935485
0 0.936233 0.924666
0.116335 0.924697 0.91107
0.288426 0.911345 0.895445
0.442115 0.896391 0.87837
0.581537 0.883177 0.867033
0.711345 0.876524 0.859266
0.883772 0.888624 0.883757
0.982788 0.868788 0.867445
0 1 0.922164
0 1 0.906188
0.0947585 1 0.889998
0.276463 1 0.874388
0.436439 1 0.858976
0.581811 1 0.8421
0.706783 0.990646 0.829389
0.830396 0.986374 0.829831
0.977157 0.979461 0.878187
0 0.000885023 0.999115
0.0622263 0.000839246 0.999298
0.194446 0.000747692 0.99968
0.345708 0.000656138 1
0.52636 0.000549325 1
0.71783 0.000427253 1
0.897917 0.00030518 1
0.998474 0.000244144 1
0.998474 0.000244144 1
0 0.0472267 0.999008
0.0392157 0.044007 0.999146
0.17467 0.0420691 0.999542
0.324269 0.0399023 0.999969
0.500053 0.0343481 1
0.688899 0.0263981 1
0.875349 0.0220645 1
0.998505 0.0215305 1
0.998505 0.0230564 1
0 0.16846 0.998764
0.0246738 0.161578 0.998856
0.151507 0.15462 0.999237
0.298329 0.168246 0.999649
0.4757 0.180835 1
0.66392 0.189837 1
0.857908 0.201495 1
0.997818 0.211551 1
0.998795 0.213336 1
0 0.296864 0.998505
0.00416571 0.291371 0.998535
0.150408 0.286152 0.998978
0.278935 0.281468 0.999359
0.451469 0.307897 0.999802
0.640269 0.334737 1
0.830304 0.357855 1
0.976699 0.375708 1
0.999054 0.379446 1
0 0.452369 0.998184
0 0.445487 0.998199
0.145235 0.440864 0.998642
0.286397 0.433616 0.999069
0.422522 0.424552 0.999481
0.610513 0.462806 0.999954
0.796185 0.496666 1
0.948257 0.522957 1
0.999283 0.528695 1
0 0.624216 0.997848
0 0.617594 0.997864
0.134401 0.610605 0.99826
0.292683 0.601846 0.998749
0.439918 0.589807 0.999207
0.580545 0.582025 0.999634
0.756268 0.618204 1
0.914473 0.652201 1
0.999496 0.669566 1
0 0.799146 0.997497
0 0.789197 0.997528
0.125322 0.778317 0.997909
0.296132 0.765209 0.998428
0.451713 0.749477 0.998917
0.596506 0.735302 0.999359
0.729625 0.730587 0.999756
0.884642 0.766903 1
0.99968 0.789914 1
0 0.944427 0.997192
0 0.93489 0.997223
0.116304 0.92285 0.997589
0.299931 0.909209 0.998154
0.463432 0.89427 0.998657
0.613916 0.880934 0.999115
0.748394 0.87454 0.999527
0.868345 0.868818 0.999771
0.994095 0.899168 0.994446
0 1 0.997086
0 1 0.997086
0.0948501 1 0.997375
0.287526 1 0.997925
0.463142 1 0.998444
0.619303 0.998276 0.996689
0.757488 0.987625 0.98526
0.878614 0.982162 0.979644
0.976516 0.977127 0.976638
