public/luts/creative_looks/3Strip.cube
#Created by: Denver Riddle
#Copyright: (C) Copyright Color Grading Central LLC
#LUT Size
LUT_3D_SIZE 5
0 0 0
0.286427 0.00959792 0.00633249
0.588754 0.0197299 0.0130159
0.845533 0.028336 0.0186923
0.892638 0.0299229 0.0197299
0.000427253 0.283009 0
0.196719 0.22002 0.000122072
0.559915 0.166796 0.0249332
0.833173 0.166033 0.0327916
0.911116 0.169574 0.0349889
0.000900282 0.58967 0
0.0868238 0.575708 0
0.382895 0.442039 0.000213626
0.783871 0.434302 0.0230106
0.960494 0.439887 0.0387121
0.00134279 0.872511 0
0.0660868 0.865263 0
0.338933 0.788327 0
0.729549 0.760693 0.000579843
0.998932 0.750942 0.00891127
0.0015259 0.999756 0
0.0585336 0.99971 0
0.314748 0.999557 0
0.68336 0.999329 0
1 0.999115 0.000900282
0 0.000289921 0.329824
0.250828 6.10361e-05 0.251713
0.583871 0.0183413 0.186908
0.847272 0.0284428 0.183551
0.897932 0.0302586 0.180179
0 0.226368 0.198825
0.247822 0.249302 0.247822
0.558175 0.164767 0.162936
0.826566 0.165469 0.157671
0.908003 0.168765 0.160037
0.000656138 0.581155 0.0883345
0.087602 0.574075 0.0857557
0.400015 0.452323 0.107942
0.798764 0.431128 0.154482
0.950072 0.436973 0.16846
0.00114443 0.871565 0.0667277
0.0630198 0.856916 0.0601968
0.333974 0.803388 0.0824292
0.717113 0.750347 0.0907759
0.997421 0.740353 0.0999924
0.00135805 0.999802 0.0613107
0.0538643 0.999756 0.0505226
0.303609 0.999619 0.0569009
0.66923 0.999374 0.0525368
1 0.999161 0.0422522
0 0.000595102 0.678401
0.200183 0.000442512 0.65182
0.532311 0.000137331 0.534844
0.872618 0.0119936 0.502739
0.949554 0.0169375 0.500633
0 0.175235 0.614389
0.160418 0.16202 0.616114
0.491371 0.154269 0.492348
0.830747 0.187503 0.457633
0.931075 0.19678 0.45951
0 0.458076 0.39765
0.113497 0.461631 0.406912
0.532052 0.534386 0.532052
0.81445 0.432288 0.427771
0.937697 0.437003 0.431098
0.000289921 0.812039 0.355169
0.0951553 0.819059 0.341833
0.326925 0.83061 0.325124
0.703517 0.738979 0.382956
0.986603 0.730312 0.451301
0.000610361 1 0.340414
0.0755627 0.999985 0.315923
0.295811 0.999817 0.290272
0.653544 0.999664 0.376638
0.989899 0.989212 0.434226
0 0.000854505 0.964385
0.19585 0.000717174 0.956069
0.524483 0.00047303 0.919371
0.903777 0.000228885 0.906996
0.997772 0.000549325 0.904982
0 0.169741 0.930129
0.153338 0.156039 0.919768
0.476829 0.176394 0.886427
0.855116 0.193149 0.857466
0.995926 0.20856 0.85745
0 0.453208 0.823499
0.13991 0.441016 0.840955
0.423835 0.425406 0.867506
0.80148 0.462837 0.799237
0.983551 0.501213 0.79028
0 0.800412 0.77052
0.11664 0.780972 0.748363
0.397299 0.753262 0.716793
0.774273 0.781491 0.773861
0.970184 0.729809 0.72697
0 1 0.745388
0.0920424 1 0.708827
0.395819 1 0.671183
0.645685 0.994492 0.64445
0.978424 0.980056 0.746334
0 0.000885023 0.999115
0.194446 0.000747692 0.99968
0.52636 0.000549325 1
0.897917 0.00030518 1
0.998474 0.000244144 1
0 0.16846 0.998764
0.151507 0.15462 0.999237
0.4757 0.180835 1
0.857908 0.201495 1
0.998795 0.213336 1
0 0.452369 0.998184
0.145235 0.440864 0.998642
0.422522 0.424552 0.999481
0.796185 0.496666 1
0.999283 0.528695 1
0 0.799146 0.997497
0.125322 0.778317 0.997909
0.451713 0.749477 0.998917
0.729625 0.730587 0.999756
0.99968 0.789914 1
0 1 0.997086
0.0948501 1 0.997375
0.463142 1 0.998444
0.757488 0.987625 0.98526
0.976516 0.977127 0.976638
