public/luts/creative_looks/Amelie.cube
#Created by: Denver Riddle
#Copyright: (C) Copyright Color Grading Central LLC
#LUT Size
LUT_3D_SIZE 33
0 0.00343328 0
0 0.00318914 0
0 0.00408942 0
0.000610361 0.00714122 0
0.00433356 0.00755322 0
0.00769055 0.0114443 0
0.0131991 0.0153658 0
0.0220035 0.0196231 0
0.0344396 0.0256046 0
0.0504158 0.0334783 0
0.0717479 0.040528 0
0.0948806 0.0489509 0
0.119524 0.0575418 0
0.14641 0.0653697 0
0.174945 0.0723125 0
0.203845 0.078706 0
0.232822 0.083299 0
0.26305 0.0873884 0
0.296025 0.091371 0
0.33344 0.0937362 0
0.374441 0.0940108 0
0.421683 0.0929732 0
0.481285 0.0873884 0
0.538262 0.0782177 0
0.591058 0.0659648 0
0.633082 0.0497444 0
0.662776 0.0299382 0
0.680064 0.00697337 0
0.686488 0.000564584 0
0.68687 0 0
0.681697 0 0
0.677852 0 0
0.677043 0 0
0 0.0128634 0
0 0.0131533 0
0 0.0150149 0
0.000793469 0.0175479 0
0.00292973 0.0192264 0
0.00497444 0.023331 0
0.0112306 0.0277714 0
0.0212558 0.0343328 0
0.0349889 0.0415808 0
0.0554513 0.0486458 0
0.0801404 0.0556954 0
0.105653 0.0624704 0
0.132692 0.0701152 0
0.161563 0.0769207 0
0.19147 0.0824292 0
0.219013 0.0872969 0
0.248859 0.0916457 0
0.279332 0.0957809 0
0.311177 0.0997482 0
0.347951 0.101717 0
0.39115 0.100343 0
0.440238 0.0967117 0
0.492226 0.0909895 0
0.548501 0.0836957 0
0.600793 0.0730144 0
0.641398 0.0564279 0
0.670497 0.0370642 0
0.686168 0.0123751 0
0.692149 0.00164797 0
0.691325 0 0
0.685969 0 0
0.681941 0 0
0.680735 0 0
0 0.0310826 0
0 0.0332341 0
0 0.0363165 0
0 0.0386969 0
0 0.0421149 0
0.00244144 0.0475319 0
0.0108492 0.0542153 0
0.0241398 0.0610056 0
0.0411231 0.0663767 0
0.0649271 0.0721752 0
0.0914015 0.0782025 0
0.120562 0.0822919 0
0.150744 0.0865644 0
0.180072 0.0931106 0
0.207553 0.0985122 0
0.235111 0.100725 0
0.263264 0.10428 0
0.295003 0.10779 0
0.329458 0.109224 0
0.36405 0.109438 0
0.403143 0.10808 0
0.450248 0.104265 0
0.502113 0.0997177 0
0.55816 0.0927138 0
0.606912 0.081178 0
0.646479 0.066804 0
0.675944 0.0486458 0
0.692805 0.0239567 0
0.69987 0.00537118 0
0.699397 0 0
0.693629 0 0
0.688563 0 0
0.687053 0 0
0 0.0604715 0
0 0.0629587 0
0 0.0669261 0
0 0.0694591 0
0 0.0736706 0
0.00292973 0.0784772 0
0.0148928 0.0831922 0
0.0335851 0.0883345 0
0.0576944 0.0937514 0
0.0834211 0.0982834 0
0.110796 0.101869 0
0.13994 0.10547 0
0.168704 0.108919 0
0.196979 0.111391 0
0.224018 0.114687 0
0.250828 0.118288 0
0.278462 0.119692 0
0.30808 0.120607 0
0.340414 0.122118 0
0.374762 0.122393 0
0.412467 0.1196 0
0.456947 0.118105 0
0.509712 0.112337 0
0.563729 0.103853 0
0.612421 0.0929732 0
0.65304 0.0801099 0
0.681987 0.0637522 0
0.70106 0.0403906 0
0.709972 0.0149538 0
0.71104 0.000488289 0
0.705623 0 0
0.698909 0 0
0.696513 0 0
0 0.0926528 0
0 0.0939345 0
0 0.0972457 0
0 0.100832 0
0.000457771 0.104219 0
0.00735485 0.107988 0
0.0259403 0.112459 0
0.0509346 0.11664 0
0.0766155 0.119615 0
0.104555 0.123903 0
0.131685 0.127565 0
0.159991 0.129671 0
0.186557 0.130297 0
0.213611 0.131716 0
0.240208 0.133043 0
0.265827 0.134783 0
0.292073 0.136141 0
0.31989 0.136507 0
0.349477 0.136584 0
0.380697 0.13669 0
0.419211 0.135256 0
0.461952 0.132342 0
0.513054 0.126619 0
0.568017 0.117784 0
0.616632 0.108293 0
0.661082 0.0962997 0
0.690455 0.0820478 0
0.711986 0.0610666 0
0.724315 0.0339055 0
0.726467 0.00354009 0
0.721859 0 0
0.713695 0 0
0.709331 0 0
0 0.124269 0
0 0.125856 0
0 0.128115 0
0 0.131807 0
0.00373846 0.134127 0
0.0215915 0.137011 0
0.0488594 0.139864 0
0.0744945 0.14226 0
0.100237 0.145113 0
0.127275 0.146487 0
0.151659 0.147295 0
0.178805 0.147402 0
0.205509 0.148821 0
0.23122 0.149981 0
0.255924 0.150088 0
0.280446 0.150546 0
0.305867 0.15201 0
0.331655 0.151797 0
0.359792 0.152026 0
0.390249 0.151278 0
0.425772 0.149813 0
0.467048 0.146822 0
0.515679 0.141299 0
0.570413 0.133791 0
0.62208 0.125368 0
0.665446 0.113283 0
0.697215 0.100389 0
0.723537 0.0844892 0
0.736706 0.0632334 0
0.741955 0.0331731 0
0.739696 0.00735485 0
0.732586 0 0
0.7252 0 0
0 0.154742 0
0 0.155978 0
0 0.157382 0
0.00283818 0.159045 0
0.0179904 0.160678 0
0.0458381 0.161395 0
0.0739452 0.162692 0
0.0989853 0.163607 0
0.123903 0.164508 0
0.148318 0.166064 0
0.171511 0.165698 0
0.197391 0.165164 0
0.223728 0.165698 0
0.248615 0.165866 0
0.272496 0.165866 0
0.296666 0.166461 0
0.320821 0.167193 0
0.346563 0.166934 0
0.372656 0.166979 0
0.401816 0.166445 0
0.434669 0.16466 0
0.472587 0.161395 0
0.519722 0.156176 0
0.574472 0.149889 0
0.624811 0.141817 0
0.669047 0.131472 0
0.70277 0.121233 0
0.729076 0.109148 0
0.748119 0.0919814 0
0.757931 0.0674907 0
0.759915 0.0348211 0
0.754025 0.00546273 0
0.745342 0 0
0 0.181338 0
0 0.182284 0
0.0041352 0.182773 0
0.018143 0.182406 0
0.0425574 0.182635 0
0.0713512 0.183139 0
0.0979019 0.183749 0
0.122423 0.183215 0
0.146242 0.182239 0
0.168765 0.182956 0
0.191073 0.183673 0
0.216861 0.183185 0
0.241856 0.182391 0
0.266026 0.181552 0
0.28986 0.181704 0
0.313863 0.182483 0
0.336919 0.181949 0
0.363897 0.1823 0
0.387747 0.181674 0
0.414725 0.181003 0
0.44741 0.180133 0
0.480262 0.17705 0
0.525902 0.17203 0
0.575113 0.165927 0
0.623789 0.159426 0
0.670054 0.151751 0
0.706844 0.144183 0
0.735943 0.134432 0
0.761059 0.121279 0
0.776013 0.101869 0
0.781872 0.073991 0
0.778836 0.0320897 0
0.770138 0.00326543 0
0.0135348 0.204837 0
0.0185245 0.204532 0
0.0288701 0.204196 0
0.0472267 0.203281 0
0.0713512 0.202564 0
0.095964 0.202731 0
0.119417 0.203708 0
0.143526 0.202335 0
0.166506 0.2009 0
0.189242 0.19971 0
0.211551 0.20032 0
0.236423 0.199985 0
0.259739 0.199191 0
0.283772 0.198688 0
0.307164 0.198398 0
0.32813 0.197803 0
0.354604 0.197147 0
0.379507 0.196796 0
0.402594 0.196429 0
0.426993 0.19588 0
0.457694 0.19527 0
0.489952 0.192981 0
0.529809 0.189364 0
0.576196 0.183719 0
0.626215 0.177325 0
0.672541 0.171283 0
0.710735 0.165988 0
0.743236 0.159258 0
0.772534 0.148898 0
0.794919 0.134249 0
0.80502 0.110994 0
0.806912 0.078996 0
0.799756 0.0299992 0
0.0446937 0.226078 0
0.050782 0.224964 0
0.0630961 0.223911 0
0.0798962 0.223224 0
0.0986038 0.222339 0
0.1196 0.221378 0
0.140078 0.222644 0
0.164172 0.221256 0
0.184634 0.219699 0
0.208331 0.218631 0
0.230747 0.216892 0
0.253208 0.216571 0
0.277089 0.216129 0
0.300908 0.215793 0
0.323796 0.2159 0
0.34435 0.21471 0
0.368109 0.213794 0
0.390875 0.213046 0
0.414023 0.212589 0
0.438666 0.212314 0
0.468711 0.211948 0
0.499901 0.209827 0
0.537148 0.206821 0
0.581277 0.202365 0
0.631373 0.196658 0
0.680232 0.192096 0
0.720562 0.188022 0
0.755459 0.184009 0
0.785641 0.178241 0
0.811078 0.167178 0
0.829541 0.149187 0
0.837186 0.123583 0
0.833509 0.0840772 0
0.0829633 0.246616 0
0.086183 0.245335 0
0.0950942 0.2439 0
0.107286 0.242863 0
0.120195 0.244236 0
0.140536 0.242817 0
0.157458 0.241443 0
0.181369 0.240101 0
0.202289 0.238636 0
0.225376 0.23917 0
0.24828 0.235981 0
0.270466 0.2336 0
0.292638 0.233158 0
0.315648 0.232807 0
0.337346 0.231846 0
0.359091 0.231647 0
0.381491 0.230793 0
0.403861 0.230335 0
0.426703 0.23006 0
0.452094 0.23006 0
0.480201 0.23006 0
0.511086 0.228855 0
0.548775 0.226993 0
0.5935 0.223377 0
0.642451 0.218082 0
0.691676 0.215625 0
0.732464 0.213611 0
0.768048 0.212055 0
0.800229 0.209094 0
0.828717 0.201175 0
0.851347 0.188907 0
0.864256 0.169009 0
0.866697 0.137407 0
0.116564 0.268803 0
0.11873 0.267491 0
0.12401 0.265919 0
0.132891 0.264302 0
0.145129 0.263005 0
0.159045 0.261662 0
0.177462 0.260319 0
0.19791 0.26038 0
0.217609 0.259327 0
0.238636 0.258183 0
0.261173 0.256168 0
0.284077 0.252674 0
0.307301 0.251347 0
0.329549 0.251575 0
0.351659 0.247349 0
0.373602 0.248814 0
0.397208 0.248707 0
0.421622 0.248798 0
0.445716 0.24918 0
0.470695 0.249836 0
0.495293 0.250233 0
0.525734 0.250553 0
0.563912 0.250645 0
0.608942 0.248478 0
0.657481 0.244175 0
0.704662 0.242527 0
0.744869 0.241367 0
0.780514 0.242206 0
0.814572 0.242115 0
0.845472 0.238025 0
0.870405 0.231052 0
0.888792 0.216648 0
0.897292 0.189014 0
0.141741 0.287709 0
0.143053 0.286336 0
0.147677 0.284871 0
0.153826 0.284672 0
0.164569 0.283986 0
0.177172 0.282322 0
0.192538 0.280278 0
0.210971 0.279164 0
0.230213 0.278859 0
0.250858 0.277211 0
0.273411 0.275685 0
0.297032 0.274006 0
0.320989 0.272175 0
0.344564 0.270588 0
0.368109 0.269429 0
0.391485 0.268864 0
0.414923 0.26894 0
0.438804 0.269215 0
0.464469 0.270008 0
0.492714 0.271702 0
0.516091 0.272557 0
0.545693 0.274067 0
0.582223 0.275578 0
0.622797 0.274403 0
0.669612 0.273487 0
0.715389 0.273823 0
0.754391 0.271962 0
0.79295 0.273014 0
0.828367 0.274861 0
0.859449 0.274952 0
0.887999 0.272587 0
0.910369 0.263203 0
0.922606 0.240436 0
0.166674 0.309071 0
0.166827 0.30724 0
0.169024 0.306279 0
0.173312 0.305531 0
0.181445 0.304219 0
0.193774 0.303227 0
0.206836 0.301305 0
0.223651 0.299474 0
0.24094 0.297765 0
0.261784 0.296178 0
0.286992 0.294972 0
0.308873 0.29366 0
0.334524 0.292653 0
0.360174 0.294835 0
0.385245 0.294072 0
0.412726 0.293858 0
0.43772 0.294072 0
0.463127 0.295033 0
0.488197 0.296376 0
0.511269 0.298451 0
0.538079 0.299763 0
0.567163 0.301946 0
0.602243 0.30457 0
0.64036 0.302632 0
0.68307 0.302953 0
0.726986 0.305531 0
0.764599 0.304677 0
0.803159 0.308019 0
0.841016 0.312139 0
0.872892 0.313359 0
0.902113 0.31368 0
0.926513 0.308553 0
0.944381 0.290654 0
0.186954 0.331624 0
0.186572 0.329412 0
0.18909 0.328161 0
0.19263 0.328511 0
0.199039 0.327108 0
0.211063 0.324681 0
0.221424 0.323079 0
0.239139 0.321935 0
0.257527 0.321035 0
0.275883 0.320073 0
0.301488 0.322545 0
0.324498 0.322179 0
0.350896 0.321447 0
0.378454 0.321569 0
0.405554 0.321309 0
0.434775 0.320989 0
0.460304 0.321309 0
0.486549 0.322271 0
0.511452 0.325216 0
0.534844 0.329519 0
0.558633 0.331136 0
0.590066 0.332799 0
0.624552 0.333822 0
0.658274 0.334188 0
0.699275 0.33431 0
0.739635 0.339086 0
0.773159 0.340322 0
0.812543 0.342275 0
0.850248 0.346471 0
0.881636 0.349233 0
0.910842 0.352758 0
0.938338 0.3505 0
0.960189 0.33608 0
0.206012 0.355886 0
0.204807 0.35404 0
0.206958 0.352087 0
0.212741 0.350362 0
0.219272 0.352773 0
0.226184 0.348318 0
0.240223 0.347311 0
0.255268 0.349828 0
0.273762 0.34963 0
0.295964 0.349264 0
0.319738 0.349554 0
0.343435 0.349615 0
0.370672 0.352636 0
0.398871 0.353063 0
0.426703 0.352819 0
0.454292 0.352819 0
0.48014 0.353185 0
0.507225 0.354162 0
0.534264 0.356176 0
0.559564 0.358618 0
0.584268 0.360983 0
0.61355 0.365484 0
0.647517 0.366918 0
0.680446 0.367285 0
0.717937 0.368124 0
0.753521 0.372122 0
0.784772 0.37435 0
0.819516 0.3776 0
0.855177 0.379568 0
0.887022 0.382559 0
0.916259 0.384237 0
0.944259 0.385824 0
0.968887 0.377356 0
0.228199 0.381353 0
0.227237 0.380148 0
0.229938 0.379171 0
0.233127 0.37818 0
0.239734 0.377661 0
0.247364 0.380148 0
0.261738 0.380316 0
0.277424 0.380697 0
0.296376 0.380636 0
0.316533 0.380758 0
0.336934 0.381003 0
0.360662 0.381369 0
0.388235 0.385168 0
0.416663 0.385779 0
0.444968 0.385779 0
0.472984 0.386023 0
0.5037 0.386892 0
0.532845 0.388235 0
0.56051 0.392782 0
0.583673 0.393606 0
0.608804 0.394202 0
0.638972 0.397757 0
0.668971 0.4 0
0.69868 0.40032 0
0.732265 0.401434 0
0.76524 0.40441 0
0.793637 0.406989 0
0.822843 0.407553 0
0.856977 0.410925 0
0.887984 0.412116 0
0.918547 0.415305 0
0.947295 0.418753 0
0.974685 0.414649 0
0.25275 0.412924 0
0.252216 0.412238 0
0.255177 0.411826 0
0.258976 0.411688 0
0.266361 0.411826 0
0.274266 0.412192 0
0.28896 0.412375 0
0.304936 0.415549 0
0.321431 0.416434 0
0.337957 0.413611 0
0.361227 0.41709 0
0.382086 0.41796 0
0.410163 0.422415 0
0.439063 0.423255 0
0.468071 0.42356 0
0.497108 0.420462 0
0.528527 0.421393 0
0.558129 0.424353 0
0.585687 0.427207 0
0.610086 0.42649 0
0.634363 0.428916 0
0.660639 0.431617 0
0.687739 0.43125 0
0.714565 0.431022 0
0.743587 0.431968 0
0.772946 0.433265 0
0.799329 0.435416 0
0.827161 0.435966 0
0.857649 0.439155 0
0.888212 0.442435 0
0.917922 0.44535 0
0.948425 0.448676 0
0.976715 0.448661 0
0.27924 0.443503 0
0.279347 0.443626 0
0.282612 0.443626 0
0.286915 0.443992 0
0.294469 0.447303 0
0.302647 0.448081 0
0.314672 0.448493 0
0.33048 0.449119 0
0.343694 0.450004 0
0.363592 0.450568 0
0.380423 0.451392 0
0.405066 0.456001 0
0.433692 0.456733 0
0.461936 0.456931 0
0.488457 0.454566 0
0.52047 0.455116 0
0.551781 0.456291 0
0.580697 0.459724 0
0.604593 0.457572 0
0.628214 0.457877 0
0.652949 0.46009 0
0.67808 0.461158 0
0.70277 0.460548 0
0.727398 0.460395 0
0.753353 0.460655 0
0.779858 0.461143 0
0.804791 0.462867 0
0.829984 0.463188 0
0.857572 0.466239 0
0.887282 0.469261 0
0.915145 0.472343 0
0.944762 0.475593 0
0.973037 0.478752 0
0.303487 0.478767 0
0.307012 0.479454 0
0.30811 0.479866 0
0.311879 0.480278 0
0.319707 0.480858 0
0.328191 0.481498 0
0.34049 0.485939 0
0.353338 0.48336 0
0.366125 0.484138 0
0.386542 0.485176 0
0.407202 0.489219 0
0.431312 0.489998 0
0.455879 0.491035 0
0.481254 0.491173 0
0.509346 0.491173 0
0.537301 0.490806 0
0.566979 0.49044 0
0.595102 0.49044 0
0.618647 0.490562 0
0.641718 0.490806 0
0.666529 0.490562 0
0.691707 0.48983 0
0.716793 0.489952 0
0.740505 0.490318 0
0.762493 0.488487 0
0.786694 0.488472 0
0.810803 0.491005 0
0.834028 0.493141 0
0.860059 0.494881 0
0.884825 0.496208 0
0.911818 0.499306 0
0.941161 0.502281 0
0.970535 0.505455 0
0.331838 0.515724 0
0.332586 0.516548 0
0.336614 0.517235 0
0.341146 0.518013 0
0.345678 0.518746 0
0.354116 0.515816 0
0.363012 0.52047 0
0.375677 0.52108 0
0.392111 0.521691 0
0.408972 0.522362 0
0.429191 0.52343 0
0.449638 0.524147 0
0.47277 0.52604 0
0.496345 0.522469 0
0.522957 0.521645 0
0.550011 0.520775 0
0.578973 0.519982 0
0.607187 0.51986 0
0.630716 0.519738 0
0.653773 0.519615 0
0.677974 0.519234 0
0.701808 0.518257 0
0.726452 0.517861 0
0.751141 0.518257 0
0.772107 0.515938 0
0.793744 0.516014 0
0.81445 0.518181 0
0.837079 0.520302 0
0.860044 0.520455 0
0.88275 0.523018 0
0.908186 0.525948 0
0.93576 0.527443 0
0.964614 0.529686 0
0.353491 0.549752 0
0.354131 0.550607 0
0.354681 0.551354 0
0.359304 0.552087 0
0.367514 0.55285 0
0.376074 0.554116 0
0.385489 0.554818 0
0.397955 0.555093 0
0.412909 0.554955 0
0.428504 0.554742 0
0.44773 0.557351 0
0.466926 0.556741 0
0.48925 0.556008 0
0.511788 0.555032 0
0.534997 0.553918 0
0.561257 0.553002 0
0.586923 0.548821 0
0.614557 0.548287 0
0.638331 0.548043 0
0.663188 0.547799 0
0.686778 0.547433 0
0.708965 0.546319 0
0.734295 0.545785 0
0.757473 0.545953 0
0.777859 0.543267 0
0.798657 0.542702 0
0.818601 0.544549 0
0.838865 0.545541 0
0.859785 0.546883 0
0.881071 0.548058 0
0.904906 0.550896 0
0.931273 0.552911 0
0.959869 0.554574 0
0.378546 0.584115 0
0.379095 0.585077 0
0.380285 0.585763 0
0.384192 0.586465 0
0.389288 0.587076 0
0.396643 0.589578 0
0.407919 0.58909 0
0.41912 0.588479 0
0.430533 0.587869 0
0.445747 0.587259 0
0.464347 0.586404 0
0.482673 0.585412 0
0.501335 0.584436 0
0.520272 0.583337 0
0.546441 0.582361 0
0.569345 0.581247 0
0.594293 0.580118 0
0.62118 0.577035 0
0.645487 0.575982 0
0.66862 0.57586 0
0.692531 0.575616 0
0.716075 0.574502 0
0.739101 0.572854 0
0.761181 0.571832 0
0.782742 0.570214 0
0.801297 0.568185 0
0.820813 0.56994 0
0.83888 0.569787 0
0.859586 0.572641 0
0.87866 0.573739 0
0.901854 0.57554 0
0.927153 0.578454 0
0.95555 0.580102 0
0.400122 0.621073 0
0.400595 0.621317 0
0.403418 0.621073 0
0.404059 0.620462 0
0.410697 0.619852 0
0.414786 0.61912 0
0.425315 0.618265 0
0.436347 0.617517 0
0.447303 0.616663 0
0.46183 0.615686 0
0.480049 0.61471 0
0.495125 0.613596 0
0.513222 0.612497 0
0.531975 0.611399 0
0.554452 0.610178 0
0.576959 0.609064 0
0.60145 0.608209 0
0.626032 0.605463 0
0.649668 0.6038 0
0.672724 0.6038 0
0.695903 0.603098 0
0.718334 0.600015 0
0.741421 0.600855 0
0.762829 0.598459 0
0.785183 0.597223 0
0.803738 0.595087 0
0.822049 0.594858 0
0.840101 0.595712 0
0.859663 0.59852 0
0.876966 0.600687 0
0.899504 0.600992 0
0.923156 0.603708 0
0.950484 0.605905 0
0.42237 0.651469 0
0.422217 0.651225 0
0.42182 0.650492 0
0.425101 0.649638 0
0.428321 0.648646 0
0.435248 0.647669 0
0.442344 0.646815 0
0.452888 0.645838 0
0.463676 0.644846 0
0.474678 0.643748 0
0.489113 0.642527 0
0.506477 0.641428 0
0.524971 0.640436 0
0.543587 0.639216 0
0.563073 0.637995 0
0.584497 0.636759 0
0.606989 0.634379 0
0.630274 0.632456 0
0.653574 0.631861 0
0.676173 0.631861 0
0.697612 0.631556 0
0.719295 0.629404 0
0.740841 0.6271 0
0.762768 0.625254 0
0.784909 0.624811 0
0.805508 0.62443 0
0.824079 0.62237 0
0.841398 0.623621 0
0.859297 0.626551 0
0.876921 0.62742 0
0.897581 0.627451 0
0.920363 0.629831 0
0.946288 0.63267 0
0.440589 0.680644 0
0.440131 0.679896 0
0.439582 0.67892 0
0.442405 0.677943 0
0.445548 0.676844 0
0.45214 0.675975 0
0.459022 0.674876 0
0.466316 0.673655 0
0.476371 0.672541 0
0.489387 0.671443 0
0.503639 0.670344 0
0.518959 0.669367 0
0.536446 0.668132 0
0.555062 0.666911 0
0.573739 0.66569 0
0.593149 0.663371 0
0.614008 0.66096 0
0.635569 0.6598 0
0.657191 0.659922 0
0.678477 0.660166 0
0.698878 0.660166 0
0.718883 0.659678 0
0.739345 0.654902 0
0.761471 0.652461 0
0.783917 0.653803 0
0.804776 0.652567 0
0.822705 0.652873 0
0.838972 0.650462 0
0.857282 0.653117 0
0.875135 0.655787 0
0.895445 0.656596 0
0.916304 0.656291 0
0.941711 0.656489 0
0.458289 0.708949 0
0.457679 0.707973 0
0.459861 0.706859 0
0.46276 0.70576 0
0.463447 0.704906 0
0.468498 0.70367 0
0.47541 0.702571 0
0.482292 0.701473 0
0.491524 0.700252 0
0.503029 0.699138 0
0.516793 0.698283 0
0.531441 0.697185 0
0.547066 0.696071 0
0.564828 0.69485 0
0.582803 0.692836 0
0.601678 0.690227 0
0.621759 0.688487 0
0.641642 0.688365 0
0.66157 0.688609 0
0.680064 0.688975 0
0.699168 0.689342 0
0.717891 0.689342 0
0.736736 0.684916 0
0.759014 0.682353 0
0.78204 0.682765 0
0.803067 0.68127 0
0.820447 0.680522 0
0.838941 0.680079 0
0.857527 0.679759 0
0.875685 0.680034 0
0.893553 0.683665 0
0.914809 0.68127 0
0.938918 0.681117 0
0.479042 0.736767 0
0.480674 0.73579 0
0.481346 0.73492 0
0.481285 0.7337 0
0.48452 0.732601 0
0.48864 0.731365 0
0.494331 0.730266 0
0.501106 0.729168 0
0.508919 0.728313 0
