public/luts/creative_looks/Amelie.cube
#Created by: Denver Riddle
#Copyright: (C) Copyright Color Grading Central LLC
#LUT Size
LUT_3D_SIZE 9
0 0.00343328 0
0.00433356 0.00755322 0
0.0344396 0.0256046 0
0.119524 0.0575418 0
0.232822 0.083299 0
0.374441 0.0940108 0
0.591058 0.0659648 0
0.686488 0.000564584 0
0.677043 0 0
0 0.0926528 0
0.000457771 0.104219 0
0.0766155 0.119615 0
0.186557 0.130297 0
0.292073 0.136141 0
0.419211 0.135256 0
0.616632 0.108293 0
0.724315 0.0339055 0
0.709331 0 0
0.0135348 0.204837 0
0.0713512 0.202564 0
0.166506 0.2009 0
0.259739 0.199191 0
0.354604 0.197147 0
0.457694 0.19527 0
0.626215 0.177325 0
0.772534 0.148898 0
0.799756 0.0299992 0
0.141741 0.287709 0
0.164569 0.283986 0
0.230213 0.278859 0
0.320989 0.272175 0
0.414923 0.26894 0
0.516091 0.272557 0
0.669612 0.273487 0
0.828367 0.274861 0
0.922606 0.240436 0
0.228199 0.381353 0
0.239734 0.377661 0
0.296376 0.380636 0
0.388235 0.385168 0
0.5037 0.386892 0
0.608804 0.394202 0
0.732265 0.401434 0
0.856977 0.410925 0
0.974685 0.414649 0
0.331838 0.515724 0
0.345678 0.518746 0
0.392111 0.521691 0
0.47277 0.52604 0
0.578973 0.519982 0
0.677974 0.519234 0
0.772107 0.515938 0
0.860044 0.520455 0
0.964614 0.529686 0
0.42237 0.651469 0
0.428321 0.648646 0
0.463676 0.644846 0
0.524971 0.640436 0
0.606989 0.634379 0
0.697612 0.631556 0
0.784909 0.624811 0
0.859297 0.626551 0
0.946288 0.63267 0
0.499901 0.761654 0
0.503487 0.758007 0
0.526452 0.753811 0
0.571221 0.749325 0
0.634989 0.744701 0
0.700298 0.744381 0
0.773861 0.741802 0
0.852888 0.73959 0
0.939376 0.73756 0
0.595895 0.861158 0
0.595743 0.859159 0
0.611048 0.858396 0
0.643641 0.858549 0
0.689067 0.860227 0
0.744778 0.869642 0
0.807309 0.86978 0.056672
0.878798 0.872618 0.11339
0.963729 0.881468 0.219211
0 0.00366217 0
0.00296025 0.0115816 0
0.027924 0.0339208 0.000228885
0.11783 0.0675212 0.00183108
0.240299 0.0944686 0
0.382269 0.101686 0
0.482094 0.072282 0
0.534325 0.0393835 0
0.62208 0 0
0 0.106004 0
0.000167849 0.120516 0
0.116594 0.121141 0.00360113
0.212604 0.131731 0.00204471
0.319402 0.138277 0
0.457115 0.133303 0
0.549844 0.094255 0
0.577646 0.0481422 0
0.642649 0 0
0.00779736 0.211475 0
0.0606088 0.209384 0
0.15874 0.207584 0
0.23473 0.21326 7.62951e-05
0.357977 0.199832 0.000503548
0.488121 0.1944 0
0.646677 0.166339 0
0.692912 0.107134 0
0.696208 0.0144656 0
0.134676 0.29221 0
0.157839 0.285969 0
0.222187 0.280812 0
0.313497 0.274739 0
0.406928 0.275196 0
0.516991 0.281163 0
0.689998 0.279164 0
0.820645 0.266896 0
0.82385 0.165194 0
0.222995 0.383703 0
0.235264 0.380758 0
0.294148 0.384802 0
0.38497 0.389624 0
0.501656 0.393042 0
0.604257 0.403586 0
0.730404 0.408865 0
0.863157 0.415808 0
0.95111 0.381231 0
0.325277 0.516793 0
0.342596 0.51986 0
0.388861 0.523964 0
0.467643 0.525856 0
0.56994 0.522713 0
0.670405 0.519081 0
0.763119 0.518944 0
0.854017 0.523201 0
0.963088 0.530053 0
0.417838 0.6542 0
0.423758 0.651041 0
0.458289 0.643885 0
0.519814 0.639994 0
0.601877 0.633921 0
0.691829 0.630518 0
0.780926 0.624262 0
0.853239 0.627039 0
0.944213 0.633143 0
0.498802 0.760372 0
0.501045 0.756832 0
0.524178 0.753613 0
0.56875 0.748806 0
0.633722 0.744335 0
0.698466 0.744274 0
0.77116 0.741909 0
0.851713 0.740551 0.007187
0.936706 0.738766 0.0330205
0.590829 0.859724 0
0.594034 0.858381 0
0.6112 0.858396 0
0.644175 0.859007 0
0.689632 0.861158 0
0.746166 0.870817 0
0.808042 0.870863 0.0602121
0.877806 0.875731 0.123812
0.964523 0.883909 0.238025
0.00128176 0.00914015 0
0.00415045 0.0171206 0.00392157
0.0198215 0.0453498 0.00529488
0.0881666 0.0843214 0.0112306
0.205814 0.11313 0.0146944
0.312901 0.115999 0.00228885
0.413184 0.109667 0
0.608881 0.0934005 0
0.848478 0.0238346 0
0 0.114092 0
0 0.126253 0.00448615
0.0709392 0.140108 0.0159152
0.169436 0.147143 0.0306554
0.293278 0.150698 0.0196231
0.369924 0.140093 0.00234989
0.44712 0.124086 0
0.593561 0.102525 0
0.833326 0.0313115 0
0.00848402 0.218082 0.0166934
0.0505226 0.214954 0.0233616
0.150973 0.213214 0.0362707
0.284871 0.196735 0.0715038
0.392447 0.188434 0.0314031
0.462745 0.178897 0.00263981
0.509834 0.150805 0
0.598337 0.130541 0
0.810803 0.0843977 0
0.119905 0.297459 0.0356756
0.141756 0.289555 0.0339666
0.21001 0.286397 0.0386511
0.296101 0.281682 0.0476539
0.371695 0.293111 0.0363775
0.552941 0.279896 0.0187228
0.663157 0.255741 0
0.685695 0.212085 0
0.805219 0.16762 0
0.210437 0.389593 0.0180972
0.224414 0.38793 0.0201419
0.28275 0.392096 0.0271611
0.367178 0.398337 0.0371099
0.487297 0.401251 0.0567636
0.567239 0.419867 0.0700389
0.728267 0.417472 0.0172122
0.849775 0.405295 0
0.848524 0.297322 0
0.317647 0.521569 0
0.331533 0.525353 0.00177005
0.380957 0.530877 0.00502022
0.454551 0.52871 0.00982681
0.55259 0.525567 0.0223545
0.657237 0.525032 0.0401312
0.746868 0.525979 0.061799
0.850858 0.52781 0.00877394
0.952163 0.508721 0
0.405524 0.653559 0
0.414542 0.650004 0
0.448554 0.645838 0
0.506523 0.641169 0
0.589319 0.636027 0.000442512
0.677791 0.632258 0.014435
0.770397 0.626719 0.0410315
0.843107 0.630671 0.0881819
0.942718 0.636133 0.0109407
0.49044 0.759091 0
0.492042 0.75555 0
0.515389 0.752102 0.000732433
0.559609 0.746365 0.00280766
0.625757 0.744244 0.0115663
0.689525 0.744427 0.0468147
0.763424 0.742336 0.0857099
0.845563 0.741375 0.131838
0.932982 0.743526 0.145937
0.572854 0.861036 0
0.574533 0.860166 0.000122072
0.590173 0.856825 0.00115969
0.623346 0.857404 0.00202945
0.671412 0.859388 0.00457771
0.735973 0.868406 0.00733959
0.807599 0.872312 0.0733959
0.875517 0.878431 0.141192
0.966308 0.88574 0.256001
0.00436408 0.0189059 0.00296025
0.00926223 0.0260166 0.00505074
0.0231327 0.056611 0.0149996
0.0883955 0.091783 0.0317693
0.181674 0.126467 0.049424
0.281209 0.142779 0.0357519
0.464591 0.147219 0.023621
0.714183 0.118517 0.02533
0.916274 0.0222171 0.0222782
0.00523384 0.118639 0.00433356
0.0184787 0.131197 0.0167086
0.0721447 0.146044 0.0444495
0.154437 0.153597 0.0674449
0.240772 0.166476 0.0717021
0.325811 0.166979 0.0402533
0.50454 0.160723 0.0261234
0.727291 0.140047 0.0198367
0.927855 0.0725109 0.0107118
0.0639353 0.217685 0.053727
0.0794232 0.216754 0.0647898
0.142992 0.215366 0.0886702
0.228885 0.21445 0.10396
0.321279 0.215656 0.0951858
0.401801 0.202319 0.0497292
0.558053 0.191485 0.0231327
0.756695 0.191684 0.0132448
0.9561 0.167987 0.00697337
0.124086 0.300542 0.0941939
0.138293 0.294514 0.0948043
0.199939 0.288655 0.108278
0.286854 0.287648 0.123293
0.437354 0.272389 0.125185
0.535424 0.265232 0.0984512
0.632212 0.255253 0.0337377
0.751446 0.256382 0.000579843
0.972747 0.297597 0.00047303
0.197528 0.396262 0.103746
0.215274 0.395834 0.107317
0.275456 0.397421 0.119722
0.363912 0.403494 0.136461
0.480705 0.411215 0.148653
0.56672 0.431083 0.133181
0.726757 0.380346 0.0492256
0.764996 0.351034 0
0.872358 0.311666 0
0.306615 0.530388 0.109957
0.320912 0.533578 0.115358
0.37052 0.534401 0.124102
0.448951 0.535546 0.134249
0.539208 0.531716 0.143374
0.640574 0.529076 0.153109
0.705577 0.53991 0.150072
0.851774 0.530098 0.0799115
0.904707 0.446738 0
0.397086 0.656245 0.102129
0.402335 0.652567 0.102083
0.437018 0.647486 0.105959
0.498207 0.641108 0.116686
0.579553 0.637232 0.127962
0.664134 0.635065 0.146212
0.757061 0.629892 0.164187
0.829358 0.635248 0.187182
0.941817 0.631571 0.072755
0.476387 0.757794 0.121248
0.479973 0.754467 0.118013
0.502892 0.751583 0.121553
0.552193 0.748028 0.136706
0.618982 0.745083 0.15285
0.680735 0.744381 0.17261
0.755688 0.743526 0.198154
0.838361 0.742809 0.231586
0.932067 0.744808 0.227329
0.555566 0.860533 0.101167
0.558633 0.859922 0.103746
0.575631 0.860166 0.107347
0.608438 0.859434 0.110674
0.657038 0.861265 0.112001
0.712184 0.868147 0.0980545
0.786297 0.869886 0.0784466
0.874235 0.880949 0.212329
0.965988 0.88922 0.326162
0.00526436 0.0366217 0.00392157
0.0144045 0.0420539 0.00784314
0.038117 0.0661936 0.0263066
0.0914931 0.0990921 0.060853
0.186526 0.13138 0.0767529
0.270954 0.155917 0.0717479
0.456748 0.168444 0.0770428
0.688457 0.139361 0.0989853
0.932021 0 0.12491
0.0341192 0.12932 0.0131228
0.0614786 0.136522 0.0289464
0.0930953 0.146548 0.0730144
0.155306 0.15613 0.105852
0.239689 0.16936 0.100526
0.313313 0.181003 0.0861982
0.489342 0.186801 0.0849622
0.700725 0.155581 0.0989548
0.936278 0.0395514 0.117739
0.122286 0.217227 0.073579
0.133227 0.215 0.0907149
0.155306 0.216785 0.128191
0.225132 0.21735 0.153002
0.307897 0.221546 0.134005
0.372351 0.224125 0.106935
0.552193 0.22388 0.0969711
0.761761 0.198886 0.109361
0.971298 0.155322 0.128145
0.165743 0.30045 0.135286
0.166369 0.293202 0.139742
0.200748 0.290776 0.157565
0.285481 0.291539 0.181399
0.382345 0.298909 0.182361
0.48455 0.301167 0.142535
0.642847 0.301274 0.11342
0.840986 0.308125 0.11487
0.996674 0.302876 0.116426
0.209369 0.400122 0.162417
0.219852 0.400763 0.165682
0.275517 0.405737 0.182788
0.365377 0.412253 0.200549
0.477134 0.415961 0.222705
0.615091 0.405539 0.190417
0.765759 0.401526 0.181781
0.838254 0.393957 0.0995956
0.983673 0.418814 0.0561532
0.303502 0.539361 0.177386
0.315175 0.542245 0.183108
0.365209 0.541772 0.194476
0.444022 0.538231 0.208377
0.53727 0.537453 0.225116
0.634333 0.53547 0.232883
0.718578 0.540413 0.194522
0.834607 0.474052 0.0888685
0.883528 0.42739 0
0.388418 0.658946 0.183963
0.396124 0.655436 0.184344
0.4309 0.651225 0.1906
0.494697 0.645075 0.205829
0.574853 0.637903 0.22005
0.656245 0.638743 0.238697
0.748775 0.634546 0.25362
0.80557 0.647089 0.253117
0.931991 0.596841 0.0910353
0.46978 0.75938 0.208911
0.472984 0.755673 0.205875
0.497322 0.753368 0.213031
0.546075 0.749325 0.228717
0.613001 0.744869 0.247868
0.676173 0.747387 0.265629
0.749004 0.747234 0.287984
0.831647 0.746899 0.317143
0.933471 0.747799 0.28719
0.543481 0.861326 0.217517
0.545892 0.861051 0.217639
0.562524 0.861738 0.223621
0.595972 0.863523 0.232502
0.645136 0.866148 0.245304
0.699275 0.871412 0.250919
0.776867 0.873045 0.253773
0.860105 0.877333 0.230503
0.966186 0.891508 0.367803
0.00483711 0.0591897 0.00784314
0.0116579 0.0652171 0.011017
0.0500649 0.082475 0.0352483
0.104921 0.109438 0.091722
0.194018 0.139513 0.110506
0.303868 0.15819 0.129534
0.482185 0.162783 0.143893
0.683131 0.148623 0.165972
0.925658 0.0237125 0.201587
0.0335699 0.147158 0.0222934
0.0629282 0.151949 0.0423133
0.112657 0.151827 0.0875257
0.160052 0.160342 0.142473
0.243534 0.172305 0.141161
0.346441 0.182528 0.148959
0.502724 0.183368 0.14963
0.677913 0.171633 0.160952
0.92575 0.0687266 0.196353
0.120012 0.230198 0.0893111
0.138766 0.225116 0.103441
0.18146 0.218997 0.14818
0.227863 0.220188 0.194644
0.306264 0.225605 0.176699
0.408484 0.228748 0.172549
0.549538 0.230243 0.162463
0.729458 0.222141 0.175891
0.972839 0.157549 0.221805
0.213855 0.299077 0.158206
0.215976 0.291981 0.162097
0.234348 0.293126 0.198856
0.289052 0.298039 0.234974
0.389822 0.306096 0.221332
0.481483 0.31696 0.195743
0.628473 0.330083 0.178317
0.801648 0.331151 0.188067
1 0.300313 0.218936
0.244785 0.406989 0.20911
0.252567 0.408499 0.216724
0.288975 0.414343 0.234592
0.371435 0.421637 0.26482
0.481392 0.427726 0.287037
0.591058 0.434943 0.25156
0.658961 0.421927 0.186862
0.833143 0.435325 0.177646
0.992416 0.429496 0.182422
0.320317 0.548165 0.240848
0.330922 0.550362 0.243656
0.368139 0.548165 0.256931
0.442557 0.544839 0.278141
0.538415 0.54049 0.297368
0.630793 0.540291 0.309483
0.752972 0.511009 0.243503
0.863874 0.509957 0.230045
0.951904 0.501961 0.116548
0.395117 0.665248 0.249836
0.398917 0.660685 0.250492
0.43183 0.655863 0.259983
0.493187 0.647547 0.274968
0.575402 0.642618 0.294987
0.654124 0.640345 0.315618
0.741772 0.640085 0.330877
0.84567 0.639887 0.278294
0.909194 0.542031 0.0669108
0.472862 0.761151 0.273472
0.475593 0.758572 0.272404
0.495445 0.754696 0.27985
0.54406 0.752026 0.297383
0.610224 0.74728 0.317113
0.674922 0.748623 0.341543
0.744121 0.747768 0.361501
0.828336 0.748623 0.388678
0.936065 0.747509 0.323491
0.545556 0.861051 0.292927
0.546075 0.860914 0.292927
0.562127 0.86215 0.299794
0.592752 0.864347 0.311772
0.635966 0.866697 0.327749
0.690059 0.874006 0.345296
0.768872 0.876204 0.368154
0.853498 0.881559 0.371466
0.964202 0.888777 0.332097
0 0.0875257 0.0117647
0.000900282 0.0933852 0.0157473
0.0235447 0.110658 0.0423896
0.0674144 0.136446 0.0981613
0.208087 0.144045 0.194308
0.3458 0.149142 0.220859
0.525216 0.147204 0.249271
0.711864 0.133303 0.279667
0.913863 0.0771649 0.307729
0 0.175616 0.0319371
0.00180056 0.177646 0.0478981
0.0475471 0.181018 0.0876631
0.0997024 0.187213 0.144183
0.254887 0.172778 0.233143
0.384375 0.173388 0.245182
0.546349 0.165301 0.259159
0.712505 0.152285 0.274449
0.908812 0.104341 0.298085
0.00762951 0.261936 0.0912947
0.0364538 0.254078 0.104891
0.100618 0.250462 0.143618
0.154788 0.24773 0.206302
0.330663 0.220295 0.277684
0.448402 0.217472 0.28098
0.602991 0.208042 0.28864
0.765743 0.202838 0.305684
0.955764 0.180102 0.3364
0.150729 0.327169 0.160281
0.167529 0.317311 0.166445
0.209064 0.314885 0.204776
0.264454 0.314153 0.270283
0.413596 0.303716 0.324834
0.531579 0.308309 0.336889
0.681376 0.311681 0.333837
0.820844 0.320897 0.334157
0.98819 0.309804 0.362875
0.308782 0.408392 0.236835
0.317845 0.409491 0.244831
0.352071 0.415351 0.281788
0.384771 0.42678 0.344427
0.484062 0.433371 0.3682
0.575402 0.441932 0.337606
0.694377 0.447547 0.308598
0.809125 0.453254 0.292668
0.980209 0.431861 0.32166
0.3785 0.545525 0.305577
0.383886 0.549233 0.314046
0.39942 0.55079 0.335973
0.441627 0.547646 0.366812
0.534417 0.546136 0.392554
0.62295 0.544152 0.397574
0.717952 0.54049 0.333532
0.78706 0.525994 0.260609
0.960845 0.544259 0.283055
0.420829 0.663966 0.334554
0.420966 0.659678 0.334051
0.43975 0.656107 0.341146
0.488945 0.651743 0.360845
0.571801 0.645472 0.384634
0.649439 0.643381 0.406088
0.733303 0.642725 0.418997
0.839643 0.607324 0.337804
0.944183 0.598291 0.233585
0.487388 0.760143 0.347036
0.486519 0.757839 0.345464
0.503059 0.756283 0.351186
0.540871 0.752712 0.366552
0.605692 0.749371 0.392508
0.671336 0.752972 0.418265
0.742443 0.750774 0.441505
0.820645 0.753399 0.458793
0.936538 0.720653 0.310079
0.561456 0.8636 0.351019
0.564034 0.863966 0.353506
0.576226 0.865446 0.359899
0.601175 0.867521 0.372976
0.637934 0.869734 0.390677
0.687434 0.878859 0.416602
0.763195 0.878096 0.453803
0.850858 0.883543 0.485084
0.960082 0.893721 0.507866
0 0.12842 0.0117647
0 0.136553 0.015198
0 0.157382 0.0403601
0 0.184466 0.0947738
0.0027924 0.205051 0.208148
0.227466 0.186053 0.391638
0.550744 0.140764 0.422675
0.744701 0.114412 0.438132
0.915099 0.0863966 0.459174
0 0.220706 0.0258793
0 0.222507 0.0407874
0 0.227649 0.0778363
0 0.235523 0.133013
0.0135805 0.237949 0.252354
0.265202 0.206882 0.420981
0.572915 0.155245 0.421881
0.740932 0.13785 0.429603
0.908324 0.11725 0.45037
0 0.315053 0.0807965
0 0.305577 0.092195
0 0.301427 0.128878
0 0.299489 0.184909
0.022385 0.28957 0.311727
0.353796 0.24567 0.47187
0.64239 0.199527 0.460853
0.797528 0.194507 0.471077
0.953109 0.198413 0.494713
0 0.386526 0.142168
0 0.377569 0.149157
0 0.376394 0.181445
0.00643931 0.382696 0.246479
0.148119 0.377676 0.39443
0.494911 0.328237 0.534188
0.725643 0.30161 0.510582
0.851621 0.311025 0.521096
0.977279 0.317113 0.526818
0.103395 0.469642 0.217655
0.118944 0.472236 0.226032
0.168383 0.475883 0.259281
0.241871 0.483055 0.333303
0.334676 0.483131 0.451255
0.605158 0.437812 0.539757
0.744198 0.426963 0.52491
0.850965 0.428885 0.521706
0.971099 0.428916 0.516503
0.380011 0.570947 0.316686
0.387579 0.569711 0.324208
0.418616 0.566033 0.357107
0.473274 0.558099 0.415457
0.53315 0.55172 0.49395
0.618936 0.551232 0.512123
0.717952 0.547387 0.491386
0.817411 0.551904 0.474464
0.934661 0.550546 0.466102
0.515831 0.655634 0.396094
0.512078 0.654032 0.396307
0.51902 0.651194 0.416938
0.532204 0.649012 0.453544
0.567498 0.6495 0.496468
0.641154 0.65069 0.527337
0.724346 0.650309 0.527825
0.795865 0.644053 0.45771
0.923919 0.653254 0.452827
0.53872 0.754421 0.432853
0.536553 0.752392 0.433875
0.541817 0.751369 0.445258
0.566171 0.751537 0.468833
0.607217 0.752819 0.49868
0.658305 0.754559 0.528084
0.733852 0.754131 0.55938
0.818372 0.754482 0.583307
0.93814 0.720806 0.433692
0.602182 0.858763 0.431754
0.603403 0.859586 0.432624
0.611002 0.862394 0.440482
0.629068 0.865431 0.45565
0.658518 0.870054 0.481147
0.697551 0.879988 0.508354
0.759457 0.883238 0.552682
0.845533 0.886656 0.604959
0.95903 0.901869 0.672816
0 0.174716 0.00392157
0 0.180484 0.00607309
0 0.200534 0.025452
0 0.229694 0.0726482
0 0.263996 0.169009
0 0.273854 0.344244
0.147539 0.250538 0.646082
0.567346 0.197208 0.760937
0.921202 0.0398413 0.767361
0 0.266423 0.00683604
0 0.268055 0.018143
0 0.273579 0.0503548
0 0.287861 0.105409
0 0.304799 0.198138
0 0.308782 0.373648
0.121126 0.274388 0.657099
0.587594 0.200473 0.737743
0.91577 0.089662 0.72813
0 0.378256 0.0439307
0 0.373907 0.0564736
0 0.371023 0.0907454
0 0.374807 0.14667
0 0.381048 0.243503
0 0.378668 0.434272
0.180941 0.325475 0.706783
0.644648 0.257786 0.784924
0.962829 0.177172 0.790448
0 0.478798 0.0965744
0 0.472999 0.101564
0 0.471077 0.140276
0 0.48191 0.202289
0 0.49308 0.319799
0 0.489479 0.513298
0.258061 0.43621 0.752529
0.722499 0.364218 0.816907
0.992416 0.304051 0.803662
0 0.578836 0.157717
0 0.582376 0.164675
0 0.589731 0.201404
0 0.596124 0.268482
0 0.602853 0.375219
0 0.597864 0.525979
0.26424 0.553017 0.733074
0.759518 0.46389 0.793942
0.979294 0.423529 0.764202
0 0.685496 0.239063
0 0.68426 0.245716
0 0.6822 0.274037
0.0177615 0.677287 0.337484
0.0657511 0.665537 0.422461
0.0977646 0.662852 0.52546
0.439017 0.617899 0.696071
0.798886 0.555688 0.743114
0.953964 0.536614 0.727459
0.0961929 0.738384 0.339269
0.14873 0.729671 0.345281
0.217487 0.721355 0.371359
0.299596 0.712474 0.419303
0.405417 0.704387 0.487098
0.461097 0.70547 0.556832
0.572595 0.691432 0.667918
0.794675 0.656657 0.718502
0.936156 0.642374 0.721584
0.533684 0.772396 0.43621
0.543267 0.769009 0.44036
0.561135 0.766918 0.457115
0.590799 0.76318 0.490745
0.63032 0.763378 0.540734
0.655589 0.769024 0.592233
0.703044 0.769451 0.664652
0.777188 0.769238 0.723278
0.927184 0.757885 0.723873
0.697673 0.855589 0.465019
0.698802 0.857237 0.464271
0.706722 0.860182 0.475044
0.720165 0.8636 0.497185
0.74165 0.868864 0.536004
0.774227 0.877928 0.583429
0.810636 0.882063 0.671229
0.85359 0.892744 0.762921
0.960693 0.912779 0.825284
