public/luts/creative_looks/Amelie.cube
#Created by: Denver Riddle
#Copyright: (C) Copyright Color Grading Central LLC
#LUT Size
LUT_3D_SIZE 5
0 0.00343328 0
0.0344396 0.0256046 0
0.232822 0.083299 0
0.591058 0.0659648 0
0.677043 0 0
0.0135348 0.204837 0
0.166506 0.2009 0
0.354604 0.197147 0
0.626215 0.177325 0
0.799756 0.0299992 0
0.228199 0.381353 0
0.296376 0.380636 0
0.5037 0.386892 0
0.732265 0.401434 0
0.974685 0.414649 0
0.42237 0.651469 0
0.463676 0.644846 0
0.606989 0.634379 0
0.784909 0.624811 0
0.946288 0.63267 0
0.595895 0.861158 0
0.611048 0.858396 0
0.689067 0.860227 0
0.807309 0.86978 0.056672
0.963729 0.881468 0.219211
0.00128176 0.00914015 0
0.0198215 0.0453498 0.00529488
0.205814 0.11313 0.0146944
0.413184 0.109667 0
0.848478 0.0238346 0
0.00848402 0.218082 0.0166934
0.150973 0.213214 0.0362707
0.392447 0.188434 0.0314031
0.509834 0.150805 0
0.810803 0.0843977 0
0.210437 0.389593 0.0180972
0.28275 0.392096 0.0271611
0.487297 0.401251 0.0567636
0.728267 0.417472 0.0172122
0.848524 0.297322 0
0.405524 0.653559 0
0.448554 0.645838 0
0.589319 0.636027 0.000442512
0.770397 0.626719 0.0410315
0.942718 0.636133 0.0109407
0.572854 0.861036 0
0.590173 0.856825 0.00115969
0.671412 0.859388 0.00457771
0.807599 0.872312 0.0733959
0.966308 0.88574 0.256001
0.00526436 0.0366217 0.00392157
0.038117 0.0661936 0.0263066
0.186526 0.13138 0.0767529
0.456748 0.168444 0.0770428
0.932021 0 0.12491
0.122286 0.217227 0.073579
0.155306 0.216785 0.128191
0.307897 0.221546 0.134005
0.552193 0.22388 0.0969711
0.971298 0.155322 0.128145
0.209369 0.400122 0.162417
0.275517 0.405737 0.182788
0.477134 0.415961 0.222705
0.765759 0.401526 0.181781
0.983673 0.418814 0.0561532
0.388418 0.658946 0.183963
0.4309 0.651225 0.1906
0.574853 0.637903 0.22005
0.748775 0.634546 0.25362
0.931991 0.596841 0.0910353
0.543481 0.861326 0.217517
0.562524 0.861738 0.223621
0.645136 0.866148 0.245304
0.776867 0.873045 0.253773
0.966186 0.891508 0.367803
0 0.0875257 0.0117647
0.0235447 0.110658 0.0423896
0.208087 0.144045 0.194308
0.525216 0.147204 0.249271
0.913863 0.0771649 0.307729
0.00762951 0.261936 0.0912947
0.100618 0.250462 0.143618
0.330663 0.220295 0.277684
0.602991 0.208042 0.28864
0.955764 0.180102 0.3364
0.308782 0.408392 0.236835
0.352071 0.415351 0.281788
0.484062 0.433371 0.3682
0.694377 0.447547 0.308598
0.980209 0.431861 0.32166
0.420829 0.663966 0.334554
0.43975 0.656107 0.341146
0.571801 0.645472 0.384634
0.733303 0.642725 0.418997
0.944183 0.598291 0.233585
0.561456 0.8636 0.351019
0.576226 0.865446 0.359899
0.637934 0.869734 0.390677
0.763195 0.878096 0.453803
0.960082 0.893721 0.507866
0 0.174716 0.00392157
0 0.200534 0.025452
0 0.263996 0.169009
0.147539 0.250538 0.646082
0.921202 0.0398413 0.767361
0 0.378256 0.0439307
0 0.371023 0.0907454
0 0.381048 0.243503
0.180941 0.325475 0.706783
0.962829 0.177172 0.790448
0 0.578836 0.157717
0 0.589731 0.201404
0 0.602853 0.375219
0.26424 0.553017 0.733074
0.979294 0.423529 0.764202
0.0961929 0.738384 0.339269
0.217487 0.721355 0.371359
0.405417 0.704387 0.487098
0.572595 0.691432 0.667918
0.936156 0.642374 0.721584
0.697673 0.855589 0.465019
0.706722 0.860182 0.475044
0.74165 0.868864 0.536004
0.810636 0.882063 0.671229
0.960693 0.912779 0.825284
