public/luts/creative_looks/Fashion.cube
#Created by: Denver Riddle
#Copyright: (C) Copyright Color Grading Central LLC
#LUT Size
LUT_3D_SIZE 9
0 0 0
0.0886854 0 0
0.218631 0 0
0.317189 0 0
0.46276 0 0
0.681727 0 0
0.817777 0 0
0.918242 0 0
0.977172 0 0
0 0.0626383 0
0.0761273 0.0516976 0
0.208484 0.04271 0
0.308217 0.0432898 0
0.446342 0.0345617 0
0.669001 0.00424201 0
0.811093 0 0
0.917723 0.00257877 0
0.983825 0.0198215 0
0 0.168688 0
0.0647288 0.158022 0
0.202426 0.151507 0
0.305287 0.156466 0
0.445914 0.153567 0
0.673243 0.128481 0
0.818708 0.127962 0
0.930022 0.13814 0
1 0.158755 0
0 0.291066 0
0.0520333 0.284047 0
0.197436 0.282719 0
0.302922 0.293431 0
0.44828 0.295491 0
0.678767 0.27538 0
0.822324 0.278752 0
0.932952 0.290883 0
1 0.311101 0
0 0.444221 0
0.0207218 0.442191 0
0.167636 0.44509 0
0.271168 0.459831 0
0.417563 0.462333 0
0.643351 0.44213 0
0.782345 0.444297 0
0.887724 0.455833 0
0.960327 0.476051 0
0 0.605753 0
0.00656138 0.603082 0
0.153674 0.602823 0
0.256626 0.61442 0
0.402564 0.61445 0
0.625437 0.593698 0
0.764645 0.595071 0
0.870665 0.60412 0
0.948821 0.619547 0
0 0.744183 0
0.0273747 0.741436 0
0.170077 0.741283 0
0.271778 0.752148 0
0.422141 0.749065 0
0.640238 0.726528 0
0.773861 0.725109 0
0.876814 0.730419 0
0.950805 0.742382 0
0 0.871015 0
0.0641184 0.868055 0
0.194949 0.868345 0
0.292912 0.876081 0
0.447913 0.867689 0
0.658305 0.842786 0
0.78793 0.838605 0
0.888182 0.840894 0
0.959075 0.849409 0
0 0.974655 0
0.133654 0.967559 0
0.236194 0.97142 0
0.331563 0.976623 0
0.505943 0.959625 0
0.696406 0.93753 0
0.817273 0.933425 0
0.912947 0.932799 0
0.979141 0.935607 0
0 0 0.0681163
0.0859693 0 0.0573892
0.215198 0 0.048661
0.31281 0 0.0485084
0.450172 0 0.038941
0.66598 0 0.00766003
0.80412 0 0
0.905272 0 0
0.972595 0 0.00776684
0 0.0621653 0.0609445
0.0755627 0.0513161 0.0500191
0.208148 0.0424353 0.0413062
0.306813 0.0432441 0.0422827
0.440635 0.0358892 0.035111
0.660014 0.00694286 0.00637827
0.80235 0.000762951 0.000335698
0.908736 0.0068513 0.00633249
0.980224 0.0235904 0.0225528
0 0.168048 0.0513466
0.065568 0.15845 0.0434119
0.203098 0.15227 0.0364996
0.305898 0.158038 0.0408789
0.446311 0.155459 0.0375677
0.673152 0.13138 0.0132143
0.817609 0.131518 0.0127718
0.928176 0.142565 0.0237888
1 0.163958 0.0460212
0 0.291707 0.0381628
0.0552987 0.286107 0.0358129
0.199908 0.285206 0.0340429
0.304936 0.296712 0.0424811
0.452277 0.298314 0.041825
0.682414 0.278614 0.0203555
0.825055 0.282383 0.0223697
0.93489 0.294408 0.0330968
1 0.314626 0.0532235
0 0.44686 0.00573739
0.0249485 0.446036 0.00509651
0.169299 0.449577 0.00337224
0.271839 0.464149 0.0125734
0.420935 0.465766 0.0105592
0.645426 0.445274 0
0.783703 0.447456 0
0.888212 0.458976 0
0.959426 0.479454 0.00715648
0 0.609171 0
0.0111543 0.605753 0
0.156329 0.605737 0
0.259449 0.617502 0.00230411
0.407248 0.617121 0
0.629099 0.596323 0
0.766934 0.597467 0
0.873137 0.606302 0
0.949462 0.621653 0
0 0.746639 0.00526436
0.0325628 0.74342 0.00546273
0.172625 0.744213 0.00807202
0.273915 0.754726 0.0176394
0.424964 0.750866 0.0111391
0.642481 0.728405 0
0.77528 0.726482 0
0.877974 0.73167 0
0.951659 0.743206 0.00370794
0 0.872724 0.0386358
0.0724651 0.867735 0.0362402
0.196841 0.869566 0.0343023
0.293965 0.87747 0.0381323
0.448951 0.868666 0.0256199
0.658701 0.843397 0
0.78822 0.839017 0
0.88838 0.841093 0
0.959197 0.8495 0.0149538
0 0.975875 0.090898
0.13315 0.968719 0.0845197
0.235096 0.97261 0.0841688
0.33077 0.97734 0.0837262
0.504997 0.960098 0.0606241
0.695842 0.937713 0.0323491
0.816617 0.93312 0.0238041
0.91165 0.931548 0.024567
0.97702 0.93341 0.0379492
0 0 0.183856
0.0831464 0 0.172168
0.211505 0 0.162554
0.310185 0 0.164904
0.446281 0 0.156268
0.66424 0 0.125246
0.803494 0 0.115709
0.904845 0 0.116426
0.972885 0 0.124071
0 0.0608835 0.176623
0.0738689 0.0501411 0.165194
0.206195 0.0415045 0.156451
0.306004 0.0423133 0.159258
0.440986 0.0350195 0.152728
0.661433 0.0061799 0.124361
0.804349 0.000900282 0.11899
0.910628 0.00770581 0.125795
0.981735 0.0254215 0.141421
0 0.167269 0.168017
0.0651408 0.158129 0.158724
0.203296 0.152544 0.15317
0.30602 0.158968 0.159686
0.447074 0.156329 0.157168
0.676219 0.13257 0.133455
0.820829 0.133135 0.134157
0.931075 0.144503 0.145693
1 0.166583 0.16791
0 0.292653 0.156069
0.0577554 0.287602 0.153124
0.201984 0.287129 0.152087
0.306569 0.299489 0.163302
0.455985 0.300816 0.162524
0.686168 0.280903 0.141283
0.82829 0.284825 0.144305
0.937591 0.296483 0.15494
1 0.316732 0.175174
0 0.449821 0.124025
0.0286412 0.448493 0.122744
0.170947 0.452689 0.121981
0.27303 0.467338 0.132494
0.42327 0.468071 0.128847
0.647913 0.447349 0.105699
0.785336 0.449882 0.105303
0.890211 0.461097 0.112535
0.960449 0.481346 0.127596
0 0.611978 0.104402
0.0155642 0.607492 0.107729
0.158663 0.607828 0.110384
0.261067 0.619455 0.121202
0.410163 0.618921 0.117815
0.631556 0.598077 0.0938582
0.768658 0.5991 0.0926375
0.874723 0.607233 0.100649
0.95082 0.622492 0.117296
0 0.748898 0.123796
0.0378882 0.743969 0.125795
0.175494 0.745144 0.128923
0.275898 0.756054 0.13817
0.427573 0.751583 0.130877
0.642954 0.729015 0.104356
0.775814 0.727016 0.0998245
0.878294 0.731884 0.106081
0.951659 0.742794 0.120104
0 0.874205 0.157046
0.0762646 0.867811 0.156786
0.200488 0.86833 0.158145
0.295705 0.876783 0.160922
0.449989 0.867796 0.146334
0.658198 0.842939 0.116014
0.787457 0.838392 0.108431
0.887633 0.840314 0.112444
0.958572 0.848646 0.130404
0 0.976394 0.209201
0.134585 0.967788 0.20415
0.23772 0.970565 0.20734
0.330205 0.976425 0.202914
0.502647 0.959609 0.178546
0.694057 0.936889 0.149676
0.814389 0.93135 0.140154
0.909178 0.928954 0.13962
0.973632 0.9299 0.15259
0 0 0.317098
0.0793164 0 0.30399
0.208042 0 0.29305
0.30573 0 0.295445
0.43682 0 0.289616
0.655161 0 0.260792
0.798856 0 0.252155
0.901122 0 0.252995
0.971542 0 0.258854
0 0.0583352 0.307973
0.0704356 0.047837 0.297414
0.20351 0.0392615 0.288151
0.302556 0.0407111 0.291157
0.434974 0.0343786 0.288121
0.657679 0.00541695 0.26183
0.803189 0.000137331 0.257465
0.909606 0.00683604 0.263951
0.982071 0.0260319 0.278431
0 0.165209 0.302785
0.0631571 0.156863 0.292226
0.202548 0.151751 0.287083
0.304784 0.158999 0.294606
0.444617 0.157137 0.294835
0.675013 0.133318 0.273091
0.8206 0.134127 0.2748
0.931563 0.145556 0.28661
1 0.168139 0.306889
0 0.291814 0.292226
0.0586862 0.28809 0.287953
0.202853 0.28809 0.287526
0.307362 0.300893 0.300038
0.456718 0.302266 0.301411
0.686076 0.282368 0.281605
0.828428 0.285756 0.284825
0.937972 0.297063 0.295552
1 0.317693 0.314153
0 0.450813 0.261967
0.0321508 0.449592 0.258778
0.172091 0.454566 0.25771
0.274052 0.468772 0.269184
0.423941 0.468803 0.267369
0.6477 0.447868 0.244343
0.785977 0.450156 0.243854
0.891371 0.461372 0.250935
0.96083 0.481712 0.265339
0 0.612726 0.242649
0.01738 0.607874 0.243885
0.159976 0.608301 0.246326
0.261921 0.620005 0.257649
0.411673 0.618631 0.255406
0.631846 0.598245 0.231067
0.76907 0.599252 0.229526
0.875059 0.606867 0.237156
0.950805 0.62179 0.253086
0 0.750164 0.260594
0.0397803 0.744183 0.261952
0.177462 0.744793 0.265766
0.276982 0.755261 0.275273
0.428443 0.75082 0.268177
0.641962 0.727901 0.241169
0.77467 0.725887 0.236194
0.877241 0.730358 0.240787
0.950774 0.741009 0.253407
0 0.874937 0.292058
0.0756085 0.867338 0.290867
0.201907 0.866804 0.294041
0.297414 0.874357 0.299138
0.450507 0.864881 0.284901
0.657038 0.840436 0.254749
0.785138 0.836133 0.245518
0.885374 0.83798 0.24802
0.957137 0.846311 0.262104
0 0.975784 0.34078
0.132372 0.966781 0.335607
0.237629 0.968338 0.340078
0.331823 0.972854 0.339773
0.501747 0.956619 0.315068
0.691417 0.934249 0.285496
0.810742 0.927932 0.273533
0.904387 0.924636 0.271229
0.969207 0.925307 0.278828
0 0 0.456809
0.0745556 0 0.442741
0.204883 0 0.43035
0.301808 0 0.43125
0.426703 0 0.427573
0.641672 0 0.401083
0.789853 0 0.393729
0.89395 0 0.39556
0.969207 0 0.401755
0 0.0554513 0.448981
0.0662699 0.0451209 0.436713
0.201114 0.0363775 0.426734
0.299962 0.0383612 0.429129
0.427619 0.0338903 0.427909
0.648325 0.00628672 0.404227
0.797574 0.000488289 0.401419
0.905653 0.00733959 0.408835
0.981094 0.0263371 0.421286
0 0.162844 0.443015
0.0605783 0.155291 0.432731
0.201617 0.150729 0.427192
0.303731 0.158083 0.434516
0.440894 0.158312 0.436667
0.669306 0.135119 0.417212
0.817197 0.135912 0.420844
0.92874 0.147524 0.432654
1 0.170031 0.449561
0 0.290974 0.435294
0.0586404 0.28806 0.430014
0.203357 0.288655 0.429206
0.307836 0.301595 0.441184
0.455573 0.30396 0.443915
0.683986 0.284108 0.426169
0.826596 0.286976 0.430335
0.936049 0.297795 0.440894
1 0.31841 0.456168
0 0.45098 0.407431
0.0318914 0.451194 0.400763
0.17261 0.455406 0.398825
0.274586 0.469596 0.409903
0.424186 0.469093 0.408957
0.646387 0.448234 0.388373
0.78436 0.45034 0.388983
0.890654 0.461219 0.395956
0.959731 0.481956 0.408118
0 0.612665 0.388128
0.0183871 0.607645 0.38558
0.160601 0.608637 0.387182
0.262684 0.620325 0.398627
0.412604 0.618677 0.396811
0.631266 0.597879 0.374975
0.76791 0.598581 0.373693
0.874464 0.605951 0.380362
0.949523 0.620203 0.394568
0 0.75024 0.404608
0.0407263 0.744244 0.403281
0.177905 0.744762 0.405325
0.277272 0.754543 0.415045
0.428779 0.749477 0.409384
0.641352 0.726085 0.384634
0.772824 0.724086 0.379263
0.875471 0.728099 0.382177
0.949615 0.738552 0.393179
0 0.875044 0.433051
0.0746624 0.866361 0.429709
0.201633 0.865553 0.431388
0.297536 0.872114 0.437964
0.450263 0.862257 0.42562
0.655467 0.837522 0.397894
0.782696 0.833097 0.389288
0.882521 0.835019 0.39028
0.95491 0.843442 0.400076
0 0.975586 0.476051
0.128634 0.965835 0.469505
0.236149 0.966476 0.472923
0.331243 0.970123 0.475135
0.501015 0.953262 0.453895
0.689372 0.93051 0.426001
0.80679 0.923583 0.414374
0.899367 0.919493 0.409247
0.964248 0.920134 0.412192
0 0 0.582544
0.0702373 0 0.567788
0.203113 0 0.555596
0.300221 0 0.556497
0.421012 0 0.553155
0.631113 0 0.52781
0.779248 0 0.51931
0.88658 0 0.523232
0.968429 0 0.531853
0 0.0535592 0.574807
0.0630655 0.0434882 0.563226
0.19971 0.0347295 0.552728
0.299138 0.037171 0.555413
0.42327 0.0343175 0.554131
0.640757 0.00852979 0.532052
0.791745 0.00277714 0.52958
0.90042 0.0102846 0.537331
0.980667 0.0283207 0.549752
0 0.161593 0.569223
0.0590066 0.155016 0.560327
0.201831 0.150866 0.554391
0.304433 0.158679 0.561852
0.440406 0.15993 0.563836
0.665858 0.138293 0.5449
0.813092 0.139345 0.548272
0.92398 0.151614 0.559823
1 0.173785 0.574609
0 0.291203 0.56376
0.0594644 0.289128 0.558282
0.205264 0.2907 0.557244
0.309926 0.304021 0.569055
0.457588 0.306264 0.570794
0.682322 0.287312 0.552682
0.82504 0.289769 0.558007
0.932509 0.30074 0.567147
1 0.321492 0.579644
0 0.451438 0.537102
0.0343175 0.453086 0.528618
0.174334 0.457725 0.525811
0.276143 0.471336 0.536065
0.425589 0.470527 0.53492
0.645624 0.450629 0.514977
0.783475 0.452506 0.516915
0.889555 0.462959 0.523766
0.957916 0.48368 0.532738
0 0.612436 0.517845
0.0214542 0.608789 0.513054
0.162112 0.610101 0.513344
0.264256 0.621759 0.524514
0.414237 0.620005 0.522789
0.63212 0.598917 0.501839
0.767452 0.599054 0.501854
0.873671 0.606394 0.508629
0.948043 0.620203 0.520638
0 0.750546 0.5337
0.0431525 0.744671 0.529015
0.179156 0.745907 0.5299
0.278477 0.755276 0.539239
0.429099 0.749584 0.533822
0.641337 0.725902 0.510491
0.77203 0.723369 0.507256
0.874113 0.726955 0.509392
0.948684 0.73724 0.519112
0 0.875547 0.558618
0.0758679 0.866224 0.552453
0.201892 0.865583 0.552789
0.297581 0.871626 0.55903
0.449378 0.861555 0.54873
0.655283 0.835981 0.523049
0.781735 0.831144 0.517372
0.880766 0.833173 0.517555
0.953597 0.84126 0.52462
0 0.975952 0.5944
0.127871 0.965545 0.586603
0.235737 0.965942 0.588693
0.330434 0.96936 0.591562
0.499245 0.952239 0.573114
0.68751 0.928038 0.547219
0.804059 0.920119 0.537728
0.895094 0.915297 0.532403
0.95996 0.915602 0.53286
0 0 0.680171
0.0688945 0 0.664866
0.203006 0 0.653651
0.300694 0 0.65536
0.419562 0 0.652827
0.626627 0 0.627817
0.775341 0 0.618814
0.881086 0 0.62179
0.968109 0 0.633417
0 0.0537423 0.673671
0.062562 0.043946 0.661997
0.200122 0.0353552 0.651316
0.300343 0.0379492 0.655024
0.424414 0.0359503 0.654719
0.639719 0.0117647 0.632532
0.789258 0.00663767 0.628977
0.897246 0.0158541 0.635904
0.982467 0.0326238 0.650324
0 0.162768 0.667735
0.060853 0.156909 0.660273
0.204303 0.153353 0.654429
0.307271 0.161761 0.662333
0.443778 0.163363 0.663951
0.667247 0.143389 0.64419
0.813062 0.145296 0.646983
0.922286 0.158068 0.657267
1 0.179644 0.672343
0 0.293873 0.663615
0.0636149 0.292821 0.659358
0.20911 0.294926 0.657649
0.313497 0.308385 0.66894
0.462715 0.310384 0.669963
0.685359 0.292119 0.651087
0.824552 0.295232 0.654994
0.931136 0.306264 0.663951
1 0.327001 0.675273
0 0.454612 0.636408
0.0386206 0.457755 0.628229
0.17763 0.46244 0.624933
0.278965 0.47567 0.634699
0.429374 0.474281 0.633158
0.648417 0.454353 0.612924
0.783673 0.457343 0.614176
0.888533 0.467887 0.621088
0.956847 0.488457 0.628611
0 0.614237 0.617426
0.0264591 0.611902 0.612436
0.16553 0.613687 0.612573
0.267369 0.625193 0.623011
0.417975 0.623117 0.621164
0.635538 0.602106 0.600443
0.768963 0.602274 0.60032
0.874296 0.608988 0.607797
0.948043 0.622873 0.618189
0 0.751858 0.632944
0.0484016 0.747402 0.627283
0.181842 0.748608 0.627497
0.281209 0.758068 0.636881
0.431235 0.751629 0.631144
0.64332 0.72784 0.608118
0.773404 0.724773 0.605478
0.874556 0.728206 0.608896
0.948913 0.738277 0.617639
0 0.876387 0.656138
0.0801862 0.867918 0.648692
0.204044 0.867521 0.64828
0.299062 0.873152 0.654292
0.450126 0.862974 0.64477
0.656092 0.837003 0.619684
0.782773 0.831708 0.614939
0.881163 0.833509 0.616602
0.953414 0.840696 0.622583
0 0.977646 0.688838
0.130724 0.966476 0.679805
0.237217 0.967071 0.681208
0.331167 0.970459 0.684367
0.498375 0.953429 0.667002
0.686656 0.927779 0.641367
0.802838 0.918456 0.632364
0.892943 0.912963 0.628061
0.957732 0.913176 0.627604
0 0 0.756222
0.0697337 0 0.741909
0.204456 0 0.732143
0.30248 0 0.734432
0.421012 0 0.732525
0.627436 0 0.707668
0.776333 0 0.698711
0.881834 0 0.701579
0.968338 0 0.7131
0 0.0555581 0.749294
0.0644083 0.0460212 0.739696
0.202319 0.0376135 0.730419
0.302998 0.0407111 0.734722
0.427863 0.0393072 0.735256
0.643442 0.0158694 0.712978
0.791638 0.0119783 0.709026
0.900084 0.0215152 0.716197
0.984329 0.0392462 0.73019
0 0.165591 0.746212
0.065095 0.160479 0.739895
0.207828 0.15697 0.734203
0.311696 0.166644 0.74345
0.449424 0.168338 0.745098
0.673548 0.148867 0.724987
0.816983 0.151995 0.727123
0.924971 0.165118 0.7364
1 0.186175 0.751019
0 0.298299 0.74345
0.0699931 0.297841 0.739742
0.213962 0.30045 0.738216
0.31841 0.314687 0.750118
0.469871 0.315999 0.750561
0.691661 0.297704 0.731289
0.827161 0.30161 0.733166
0.93196 0.31281 0.741283
1 0.333028 0.75317
0 0.460349 0.71545
0.0447242 0.463188 0.707576
0.181476 0.468223 0.704341
0.282216 0.481407 0.713863
0.434562 0.479423 0.711742
0.652979 0.459663 0.691661
0.786236 0.462974 0.692103
0.888701 0.474388 0.697993
0.958297 0.494438 0.705821
0 0.617792 0.696925
0.0323186 0.616556 0.692699
0.170459 0.61886 0.692836
0.271855 0.63032 0.703471
0.42359 0.627497 0.70074
0.640208 0.606226 0.679835
0.772915 0.606531 0.679911
0.875761 0.613138 0.686122
0.949172 0.627039 0.696422
0 0.75462 0.711894
0.0548562 0.751705 0.707134
0.186267 0.752911 0.70695
0.285054 0.761852 0.715953
0.43534 0.755184 0.710079
0.64686 0.731029 0.687053
0.776104 0.727474 0.684169
0.876219 0.73109 0.687861
0.949676 0.741115 0.696498
0 0.877577 0.733715
0.0858625 0.870924 0.726375
0.206958 0.870451 0.725704
0.301961 0.876066 0.731929
0.452781 0.865538 0.722728
0.658457 0.839323 0.697917
0.785 0.833829 0.693324
0.883085 0.835416 0.695216
0.953796 0.84181 0.700908
0 0.977493 0.764416
0.135637 0.96846 0.755718
0.239643 0.969528 0.757076
0.333333 0.972702 0.760708
0.499367 0.955352 0.743862
0.687251 0.928756 0.717983
0.802731 0.918166 0.708614
0.892576 0.9122 0.704295
0.95668 0.912001 0.704524
0 0 0.808133
0.0734264 0 0.798016
0.207645 0 0.789395
0.305455 0 0.792905
0.42475 0 0.792462
0.63183 0 0.769039
0.780209 0 0.761212
0.885954 0 0.764172
0.969375 0 0.773205
0 0.0589303 0.804913
0.0690013 0.0496681 0.795422
0.206638 0.0417029 0.787778
0.306905 0.0455024 0.793194
0.434211 0.0442512 0.794888
0.650111 0.0208133 0.773159
0.797711 0.0183566 0.770306
0.905989 0.0283665 0.776867
0.989395 0.047425 0.789548
0 0.17026 0.802777
0.0727245 0.165576 0.795956
0.213718 0.163287 0.791455
0.316838 0.173617 0.800992
0.458869 0.174746 0.802487
0.682277 0.155505 0.783123
0.823621 0.159884 0.784604
0.931746 0.173175 0.793256
1 0.194263 0.806516
0 0.304463 0.801923
0.0795148 0.304723 0.796567
0.22092 0.308583 0.795285
0.324376 0.322972 0.806897
0.479622 0.322805 0.805524
0.699199 0.305119 0.786847
0.833219 0.308949 0.788312
0.936996 0.320531 0.794965
1 0.340703 0.805982
0 0.468376 0.772686
0.0516213 0.471199 0.762905
0.185855 0.476539 0.758923
0.285985 0.489235 0.7682
0.442008 0.486656 0.765209
0.658518 0.467414 0.745556
0.790265 0.471015 0.745251
0.891661 0.482353 0.74966
0.962768 0.501488 0.758206
0 0.623957 0.756222
0.0415961 0.622858 0.750713
0.176837 0.625711 0.749752
0.277867 0.637446 0.760082
0.432822 0.633295 0.756298
0.647105 0.611978 0.735714
0.778805 0.612299 0.735622
0.880064 0.618952 0.740307
0.953719 0.632471 0.7505
0 0.760128 0.768673
0.0629129 0.757565 0.762829
0.192157 0.759228 0.762325
0.290105 0.767681 0.770764
0.442969 0.75996 0.764538
0.652613 0.735668 0.742489
0.780728 0.732036 0.740032
0.880293 0.735515 0.743374
0.953323 0.745434 0.751507
0 0.881758 0.786648
0.0930037 0.875822 0.779171
0.211627 0.875563 0.77847
0.306554 0.880842 0.784878
0.458793 0.869505 0.775906
0.66305 0.84329 0.752422
0.788922 0.837674 0.748577
0.886488 0.838865 0.750362
0.956207 0.844404 0.75552
0 0.981079 0.816052
0.141283 0.972564 0.80737
0.24332 0.973953 0.809049
0.33724 0.976806 0.812924
0.503471 0.958144 0.796063
0.689677 0.930968 0.771206
0.804059 0.919493 0.761975
0.893431 0.912993 0.757336
0.95729 0.912566 0.757519
