public/luts/creative_looks/Fashion.cube
#Created by: Denver Riddle
#Copyright: (C) Copyright Color Grading Central LLC
#LUT Size
LUT_3D_SIZE 5
0 0 0
0.218631 0 0
0.46276 0 0
0.817777 0 0
0.977172 0 0
0 0.168688 0
0.202426 0.151507 0
0.445914 0.153567 0
0.818708 0.127962 0
1 0.158755 0
0 0.444221 0
0.167636 0.44509 0
0.417563 0.462333 0
0.782345 0.444297 0
0.960327 0.476051 0
0 0.744183 0
0.170077 0.741283 0
0.422141 0.749065 0
0.773861 0.725109 0
0.950805 0.742382 0
0 0.974655 0
0.236194 0.97142 0
0.505943 0.959625 0
0.817273 0.933425 0
0.979141 0.935607 0
0 0 0.183856
0.211505 0 0.162554
0.446281 0 0.156268
0.803494 0 0.115709
0.972885 0 0.124071
0 0.167269 0.168017
0.203296 0.152544 0.15317
0.447074 0.156329 0.157168
0.820829 0.133135 0.134157
1 0.166583 0.16791
0 0.449821 0.124025
0.170947 0.452689 0.121981
0.42327 0.468071 0.128847
0.785336 0.449882 0.105303
0.960449 0.481346 0.127596
0 0.748898 0.123796
0.175494 0.745144 0.128923
0.427573 0.751583 0.130877
0.775814 0.727016 0.0998245
0.951659 0.742794 0.120104
0 0.976394 0.209201
0.23772 0.970565 0.20734
0.502647 0.959609 0.178546
0.814389 0.93135 0.140154
0.973632 0.9299 0.15259
0 0 0.456809
0.204883 0 0.43035
0.426703 0 0.427573
0.789853 0 0.393729
0.969207 0 0.401755
0 0.162844 0.443015
0.201617 0.150729 0.427192
0.440894 0.158312 0.436667
0.817197 0.135912 0.420844
1 0.170031 0.449561
0 0.45098 0.407431
0.17261 0.455406 0.398825
0.424186 0.469093 0.408957
0.78436 0.45034 0.388983
0.959731 0.481956 0.408118
0 0.75024 0.404608
0.177905 0.744762 0.405325
0.428779 0.749477 0.409384
0.772824 0.724086 0.379263
0.949615 0.738552 0.393179
0 0.975586 0.476051
0.236149 0.966476 0.472923
0.501015 0.953262 0.453895
0.80679 0.923583 0.414374
0.964248 0.920134 0.412192
0 0 0.680171
0.203006 0 0.653651
0.419562 0 0.652827
0.775341 0 0.618814
0.968109 0 0.633417
0 0.162768 0.667735
0.204303 0.153353 0.654429
0.443778 0.163363 0.663951
0.813062 0.145296 0.646983
1 0.179644 0.672343
0 0.454612 0.636408
0.17763 0.46244 0.624933
0.429374 0.474281 0.633158
0.783673 0.457343 0.614176
0.956847 0.488457 0.628611
0 0.751858 0.632944
0.181842 0.748608 0.627497
0.431235 0.751629 0.631144
0.773404 0.724773 0.605478
0.948913 0.738277 0.617639
0 0.977646 0.688838
0.237217 0.967071 0.681208
0.498375 0.953429 0.667002
0.802838 0.918456 0.632364
0.957732 0.913176 0.627604
0 0 0.808133
0.207645 0 0.789395
0.42475 0 0.792462
0.780209 0 0.761212
0.969375 0 0.773205
0 0.17026 0.802777
0.213718 0.163287 0.791455
0.458869 0.174746 0.802487
0.823621 0.159884 0.784604
1 0.194263 0.806516
0 0.468376 0.772686
0.185855 0.476539 0.758923
0.442008 0.486656 0.765209
0.790265 0.471015 0.745251
0.962768 0.501488 0.758206
0 0.760128 0.768673
0.192157 0.759228 0.762325
0.442969 0.75996 0.764538
0.780728 0.732036 0.740032
0.953323 0.745434 0.751507
0 0.981079 0.816052
0.24332 0.973953 0.809049
0.503471 0.958144 0.796063
0.804059 0.919493 0.761975
0.95729 0.912566 0.757519
