public/luts/creative_looks/Fashion.cube
#Created by: Denver Riddle
#Copyright: (C) Copyright Color Grading Central LLC
#LUT Size
LUT_3D_SIZE 33
0 0 0
0 0 0
0.0164492 0 0
0.0514839 0 0
0.0886854 0 0
0.125582 0 0
0.159792 0 0
0.191226 0 0
0.218631 0 0
0.244099 0 0
0.268345 0 0
0.292134 0 0
0.317189 0 0
0.344854 0 0
0.376593 0 0
0.415351 0 0
0.46276 0 0
0.518212 0 0
0.577493 0 0
0.633524 0 0
0.681727 0 0
0.721386 0 0
0.756405 0 0
0.788128 0 0
0.817777 0 0
0.845579 0 0
0.871305 0 0
0.89543 0 0
0.918242 0 0
0.938643 0 0
0.954711 0 0
0.967056 0 0
0.977172 0 0
0 0 0
0 0 0
0.0140688 0 0
0.0481422 0 0
0.0846876 0 0
0.121248 0 0
0.155566 0 0
0.18703 0 0
0.215335 0 0
0.240864 0 0
0.265003 0 0
0.289433 0 0
0.314366 0 0
0.341527 0 0
0.372641 0 0
0.410895 0 0
0.45684 0 0
0.511635 0 0
0.570596 0 0
0.627848 0 0
0.676829 0 0
0.71725 0 0
0.752438 0 0
0.784833 0 0
0.81445 0 0
0.842466 0 0
0.868788 0 0
0.893385 0 0
0.916182 0 0
0.936873 0 0
0.954009 0 0
0.966781 0 0
0.977005 0 0
0 0.0137484 0
0 0.010544 0
0.0113985 0.00790417 0
0.0455787 0.00520333 0
0.0809796 0.00144961 0
0.117922 0 0
0.152651 0 0
0.184756 0 0
0.213397 0 0
0.239246 0 0
0.263172 0 0
0.287373 0 0
0.312322 0 0
0.339284 0 0
0.370153 0 0
0.40705 0 0
0.452903 0 0
0.50695 0 0
0.566232 0 0
0.623148 0 0
0.672847 0 0
0.714412 0 0
0.749981 0 0
0.78233 0 0
0.812482 0 0
0.840803 0 0
0.867155 0 0
0.892164 0 0
0.915816 0 0
0.937331 0 0
0.954604 0 0
0.967712 0 0
0.978439 0 0
0 0.0381476 0
0 0.0347753 0
0.0083772 0.0321355 0
0.0427405 0.0297398 0
0.0787366 0.0265049 0
0.114885 0.0231327 0
0.149844 0.0204166 0
0.182315 0.0185092 0
0.211032 0.0171969 0
0.237034 0.0169833 0
0.261402 0.0168917 0
0.28574 0.0172732 0
0.310857 0.0173648 0
0.337346 0.0168612 0
0.367941 0.0154421 0
0.404898 0.0126192 0
0.450111 0.00726329 0
0.503426 0 0
0.563058 0 0
0.620676 0 0
0.670802 0 0
0.712108 0 0
0.74818 0 0
0.78117 0 0
0.811414 0 0
0.839719 0 0
0.86659 0 0
0.892164 0 0
0.916426 0 0
0.938338 0 0
0.956008 0 0
0.96997 0 0
0.981414 0 0
0 0.0626383 0
0 0.0599222 0
0.00621042 0.0574807 0
0.0400854 0.0547189 0
0.0761273 0.0516976 0
0.11252 0.0487526 0
0.147097 0.0458991 0
0.179461 0.0439918 0
0.208484 0.04271 0
0.23476 0.0426642 0
0.259297 0.0430304 0
0.283421 0.0431983 0
0.308217 0.0432898 0
0.335409 0.0433967 0
0.365347 0.0421912 0
0.40148 0.0393835 0
0.446342 0.0345617 0
0.50045 0.0275578 0
0.559655 0.0187076 0
0.617609 0.0103304 0
0.669001 0.00424201 0
0.711223 0.000808728 0
0.747555 0 0
0.780545 0 0
0.811093 0 0
0.840009 0 0
0.86743 0 0
0.893294 0.000701915 0
0.917723 0.00257877 0
0.940139 0.00509651 0
0.958251 0.00888075 0
0.972137 0.0139467 0
0.983825 0.0198215 0
0 0.088365 0
0 0.0852522 0
0.00354009 0.0828717 0
0.037644 0.0805219 0
0.073579 0.0775769 0
0.10988 0.0743725 0
0.144442 0.0717479 0
0.177234 0.0698711 0
0.206485 0.0690013 0
0.232639 0.0686809 0
0.257176 0.068925 0
0.281727 0.0699168 0
0.306401 0.0702678 0
0.332845 0.070222 0
0.362921 0.0693523 0
0.398993 0.0673991 0
0.443397 0.0628214 0
0.496986 0.055848 0
0.556405 0.0475471 0
0.615427 0.039704 0
0.667414 0.0338445 0
0.709957 0.0303502 0
0.746548 0.0286564 0
0.780026 0.0279698 0
0.811261 0.0282292 0
0.840528 0.0293126 0
0.868025 0.0307469 0
0.89424 0.032517 0
0.91899 0.0347753 0
0.941527 0.037705 0
0.960403 0.0416724 0
0.974578 0.0471962 0
0.987274 0.0533761 0
0 0.114199 0
0 0.111391 0
0.000823987 0.109056 0
0.0347143 0.106538 0
0.0704204 0.103624 0
0.107622 0.100801 0
0.142977 0.0982986 0
0.176165 0.0962081 0
0.205676 0.0953078 0
0.232624 0.0957198 0
0.257374 0.0961318 0
0.281727 0.0967117 0
0.306935 0.0974594 0
0.333959 0.0980392 0
0.364279 0.0974136 0
0.400961 0.0951858 0
0.446235 0.0907301 0
0.500587 0.0842756 0
0.561151 0.0764935 0
0.620203 0.0688029 0
0.671763 0.0632944 0
0.713924 0.0603952 0
0.750637 0.0590829 0
0.784176 0.0590982 0
0.815625 0.0600137 0
0.844968 0.0611429 0
0.872587 0.0628214 0
0.899001 0.0649271 0
0.924697 0.0673838 0
0.948211 0.0705119 0
0.968063 0.0746929 0
0.984268 0.0799725 0
0.998428 0.0862287 0
0 0.141802 0
0 0.138415 0
0 0.135622 0
0.0314336 0.133669 0
0.0677195 0.130709 0
0.104326 0.12781 0
0.1402 0.125246 0
0.174136 0.123919 0
0.204135 0.123064 0
0.230961 0.123125 0
0.256092 0.123964 0
0.280781 0.125261 0
0.306035 0.126452 0
0.332906 0.127001 0
0.363149 0.126802 0
0.399908 0.125261 0
0.445518 0.121508 0
0.50042 0.115526 0
0.561166 0.107668 0
0.620584 0.100298 0
0.672038 0.0952316 0
0.714778 0.0926528 0
0.751553 0.091783 0
0.785473 0.0921035 0
0.816999 0.0932631 0
0.846418 0.0948501 0
0.874434 0.09691 0
0.90132 0.099443 0
0.927184 0.102235 0
0.950988 0.105714 0
0.970977 0.110277 0
0.987533 0.115816 0
1 0.121996 0
0 0.168688 0
0 0.165942 0
0 0.16318 0
0.0280613 0.160876 0
0.0647288 0.158022 0
0.101884 0.155718 0
0.138415 0.153506 0
0.172015 0.15201 0
0.202426 0.151507 0
0.229892 0.152239 0
0.255161 0.153613 0
0.279927 0.155077 0
0.305287 0.156466 0
0.332341 0.157549 0
0.362661 0.157931 0
0.399817 0.156832 0
0.445914 0.153567 0
0.500786 0.147646 0
0.561975 0.140169 0
0.621485 0.133227 0
0.673243 0.128481 0
0.71606 0.126299 0
0.753155 0.125994 0
0.787198 0.12665 0
0.818708 0.127962 0
0.848493 0.12987 0
0.876692 0.13225 0
0.903746 0.135058 0
0.930022 0.13814 0
0.953841 0.141924 0
0.974029 0.146715 0
0.990982 0.152407 0
1 0.158755 0
0 0.197513 0
0 0.194263 0
0 0.191669 0
0.0246586 0.189822 0
0.0619516 0.187411 0
0.0995651 0.184909 0
0.136141 0.182818 0
0.170306 0.181842 0
0.201511 0.181933 0
0.229099 0.182971 0
0.25452 0.184573 0
0.279377 0.186404 0
0.30486 0.188205 0
0.332006 0.189731 0
0.36286 0.190784 0
0.400504 0.190036 0
0.446754 0.186786 0
0.501945 0.181186 0
0.563958 0.173892 0
0.623621 0.167376 0
0.675563 0.163043 0
0.718074 0.161364 0
0.755291 0.161486 0
0.789349 0.162463 0
0.820691 0.164157 0
0.850446 0.166339 0
0.878706 0.169192 0
0.905974 0.172198 0
0.932555 0.175433 0
0.956237 0.179492 0
0.976349 0.184512 0
0.993271 0.190356 0
1 0.196658 0
0 0.226734 0
0 0.224079 0
0 0.221927 0
0.0211337 0.220035 0
0.0584115 0.217823 0
0.0967727 0.215595 0
0.134463 0.214038 0
0.169314 0.213428 0
0.20058 0.213703 0
0.228199 0.215 0
0.253803 0.216999 0
0.278721 0.219303 0
0.304326 0.22153 0
0.331563 0.223438 0
0.362585 0.224979 0
0.400275 0.224338 0
0.446723 0.221454 0
0.5028 0.216373 0
0.56492 0.209445 0
0.624949 0.203174 0
0.676799 0.199191 0
0.719173 0.198138 0
0.756359 0.198245 0
0.790204 0.199466 0
0.821988 0.201389 0
0.851652 0.203922 0
0.880064 0.206744 0
0.907271 0.209934 0
0.9337 0.213336 0
0.957229 0.217533 0
0.977371 0.222599 0
0.994369 0.228428 0
1 0.234592 0
0 0.258015 0
0 0.255512 0
0 0.253407 0
0.0177157 0.251835 0
0.0554971 0.249989 0
0.0945296 0.248295 0
0.132769 0.247181 0
0.168017 0.24654 0
0.199573 0.247028 0
0.227466 0.248646 0
0.253117 0.251026 0
0.278065 0.253758 0
0.303792 0.256397 0
0.331365 0.258854 0
0.36228 0.260517 0
0.400259 0.26041 0
0.446937 0.257893 0
0.503319 0.252842 0
0.565484 0.246311 0
0.625727 0.24036 0
0.677562 0.236774 0
0.719631 0.235874 0
0.756863 0.236347 0
0.790707 0.237736 0
0.822324 0.23975 0
0.852079 0.242283 0
0.880171 0.245304 0
0.907347 0.248585 0
0.933852 0.252293 0
0.95729 0.256458 0
0.977188 0.26154 0
0.994217 0.267201 0
1 0.273075 0
0 0.291066 0
0 0.288624 0
0 0.286763 0
0.0133822 0.285664 0
0.0520333 0.284047 0
0.0915541 0.282918 0
0.129839 0.282063 0
0.165362 0.281834 0
0.197436 0.282719 0
0.225711 0.284718 0
0.251728 0.287419 0
0.276905 0.290486 0
0.302922 0.293431 0
0.330785 0.296178 0
0.362173 0.298054 0
0.400534 0.297993 0
0.44828 0.295491 0
0.505348 0.290517 0
0.567605 0.284199 0
0.627497 0.278569 0
0.678767 0.27538 0
0.720485 0.274479 0
0.757336 0.275227 0
0.790982 0.27657 0
0.822324 0.278752 0
0.851804 0.281331 0
0.879789 0.284306 0
0.906737 0.287526 0
0.932952 0.290883 0
0.956161 0.294942 0
0.975692 0.299947 0
0.993118 0.305409 0
1 0.311101 0
0 0.326284 0
0 0.324269 0
0 0.322652 0
0.0084535 0.321447 0
0.0480964 0.320333 0
0.0880751 0.319005 0
0.126864 0.318135 0
0.162966 0.318303 0
0.195148 0.319478 0
0.223484 0.321843 0
0.249531 0.324941 0
0.275074 0.328389 0
0.300893 0.331594 0
0.328817 0.334432 0
0.360204 0.336461 0
0.398779 0.33666 0
0.446723 0.334356 0
0.504021 0.329625 0
0.566171 0.32343 0
0.625925 0.317922 0
0.676738 0.314824 0
0.718425 0.314153 0
0.754986 0.314855 0
0.788571 0.316335 0
0.819684 0.318441 0
0.849027 0.320928 0
0.87686 0.323735 0
0.903456 0.326863 0
0.92932 0.330129 0
0.952071 0.334112 0
0.971679 0.33875 0
0.988708 0.344015 0
1 0.349493 0
0 0.362402 0
0 0.360693 0
0 0.359365 0
0.00462348 0.358404 0
0.0439155 0.357519 0
0.0848096 0.356558 0
0.124056 0.356008 0
0.160266 0.356405 0
0.192233 0.358068 0
0.22063 0.360784 0
0.246632 0.364218 0
0.272129 0.367834 0
0.297948 0.371389 0
0.325978 0.374395 0
0.357458 0.376501 0
0.396139 0.376669 0
0.443946 0.374395 0
0.501289 0.369543 0
0.563241 0.363561 0
0.622507 0.35819 0
0.672831 0.355062 0
0.714153 0.354238 0
0.750408 0.354955 0
0.783597 0.356344 0
0.814282 0.358389 0
0.842969 0.360876 0
0.87013 0.363653 0
0.896513 0.366506 0
0.922042 0.369589 0
0.94435 0.373541 0
0.963378 0.378363 0
0.97995 0.383993 0
0.995575 0.389624 0
0 0.401724 0
0 0.400336 0
0 0.399344 0
0 0.398825 0
0.0353094 0.398276 0
0.0759442 0.397589 0
0.115694 0.397299 0
0.151781 0.397986 0
0.183459 0.400015 0
0.211185 0.403159 0
0.236942 0.406729 0
0.261952 0.410559 0
0.287526 0.414313 0
0.315297 0.417456 0
0.347021 0.419684 0
0.385901 0.419745 0
0.433799 0.417365 0
0.491005 0.412451 0
0.552789 0.406394 0
0.611505 0.4009 0
0.661219 0.397787 0
0.702144 0.397024 0
0.738003 0.397635 0
0.770977 0.398962 0
0.801266 0.400809 0
0.829557 0.403143 0
0.856016 0.405997 0
0.881331 0.409094 0
0.906203 0.412284 0
0.927871 0.416449 0
0.946136 0.421592 0
0.96231 0.427283 0
0.977035 0.43331 0
0 0.444221 0
0 0.443381 0
0 0.442832 0
0 0.442512 0
0.0207218 0.442191 0
0.0614176 0.441596 0
0.100526 0.441566 0
0.136385 0.442863 0
0.167636 0.44509 0
0.195102 0.448386 0
0.220447 0.452262 0
0.245396 0.456184 0
0.271168 0.459831 0
0.298909 0.462959 0
0.330465 0.464988 0
0.369665 0.464866 0
0.417563 0.462333 0
0.474388 0.457328 0
0.535805 0.451026 0
0.594049 0.445426 0
0.643351 0.44213 0
0.684001 0.441108 0
0.719615 0.441413 0
0.752255 0.442527 0
0.782345 0.444297 0
0.810513 0.446601 0
0.837156 0.449287 0
0.862547 0.452369 0
0.887724 0.455833 0
0.909499 0.459907 0
0.927855 0.464988 0
0.944686 0.470405 0
0.960327 0.476051 0
0 0.488701 0
0 0.488075 0
0 0.487602 0
0 0.487373 0
0.00717174 0.486839 0
0.0480812 0.486244 0
0.08748 0.486152 0
0.123278 0.487053 0
0.154803 0.488884 0
0.182574 0.492058 0
0.208057 0.495537 0
0.232975 0.49926 0
0.258808 0.503075 0
0.286702 0.505882 0
0.318395 0.507637 0
0.357733 0.50724 0
0.405493 0.504448 0
0.46186 0.499214 0
0.522728 0.492729 0
0.580575 0.487007 0
0.629786 0.483589 0
0.67042 0.482506 0
0.70631 0.482719 0
0.738888 0.483833 0
0.769238 0.485542 0
0.797894 0.487785 0
0.824704 0.490379 0
0.850828 0.493126 0
0.875929 0.496162 0
0.898253 0.500191 0
0.917967 0.504631 0
0.935424 0.509667 0
0.95227 0.514748 0
0 0.529976 0
0 0.529274 0
0 0.528725 0
0 0.528435 0
0.00205997 0.527764 0
0.0437934 0.526802 0
0.0838483 0.526314 0
0.11931 0.527245 0
0.150927 0.529213 0
0.178592 0.532067 0
0.204211 0.535439 0
0.229465 0.538872 0
0.25536 0.542123 0
0.283116 0.54461 0
0.314611 0.546029 0
0.353735 0.545403 0
0.401495 0.54258 0
0.457771 0.537408 0
0.518486 0.530861 0
0.57615 0.525154 0
0.625528 0.521798 0
0.666178 0.520714 0
0.702068 0.520867 0
0.734768 0.521859 0
0.765362 0.523476 0
0.793881 0.525567 0
0.821027 0.527977 0
0.847059 0.530632 0
0.872572 0.53341 0
0.895247 0.536934 0
0.914824 0.541253 0
0.932799 0.545907 0
0.949905 0.550713 0
0 0.568704 0
0 0.568093 0
0 0.567544 0
0 0.567163 0
0.0033875 0.5664 0
0.0450904 0.56527 0
0.0849775 0.56463 0
0.120882 0.565103 0
0.152102 0.566827 0
0.179599 0.56939 0
0.20502 0.57258 0
0.230015 0.575753 0
0.255604 0.578714 0
0.283314 0.581079 0
0.314763 0.582422 0
0.353719 0.58175 0
0.401175 0.57882 0
0.45716 0.573587 0
0.517769 0.567193 0
0.575402 0.561532 0
0.624826 0.558083 0
0.665339 0.557046 0
0.701274 0.55729 0
0.733989 0.558236 0
0.764233 0.559808 0
0.79292 0.561715 0
0.820081 0.563958 0
0.84593 0.566522 0
0.871138 0.569223 0
0.89366 0.57261 0
0.91342 0.576654 0
0.931441 0.581064 0
0.948562 0.585611 0
0 0.605753 0
0 0.605051 0
0 0.604486 0
0 0.604013 0
0.00656138 0.603082 0
0.0480964 0.601801 0
0.0876326 0.601022 0
0.12282 0.601328 0
0.153674 0.602823 0
0.180896 0.605295 0
0.20621 0.608316 0
0.231144 0.611444 0
0.256626 0.61442 0
0.284474 0.61677 0
0.315984 0.618128 0
0.355077 0.617411 0
0.402564 0.61445 0
0.458488 0.609186 0
0.518822 0.602731 0
0.576349 0.597192 0
0.625437 0.593698 0
0.665858 0.592538 0
0.701625 0.592584 0
0.734386 0.593591 0
0.764645 0.595071 0
0.792981 0.596979 0
0.819821 0.599222 0
0.845533 0.601617 0
0.870665 0.60412 0
0.893431 0.607172 0
0.913115 0.611048 0
0.931487 0.615198 0
0.948821 0.619547 0
0 0.643397 0
0 0.642878 0
0 0.642252 0
0 0.641413 0
0.00611887 0.640223 0
0.0473182 0.638727 0
0.0870069 0.63772 0
0.123156 0.637888 0
0.154589 0.63917 0
0.18204 0.641581 0
0.207614 0.644602 0
0.232578 0.6477 0
0.258228 0.650599 0
0.286152 0.652903 0
0.317876 0.654276 0
0.357198 0.653437 0
0.404883 0.650309 0
0.461006 0.644877 0
0.52166 0.638361 0
0.579019 0.632532 0
0.627695 0.629007 0
0.668132 0.627649 0
0.703777 0.627604 0
0.736263 0.628275 0
0.766522 0.629648 0
0.794934 0.631342 0
0.821698 0.633371 0
0.847578 0.635493 0
0.872267 0.637751 0
0.894194 0.64062 0
0.913466 0.644175 0
0.931289 0.648051 0
0.948363 0.652125 0
0 0.678264 0
0 0.677501 0
0 0.676783 0
0 0.67602 0
0.011429 0.674815 0
0.0527047 0.673259 0
0.0919966 0.672282 0
0.127337 0.672465 0
0.158404 0.673838 0
0.185763 0.676249 0
0.211139 0.67921 0
0.236118 0.682261 0
0.262089 0.685328 0
0.290043 0.687572 0
0.321981 0.688701 0
0.361303 0.687785 0
0.409583 0.684398 0
0.465736 0.678843 0
0.525673 0.672206 0
0.582696 0.666316 0
0.630793 0.66276 0
0.670787 0.661326 0
0.706065 0.661082 0
0.738247 0.661601 0
0.7682 0.662654 0
0.796735 0.664149 0
0.823331 0.665995 0
0.848722 0.668025 0
0.87332 0.669963 0
0.89485 0.672602 0
0.914153 0.675776 0
0.931502 0.679469 0
0.948623 0.683207 0
0 0.711666 0
0 0.711101 0
0 0.710506 0
0 0.709911 0
0.0183261 0.708461 0
0.0598001 0.706874 0
0.0984665 0.706065 0
0.133165 0.706371 0
0.163668 0.707851 0
0.190677 0.710262 0
0.215991 0.71313 0
0.240879 0.716091 0
0.266743 0.718746 0
0.294804 0.721096 0
0.327352 0.721889 0
0.367071 0.720714 0
0.415671 0.717144 0
0.472129 0.711513 0
0.531792 0.704738 0
0.587777 0.698878 0
0.635279 0.695247 0
0.674617 0.693721 0
0.709392 0.693324 0
0.741131 0.693629 0
0.770871 0.694362 0
0.798856 0.695613 0
0.825437 0.69749 0
0.850477 0.699168 0
0.874815 0.700816 0
0.896269 0.703166 0
0.91516 0.706142 0
0.932464 0.709743 0
0.94934 0.713314 0
0 0.744183 0
0 0.74374 0
0 0.743343 0
0 0.742763 0
0.0273747 0.741436 0
0.0679942 0.740032 0
0.106432 0.739193 0
0.140368 0.739635 0
0.170077 0.741283 0
0.196506 0.74374 0
0.221408 0.746578 0
0.246143 0.749432 0
0.271778 0.752148 0
0.300053 0.753933 0
0.332647 0.754498 0
0.373404 0.75288 0
0.422141 0.749065 0
0.478584 0.743053 0
0.53817 0.736278 0
0.593332 0.730343 0
0.640238 0.726528 0
0.678767 0.724895 0
0.712963 0.72433 0
0.744472 0.724392 0
0.773861 0.725109 0
0.801801 0.726146 0
0.827955 0.727626 0
0.852705 0.729 0
0.876814 0.730419 0
0.898024 0.73254 0
0.916808 0.735561 0
0.933913 0.738735 0
0.950805 0.742382 0
0 0.776333 0
0 0.775692 0
0 0.775433 0
0 0.774884 0
0.037583 0.773602 0
0.0777752 0.77229 0
0.115206 0.771786 0
0.148333 0.77229 0
0.177081 0.773968 0
0.202976 0.776394 0
0.227451 0.779171 0
0.251942 0.781872 0
0.277699 0.784176 0
0.305806 0.785763 0
0.339178 0.785855 0
0.379919 0.783932 0
0.429618 0.779675 0
0.48603 0.773434 0
0.545113 0.766445 0
0.599374 0.760449 0
0.645106 0.756619 0
0.682933 0.754864 0
0.716808 0.754101 0
0.747982 0.754055 0
0.777249 0.754711 0
0.8047 0.755596 0
0.830671 0.756527 0
0.855238 0.757671 0
0.878996 0.758923 0
0.900343 0.761044 0
0.918883 0.763897 0
0.935882 0.76701 0
0.952316 0.770047 0
0 0.807889 0
0 0.807202 0
0 0.80679 0
0.00886549 0.806058 0
0.049134 0.804639 0
0.0885939 0.803388 0
0.124605 0.803067 0
0.156878 0.803952 0
0.184634 0.805692 0
0.209857 0.808072 0
0.234012 0.810681 0
0.25832 0.813184 0
0.283726 0.81529 0
0.312261 0.816464 0
0.345617 0.816251 0
0.387152 0.813718 0
0.436988 0.809262 0
0.493614 0.802823 0
0.551797 0.795544 0
0.60531 0.789425 0
0.649821 0.785672 0
0.687144 0.783795 0
0.720958 0.783032 0
0.751934 0.782864 0
0.780758 0.783246 0
0.807599 0.783795 0
0.833356 0.784497 0
0.857923 0.785702 0
0.881529 0.78677 0
0.902846 0.788769 0
0.921111 0.79115 0
0.938247 0.794186 0
0.954498 0.797192 0
0 0.840299 0
0 0.840208 0
0 0.840345 0
0.012665 0.839841 0
0.0519112 0.83856 0
0.0912032 0.837156 0
0.127184 0.836652 0
0.159243 0.837171 0
0.187411 0.839002 0
