public/luts/creative_looks/Her.cube
#Created by: Denver Riddle
#Copyright: (C) Copyright Color Grading Central LLC
#LUT Size
LUT_3D_SIZE 33
0.0345006 0.0270542 0.0197604
0.052781 0.0268406 0.0193027
0.0683757 0.0234989 0.0189059
0.0838788 0.0199283 0.0188144
0.0958114 0.0188602 0.0156405
0.103853 0.0156252 0.0151827
0.111513 0.0122377 0.0117647
0.115816 0.0084535 0.0111543
0.12285 0.00784314 0.0111086
0.127337 0.00460822 0.00840772
0.131075 0.00392157 0.00784314
0.134859 0.00392157 0.00784314
0.138598 0.00392157 0.00784314
0.140063 0.00376898 0.00784314
0.143175 0.00260929 0.00784314
0.147036 0.000549325 0.00709544
0.147982 0 0.00680552
0.150729 0 0.00674449
0.151797 0 0.0047303
0.154437 0 0.00392157
0.155627 0.00183108 0.00392157
0.156435 0.00349432 0.00392157
0.158556 0.00392157 0.00392157
0.160296 0.00392157 0.00392157
0.162341 0.00392157 0.00392157
0.16321 0.00392157 0.00392157
0.164111 0.00392157 0.00392157
0.166094 0.00392157 0.00392157
0.166995 0.00392157 0.00392157
0.167895 0.00392157 0.00392157
0.168627 0.00392157 0.00392157
0.169787 0.00392157 0.00392157
0.170718 0.00392157 0.00392157
0.0479896 0.0379339 0.0192264
0.0505684 0.0407416 0.0190585
0.0641947 0.037705 0.0160678
0.0795148 0.0331731 0.01561
0.0939651 0.0270848 0.0151522
0.10309 0.0223697 0.0150149
0.11078 0.0182803 0.0117647
0.117952 0.0143282 0.011017
0.122881 0.0114595 0.010956
0.126818 0.00784314 0.00852979
0.132876 0.0069276 0.00784314
0.135607 0.004654 0.00784314
0.138857 0.00392157 0.00784314
0.141573 0.00392157 0.00784314
0.143465 0.00369268 0.00784314
0.146685 0.00300603 0.00759899
0.147814 0.00270085 0.00689708
0.150393 0.00265507 0.00657664
0.151629 0.00260929 0.00479133
0.154162 0.00257877 0.00392157
0.155459 0.00341802 0.00392157
0.15729 0.00392157 0.00392157
0.158907 0.00392157 0.00392157
0.160143 0.00392157 0.00392157
0.162142 0.00392157 0.00392157
0.163058 0.00392157 0.00392157
0.163973 0.00392157 0.00392157
0.165896 0.00392157 0.00392157
0.166812 0.00392157 0.00392157
0.167742 0.00392157 0.00392157
0.169146 0.00392157 0.00392157
0.170123 0.00392157 0.00392157
0.170535 0.00392157 0.00392157
0.0597543 0.0521553 0.019028
0.0573739 0.0556802 0.0217441
0.0642557 0.0554971 0.0189212
0.0759442 0.0513619 0.018143
0.0876478 0.044007 0.0155184
0.100633 0.0365454 0.014847
0.110079 0.0294347 0.0122988
0.11783 0.0229191 0.0110018
0.124758 0.0185702 0.0107881
0.129168 0.0146487 0.0101625
0.133684 0.0114595 0.00840772
0.137148 0.00923171 0.00784314
0.140734 0.00723278 0.00784314
0.142962 0.00662242 0.00784314
0.145449 0.00656138 0.00784314
0.147234 0.00480659 0.00784314
0.149248 0.00392157 0.00694286
0.150973 0.00392157 0.00640879
0.153002 0.00392157 0.00483711
0.154726 0.00392157 0.00392157
0.155856 0.00392157 0.00392157
0.1579 0.00392157 0.00392157
0.159106 0.00392157 0.00392157
0.160037 0.00392157 0.00392157
0.161959 0.00456245 0.00392157
0.163409 0.00556954 0.00392157
0.164828 0.00596628 0.00392157
0.166217 0.0059205 0.00392157
0.167132 0.00585946 0.00392157
0.168093 0.00581369 0.00392157
0.169497 0.00576791 0.00392157
0.170413 0.00489815 0.00392157
0.170367 0.00392157 0.00392157
0.0713664 0.066865 0.022034
0.0706035 0.0704509 0.0225681
0.0715648 0.0734722 0.0225223
0.0784619 0.0724346 0.0218509
0.0885634 0.0657664 0.0186465
0.0988327 0.0561379 0.0159915
0.108919 0.0475776 0.0142824
0.117159 0.0391699 0.0121157
0.124788 0.0318151 0.0108492
0.131579 0.0256046 0.0105592
0.136217 0.0210422 0.00869764
0.139956 0.0176089 0.00784314
0.142519 0.0141756 0.00784314
0.145144 0.0112459 0.00784314
0.147997 0.0103151 0.00784314
0.149554 0.00932326 0.00784314
0.150805 0.00813306 0.00747692
0.152728 0.00680552 0.00663767
0.154543 0.00621042 0.00488289
0.155703 0.00614939 0.00392157
0.157168 0.00608835 0.00392157
0.158526 0.00604257 0.00392157
0.159472 0.00601205 0.00392157
0.160906 0.00596628 0.00392157
0.16228 0.00639353 0.00392157
0.163699 0.00732433 0.00392157
0.165591 0.00784314 0.00392157
0.166522 0.00784314 0.00392157
0.167468 0.00784314 0.00392157
0.168963 0.00784314 0.00392157
0.169757 0.00784314 0.00392157
0.170245 0.00689708 0.00392157
0.170184 0.00547799 0.00392157
0.0856031 0.0793774 0.0233158
0.0852979 0.0845655 0.0249332
0.085069 0.0905623 0.026154
0.0884565 0.092256 0.0261692
0.0958267 0.0885328 0.0246433
0.103883 0.0801251 0.0214389
0.112093 0.0701915 0.0181125
0.119997 0.0607156 0.0146944
0.12697 0.0510262 0.0120394
0.133272 0.0428016 0.0112917
0.13785 0.0358892 0.0101015
0.141604 0.0293431 0.00842298
0.144823 0.0244144 0.00784314
0.147646 0.0203708 0.00784314
0.149859 0.017319 0.00784314
0.1523 0.0162966 0.00784314
0.153429 0.0145113 0.00784314
0.154314 0.012604 0.00686656
0.156161 0.0120394 0.00549325
0.157519 0.011429 0.00444038
0.158373 0.0103304 0.00392157
0.159319 0.00981155 0.00392157
0.160708 0.00975052 0.00392157
0.162127 0.00968948 0.00392157
0.163043 0.0096437 0.00392157
0.164385 0.00958267 0.00392157
0.165896 0.00955215 0.00392157
0.166781 0.00950637 0.00392157
0.168093 0.00944533 0.00392157
0.169619 0.00939956 0.00392157
0.170489 0.00933852 0.00392157
0.170993 0.00875868 0.00392157
0.170962 0.00784314 0.00392157
0.103197 0.0964523 0.0263523
0.102907 0.099794 0.0268711
0.102632 0.10631 0.0292363
0.103288 0.112413 0.0301518
0.106874 0.112978 0.0298009
0.113573 0.106767 0.0269932
0.119997 0.0962081 0.0230411
0.12639 0.084947 0.0190738
0.131945 0.0747692 0.0154726
0.136339 0.0650339 0.0126955
0.140368 0.0558633 0.0113832
0.144106 0.0473945 0.00996414
0.14786 0.0408026 0.00839246
0.150027 0.0349889 0.00784314
0.15198 0.0299687 0.00784314
0.154192 0.0268864 0.00784314
0.156039 0.023682 0.00784314
0.156909 0.021622 0.00735485
0.157778 0.0205234 0.00634775
0.159243 0.0189822 0.00489815
0.160113 0.016968 0.00392157
0.160983 0.0153506 0.00392157
0.16199 0.015259 0.00392157
0.162875 0.0151369 0.00392157
0.164202 0.0150149 0.00392157
0.165759 0.0149844 0.00392157
0.166629 0.0148623 0.00392157
0.167926 0.0144198 0.00392157
0.169497 0.0135348 0.00392157
0.170336 0.013138 0.00392157
0.17142 0.0130922 0.00392157
0.172549 0.0117647 0.00392157
0.172549 0.00909438 0.00392157
0.119997 0.112566 0.0301061
0.11986 0.116808 0.0300755
0.119631 0.123903 0.0320134
0.119341 0.131304 0.0335546
0.121019 0.135454 0.0338445
0.125734 0.132662 0.0322728
0.131609 0.124575 0.0288701
0.136751 0.113603 0.024094
0.140764 0.101534 0.0196078
0.143725 0.0899519 0.0156863
0.146334 0.0787976 0.0133974
0.14902 0.0687724 0.011841
0.151766 0.0606851 0.0103761
0.153582 0.053666 0.00881971
0.155428 0.0476081 0.00784314
0.156771 0.0424811 0.00784314
0.158129 0.0374456 0.00784314
0.160021 0.0338445 0.00784314
0.160418 0.0313725 0.00730907
0.160861 0.0291447 0.00576791
0.161898 0.0268711 0.00433356
0.162799 0.0244755 0.00392157
0.163531 0.0236667 0.00392157
0.164385 0.0226444 0.00392157
0.165972 0.0225834 0.00392157
0.167239 0.0221256 0.00392157
0.168048 0.0213016 0.00392157
0.169665 0.0203403 0.00392157
0.170764 0.0188144 0.00392157
0.17142 0.0178988 0.00392157
0.172915 0.0171206 0.00392157
0.172869 0.0156863 0.00392157
0.172839 0.0128328 0.00392157
0.137148 0.130205 0.0329747
0.136828 0.133272 0.0334783
0.136584 0.139925 0.0343481
0.136263 0.148226 0.0364385
0.137072 0.154482 0.037583
0.140291 0.156054 0.0371252
0.1449 0.152483 0.0345464
0.14902 0.143694 0.030045
0.152117 0.13048 0.0251011
0.154238 0.116548 0.0201267
0.156008 0.104082 0.0166934
0.157351 0.0931411 0.0147097
0.15819 0.0831464 0.0127413
0.159014 0.0745403 0.0107881
0.160403 0.0675517 0.00920119
0.161318 0.060914 0.00827039
0.162097 0.0548257 0.00784314
0.163577 0.0498207 0.00784314
0.164004 0.045655 0.00784314
0.163912 0.0421149 0.00727855
0.16379 0.0392309 0.00564584
0.164599 0.0365911 0.00425727
0.166445 0.0341955 0.00392157
0.167117 0.0315404 0.00392157
0.167926 0.0309606 0.00392157
0.169574 0.0293889 0.00392157
0.170672 0.0277409 0.00392157
0.171267 0.0266423 0.00392157
0.172869 0.0257725 0.00392157
0.173266 0.0248112 0.00392157
0.174304 0.0221866 0.00392157
0.174243 0.0205692 0.00392157
0.174151 0.0174868 0.00392157
0.153765 0.148898 0.0346532
0.153536 0.150942 0.0357824
0.153246 0.156725 0.0370947
0.153017 0.164782 0.0391089
0.153948 0.17232 0.0409247
0.156039 0.17734 0.0413062
0.159213 0.177432 0.039765
0.162829 0.171145 0.036286
0.16553 0.159686 0.0313573
0.167269 0.145693 0.0259251
0.1682 0.13228 0.0214542
0.167956 0.119829 0.0184482
0.167712 0.108339 0.0156863
0.167529 0.0979019 0.0130312
0.167834 0.0888533 0.0115969
0.16849 0.0811933 0.0099794
0.168536 0.0743572 0.00877394
0.168612 0.0683452 0.00784314
0.16849 0.0628977 0.00784314
0.168353 0.0573892 0.00784314
0.168246 0.0538491 0.00726329
0.168856 0.0509194 0.00550851
0.170291 0.0469062 0.00419623
0.170443 0.0436255 0.00392157
0.17113 0.0415808 0.00392157
0.172152 0.0387732 0.00392157
0.173571 0.0381781 0.00392157
0.173816 0.036759 0.00392157
0.174441 0.0339971 0.00392157
0.174868 0.0324559 0.00392157
0.176654 0.0298009 0.00392157
0.176623 0.0281071 0.00392157
0.176608 0.0244297 0.00392157
0.169421 0.167666 0.0374609
0.169238 0.169528 0.0379339
0.169558 0.175158 0.0398718
0.169909 0.182788 0.0417487
0.170672 0.190311 0.0436561
0.171847 0.197223 0.0450446
0.174044 0.199954 0.0444953
0.177661 0.196292 0.0419928
0.180392 0.187793 0.0371557
0.182177 0.175433 0.0317998
0.182193 0.161425 0.0269017
0.180392 0.147509 0.0227359
0.179736 0.134432 0.0196078
0.179141 0.123049 0.0160372
0.178286 0.112749 0.0138247
0.177737 0.103731 0.012665
0.176944 0.0953994 0.0108644
0.175631 0.0873426 0.00886549
0.175509 0.0810407 0.0081178
0.175265 0.0751049 0.00784314
0.174914 0.0702068 0.00784314
0.175051 0.0661479 0.00726329
0.175479 0.0620432 0.00555428
0.175357 0.0579843 0.00474556
0.175753 0.0540475 0.00410468
0.177447 0.0510567 0.00392157
0.177554 0.0491951 0.00392157
0.177615 0.0467842 0.00392157
0.178027 0.0446937 0.00392157
0.177905 0.0412451 0.00392157
0.177813 0.0398871 0.00392157
0.177707 0.0354772 0.00392157
0.177554 0.0296941 0.00392157
0.185443 0.186435 0.0412146
0.18529 0.188235 0.0411841
0.186023 0.19379 0.0425727
0.186709 0.201205 0.04448
0.186938 0.208621 0.0462806
0.187716 0.216144 0.0482643
0.189227 0.22092 0.0487373
0.19266 0.220111 0.0470588
0.195331 0.213993 0.0425727
0.196918 0.20383 0.0374151
0.197589 0.190677 0.032517
0.195682 0.176074 0.0277867
0.193805 0.162173 0.0235294
0.19205 0.149157 0.0196078
0.189868 0.137728 0.0167086
0.188357 0.126864 0.0151064
0.18706 0.117556 0.0125887
0.184894 0.107942 0.0111849
0.184497 0.10135 0.00952163
0.183963 0.0934157 0.00862135
0.182605 0.0861372 0.00784314
0.182284 0.0812848 0.00784314
0.182193 0.0772259 0.00784314
0.182071 0.0729686 0.00732433
0.181979 0.0685588 0.00523384
0.18204 0.0650492 0.00456245
0.182422 0.0615702 0.00402838
0.182254 0.0601358 0.00392157
0.182086 0.0560922 0.00392157
0.181964 0.052079 0.00392157
0.181888 0.0480964 0.00392157
0.181659 0.0440223 0.00392157
0.180804 0.0400397 0.00392157
0.202319 0.207111 0.0449683
0.20209 0.208621 0.0449226
0.202319 0.213077 0.0460517
0.202823 0.219638 0.0480201
0.202853 0.227054 0.0493477
0.203784 0.234577 0.0511635
0.205554 0.24065 0.0525216
0.207782 0.241794 0.0509804
0.210208 0.237995 0.0472572
0.211704 0.230686 0.0436255
0.213169 0.219257 0.038941
0.21207 0.204791 0.0332189
0.209155 0.190707 0.0283055
0.206195 0.176501 0.0235294
0.203632 0.162432 0.0198367
0.200778 0.150805 0.0173342
0.198795 0.140337 0.0156863
0.196445 0.12929 0.0125734
0.194827 0.120668 0.0119326
0.193561 0.112474 0.0110781
0.191135 0.104494 0.00854505
0.18996 0.0971237 0.00796521
0.189822 0.0925154 0.00784314
0.189639 0.0879072 0.00784314
0.189517 0.0819867 0.00784314
0.189425 0.0802167 0.00741588
0.189303 0.076051 0.00485237
0.189212 0.0716869 0.00436408
0.18912 0.0679484 0.00396735
0.188998 0.0635843 0.00392157
0.188617 0.0595254 0.00392157
0.188235 0.0551919 0.00392157
0.184573 0.0477913 0.00392157
0.218448 0.229633 0.0487221
0.218265 0.230289 0.0486763
0.218021 0.233524 0.0501869
0.21799 0.23888 0.0524758
0.218891 0.245594 0.0530098
0.220371 0.253117 0.0547341
0.221683 0.259251 0.0562753
0.223148 0.261494 0.054902
0.22504 0.26006 0.0516518
0.22649 0.254658 0.0491035
0.228244 0.244755 0.0446479
0.227253 0.232563 0.0394446
0.224674 0.218906 0.0345159
0.222644 0.203235 0.028275
0.218585 0.188724 0.0237736
0.214679 0.175998 0.020676
0.211933 0.163607 0.0196078
0.209674 0.151644 0.0158236
0.20589 0.140887 0.0130465
0.203235 0.132158 0.0123598
0.201434 0.123552 0.0113069
0.19852 0.115648 0.00889601
0.198245 0.108553 0.00833143
0.19762 0.103639 0.00784314
0.197086 0.0994583 0.00784314
0.196948 0.0953384 0.00784314
0.196811 0.090959 0.00784314
0.196719 0.0838788 0.00756847
0.196643 0.0826886 0.00445563
0.196124 0.0754101 0.0041352
0.192706 0.0711376 0.00392157
0.192279 0.0667887 0.00392157
0.188418 0.0590066 0.00392157
0.233463 0.250645 0.0524758
0.233204 0.250858 0.0526131
0.233204 0.253788 0.0540932
0.233921 0.259525 0.0562448
0.235416 0.264881 0.0564889
0.236393 0.271534 0.0577249
0.236515 0.27776 0.0591897
0.237934 0.280247 0.0582437
0.239857 0.279377 0.0559854
0.241138 0.276234 0.054902
0.243259 0.269215 0.0504158
0.242466 0.258152 0.0446326
0.240146 0.245853 0.0399634
0.237858 0.230015 0.0349126
0.234058 0.215076 0.0288853
0.230518 0.202411 0.0254063
0.226352 0.187503 0.0235294
0.222248 0.17464 0.0196078
0.218509 0.16318 0.0161898
0.216938 0.154192 0.0152132
0.213382 0.143206 0.0122225
0.209995 0.134768 0.0118105
0.209079 0.126818 0.0113985
0.208576 0.119371 0.00819409
0.205127 0.114931 0.00813306
0.204868 0.110536 0.00784314
0.204547 0.106279 0.00784314
0.204257 0.098558 0.00784314
0.204028 0.0944381 0.00784314
0.200183 0.0903792 0.0077821
0.2 0.0862745 0.00392157
0.199908 0.0783856 0.00392157
0.196002 0.0705119 0.00392157
0.248859 0.270649 0.056672
0.248631 0.271229 0.057145
0.249027 0.274113 0.0588083
0.250523 0.27895 0.0600137
0.251591 0.285237 0.0599527
0.251408 0.289937 0.0602121
0.251637 0.296361 0.0608835
0.253254 0.299016 0.0605325
0.25478 0.298863 0.0597696
0.255421 0.297139 0.0588235
0.258274 0.290486 0.0549477
0.25803 0.282689 0.0511025
0.257084 0.27216 0.0465858
0.253376 0.257191 0.0403754
0.250614 0.242771 0.0358434
0.248417 0.229236 0.0314488
0.241825 0.213443 0.027451
0.237629 0.198413 0.0235294
0.233433 0.186404 0.0196078
0.229358 0.174823 0.016083
0.228183 0.165789 0.0157168
0.224155 0.154376 0.0122988
0.220569 0.146304 0.0119936
0.219974 0.138338 0.0117647
0.216052 0.1337 0.0116426
0.216007 0.125917 0.00794995
0.215732 0.12166 0.00788891
0.211765 0.113725 0.00784314
0.211643 0.109621 0.00784314
0.207721 0.105516 0.00784314
0.207507 0.0978561 0.00767529
0.203906 0.0899977 0.00410468
0.203449 0.0821088 0.00392157
0.265461 0.293263 0.0619669
0.265232 0.292988 0.0624399
0.265538 0.293782 0.0638132
0.266789 0.298024 0.0637522
0.266606 0.303822 0.0637064
0.266407 0.308293 0.063859
0.267185 0.314946 0.0644541
0.269978 0.317861 0.0642252
0.269764 0.317586 0.063508
0.270375 0.316838 0.0627756
0.273228 0.3131 0.0591135
0.273045 0.307729 0.0559548
0.272435 0.295964 0.0514839
0.269612 0.284443 0.0471199
0.268101 0.272007 0.042771
0.264027 0.256138 0.035996
0.259922 0.240314 0.0314031
0.255818 0.22475 0.027451
0.251606 0.212909 0.0235294
0.244266 0.200687 0.0198215
0.239887 0.188739 0.0194553
0.235904 0.176959 0.0158083
0.235416 0.168811 0.0156252
0.231434 0.160876 0.0117952
0.22742 0.152895 0.0117647
0.227222 0.144869 0.0116884
0.223407 0.137011 0.0116426
0.22298 0.132601 0.00801099
0.219364 0.125017 0.00784314
0.218845 0.12079 0.00784314
0.21532 0.113054 0.00784314
0.211398 0.10515 0.00750744
0.207797 0.0940719 0.00430304
0.282475 0.314855 0.0676738
0.282231 0.314778 0.0676127
0.282094 0.315923 0.0675669
0.281987 0.318776 0.0675059
0.281834 0.322332 0.0674449
0.282383 0.326925 0.0675517
0.283009 0.333639 0.0679484
0.285008 0.336645 0.0677806
0.284993 0.336568 0.0672618
0.285908 0.336904 0.066743
0.288243 0.335363 0.0636759
0.288106 0.330541 0.0627451
0.287922 0.320012 0.0584878
0.287358 0.310918 0.0516213
0.283604 0.298955 0.0473487
0.279622 0.283085 0.0429389
0.275303 0.267277 0.0356756
0.27126 0.251667 0.0315404
0.267094 0.239536 0.0275578
0.262867 0.223774 0.0235294
0.254902 0.211765 0.0196078
0.250797 0.199817 0.0195468
0.246876 0.188052 0.0157778
0.242863 0.17998 0.0155489
0.242405 0.172 0.0119326
0.238712 0.163973 0.0117647
0.234714 0.155993 0.0117647
0.234241 0.148287 0.0114443
0.23061 0.143603 0.00819409
0.226978 0.136355 0.00784314
0.226047 0.128435 0.00784314
0.222461 0.117571 0.00784314
0.215595 0.108705 0.00451667
0.297597 0.334371 0.0714122
0.297398 0.334722 0.0713664
0.297353 0.337072 0.0713054
0.298039 0.337942 0.0712596
0.298329 0.341115 0.0712291
0.300374 0.345251 0.0711681
0.300191 0.352239 0.0711223
0.300099 0.355367 0.0710613
0.300908 0.355901 0.0710155
0.303487 0.358465 0.0706645
0.303365 0.355016 0.067628
0.30312 0.350729 0.0666667
0.302892 0.345815 0.0627451
0.302708 0.334417 0.0588388
0.302327 0.325734 0.0547799
0.298268 0.310033 0.0472114
0.294255 0.294301 0.043183
0.290135 0.278386 0.0392004
0.28603 0.266423 0.0352331
0.278187 0.250614 0.0275731
0.273838 0.234943 0.0271153
0.269795 0.222934 0.0235142
0.26569 0.214481 0.0196078
0.258183 0.202976 0.0193027
0.257359 0.194614 0.0156863
0.253666 0.186587 0.0152743
0.249607 0.175494 0.0121767
0.246021 0.167163 0.0117647
0.242039 0.159609 0.0112917
0.237995 0.15172 0.00836194
0.234531 0.143786 0.00784314
0.230655 0.132616 0.00784314
0.223529 0.121431 0.00723278
0.313649 0.356237 0.0751659
0.31339 0.356008 0.0751202
0.313436 0.356252 0.0750591
0.315816 0.359472 0.0750286
0.315633 0.359716 0.0749828
0.315465 0.363638 0.0749218
0.315602 0.370489 0.0749065
0.315801 0.373816 0.0748455
0.318746 0.374441 0.0747997
0.318593 0.377615 0.0747387
0.318486 0.377142 0.0745098
0.318257 0.373037 0.0705882
0.318013 0.368811 0.0667277
0.317739 0.36083 0.0627756
0.317586 0.348974 0.0588235
0.313497 0.33695 0.0548257
0.309438 0.321202 0.0508583
0.305333 0.305333 0.0433051
0.301274 0.293202 0.0392157
0.296956 0.277607 0.0350347
0.289525 0.261784 0.031342
0.285176 0.249516 0.027451
0.281071 0.237888 0.0235294
0.276585 0.226032 0.0200198
0.272831 0.214542 0.0191501
0.268849 0.206104 0.0161746
0.264836 0.19765 0.0151675
0.260716 0.18677 0.0150149
0.256657 0.178225 0.0123598
0.252552 0.170199 0.0111391
0.246052 0.159777 0.00849927
0.241398 0.14815 0.00784314
0.234379 0.136339 0.00784314
0.331868 0.375006 0.0789197
0.331716 0.374853 0.0788891
0.331487 0.375036 0.0788434
0.331167 0.378225 0.0787823
0.330892 0.37821 0.0787213
0.33109 0.381872 0.078706
0.334066 0.38558 0.0788128
0.33402 0.389242 0.0789349
0.333867 0.392798 0.0787366
0.333669 0.396262 0.0784772
0.337255 0.396078 0.0784314
0.33695 0.391913 0.0745098
0.336721 0.387808 0.0742962
0.336568 0.383627 0.0704509
0.332769 0.372 0.0664836
0.332128 0.360052 0.0590524
0.328191 0.347814 0.054902
0.324086 0.33228 0.05066
0.319982 0.319982 0.0466621
0.312825 0.304601 0.0395972
0.307912 0.288731 0.0352941
0.30367 0.273335 0.0313725
0.296757 0.26096 0.027451
0.292149 0.248997 0.0235294
0.288167 0.237186 0.022858
0.284062 0.228428 0.0196078
0.280003 0.217884 0.0188296
0.273487 0.208576 0.0163424
0.268788 0.197986 0.0149844
0.264805 0.187076 0.0124819
0.257847 0.175494 0.0110323
0.250706 0.163684 0.00860609
0.243137 0.149813 0.00784314
0.350362 0.393835 0.0826886
0.350179 0.393606 0.0826429
0.349935 0.393515 0.0825818
0.349752 0.396826 0.0825513
0.349508 0.396811 0.0824903
0.349325 0.400443 0.0825818
0.349248 0.404196 0.082536
0.348959 0.407752 0.0862287
0.352575 0.411399 0.0861524
0.352331 0.411276 0.0823529
0.352255 0.411093 0.0821851
0.352148 0.410773 0.0819715
0.351904 0.406806 0.0784161
0.35172 0.402701 0.0745098
0.351141 0.394644 0.0705882
0.347738 0.383078 0.0663005
0.343679 0.374151 0.0622721
0.342641 0.359274 0.0553445
0.33608 0.343923 0.0509804
0.330983 0.328191 0.04654
0.326772 0.315129 0.0424811
0.319997 0.299794 0.0358892
0.314733 0.287129 0.0313725
0.308049 0.272755 0.0299382
0.303304 0.260166 0.0272679
0.299245 0.251286 0.0235294
0.29514 0.240238 0.0203403
0.288167 0.229084 0.0188602
0.283101 0.217487 0.0164645
0.277012 0.205631 0.0148928
0.269444 0.191821 0.0125734
0.26154 0.179187 0.0109255
0.251835 0.16289 0.00869764
0.365393 0.412436 0.0864576
0.365194 0.412268 0.0864118
0.36495 0.41207 0.0863966
0.364706 0.411765 0.0862745
0.364584 0.415503 0.086244
0.364401 0.41915 0.0899672
0.367895 0.422797 0.0899519
0.367712 0.422782 0.0899977
0.367636 0.42623 0.0899519
0.367468 0.429648 0.0896315
0.367346 0.42977 0.086244
0.367163 0.429541 0.0859083
0.366918 0.425742 0.0823529
0.366659 0.421561 0.0814374
0.366476 0.414084 0.0778973
0.365728 0.405539 0.0710918
0.362249 0.394751 0.0666667
0.358648 0.382406 0.0621805
0.354116 0.369802 0.0581064
0.349813 0.354513 0.051606
0.343236 0.339315 0.0470588
0.337819 0.326055 0.0424506
0.331273 0.311666 0.0383001
0.325795 0.296117 0.03505
0.319249 0.283192 0.0313725
0.314382 0.272038 0.027451
0.310323 0.260471 0.0235294
0.303548 0.248646 0.0223697
0.296452 0.236789 0.0196078
0.28893 0.223117 0.0165408
0.281041 0.207843 0.013077
0.273136 0.193057 0.0117647
0.262745 0.176989 0.00926223
0.380392 0.427451 0.0901961
0.380148 0.427207 0.090135
0.379965 0.430732 0.0937972
0.379782 0.43061 0.0938125
0.379599 0.430564 0.0937209
0.382864 0.434073 0.0938582
0.383062 0.43769 0.0938125
0.38291 0.441062 0.0937667
0.382666 0.441444 0.0937057
0.382544 0.444831 0.0936751
0.385351 0.445106 0.0901961
0.385473 0.444846 0.0896468
0.385245 0.441352 0.0890974
0.382223 0.437247 0.0861677
0.381552 0.432654 0.0823529
0.381369 0.425238 0.0778363
0.377997 0.416587 0.0737163
0.373938 0.40531 0.069749
0.369833 0.393362 0.063447
0.365774 0.3785 0.0581064
0.361028 0.36495 0.0539254
0.354498 0.350576 0.0478218
0.348898 0.335073 0.0431373
0.342458 0.321233 0.0392157
0.336767 0.308949 0.0352941
0.330419 0.295125 0.0313725
0.323751 0.282368 0.0274357
0.318029 0.268803 0.0244144
0.310933 0.256031 0.0209964
0.302998 0.241703 0.0186923
0.293538 0.225956 0.0156863
0.283284 0.208774 0.0126955
0.27216 0.190753 0.00941482
0.399084 0.446143 0.097673
0.398856 0.445914 0.0975814
0.398703 0.446006 0.0977646
0.398474 0.445838 0.097734
0.398169 0.448814 0.097673
0.398306 0.452399 0.0976272
0.398108 0.452949 0.0975662
0.39791 0.456214 0.0975204
0.397787 0.45951 0.0974899
0.400336 0.460197 0.0974289
0.401175 0.460105 0.0968338
0.401038 0.459861 0.0939803
0.400793 0.458991 0.0933394
0.400031 0.455573 0.0901961
0.397238 0.449073 0.0862745
0.396384 0.443656 0.0823529
0.393179 0.436316 0.0784314
0.389075 0.425391 0.0745098
0.385016 0.413535 0.06981
0.381003 0.400916 0.0635386
0.376944 0.388708 0.0588235
0.372 0.374044 0.0540627
0.365713 0.360082 0.0479133
0.359884 0.345937 0.0431373
0.353628 0.33312 0.0392157
0.346227 0.318776 0.0352941
0.338262 0.303883 0.0313725
0.331258 0.288701 0.027451
0.323934 0.273884 0.0235294
0.31603 0.258824 0.0205539
0.305882 0.24181 0.017319
0.294118 0.223011 0.0134585
0.279942 0.202289 0.00958267
0.414343 0.461402 0.101625
0.41416 0.461219 0.101579
0.413977 0.464134 0.101534
0.413718 0.46421 0.101472
0.413535 0.464454 0.101427
0.413291 0.467597 0.101366
0.413108 0.468009 0.10132
0.412985 0.471138 0.101289
0.412741 0.47216 0.101228
0.415702 0.474678 0.101183
0.416236 0.475059 0.101122
0.413703 0.474876 0.100389
0.412924 0.474754 0.0978256
0.412741 0.471565 0.0941176
0.411856 0.466758 0.0923323
0.411337 0.460273 0.0891127
0.408362 0.452628 0.0851453
0.404303 0.44387 0.0792554
0.400305 0.432914 0.0745251
0.396185 0.420981 0.0697337
0.392081 0.409094 0.0636301
0.388022 0.396353 0.0588235
0.38143 0.383917 0.0539864
0.375982 0.369604 0.0479744
0.369512 0.356237 0.0431373
0.361547 0.341939 0.0392157
0.353613 0.326162 0.0352941
0.345647 0.310353 0.0300908
0.336492 0.293355 0.0252537
0.327657 0.275486 0.0213626
0.316503 0.256703 0.0174868
0.303822 0.237156 0.0136263
0.288136 0.213596 0.00976577
0.425986 0.476463 0.105394
0.425803 0.476219 0.105333
0.425666 0.479362 0.105287
0.428183 0.479713 0.105226
0.42855 0.47953 0.10518
0.428428 0.482597 0.10515
0.428183 0.483085 0.105089
0.428 0.485985 0.105043
0.427756 0.48658 0.104982
0.42829 0.489357 0.104936
0.428382 0.490135 0.104891
0.427482 0.489952 0.102724
