public/luts/creative_looks/Her.cube
#Created by: Denver Riddle
#Copyright: (C) Copyright Color Grading Central LLC
#LUT Size
LUT_3D_SIZE 5
0.0345006 0.0270542 0.0197604
0.12285 0.00784314 0.0111086
0.147982 0 0.00680552
0.162341 0.00392157 0.00392157
0.170718 0.00392157 0.00392157
0.153765 0.148898 0.0346532
0.16553 0.159686 0.0313573
0.168536 0.0743572 0.00877394
0.17113 0.0415808 0.00392157
0.176608 0.0244297 0.00392157
0.282475 0.314855 0.0676738
0.284993 0.336568 0.0672618
0.275303 0.267277 0.0356756
0.242405 0.172 0.0119326
0.215595 0.108705 0.00451667
0.414343 0.461402 0.101625
0.412741 0.47216 0.101228
0.408362 0.452628 0.0851453
0.369512 0.356237 0.0431373
0.288136 0.213596 0.00976577
0.208148 0.399603 0
0.229252 0.428702 0
0.240391 0.446189 0
0.108736 0.241352 0
0.119066 0.167483 0
0 0.0298466 0.159594
0.182147 0.0345006 0.11902
0.353613 0.0491035 0.157626
0.412436 0.0391699 0.132479
0.417441 0.0234989 0.101839
0.0633555 0.211734 0.219699
0.264729 0.215778 0.172229
0.40209 0.154131 0.147005
0.420233 0.114977 0.114336
0.412284 0.0792859 0.0865339
0.394644 0.33048 0.146227
0.408667 0.360235 0.160128
0.420157 0.373098 0.149508
0.415778 0.271351 0.100038
0.40029 0.192233 0.0669871
0.498161 0.460853 0.16672
0.502083 0.489158 0.176257
0.503548 0.518441 0.176959
0.485206 0.444282 0.131243
0.414237 0.293553 0.0646525
0.25594 0.402182 0.0247501
0.291997 0.441108 0.0304723
0.326024 0.493751 0.0271611
0.316732 0.449592 0
0.134356 0.180896 0
0 0.0386358 0.268894
0.14342 0.0383001 0.238834
0.366842 0.0682231 0.229969
0.553994 0.130602 0.309499
0.678798 0.158358 0.348104
0 0.252613 0.28986
0.0479896 0.249607 0.319524
0.463142 0.215534 0.310475
0.610834 0.237263 0.349203
0.70042 0.22388 0.348424
0.216693 0.432486 0.430594
0.317098 0.433738 0.404959
0.536522 0.438666 0.33344
0.659892 0.400122 0.333623
0.710414 0.351675 0.309819
0.533547 0.58291 0.310048
0.5841 0.562005 0.312398
0.644572 0.546868 0.334783
0.65243 0.565927 0.329809
0.686198 0.475151 0.263096
0.587686 0.560174 0.174945
0.595376 0.528588 0.179095
0.615137 0.53521 0.195529
0.633829 0.660334 0.22533
0.500114 0.499031 0.0860151
0 0.0352941 0.340383
0.105241 0.0384527 0.320562
0.355978 0.0598001 0.295125
0.5561 0.125277 0.349508
0.709804 0.194415 0.429114
0 0.268208 0.365057
0 0.254826 0.42182
0.434058 0.217807 0.415793
0.61294 0.244388 0.408286
0.7458 0.284794 0.464149
0.0720836 0.454566 0.501122
0.135622 0.467765 0.459907
0.382498 0.4692 0.45391
0.668101 0.438529 0.471519
0.790936 0.448646 0.497856
0.403571 0.593133 0.569009
0.446586 0.591546 0.554879
0.570001 0.590585 0.514794
0.706523 0.590799 0.466789
0.811246 0.5561 0.467857
0.220111 0.791424 0.46006
0.34316 0.779614 0.434318
0.678401 0.744564 0.41735
0.788647 0.681346 0.422446
0.796857 0.732021 0.422812
0 0 0.419608
0 0 0.318273
0.108995 0 0.179629
0.212039 0 0.185687
0.545098 0 0.366247
0 0.156634 0.415686
0 0.145006 0.508034
0.195209 0.118013 0.539528
0.521492 0.108629 0.483803
0.714794 0.124147 0.503029
0 0.458228 0.592035
0 0.474998 0.553246
0.00749218 0.472847 0.588754
0.512413 0.431113 0.646097
0.791821 0.426413 0.609827
0.0415656 0.617517 0.732143
0.0711833 0.622751 0.700236
0.134264 0.644511 0.616815
0.444358 0.63563 0.62295
0.787533 0.592508 0.652384
0 0.746441 0.890105
0.00523384 0.75491 0.866224
0.274647 0.766415 0.797177
0.646479 0.762676 0.714534
0.865965 0.777798 0.65687
