public/luts/creative_looks/Her.cube
#Created by: Denver Riddle
#Copyright: (C) Copyright Color Grading Central LLC
#LUT Size
LUT_3D_SIZE 9
0.0345006 0.0270542 0.0197604
0.0958114 0.0188602 0.0156405
0.12285 0.00784314 0.0111086
0.138598 0.00392157 0.00784314
0.147982 0 0.00680552
0.155627 0.00183108 0.00392157
0.162341 0.00392157 0.00392157
0.166995 0.00392157 0.00392157
0.170718 0.00392157 0.00392157
0.0856031 0.0793774 0.0233158
0.0958267 0.0885328 0.0246433
0.12697 0.0510262 0.0120394
0.144823 0.0244144 0.00784314
0.153429 0.0145113 0.00784314
0.158373 0.0103304 0.00392157
0.163043 0.0096437 0.00392157
0.168093 0.00944533 0.00392157
0.170962 0.00784314 0.00392157
0.153765 0.148898 0.0346532
0.153948 0.17232 0.0409247
0.16553 0.159686 0.0313573
0.167712 0.108339 0.0156863
0.168536 0.0743572 0.00877394
0.168246 0.0538491 0.00726329
0.17113 0.0415808 0.00392157
0.174441 0.0339971 0.00392157
0.176608 0.0244297 0.00392157
0.218448 0.229633 0.0487221
0.218891 0.245594 0.0530098
0.22504 0.26006 0.0516518
0.224674 0.218906 0.0345159
0.211933 0.163607 0.0196078
0.201434 0.123552 0.0113069
0.197086 0.0994583 0.00784314
0.196643 0.0826886 0.00445563
0.188418 0.0590066 0.00392157
0.282475 0.314855 0.0676738
0.281834 0.322332 0.0674449
0.284993 0.336568 0.0672618
0.287922 0.320012 0.0584878
0.275303 0.267277 0.0356756
0.254902 0.211765 0.0196078
0.242405 0.172 0.0119326
0.23061 0.143603 0.00819409
0.215595 0.108705 0.00451667
0.350362 0.393835 0.0826886
0.349508 0.396811 0.0824903
0.352575 0.411399 0.0861524
0.351904 0.406806 0.0784161
0.343679 0.374151 0.0622721
0.326772 0.315129 0.0424811
0.303304 0.260166 0.0272679
0.283101 0.217487 0.0164645
0.251835 0.16289 0.00869764
0.414343 0.461402 0.101625
0.413535 0.464454 0.101427
0.412741 0.47216 0.101228
0.412924 0.474754 0.0978256
0.408362 0.452628 0.0851453
0.392081 0.409094 0.0636301
0.369512 0.356237 0.0431373
0.336492 0.293355 0.0252537
0.288136 0.213596 0.00976577
0.456809 0.515618 0.102968
0.457618 0.517937 0.103166
0.457435 0.52433 0.103349
0.457221 0.528511 0.100313
0.45098 0.516976 0.0898909
0.438239 0.486213 0.0697032
0.413169 0.439216 0.0439918
0.371328 0.366522 0.0183871
0.290776 0.247639 0.00170901
0.208148 0.399603 0
0.219944 0.411399 0
0.229252 0.428702 0
0.238544 0.447562 0
0.240391 0.446189 0
0.224125 0.4094 0
0.108736 0.241352 0
0.110185 0.205097 0
0.119066 0.167483 0
3.0518e-05 0.0304112 0.0846876
0.0989395 0.0264439 0.0659648
0.185443 0.0264591 0.0741588
0.227939 0.0115511 0.0611582
0.242954 0.00674449 0.0462654
0.24828 0.00564584 0.0348211
0.249104 0.00726329 0.0268254
0.249149 0.010071 0.021088
0.243503 0.00494392 0.0157778
0.0421607 0.102205 0.0996872
0.128542 0.10547 0.0855879
0.215641 0.0743114 0.0743114
0.240696 0.043473 0.0552377
0.247395 0.0277409 0.0415656
0.248249 0.0214694 0.0312657
0.247089 0.0187533 0.0238804
0.245304 0.0187839 0.0197147
0.23856 0.0105135 0.014435
0.187762 0.168673 0.0674907
0.202411 0.175708 0.074876
0.214298 0.193896 0.0760052
0.236851 0.142763 0.048661
0.24509 0.104524 0.0337377
0.244953 0.0792096 0.024567
0.243442 0.0638285 0.0189059
0.240787 0.0527199 0.014435
0.234073 0.0347448 0.0131075
0.257618 0.225895 0.073106
0.259602 0.245045 0.0811627
0.262821 0.283818 0.0888991
0.270344 0.252827 0.0699626
0.261936 0.194446 0.0430304
0.253025 0.149874 0.0263523
0.247272 0.120958 0.0201419
0.24506 0.103014 0.0159152
0.235294 0.0745098 0.0117647
0.314427 0.310689 0.0891737
0.315694 0.323888 0.0898756
0.318547 0.353368 0.0967422
0.320851 0.347921 0.0877089
0.314717 0.295216 0.0634623
0.293629 0.234989 0.0428931
0.280293 0.194568 0.0269322
0.267781 0.162402 0.0187381
0.251057 0.124147 0.0116579
0.37464 0.397116 0.102998
0.376959 0.404227 0.102266
0.375616 0.418875 0.105394
0.378408 0.425223 0.100999
0.375647 0.396323 0.0846723
0.356054 0.337392 0.0637369
0.333989 0.283757 0.043595
0.311421 0.235248 0.029099
0.281224 0.179171 0.0152285
0.432807 0.468147 0.119539
0.432212 0.470573 0.119615
0.433768 0.481498 0.119173
0.433433 0.484855 0.117586
0.430472 0.469337 0.10367
0.416068 0.428321 0.0829938
0.393805 0.374762 0.0610666
0.361395 0.31043 0.0383612
0.308797 0.228473 0.0166629
0.473365 0.519127 0.117357
0.47335 0.521981 0.117647
0.473518 0.530175 0.119203
0.472709 0.535454 0.115831
0.467918 0.526833 0.105882
0.45658 0.500191 0.0872511
0.431724 0.452979 0.0610971
0.390463 0.381308 0.0293736
0.307057 0.259007 0.00529488
0.220584 0.403616 0
0.233021 0.416037 0
0.244556 0.433921 0
0.255665 0.455726 0
0.260822 0.458045 0
0.251362 0.429908 0
0.184558 0.329717 0
0.110124 0.203601 0
0.117845 0.165103 0
0 0.0298466 0.159594
0.0548409 0.0302129 0.154467
0.182147 0.0345006 0.11902
0.276478 0.0475471 0.144366
0.353613 0.0491035 0.157626
0.393011 0.0420691 0.14873
0.412436 0.0391699 0.132479
0.420844 0.0379034 0.116976
0.417441 0.0234989 0.101839
0 0.126146 0.151492
0.0138705 0.123415 0.168658
0.224094 0.0996109 0.156924
0.317845 0.0957504 0.167849
0.374823 0.0796979 0.160662
0.399878 0.0650339 0.143465
0.410498 0.0587472 0.12668
0.416312 0.0542611 0.112367
0.411749 0.0377356 0.0964523
0.0633555 0.211734 0.219699
0.120836 0.215442 0.20412
0.264729 0.215778 0.172229
0.367788 0.183398 0.163546
0.40209 0.154131 0.147005
0.41471 0.131121 0.129931
0.420233 0.114977 0.114336
0.421683 0.103716 0.102907
0.412284 0.0792859 0.0865339
0.238239 0.314839 0.142855
0.284566 0.304524 0.144564
0.349981 0.295216 0.159976
0.362615 0.313313 0.158816
0.39234 0.264576 0.133623
0.410819 0.220508 0.113497
0.416342 0.191379 0.100481
0.417273 0.169375 0.0872511
0.407111 0.136828 0.0742657
0.394644 0.33048 0.146227
0.400916 0.329046 0.148501
0.408667 0.360235 0.160128
0.406958 0.401953 0.170535
0.420157 0.373098 0.149508
0.418265 0.316426 0.120958
0.415778 0.271351 0.100038
0.412695 0.235721 0.0835889
0.40029 0.192233 0.0669871
0.452461 0.385245 0.153857
0.45098 0.392157 0.156863
0.457023 0.426062 0.167437
0.458976 0.463447 0.177203
0.464179 0.461387 0.16846
0.458701 0.416526 0.141085
0.445655 0.363546 0.115694
0.430823 0.312016 0.0928969
0.405982 0.247196 0.0662242
0.498161 0.460853 0.16672
0.497124 0.463508 0.169085
0.502083 0.489158 0.176257
0.501793 0.515694 0.182666
0.503548 0.518441 0.176959
0.498741 0.491539 0.157427
0.485206 0.444282 0.131243
0.460029 0.383886 0.10135
0.414237 0.293553 0.0646525
0.531167 0.518456 0.165515
0.530434 0.52195 0.166537
0.532555 0.53991 0.172808
0.534615 0.560433 0.177752
0.533516 0.566323 0.174121
0.52752 0.551568 0.157916
0.511055 0.515343 0.131624
0.478111 0.449607 0.0949264
0.397757 0.324376 0.0393988
0.25594 0.402182 0.0247501
0.272328 0.412894 0.0268101
0.291997 0.441108 0.0304723
0.309819 0.473899 0.0338903
0.326024 0.493751 0.0271611
0.333043 0.485863 0.00624094
0.316732 0.449592 0
0.252659 0.364828 0
0.134356 0.180896 0
0 0.0343481 0.21828
0.0108644 0.0346227 0.221408
0.165881 0.0349584 0.179873
0.27274 0.048127 0.173342
0.367208 0.0706035 0.206531
0.460945 0.0908675 0.238865
0.529702 0.103639 0.251957
0.571694 0.110292 0.250858
0.591424 0.0965133 0.236423
0 0.13695 0.205295
0 0.1308 0.234562
0.182254 0.105196 0.242115
0.315206 0.102678 0.206363
0.401282 0.113909 0.230579
0.485878 0.124041 0.251423
0.542382 0.127565 0.254398
0.573785 0.126604 0.246067
0.588205 0.107713 0.229282
0 0.228458 0.277989
0.00730907 0.237491 0.255665
0.14255 0.238819 0.256474
0.375326 0.21033 0.258457
0.468803 0.208896 0.268986
0.533272 0.197299 0.26424
0.564691 0.18352 0.249958
0.583093 0.170596 0.23592
0.592599 0.145922 0.216052
0.125185 0.326284 0.336858
0.164752 0.327428 0.326543
0.269154 0.334203 0.297734
0.41268 0.331792 0.256397
0.513619 0.303853 0.254383
0.555947 0.278309 0.242847
0.575143 0.257252 0.232868
0.588785 0.239643 0.219974
0.594858 0.206867 0.199374
0.236194 0.446723 0.235554
0.274311 0.442817 0.22768
0.410971 0.424979 0.227329
0.49099 0.405737 0.247807
0.501961 0.427451 0.247059
0.539528 0.386938 0.222766
0.565438 0.353277 0.209339
0.582788 0.324041 0.196414
0.591058 0.277668 0.179629
0.498177 0.467643 0.228183
0.505394 0.462318 0.230945
0.527108 0.445502 0.233738
0.541299 0.460731 0.247715
0.536568 0.501839 0.258885
0.55378 0.483528 0.241764
0.563104 0.443183 0.213947
0.56994 0.402975 0.190097
0.573678 0.342657 0.163149
0.572259 0.479057 0.232547
0.571206 0.477806 0.231617
0.576959 0.482338 0.237247
0.579171 0.514763 0.252018
0.577874 0.551629 0.265049
0.58175 0.548714 0.256275
0.583963 0.518059 0.229801
0.577661 0.468788 0.197208
0.560845 0.391012 0.154131
0.601419 0.510094 0.223819
0.603082 0.512398 0.22417
0.604257 0.526345 0.231418
0.607782 0.561852 0.24715
0.608637 0.594949 0.25919
0.607431 0.602655 0.255177
0.604822 0.584634 0.233738
0.590402 0.53608 0.19585
0.538979 0.426673 0.128649
0.422156 0.364599 0.062211
0.430793 0.374105 0.0682536
0.450309 0.405447 0.0778515
0.47924 0.471534 0.0915694
0.503746 0.554604 0.107881
0.483818 0.578759 0.113695
0.443992 0.54136 0.0935378
0.415351 0.49778 0.0329595
0.279088 0.322454 0
0 0.0386358 0.268894
0 0.0384833 0.271565
0.14342 0.0383001 0.238834
0.267582 0.0459449 0.216251
0.366842 0.0682231 0.229969
0.462959 0.0974136 0.267521
0.553994 0.130602 0.309499
0.627634 0.157443 0.338384
0.678798 0.158358 0.348104
0 0.138125 0.266957
0 0.130922 0.293019
0.131579 0.11136 0.31107
0.307195 0.102266 0.258595
0.400183 0.114031 0.25713
0.489128 0.133684 0.287587
0.571054 0.159854 0.322072
0.635904 0.17879 0.342077
0.684092 0.175433 0.347982
0 0.252613 0.28986
0 0.255436 0.285054
0.0479896 0.249607 0.319524
0.330175 0.220188 0.332128
0.463142 0.215534 0.310475
0.542901 0.22533 0.332143
0.610834 0.237263 0.349203
0.662882 0.240467 0.353628
0.70042 0.22388 0.348424
0.0724041 0.332113 0.403143
0.0964828 0.338613 0.388296
0.157351 0.356161 0.339712
0.295964 0.354772 0.33724
0.507164 0.325826 0.348684
0.590723 0.328008 0.35819
0.647944 0.319173 0.357946
0.682353 0.305882 0.34902
0.708507 0.281071 0.332403
0.216693 0.432486 0.430594
0.239796 0.431662 0.425284
0.317098 0.433738 0.404959
0.416297 0.436393 0.376486
0.536522 0.438666 0.33344
0.621714 0.414343 0.335958
0.659892 0.400122 0.333623
0.686152 0.382971 0.32491
0.710414 0.351675 0.309819
0.279225 0.54136 0.353429
0.298283 0.540093 0.344381
0.376547 0.534646 0.32134
0.517693 0.518288 0.308171
0.6009 0.502174 0.331655
0.609415 0.516808 0.332448
0.644755 0.492042 0.315343
0.676951 0.466514 0.302388
0.702174 0.421744 0.283177
0.533547 0.58291 0.310048
0.544121 0.578271 0.309102
0.5841 0.562005 0.312398
0.627512 0.5402 0.32105
0.644572 0.546868 0.334783
0.636851 0.576928 0.343557
0.65243 0.565927 0.329809
0.669398 0.532204 0.301778
0.686198 0.475151 0.263096
0.650752 0.585901 0.311284
0.652094 0.582315 0.310369
0.661204 0.571237 0.309636
0.673564 0.566232 0.315633
0.677882 0.588327 0.329046
0.672175 0.622934 0.344503
0.675059 0.629892 0.339361
0.680873 0.602564 0.310384
0.666743 0.520684 0.241688
0.587686 0.560174 0.174945
0.590875 0.551339 0.17818
0.595376 0.528588 0.179095
0.601419 0.510109 0.181888
0.615137 0.53521 0.195529
0.634745 0.615869 0.223835
0.633829 0.660334 0.22533
0.59266 0.634211 0.195911
0.500114 0.499031 0.0860151
0 0.0386206 0.311421
0 0.0392157 0.311467
0.122972 0.0416114 0.288304
0.257008 0.0458839 0.260716
0.36582 0.0649577 0.262486
0.465049 0.0948806 0.288746
0.555459 0.130755 0.330144
0.633661 0.170001 0.375372
0.705882 0.186053 0.405234
0 0.134066 0.325597
0 0.128618 0.346639
0.0972763 0.113909 0.363928
0.28571 0.103029 0.316335
0.401465 0.111116 0.294499
0.490806 0.133257 0.310277
0.572106 0.161852 0.347097
0.64419 0.19501 0.38468
0.715877 0.208209 0.412131
0 0.264988 0.321752
0 0.263722 0.329381
0.00888075 0.254643 0.373693
0.270466 0.230503 0.401251
0.457923 0.217395 0.357855
0.542168 0.227695 0.360769
0.610132 0.244953 0.385809
0.674693 0.267002 0.411353
0.738491 0.269566 0.429099
0 0.362158 0.405295
0 0.367346 0.391363
0.00416571 0.376226 0.367514
0.220752 0.370123 0.392905
0.462791 0.338079 0.410452
0.582513 0.332525 0.402075
0.64387 0.342153 0.41619
0.705516 0.352575 0.431067
0.762768 0.347311 0.437995
0.215686 0.435325 0.489479
0.231785 0.434318 0.483833
0.277302 0.441382 0.455512
0.326223 0.459129 0.408209
0.438361 0.457847 0.407477
0.613458 0.429435 0.422217
0.67628 0.432013 0.428763
0.731975 0.42977 0.435035
0.775036 0.411093 0.429999
0.313726 0.521569 0.509804
0.327642 0.520577 0.504707
0.380179 0.519493 0.488914
0.457298 0.522408 0.467262
0.532387 0.526436 0.437034
0.632136 0.522942 0.409995
0.702174 0.511315 0.41091
0.741146 0.498421 0.411734
0.776425 0.471183 0.403876
0.366812 0.60795 0.462058
0.376394 0.606989 0.45745
0.418067 0.606485 0.440711
0.489052 0.603967 0.411627
0.606744 0.59089 0.389563
0.684001 0.575631 0.40679
0.691646 0.587106 0.408209
0.730404 0.568215 0.394644
0.771267 0.528389 0.376959
0.527703 0.670893 0.384207
0.537575 0.669154 0.383307
0.580514 0.660883 0.381872
0.651118 0.643793 0.384939
0.707073 0.618692 0.393973
0.727001 0.616678 0.405371
0.718578 0.645869 0.415869
0.734249 0.640513 0.404578
0.757656 0.583886 0.355642
0.564492 0.7523 0.325795
0.587167 0.745327 0.328099
0.638575 0.725963 0.330739
0.686656 0.686091 0.324331
0.710719 0.63566 0.313313
0.724697 0.617395 0.317494
0.730556 0.670726 0.342672
0.729946 0.712077 0.350454
0.687602 0.652781 0.263142
0 0.0352941 0.340383
0 0.0358129 0.340124
0.105241 0.0384527 0.320562
0.241611 0.0434424 0.296651
0.355978 0.0598001 0.295125
0.465141 0.0878462 0.314977
0.5561 0.125277 0.349508
0.63679 0.166018 0.391791
0.709804 0.194415 0.429114
0 0.126589 0.378988
0 0.121431 0.394202
0.073106 0.110521 0.403998
0.263996 0.10164 0.365438
0.391394 0.106676 0.334676
0.493462 0.127291 0.338506
0.573892 0.156802 0.366125
0.647334 0.192065 0.40325
0.719676 0.217975 0.439078
0 0.268208 0.365057
0 0.265049 0.376944
0 0.254826 0.42182
0.229526 0.235386 0.44889
0.434058 0.217807 0.415793
0.544854 0.22649 0.391272
0.61294 0.244388 0.408286
0.675135 0.267033 0.434592
0.7458 0.284794 0.464149
0 0.381338 0.41146
0 0.384192 0.404791
0 0.387259 0.403708
0.160189 0.377157 0.437934
0.404273 0.352346 0.467308
0.57789 0.335561 0.440589
0.643565 0.345586 0.447364
0.701228 0.35993 0.462364
0.770565 0.370596 0.488014
0.0720836 0.454566 0.501122
0.0862745 0.456977 0.491829
0.135622 0.467765 0.459907
0.227451 0.478431 0.431373
0.382498 0.4692 0.45391
0.577127 0.44065 0.476402
0.668101 0.438529 0.471519
0.72607 0.446708 0.482292
0.790936 0.448646 0.497856
0.336492 0.521111 0.556558
0.345983 0.520256 0.552148
0.383078 0.522271 0.535882
0.435859 0.526604 0.507317
0.479896 0.540139 0.469062
0.557687 0.539528 0.463371
0.695018 0.518715 0.478126
0.74992 0.521218 0.484382
0.805508 0.508064 0.49102
0.403571 0.593133 0.569009
0.412894 0.59234 0.564889
0.446586 0.591546 0.554879
0.505531 0.590753 0.536019
0.570001 0.590585 0.514794
0.629648 0.594095 0.485542
0.706523 0.590799 0.466789
0.76846 0.580758 0.469978
0.811246 0.5561 0.467857
0.426459 0.678401 0.534707
0.432731 0.677287 0.531624
0.462882 0.675654 0.517662
0.517494 0.672389 0.495491
0.585138 0.669932 0.465354
0.691295 0.655909 0.44828
0.753918 0.642832 0.466316
0.759991 0.656886 0.470161
0.808896 0.62031 0.444053
0.220111 0.791424 0.46006
0.251408 0.787015 0.45214
0.34316 0.779614 0.434318
0.52929 0.766598 0.41651
0.678401 0.744564 0.41735
0.759457 0.705272 0.419104
0.788647 0.681346 0.422446
0.790433 0.719829 0.446143
0.796857 0.732021 0.422812
0.000732433 0 0.240681
0.0128939 0.00231937 0.245579
0.0667277 0.0124056 0.303334
0.188907 0.0225528 0.309682
0.314031 0.0344091 0.318761
0.438804 0.0583352 0.339406
0.54522 0.0965438 0.370687
0.632563 0.141695 0.407675
0.708202 0.170703 0.444739
0 0.100053 0.423178
0 0.0957656 0.431037
0.0244144 0.0896925 0.436439
0.216022 0.0841535 0.406088
0.355245 0.0891585 0.37705
0.474556 0.105409 0.372549
0.569238 0.134737 0.389715
0.64625 0.172122 0.421347
0.721798 0.199283 0.456794
0 0.257969 0.415473
0 0.253285 0.430213
0 0.245686 0.472114
0.166369 0.229664 0.500801
0.386053 0.213275 0.478386
0.53228 0.214099 0.44155
0.615351 0.231968 0.436072
0.677836 0.257389 0.458061
0.749599 0.2757 0.487175
0 0.391012 0.435813
0 0.391394 0.436423
0 0.39057 0.447166
0.0253452 0.380652 0.485847
0.331899 0.359762 0.519387
0.545708 0.338476 0.499428
0.647059 0.341176 0.478431
0.704784 0.355749 0.493187
0.773327 0.370474 0.516335
0 0.477729 0.509636
0 0.480095 0.500298
0 0.487007 0.479164
0.0694438 0.489769 0.470405
0.307698 0.480537 0.500679
0.507851 0.455924 0.52668
0.656184 0.443 0.518273
0.724453 0.44889 0.52105
0.786801 0.457176 0.536385
0.241642 0.536431 0.583627
0.247227 0.535821 0.578958
0.272755 0.542351 0.558572
0.31165 0.55259 0.522545
0.379995 0.560113 0.497536
0.497902 0.55407 0.512535
0.641306 0.532891 0.540902
0.740871 0.52459 0.534524
0.804074 0.52903 0.545586
0.411872 0.592737 0.623468
0.417792 0.591775 0.618479
0.447059 0.592081 0.606348
0.490745 0.594247 0.583734
0.531899 0.600183 0.553399
0.56434 0.61004 0.521111
0.633204 0.608667 0.520439
0.759838 0.587381 0.536156
0.82179 0.584009 0.544839
0.450065 0.666316 0.643793
0.456184 0.665125 0.641413
0.484596 0.662226 0.631418
0.534417 0.660838 0.614725
0.594522 0.658778 0.593973
0.64892 0.659175 0.571847
0.703334 0.66212 0.545663
0.773709 0.660471 0.527687
0.841306 0.640894 0.530114
0.141375 0.792538 0.676432
0.162524 0.789776 0.668101
0.212467 0.784222 0.645365
0.28986 0.780606 0.607462
0.465629 0.774319 0.555154
0.628595 0.765911 0.50695
0.768063 0.747768 0.497642
0.827665 0.732128 0.517082
0.841596 0.761181 0.533654
0 0 0.419608
0 0 0.402945
0 0 0.318273
0.0518502 0 0.226581
0.108995 0 0.179629
0.145464 0 0.158633
0.212039 0 0.185687
0.424872 0 0.318532
0.545098 0 0.366247
0 0 0.419608
0 0 0.404013
0 0 0.318959
0.0485542 0 0.231739
0.106966 0 0.180972
0.179858 0 0.205768
0.34966 0 0.313344
0.498512 0 0.377279
0.606226 0 0.413169
0 0.156634 0.415686
0 0.15491 0.437812
0 0.145006 0.508034
0 0.130449 0.555718
0.195209 0.118013 0.539528
0.384573 0.107256 0.498619
0.521492 0.108629 0.483803
0.624567 0.122606 0.48954
0.714794 0.124147 0.503029
0 0.331777 0.478523
0 0.334829 0.476188
0 0.337331 0.497581
0 0.330922 0.558465
0.0120394 0.30956 0.619944
0.373541 0.283696 0.623896
0.564889 0.270649 0.595102
0.681849 0.27921 0.572564
0.772946 0.292088 0.567956
0 0.458228 0.592035
0 0.460914 0.581949
0 0.474998 0.553246
0 0.481621 0.547875
0.00749218 0.472847 0.588754
0.268437 0.455283 0.635248
0.512413 0.431113 0.646097
0.681407 0.42153 0.626047
0.791821 0.426413 0.609827
0 0.548226 0.689937
0 0.550958 0.677668
0 0.561715 0.640864
0 0.578271 0.594842
0.0396735 0.581415 0.582376
0.213825 0.572045 0.608087
0.451148 0.554543 0.64036
0.641398 0.534493 0.649729
0.7906 0.520897 0.637446
0.0415656 0.617517 0.732143
0.0519417 0.616876 0.725292
0.0711833 0.622751 0.700236
0.0959793 0.634501 0.65864
0.134264 0.644511 0.616815
0.272221 0.644816 0.604318
0.444358 0.63563 0.62295
0.611185 0.617807 0.647761
0.787533 0.592508 0.652384
0.144869 0.679255 0.774304
0.165698 0.67744 0.767056
0.197024 0.678233 0.750637
0.240665 0.682551 0.723278
0.305211 0.688762 0.685649
0.406592 0.696208 0.648127
0.49868 0.698589 0.628397
0.619974 0.692348 0.640436
0.809293 0.66331 0.662837
0 0.746441 0.890105
0 0.750286 0.880644
0.00523384 0.75491 0.866224
0.150683 0.754437 0.841428
0.274647 0.766415 0.797177
0.48011 0.764172 0.752712
0.646479 0.762676 0.714534
0.745525 0.770123 0.686564
0.865965 0.777798 0.65687
