public/luts/creative_looks/Matrix V1.cube
#Created by: Denver Riddle
#Copyright: (C) Copyright Color Grading Central LLC
#LUT Size
LUT_3D_SIZE 33
0 0 0
0 0 0
0 0 0
0 0 0
0 0 0
0.0028687 0 0
0.00392157 0.000106813 0
0.00392157 0.00311284 0
0.00683604 0.00392157 0.00291447
0.0105898 0.00392157 0.00392157
0.0174411 0.00642405 0.00141909
0.0303655 0.00784314 0
0.0489662 0.00784314 0
0.071397 0.00972 0
0.0991226 0.0117647 0
0.133715 0.0123445 0
0.173404 0.0127413 0
0.217899 0.0106355 0
0.264958 0.00634775 0
0.3131 0.00148013 0
0.36405 0 0
0.415915 0 0
0.473335 0 0
0.535973 0 0
0.606195 0 0
0.679576 0 0
0.753902 0 0
0.825879 0 0
0.890379 0 0
0.946639 0 0
0.989929 0 0
1 0 0
1 0 0
0 0 0
0 0 0
0 0 0
0 0 0
0.000381476 0 0
0.0031281 0.000503548 0
0.00392157 0.00331121 0
0.00474556 0.00392157 0.000823987
0.00724804 0.00392157 0.00332647
0.0117342 0.0049897 0.00285344
0.0194247 0.00709544 0.000747692
0.0329747 0.00784314 0
0.052079 0.00900282 0
0.0747539 0.0110018 0
0.10312 0.0130922 0
0.138384 0.014725 0
0.17731 0.0150149 0
0.220142 0.0133211 0
0.266026 0.00901808 0
0.313787 0.00320439 0
0.362097 0.000366217 0
0.412467 0 0
0.468879 0 0
0.530144 0 0
0.598993 0 0
0.671748 0 0
0.743618 0 0
0.81593 0 0
0.881529 0 0
0.938582 0 0
0.984039 0 0
1 0 0
1 0 0
0 0 0
0 0.000183108 0
0.000411994 0.0012665 0
0.0012665 0.0012665 0
0.00300603 0.00128176 0.000839246
0.00392157 0.00329595 0.00135805
0.00514229 0.00392157 0.00151064
0.00741588 0.00529488 0.00349432
0.00932326 0.00582895 0.00392157
0.0143587 0.00732433 0.00265507
0.0226902 0.00933852 0.000854505
0.0358434 0.011841 0
0.0546273 0.014023 0
0.0778363 0.0160678 0
0.108278 0.0196841 0
0.144015 0.0217899 0
0.182925 0.021912 0
0.224811 0.0209506 0
0.268132 0.0177615 0
0.311833 0.0134737 0
0.356588 0.00869764 0
0.406027 0.00280766 0
0.459876 0 0
0.519203 0 0
0.58703 0 0
0.658793 0 0
0.729854 0 0
0.801953 0 0
0.86981 0 0
0.928023 0 0
0.975784 0 0
1 0 0
1 0 0
0.00195315 0.00195315 0.00195315
0.00198367 0.00225834 0.00198367
0.00259403 0.00392157 0.00196841
0.00392157 0.00392157 0.00196841
0.00392157 0.00518807 0.00323491
0.00547799 0.00598154 0.00392157
0.00749218 0.00608835 0.00392157
0.00965896 0.009308 0.00227359
0.0132448 0.012192 0.00151064
0.0176242 0.0132296 0.00122072
0.0260929 0.0160372 0.000396735
0.0392767 0.0199893 0
0.0565042 0.0250706 0
0.0788281 0.0306859 0
0.109255 0.0347906 0
0.143618 0.0371252 0
0.18262 0.0382086 0
0.22475 0.0392462 0
0.26688 0.037995 0
0.308186 0.0355688 0
0.3505 0.0312047 0
0.397604 0.0232547 0
0.449363 0.0133364 0
0.507393 0.00334173 0
0.572305 0 0
0.643381 0 0
0.716213 0 0
0.789029 0 0
0.857816 0 0
0.918929 0 0
0.968414 0 0
1 0 0
1 0 0
0.00392157 0.00653086 0.00392157
0.00392157 0.00654612 0.00392157
0.00392157 0.0065156 0.00392157
0.00523384 0.00779736 0.00392157
0.00650034 0.00994888 0.00392157
0.0075227 0.0124056 0.00392157
0.00996414 0.0153506 0.00392157
0.0115053 0.0192569 0.0031281
0.0166476 0.0233768 0.00109865
0.0216983 0.0270085 0.000167849
0.0315709 0.0327916 0
0.0458381 0.0388495 0
0.0634012 0.0447089 0
0.0850538 0.0505531 0
0.110903 0.0544137 0
0.140856 0.0594644 0
0.174899 0.0650492 0
0.214282 0.0669871 0
0.254871 0.066804 0
0.297185 0.0648814 0
0.340444 0.0619669 0
0.387793 0.0581979 0
0.438758 0.0488289 0
0.496452 0.0342718 0
0.559472 0.0145876 0
0.630716 0 0
0.70193 0 0
0.776944 0 0
0.847364 0 0
0.908949 0 0
0.9617 0 0
0.999695 0 0
1 0 0
0.00392157 0.0171664 0.00392157
0.00392157 0.0171664 0.00392157
0.00392157 0.0170748 0.00392157
0.00604257 0.0190585 0.00392157
0.00784314 0.020737 0.0039826
0.0101015 0.0259251 0.00619516
0.0115663 0.030808 0.00466926
0.0140841 0.0372473 0.00396735
0.018204 0.0446632 0.00347906
0.024033 0.0517891 0.00157168
0.0331731 0.0593423 0.000244144
0.046891 0.066865 0
0.065919 0.0732738 0
0.0889448 0.0775158 0
0.115496 0.0813611 0
0.14403 0.0859236 0
0.174456 0.0918746 0
0.2047 0.0951705 0
0.240513 0.0974136 0
0.280949 0.0967727 0
0.327108 0.0955673 0
0.376715 0.0935531 0
0.429709 0.0851911 0
0.487312 0.075349 0
0.551019 0.0591135 0
0.621042 0.0299077 0
0.691997 0.000350958 0
0.767819 0 0
0.840345 0 0
0.901854 0 0
0.953796 0 0
0.993713 0 0
1 0 0
0.000442512 0.043946 0.00392157
0.00047303 0.0437324 0.00392157
0.000564584 0.0430915 0.00392157
0.0027924 0.0429999 0.00392157
0.00671397 0.0450599 0.00621042
0.0107576 0.0514992 0.00767529
0.0117342 0.0563668 0.00724804
0.0171664 0.0634623 0.0071107
0.0216068 0.0711528 0.00715648
0.0255894 0.0787671 0.00495918
0.0330968 0.086183 0.00178531
0.0463417 0.0935378 0
0.065919 0.100893 0
0.0908675 0.107317 0
0.118044 0.110689 0
0.146532 0.114153 0
0.176226 0.117464 0
0.203769 0.12076 0
0.236149 0.124086 0
0.274311 0.126101 0
0.315221 0.125246 0
0.36524 0.124315 0
0.421546 0.118456 0
0.481147 0.112413 0
0.545892 0.100343 0
0.616327 0.0787213 0
0.688289 0.0453346 0
0.761532 0.0170596 0
0.834257 0.00216678 0
0.897551 0 0
0.950698 0 0
0.990204 0 0
1 0 0
0 0.0835126 0.000274662
0 0.0825971 0.000366217
0 0.0812238 0.00190738
0.000366217 0.0800336 0.00375372
0.00128176 0.0815747 0.00450141
0.00234989 0.0832532 0.00727855
0.00766003 0.0865644 0.0103456
0.0148013 0.0931258 0.0108797
0.0213779 0.100526 0.0109102
0.0294499 0.107774 0.00881971
0.0392462 0.115068 0.00540169
0.0516213 0.122637 0.00207523
0.0691234 0.129747 0
0.0936751 0.136141 0
0.120607 0.139269 0
0.148653 0.142275 0
0.179156 0.145449 0
0.208759 0.148547 0
0.239399 0.151507 0
0.274632 0.154284 0
0.310369 0.15346 0
0.357626 0.15494 0
0.412558 0.152605 0
0.475303 0.147997 0
0.543664 0.138003 0
0.615335 0.122087 0
0.687114 0.10071 0
0.760601 0.0664683 0
0.832258 0.0367132 0
0.89546 0.0203555 0
0.949477 0.0110323 0
0.98883 0.00732433 0
1 0.00984207 0
0 0.126818 0
0 0.125322 0
0 0.123278 0.000274662
0 0.121172 0.000762951
0 0.120211 0.00331121
0 0.119142 0.00726329
0.0019379 0.121386 0.0111543
0.0107271 0.12575 0.0139467
0.0225071 0.130358 0.0147097
0.0366979 0.136645 0.0140383
0.0493629 0.143938 0.0116732
0.0611276 0.150912 0.00721752
0.0764477 0.157839 0.00216678
0.0968795 0.164279 0
0.123583 0.167254 0
0.151492 0.170199 0
0.182406 0.173312 0
0.214832 0.176257 0
0.245304 0.179217 0
0.279271 0.18201 0
0.315373 0.183154 0
0.356954 0.1841 0
0.408042 0.185183 0
0.468528 0.180819 0
0.540887 0.174105 0
0.615946 0.160403 0
0.688548 0.145434 0
0.764279 0.125475 0
0.833646 0.0997787 0
0.89633 0.0747539 0
0.949172 0.0556954 0
0.988281 0.0466468 0
1 0.0537728 0
0 0.166857 0
0 0.165026 0
0 0.163378 0
0 0.161501 0
0 0.158892 0.00105287
0 0.155215 0.00706493
0 0.154849 0.0133364
0.00946059 0.155825 0.0191806
0.0264591 0.158801 0.020676
0.0455787 0.163653 0.0206149
0.0609751 0.169558 0.018555
0.0738994 0.176349 0.0137942
0.0879835 0.183688 0.00721752
0.104479 0.191821 0.00202945
0.12929 0.195209 0
0.156924 0.199878 0
0.187579 0.202731 0
0.221408 0.20531 0
0.253498 0.2065 0
0.287358 0.20943 0
0.325383 0.212528 0
0.36321 0.213153 0
0.410422 0.215869 0
0.465324 0.212863 0
0.536873 0.208133 0
0.616144 0.19794 0
0.691142 0.186603 0
0.766537 0.171954 0
0.834928 0.156268 0
0.897017 0.14342 0
0.949767 0.13698 0
0.989105 0.135714 0
1 0.143206 0
0 0.203342 0
0 0.201648 0
0 0.199619 0
0 0.197436 0
0 0.193454 0
0 0.188266 0.00891127
0 0.184604 0.0184634
0.0112917 0.184283 0.0260166
0.0335241 0.18674 0.0288853
0.0554665 0.19144 0.0293278
0.0731518 0.196567 0.0273289
0.0875563 0.202152 0.0219272
0.101289 0.209827 0.013489
0.116411 0.219425 0.00515755
0.137667 0.222736 0
0.163638 0.229175 0
0.194247 0.233326 0
0.228351 0.236011 0
0.262364 0.236347 0
0.29781 0.239261 0
0.335637 0.242008 0
0.373648 0.243977 0
0.418555 0.246769 0
0.470359 0.246952 0
0.535912 0.243473 0
0.614359 0.236271 0
0.69247 0.227787 0
0.769177 0.216068 0
0.839887 0.204471 0
0.900557 0.195697 0
0.953246 0.194766 0
0.992142 0.198398 0
1 0.208957 0
0 0.238727 0
0 0.236728 0
0 0.234287 0
0 0.230274 0
0 0.224781 0.00154116
0 0.219043 0.0137026
0 0.213962 0.026627
0.0153811 0.213245 0.0343481
0.043473 0.215641 0.038468
0.0671855 0.220295 0.0394293
0.0856794 0.225345 0.0375525
0.101228 0.230854 0.0315404
0.115129 0.238407 0.0214084
0.129458 0.246799 0.011017
0.147524 0.251133 0.00216678
0.171527 0.25774 0
0.20206 0.264057 0
0.236423 0.267216 0
0.270588 0.270069 0
0.308461 0.27306 0
0.346426 0.276509 0
0.384939 0.275639 0
0.430335 0.278569 0
0.479545 0.281956 0
0.539361 0.281651 0
0.614374 0.277806 0
0.698146 0.270436 0
0.777783 0.259831 0
0.850278 0.255268 0
0.911665 0.252567 0
0.960296 0.256611 0
0.996963 0.261219 0
1 0.26952 0
0 0.272282 0
0 0.27013 0
0 0.267185 0
0 0.261753 0.00117494
0 0.255528 0.00697337
0 0.24979 0.0215457
0 0.244831 0.0366827
0.0230259 0.243702 0.0452888
0.0555886 0.24625 0.0495766
0.0804608 0.249577 0.0506142
0.0992294 0.255009 0.0487984
0.114946 0.261845 0.0430915
0.128679 0.268605 0.0333104
0.142702 0.275395 0.0217594
0.158511 0.282124 0.00907912
0.182284 0.288731 0.000549325
0.212711 0.295445 0
0.246403 0.298848 0
0.281178 0.302083 0
0.319234 0.305135 0
0.357504 0.311955 0
0.399878 0.311315 0
0.446097 0.314794 0
0.492744 0.318517 0
0.547784 0.319112 0
0.621973 0.31986 0
0.704372 0.316777 0
0.787625 0.313603 0
0.859281 0.306889 0
0.91783 0.307149 0
0.964614 0.311055 0
1 0.314992 0
1 0.326787 0
0 0.304829 0
0 0.301961 0.000823987
0 0.298589 0.00215152
0 0.293004 0.00587472
0 0.286656 0.0175631
0 0.280934 0.0327001
0 0.276432 0.0473487
0.0355077 0.275334 0.057969
0.0689403 0.277592 0.0628367
0.09337 0.281224 0.0640726
0.112123 0.286397 0.0623331
0.128145 0.293385 0.0578622
0.142214 0.30016 0.0496376
0.156374 0.307103 0.035584
0.172 0.313756 0.0194553
0.195636 0.320989 0.00415045
0.222782 0.327901 0
0.253941 0.334859 0
0.292073 0.341527 0
0.330587 0.345052 0
0.370459 0.349172 0
0.418067 0.353689 0
0.461952 0.35819 0
0.510826 0.362905 0
0.570367 0.367102 0
0.633707 0.367468 0
0.709026 0.367514 0
0.790158 0.36405 0
0.862867 0.360464 0
0.917525 0.361028 0
0.963439 0.364935 0
1 0.369375 0
1 0.380453 0
0 0.338369 0.00581369
0 0.334569 0.00654612
0 0.331258 0.0104829
0 0.326009 0.0169985
0 0.319677 0.0324254
0 0.313985 0.0489662
0.000411994 0.311833 0.0606699
0.0412146 0.311315 0.0687572
0.0780194 0.313512 0.0734417
0.102052 0.316991 0.0749981
0.121263 0.321798 0.073579
0.138491 0.32871 0.0702373
0.155459 0.335836 0.0654002
0.169986 0.343511 0.0513313
0.185382 0.350515 0.0352941
0.205066 0.361257 0.0151369
0.232563 0.368734 0
0.267765 0.376745 0
0.300114 0.385153 0
0.344427 0.393927 0
0.388724 0.398596 0
0.435935 0.402914 0
0.480095 0.407187 0
0.531441 0.41088 0
0.58613 0.414481 0
0.642481 0.415076 0
0.709056 0.415076 0
0.786007 0.414801 0
0.858701 0.411719 0
0.915953 0.415625 0
0.959182 0.419547 0
0.999435 0.424399 0
1 0.431434 0
0 0.373724 0.023621
0 0.370901 0.023331
0 0.366506 0.0275273
0 0.361303 0.0362707
0 0.356451 0.0499428
0 0.352941 0.0653239
0.0074464 0.351934 0.0752728
0.0438239 0.351431 0.0825055
0.0839246 0.353216 0.0876173
0.110643 0.356863 0.0896468
0.131533 0.360861 0.088777
0.15169 0.365255 0.0854505
0.16936 0.373098 0.0818036
0.184405 0.384878 0.0712444
0.20415 0.393072 0.0555428
0.224994 0.405509 0.0314946
0.249424 0.41413 0.0120851
0.281849 0.426108 0.000411994
0.321782 0.431327 0
0.361334 0.439323 0
0.404486 0.446632 0
0.45156 0.450828 0
0.495567 0.454475 0
0.550271 0.454932 0
0.60502 0.458686 0
0.659419 0.462379 0
0.714916 0.462684 0
0.78349 0.462699 0
0.849042 0.462989 0
0.903334 0.467323 0
0.950011 0.471412 0
0.99118 0.479042 0
1 0.482811 0
0 0.412787 0.049424
0 0.410193 0.0484016
0 0.406271 0.0519112
0 0.400916 0.0589303
0 0.396368 0.0683299
0 0.393042 0.0802777
0.013077 0.392203 0.0894331
0.0529641 0.393713 0.0966964
0.0947127 0.395575 0.102144
0.121874 0.398993 0.104601
0.145922 0.40621 0.104967
0.168093 0.412406 0.104463
0.190448 0.421469 0.0981003
0.209705 0.430335 0.0913252
0.226459 0.438972 0.0755627
0.250446 0.450706 0.0551614
0.274723 0.459037 0.0316167
0.3066 0.470741 0.00863661
0.341894 0.478584 0.000274662
0.380697 0.486137 0
0.420996 0.490593 0
0.47126 0.497856 0
0.519173 0.501427 0
0.570565 0.5019 0
0.624323 0.502007 0
0.67512 0.505837 0
0.729168 0.50927 0
0.783185 0.509743 0
0.841138 0.514183 0
0.891432 0.51809 0
0.937972 0.522164 0
0.97641 0.529809 0
1 0.533791 0
0 0.45275 0.0775616
0 0.450187 0.0763256
0 0.447242 0.0766461
0 0.444663 0.0839246
0 0.440742 0.0915999
0 0.437247 0.0995499
0.0272831 0.438529 0.107424
0.0755322 0.441123 0.113573
0.115755 0.444419 0.117983
0.146242 0.449928 0.120775
0.172549 0.455848 0.121508
0.197726 0.46183 0.122179
0.219593 0.470253 0.121889
0.238437 0.478462 0.114733
0.258213 0.486519 0.0995346
0.278889 0.497917 0.0826734
0.303197 0.506539 0.0588998
0.333776 0.51751 0.0285954
0.365438 0.525353 0.00585946
0.401129 0.533165 0.000808728
0.444083 0.540719 0
0.49189 0.544579 0
0.542931 0.545129 0
0.596811 0.54847 6.10361e-05
0.643717 0.548699 0.0010071
0.69398 0.552407 0.00251774
0.74078 0.553094 0.00392157
0.787305 0.557183 0.00482185
0.833249 0.564523 0.00471504
0.879957 0.568765 0.0024567
0.925811 0.5729 0
0.965026 0.580301 0
0.998993 0.584772 0
0 0.496513 0.103349
0 0.494301 0.102068
0 0.491905 0.102296
0 0.490257 0.109041
0 0.48896 0.114946
0.0213169 0.488548 0.123339
0.0706645 0.489357 0.129595
0.116609 0.49044 0.133959
0.151385 0.494041 0.138354
0.179294 0.498894 0.140871
0.204883 0.5037 0.141451
0.229694 0.509316 0.142092
0.251438 0.517494 0.141817
0.270649 0.525414 0.135348
0.290822 0.533516 0.127382
0.314397 0.541527 0.11075
0.337789 0.55256 0.0910048
0.361807 0.560647 0.0673228
0.393179 0.568292 0.0372473
0.428611 0.576288 0.0146639
0.468696 0.583749 0.00297551
0.515923 0.587518 0.00175479
0.566674 0.591165 0.00183108
0.616754 0.59144 0.00367742
0.663294 0.591653 0.016434
0.709621 0.595468 0.0363317
0.752331 0.599832 0.0522469
0.794553 0.603571 0.0628367
0.82974 0.60766 0.0622416
0.871656 0.615473 0.0368505
0.910903 0.622965 0.0071107
0.953399 0.627192 0.00323491
0.987228 0.634745 0
0.000991836 0.542092 0.130022
0.000442512 0.541543 0.129656
0 0.540444 0.129946
0 0.539345 0.133959
0.0267338 0.538231 0.139864
0.0807507 0.537682 0.145846
0.125307 0.537499 0.152026
0.160494 0.538415 0.157717
0.190631 0.541299 0.159945
0.218494 0.545968 0.162066
0.243061 0.550774 0.165042
0.265126 0.556161 0.165805
0.287541 0.563775 0.166125
0.310506 0.5691 0.163714
0.330022 0.576486 0.158984
0.350134 0.584207 0.142931
0.373495 0.592172 0.127047
0.397528 0.603342 0.107759
0.428611 0.611185 0.0878614
0.460716 0.618891 0.0648661
0.500496 0.622812 0.0424353
0.547539 0.626734 0.0281834
0.597391 0.630488 0.028748
0.643824 0.634134 0.0442817
0.686778 0.634455 0.0644083
0.725368 0.635203 0.0872053
0.763836 0.642206 0.105821
0.802045 0.646235 0.11429
0.833127 0.650324 0.121752
0.864561 0.657893 0.121431
0.903166 0.66569 0.101366
0.941649 0.669581 0.0491188
0.97583 0.673487 0.0080415
0.0595254 0.591272 0.163272
0.0623484 0.590433 0.16257
0.0747692 0.588907 0.162402
0.0979019 0.58732 0.165698
0.124727 0.585657 0.169085
0.158206 0.584924 0.172946
0.188983 0.585107 0.179431
0.21416 0.587579 0.184939
0.237385 0.590249 0.189044
0.26157 0.593027 0.191699
0.286 0.597604 0.193652
0.309087 0.602686 0.197757
0.331365 0.607675 0.198688
0.353719 0.615167 0.199145
0.37348 0.619608 0.195117
0.393271 0.626871 0.182864
0.416541 0.634714 0.170779
0.440635 0.642741 0.154925
0.468391 0.650553 0.135607
0.500237 0.657832 0.116075
0.539376 0.661845 0.100542
0.582238 0.665507 0.089601
0.625177 0.669413 0.0869917
0.671 0.673213 0.0989242
0.709529 0.673442 0.114519
0.74406 0.67686 0.133776
0.775464 0.677516 0.149905
0.809308 0.684855 0.168841
0.836759 0.688777 0.176989
0.864195 0.693309 0.18436
0.895201 0.700526 0.176287
0.930495 0.704433 0.14519
0.968017 0.708339 0.103853
0.180224 0.635081 0.200122
0.178347 0.633906 0.19884
0.18143 0.632212 0.198062
0.192874 0.630533 0.200931
0.210407 0.629358 0.204349
0.230579 0.628504 0.207858
0.25098 0.630732 0.214206
0.272725 0.63267 0.219776
0.293553 0.633448 0.223957
0.314397 0.636042 0.228321
0.337301 0.640879 0.233097
0.35903 0.645487 0.237125
0.378622 0.649958 0.23827
0.401099 0.654521 0.239521
0.420584 0.661784 0.238621
0.440253 0.666041 0.230228
0.460517 0.673823 0.218265
0.484337 0.681636 0.202564
0.511513 0.688777 0.185916
0.543297 0.692927 0.163561
0.581903 0.699886 0.148257
0.6206 0.700389 0.141161
0.659403 0.70454 0.142184
0.694133 0.707942 0.149905
0.728695 0.708095 0.161883
0.759533 0.708293 0.181048
0.789883 0.7122 0.20058
0.813657 0.716365 0.220233
0.84062 0.720333 0.231891
0.8645 0.727703 0.239582
0.891707 0.731487 0.242542
0.926589 0.735393 0.219013
0.960784 0.7393 0.176913
0.26949 0.677546 0.247517
0.267567 0.676448 0.24593
0.270054 0.675074 0.245014
0.276173 0.673671 0.247776
0.285176 0.672496 0.250874
0.301228 0.671641 0.254139
0.318486 0.671641 0.258076
0.334478 0.672053 0.262287
0.352148 0.67454 0.266606
0.371939 0.677775 0.271534
0.391135 0.680095 0.277546
0.410834 0.684413 0.284031
0.432883 0.688792 0.285756
0.452186 0.693126 0.289799
0.471946 0.697261 0.286137
0.491646 0.704479 0.281117
0.511284 0.708675 0.269306
0.534554 0.715969 0.25333
0.558373 0.719783 0.234119
0.589639 0.723903 0.218265
0.624659 0.727749 0.204135
0.655497 0.73164 0.200198
0.686473 0.735256 0.200229
0.717235 0.735409 0.204608
0.747997 0.739071 0.216068
0.774792 0.739284 0.231815
0.79852 0.743435 0.251621
0.821546 0.747219 0.27071
0.845121 0.75111 0.286
0.871855 0.754681 0.29369
0.895476 0.758831 0.300633
0.926589 0.762722 0.284428
0.960494 0.766445 0.236027
0.347936 0.712703 0.298939
0.346197 0.711727 0.297337
0.347753 0.711589 0.296361
0.350866 0.712963 0.297078
0.35938 0.711742 0.297749
0.37084 0.710964 0.30103
0.385 0.710811 0.306996
0.39881 0.711269 0.312795
0.415106 0.712123 0.317449
0.432746 0.714626 0.322194
0.449744 0.717891 0.327138
0.46865 0.719432 0.331945
0.48777 0.723735 0.336339
0.507164 0.728115 0.337713
0.526909 0.731777 0.337484
0.545815 0.73547 0.332464
0.562036 0.739391 0.323751
0.581659 0.743175 0.308156
0.605219 0.747372 0.29221
0.632639 0.754528 0.274189
0.662913 0.755032 0.266087
0.686702 0.758709 0.258778
0.713329 0.762249 0.255421
0.740429 0.762493 0.262501
0.767208 0.766186 0.267018
0.790646 0.766751 0.28246
0.813535 0.770382 0.297963
0.833249 0.774289 0.317067
0.856229 0.777951 0.332204
0.875914 0.77847 0.340261
0.899748 0.785855 0.347799
0.926589 0.789548 0.338888
0.956863 0.789883 0.298253
0.429648 0.747356 0.357443
0.427634 0.746593 0.355947
0.425849 0.745541 0.353811
0.428916 0.744366 0.353277
0.435355 0.743389 0.355764
0.444724 0.742763 0.358785
0.456489 0.742641 0.362707
0.469062 0.743145 0.367468
0.481285 0.745525 0.371969
0.495216 0.748226 0.376806
0.510781 0.74902 0.381613
0.527321 0.750668 0.386603
0.546517 0.755001 0.391257
0.562203 0.758618 0.392294
0.581186 0.759014 0.391608
0.597147 0.762783 0.386603
0.616266 0.766384 0.374868
0.635904 0.770413 0.362951
0.65536 0.774411 0.348119
0.674769 0.778225 0.336141
0.698039 0.781857 0.324926
0.720714 0.782055 0.320348
0.740414 0.785702 0.316716
0.76379 0.786267 0.317159
0.786526 0.789944 0.321065
0.806043 0.793622 0.328862
0.825254 0.79382 0.34049
0.844739 0.797635 0.355749
0.864271 0.801541 0.371206
0.88394 0.805158 0.383215
0.906966 0.805554 0.390539
0.926833 0.809445 0.386175
0.956863 0.81323 0.356619
0.504448 0.774914 0.412894
0.502403 0.773938 0.410834
0.502831 0.773999 0.409659
0.503258 0.775616 0.410208
0.507683 0.774639 0.410666
0.515984 0.774258 0.414237
0.525032 0.774014 0.415503
0.535714 0.77438 0.4206
0.547692 0.774975 0.426657
0.561532 0.775723 0.431495
0.576272 0.777707 0.43653
0.589624 0.781155 0.440833
0.605097 0.781888 0.442664
0.620325 0.782513 0.446525
0.635599 0.786084 0.442451
0.651026 0.789639 0.437675
0.666545 0.790143 0.429496
0.68217 0.793942 0.418158
0.697627 0.797757 0.406226
0.713298 0.801663 0.394507
0.732082 0.805203 0.382559
0.747951 0.805478 0.371588
0.767224 0.809491 0.36791
0.786343 0.813138 0.367681
0.802136 0.813382 0.367697
0.82121 0.81706 0.371618
0.836927 0.817166 0.379416
0.856382 0.821057 0.391073
0.875792 0.824765 0.406928
0.891569 0.825086 0.422049
0.910796 0.828748 0.429908
0.930587 0.832578 0.433066
0.956863 0.836439 0.414984
0.578058 0.802152 0.470954
0.57641 0.801282 0.469245
0.576989 0.800214 0.467094
0.57586 0.799268 0.466575
0.580697 0.798718 0.467491
0.585199 0.798169 0.468711
0.591562 0.798077 0.472236
0.601846 0.79826 0.476493
0.614099 0.800595 0.481346
0.626413 0.803067 0.484611
0.639063 0.803922 0.487526
0.650965 0.805493 0.492409
0.662455 0.808942 0.49633
0.674296 0.809415 0.497063
0.685695 0.809766 0.493172
0.697643 0.813474 0.488609
0.709178 0.81706 0.481025
0.720897 0.817288 0.472648
0.735958 0.821195 0.461128
0.747372 0.824994 0.44921
0.759579 0.828534 0.437903
0.774762 0.829023 0.430045
0.786755 0.832731 0.422309
0.802106 0.836378 0.418235
0.817456 0.836728 0.414542
0.833021 0.840223 0.414801
0.848981 0.840711 0.422599
0.868147 0.844282 0.430564
0.883513 0.844388 0.442084
0.899168 0.848051 0.457267
0.914885 0.848203 0.469017
0.934554 0.85211 0.476234
0.957092 0.856046 0.469429
0.646922 0.82919 0.525063
0.645335 0.828458 0.523598
0.643748 0.827726 0.522118
0.643015 0.826703 0.521767
0.645167 0.825742 0.522057
0.650446 0.825193 0.523384
0.657969 0.825086 0.527123
0.664073 0.82739 0.529213
0.673442 0.82977 0.53257
