public/luts/creative_looks/Matrix V1.cube
#Created by: Denver Riddle
#Copyright: (C) Copyright Color Grading Central LLC
#LUT Size
LUT_3D_SIZE 5
0 0 0
0.00683604 0.00392157 0.00291447
0.173404 0.0127413 0
0.606195 0 0
1 0 0
0 0.126818 0
0.0225071 0.130358 0.0147097
0.182406 0.173312 0
0.540887 0.174105 0
1 0.0537728 0
0 0.412787 0.049424
0.0947127 0.395575 0.102144
0.274723 0.459037 0.0316167
0.624323 0.502007 0
1 0.533791 0
0.429648 0.747356 0.357443
0.481285 0.745525 0.371969
0.616266 0.766384 0.374868
0.786526 0.789944 0.321065
0.956863 0.81323 0.356619
0.815686 0.937255 0.384314
0.829511 0.937697 0.411231
0.863478 0.945098 0.400366
0.922148 0.956863 0.459693
0.996078 0.972549 0.690196
0 0 0
0.00836194 0.0065919 0.0105135
0.135927 0.037705 0.0719921
0.64097 0 0.0922713
1 0 0.101106
0 0.127977 0.0898299
0.0102998 0.149599 0.0967269
0.285588 0.161349 0.0818952
0.73077 0.0749981 0.0615244
1 0.040177 0.0656596
0 0.459495 0.133669
0 0.457679 0.133379
0.331258 0.466438 0.241077
0.676997 0.511604 0.16878
1 0.535515 0.113893
0.279927 0.779644 0.35761
0.432364 0.768063 0.410132
0.642878 0.76527 0.501854
0.788785 0.792584 0.437583
0.967651 0.815961 0.41326
0.842283 0.943572 0.738109
0.854414 0.939574 0.746426
0.888426 0.944732 0.748226
0.921431 0.956313 0.466285
0.995773 0.972122 0.690913
0.00392157 0.00392157 0.00535592
0.0154879 0.0115663 0.0563821
0.141802 0.0489815 0.196948
0.42945 0.0976577 0.2589
0.951537 0 0.304723
0 0.14995 0.17116
0.0298466 0.160952 0.189715
0.184176 0.192981 0.252735
0.48188 0.218372 0.282109
0.99823 0.126589 0.315267
0.0294957 0.431571 0.34789
0.124971 0.447929 0.352193
0.267964 0.509529 0.360174
0.812909 0.494499 0.348699
1 0.545068 0.396963
0.265385 0.797559 0.510979
0.346548 0.794705 0.50898
0.644236 0.785397 0.588693
0.797681 0.801205 0.595117
0.98439 0.816831 0.54876
0.788235 0.956863 0.765591
0.806897 0.955093 0.767636
0.875181 0.953277 0.808515
0.941436 0.956878 0.859159
1 0.972549 0.705882
0.0065919 0.0117647 0.0948653
0.00601205 0.0216068 0.214298
0.146197 0.0610666 0.400961
0.456428 0.108476 0.489342
0.926223 0.0345617 0.547707
0 0.178485 0.361791
0 0.180728 0.404639
0.182376 0.201831 0.474632
0.500893 0.229129 0.512306
0.941024 0.24715 0.553445
0.103624 0.460166 0.491051
0.195773 0.473869 0.503151
0.373632 0.521111 0.55996
0.693843 0.552285 0.614069
0.952392 0.60766 0.654063
0.565988 0.774975 0.700511
0.584451 0.77702 0.699809
0.662211 0.797436 0.707805
0.809964 0.808865 0.734722
0.991974 0.816678 0.730999
0.804654 0.960784 0.836027
0.814359 0.958846 0.832822
0.863386 0.960784 0.843931
0.937743 0.964706 0.875471
0.996323 0.976471 0.906371
0 0.00784314 0.554406
0 0.00831617 0.750439
0 0.053315 0.848539
0.468589 0.101549 0.895674
0.960784 0.0214694 0.917647
0 0.191119 0.871839
0 0.187869 0.869764
0.0900893 0.209323 0.88307
0.523415 0.236591 0.892866
0.966934 0.270832 0.906065
0 0.523232 0.911879
0 0.527291 0.912276
0.324605 0.552804 0.921279
0.724559 0.576455 0.913191
0.948714 0.642283 0.901961
0.503548 0.809369 0.890501
0.543603 0.809781 0.889723
0.673548 0.812757 0.901961
0.813474 0.820676 0.906096
0.957076 0.84007 0.910018
0.909804 0.952941 0.917647
0.912139 0.951232 0.919524
0.933654 0.956863 0.921889
0.964965 0.964965 0.929671
1 0.976471 0.941176
