public/luts/creative_looks/Matrix V1.cube
#Created by: Denver Riddle
#Copyright: (C) Copyright Color Grading Central LLC
#LUT Size
LUT_3D_SIZE 9
0 0 0
0 0 0
0.00683604 0.00392157 0.00291447
0.0489662 0.00784314 0
0.173404 0.0127413 0
0.36405 0 0
0.606195 0 0
0.890379 0 0
1 0 0
0.00392157 0.00653086 0.00392157
0.00650034 0.00994888 0.00392157
0.0166476 0.0233768 0.00109865
0.0634012 0.0447089 0
0.174899 0.0650492 0
0.340444 0.0619669 0
0.559472 0.0145876 0
0.847364 0 0
1 0 0
0 0.126818 0
0 0.120211 0.00331121
0.0225071 0.130358 0.0147097
0.0764477 0.157839 0.00216678
0.182406 0.173312 0
0.315373 0.183154 0
0.540887 0.174105 0
0.833646 0.0997787 0
1 0.0537728 0
0 0.272282 0
0 0.255528 0.00697337
0.0555886 0.24625 0.0495766
0.128679 0.268605 0.0333104
0.212711 0.295445 0
0.357504 0.311955 0
0.547784 0.319112 0
0.859281 0.306889 0
1 0.326787 0
0 0.412787 0.049424
0 0.396368 0.0683299
0.0947127 0.395575 0.102144
0.190448 0.421469 0.0981003
0.274723 0.459037 0.0316167
0.420996 0.490593 0
0.624323 0.502007 0
0.841138 0.514183 0
1 0.533791 0
0.0595254 0.591272 0.163272
0.124727 0.585657 0.169085
0.237385 0.590249 0.189044
0.331365 0.607675 0.198688
0.416541 0.634714 0.170779
0.539376 0.661845 0.100542
0.709529 0.673442 0.114519
0.836759 0.688777 0.176989
0.968017 0.708339 0.103853
0.429648 0.747356 0.357443
0.435355 0.743389 0.355764
0.481285 0.745525 0.371969
0.546517 0.755001 0.391257
0.616266 0.766384 0.374868
0.698039 0.781857 0.324926
0.786526 0.789944 0.321065
0.864271 0.801541 0.371206
0.956863 0.81323 0.356619
0.697429 0.852628 0.571939
0.696788 0.849424 0.569421
0.71902 0.849836 0.577752
0.747402 0.85568 0.590066
0.778576 0.860059 0.586389
0.810025 0.867887 0.555276
0.848829 0.875761 0.524285
0.902815 0.88336 0.519829
0.964904 0.891188 0.554131
0.815686 0.937255 0.384314
0.819608 0.935653 0.40972
0.829511 0.937697 0.411231
0.843641 0.941176 0.392157
0.863478 0.945098 0.400366
0.890867 0.949355 0.420279
0.922148 0.956863 0.459693
0.95729 0.960998 0.534829
0.996078 0.972549 0.690196
0 0 0
0 0 0
0.00686656 0.00392157 0.00392157
0.0601511 0.00802625 0.0120394
0.237675 0.000579843 0.0159915
0.461753 0 0.00836194
0.734524 0 0.00163272
0.958831 0 0
1 0 0
0.00392157 0.0091249 0.00653086
0.00677501 0.0145266 0.00947585
0.0267338 0.0261082 0.0130007
0.125399 0.0383764 0.0115206
0.266972 0.0354467 0.00709544
0.436774 0.00987259 0.00257877
0.68072 0 0
0.919356 0 0
1 0 0
0 0.13637 0.0221103
0 0.139284 0.0186923
0.00030518 0.151141 0.024445
0.0983291 0.156573 0.046952
0.212863 0.172549 0.0187381
0.390707 0.169543 0.00218204
0.633753 0.135683 0
0.891875 0.0351568 0
1 0.038941 0
0 0.28806 0.0242618
0 0.278859 0.0232547
0.0065156 0.268391 0.0558175
0.144823 0.268803 0.098558
0.218891 0.296223 0.0443275
0.375494 0.311055 0.0275273
0.615961 0.315862 0.000488289
0.897383 0.298344 0
1 0.323888 0
0 0.445106 0.0301213
0 0.428321 0.0438239
0.034226 0.409552 0.116335
0.205631 0.426062 0.150271
0.292256 0.460197 0.116884
0.427588 0.495491 0.0437018
0.635142 0.505943 0.0559854
0.865354 0.511681 0.00146487
0.999725 0.535119 0
0.00122072 0.612512 0.151247
0.0167849 0.600656 0.16788
0.223056 0.596155 0.213611
0.342061 0.611261 0.243977
0.429938 0.632502 0.232929
0.543908 0.663661 0.166323
0.709407 0.675517 0.17116
0.835279 0.690913 0.224811
0.973632 0.709133 0.150256
0.411139 0.752453 0.365225
0.421729 0.747768 0.366705
0.480308 0.748043 0.39295
0.54931 0.755611 0.419516
0.623285 0.765194 0.416266
0.699107 0.780865 0.36556
0.787259 0.791043 0.355459
0.862806 0.800275 0.40354
0.958282 0.812177 0.375723
0.692744 0.85536 0.580056
0.694209 0.852232 0.579065
0.716747 0.852415 0.593072
0.749279 0.854719 0.606851
0.780667 0.858961 0.607034
0.812009 0.866789 0.583398
0.851041 0.878355 0.550393
0.901854 0.882292 0.544213
0.964187 0.892592 0.582162
0.83624 0.937255 0.567956
0.829969 0.934722 0.53315
0.836515 0.935683 0.504372
0.843458 0.940536 0.401083
0.863111 0.94464 0.406531
0.890379 0.94873 0.425788
0.921218 0.956222 0.465476
0.956466 0.964157 0.535164
0.995773 0.972122 0.688533
0 0 0
0.00270085 0 0.00350958
0.00836194 0.0065919 0.0105135
0.0365606 0.0159152 0.0394293
0.135927 0.037705 0.0719921
0.315801 0.0341497 0.0911269
0.64097 0 0.0922713
0.951537 0 0.087129
1 0 0.101106
0.0039826 0.0134127 0.0160525
0.00743114 0.0180514 0.0222171
0.0197757 0.0355535 0.0413367
0.0574044 0.0581064 0.0657054
0.178653 0.0720989 0.0791943
0.389563 0.043183 0.082475
0.686671 0 0.0713817
0.942794 0 0.0639658
1 0 0.0756695
0 0.127977 0.0898299
0.000610361 0.129076 0.0900435
0.0102998 0.149599 0.0967269
0.126757 0.15903 0.10251
0.285588 0.161349 0.0818952
0.475624 0.145983 0.0727855
0.73077 0.0749981 0.0615244
0.946548 0.012192 0.0525978
1 0.040177 0.0656596
0 0.273075 0.141588
0 0.272236 0.130694
0 0.288396 0.120516
0.06421 0.296864 0.131945
0.249149 0.302876 0.141009
0.453346 0.310506 0.111772
0.746746 0.287999 0.0674754
0.957351 0.282887 0.0543374
1 0.323934 0.0778363
0 0.459495 0.133669
0 0.452247 0.128496
0 0.457679 0.133379
0.118349 0.458473 0.186114
0.331258 0.466438 0.241077
0.445777 0.505684 0.173053
0.676997 0.511604 0.16878
0.908125 0.511727 0.0919356
1 0.535515 0.113893
0 0.653132 0.174029
0 0.646448 0.175067
0 0.642374 0.208408
0.312886 0.630488 0.298131
0.465126 0.638758 0.351568
0.565164 0.667796 0.299031
0.718898 0.681773 0.287694
0.845365 0.6972 0.320607
0.983322 0.710796 0.252369
0.279927 0.779644 0.35761
0.307485 0.773831 0.360006
0.432364 0.768063 0.410132
0.556939 0.763027 0.476066
0.642878 0.76527 0.501854
0.710948 0.780972 0.463218
0.788785 0.792584 0.437583
0.86511 0.804227 0.478264
0.967651 0.815961 0.41326
0.66273 0.865629 0.583322
0.670298 0.860227 0.586954
0.709682 0.856626 0.616678
0.753384 0.858732 0.647562
0.786984 0.861219 0.657969
0.818204 0.866865 0.650462
0.851057 0.878355 0.618647
0.901961 0.886275 0.60502
0.964187 0.894087 0.64445
0.842283 0.943572 0.738109
0.840955 0.940505 0.736797
0.854414 0.939574 0.746426
0.872526 0.940902 0.756161
0.888426 0.944732 0.748226
0.899199 0.948623 0.590555
0.921431 0.956313 0.466285
0.956573 0.964294 0.539696
0.995773 0.972122 0.690913
0.000900282 0 0.00392157
0.00392157 0.00392157 0.00401312
0.0113985 0.00767529 0.0240024
0.0451209 0.0203861 0.0776837
0.135546 0.0448768 0.12755
0.26273 0.0722362 0.15314
0.441718 0.0773175 0.17293
0.81001 0 0.189242
1 0 0.200763
0.00392157 0.0210422 0.0377203
0.00453193 0.0263828 0.0508736
0.0144961 0.0446326 0.0884108
0.0575113 0.0660868 0.124239
0.147219 0.0881056 0.139239
0.270268 0.107683 0.153307
0.47631 0.0965591 0.169436
0.845106 3.0518e-05 0.173693
1 0 0.183322
0 0.135119 0.126009
0.00227359 0.134844 0.126726
0.0532998 0.148287 0.140246
0.11606 0.165896 0.155428
0.185855 0.186557 0.172961
0.372946 0.18674 0.180301
0.664851 0.130816 0.17615
0.934066 0.0153048 0.171908
1 0.0527352 0.182757
0 0.263828 0.207309
0.00231937 0.258946 0.202655
0.0574655 0.272068 0.207355
0.102159 0.299275 0.210452
0.300862 0.303944 0.207324
0.53164 0.299428 0.189258
0.797345 0.27538 0.183154
0.980148 0.279667 0.186908
1 0.326741 0.203952
0 0.448188 0.251255
0 0.444907 0.240375
0 0.464149 0.233875
0.00296025 0.488899 0.238392
0.327062 0.486442 0.300847
0.48098 0.512871 0.263249
0.770443 0.5019 0.20766
0.937743 0.509896 0.213489
1 0.537316 0.245655
0 0.662196 0.280903
0 0.660166 0.277241
0 0.664546 0.281544
0.142168 0.668879 0.311559
0.470588 0.650584 0.415793
0.589151 0.673274 0.411597
0.732006 0.688701 0.385748
0.87187 0.700374 0.368994
0.99556 0.712016 0.35079
0.225544 0.793652 0.414221
0.236789 0.790692 0.409201
0.350423 0.786999 0.425406
0.505364 0.781643 0.480476
0.662364 0.773739 0.564263
0.724773 0.785855 0.552468
0.793805 0.79736 0.513771
0.867765 0.808865 0.548836
0.97673 0.816754 0.471153
0.618433 0.876265 0.58497
0.622583 0.873091 0.584955
0.673915 0.869169 0.612314
0.746929 0.863737 0.665171
0.793683 0.863508 0.696559
0.824964 0.867689 0.701198
0.855772 0.87892 0.681163
0.902663 0.887098 0.662211
0.964858 0.894881 0.693156
0.802701 0.952941 0.733944
0.806531 0.95111 0.734585
0.830045 0.948974 0.750423
0.862745 0.949432 0.780865
0.893996 0.94902 0.804807
0.914763 0.94931 0.817151
0.934051 0.956863 0.801709
0.957412 0.964706 0.539193
0.996078 0.972549 0.698039
0.00392157 0.00392157 0.00535592
0.007187 0.00392157 0.0120546
0.0154879 0.0115663 0.0563821
0.0501259 0.0258335 0.133608
0.141802 0.0489815 0.196948
0.263798 0.0774395 0.228946
0.42945 0.0976577 0.2589
0.67129 0.0705425 0.282582
0.951537 0 0.304723
0.000701915 0.0295262 0.0845045
0.0009308 0.035111 0.102464
0.00764477 0.0529946 0.152026
0.0566262 0.0714122 0.193118
0.150668 0.092607 0.211933
0.269154 0.113603 0.230472
0.424552 0.130602 0.251774
0.656703 0.110842 0.271336
0.977249 0 0.294301
0 0.14995 0.17116
0 0.149203 0.170748
0.0298466 0.160952 0.189715
0.0955825 0.177447 0.21854
0.184176 0.192981 0.252735
0.317128 0.206989 0.266102
0.48188 0.218372 0.282109
0.770047 0.17911 0.293202
0.99823 0.126589 0.315267
0.00921645 0.271275 0.256107
0.0414893 0.265995 0.251926
0.118624 0.276036 0.259937
0.187991 0.294041 0.277821
0.270237 0.31458 0.298131
0.389166 0.346914 0.318547
0.648661 0.340185 0.331304
0.933776 0.311116 0.339162
1 0.342367 0.355825
0.0294957 0.431571 0.34789
0.0568704 0.427192 0.341436
0.124971 0.447929 0.352193
0.181598 0.478096 0.362966
0.267964 0.509529 0.360174
0.562249 0.506539 0.373602
0.812909 0.494499 0.348699
0.948943 0.510521 0.365133
1 0.545068 0.396963
0 0.650874 0.420005
0 0.650538 0.413336
0 0.662379 0.409857
0.158846 0.680171 0.418738
0.392386 0.684474 0.43621
0.615946 0.677119 0.515755
0.748318 0.692592 0.477791
0.902449 0.700511 0.443336
0.999741 0.712016 0.46656
0.265385 0.797559 0.510979
0.268147 0.794476 0.503349
0.346548 0.794705 0.50898
0.466346 0.797009 0.525597
0.644236 0.785397 0.588693
0.742885 0.785748 0.633402
0.797681 0.801205 0.595117
0.8719 0.812833 0.618021
0.98439 0.816831 0.54876
0.60061 0.883391 0.635279
0.603647 0.880842 0.632532
0.643061 0.87718 0.638544
0.708797 0.87538 0.665278
0.789578 0.867796 0.719509
0.832547 0.871275 0.742535
0.859785 0.879316 0.735012
0.902739 0.890822 0.715923
0.968917 0.898878 0.723903
0.788235 0.956863 0.765591
0.788876 0.955108 0.7617
0.806897 0.955093 0.767636
0.835966 0.956863 0.781491
0.875181 0.953277 0.808515
0.917922 0.952941 0.840101
0.941436 0.956878 0.859159
0.961486 0.964904 0.8551
1 0.972549 0.705882
0.00784314 0.00784314 0.0237583
0.00784314 0.00784314 0.0437629
0.0156863 0.0156863 0.116396
0.0515755 0.0301823 0.21207
0.146502 0.0535592 0.282826
0.273228 0.083238 0.321782
0.441672 0.104265 0.362814
0.677363 0.0899977 0.396292
0.913725 0 0.416052
0 0.0413062 0.160693
0 0.0453346 0.178149
0.000488289 0.058381 0.232837
0.0488594 0.076463 0.275425
0.153536 0.0963302 0.299199
0.274846 0.117037 0.325658
0.434226 0.135256 0.357244
0.645762 0.133761 0.381064
0.915938 0.0677195 0.400153
0 0.164874 0.243488
0 0.161273 0.24564
0 0.172244 0.276814
0.0648966 0.185763 0.324544
0.18265 0.197574 0.354604
0.323491 0.210712 0.372351
0.488701 0.223529 0.390249
0.696681 0.227573 0.405921
0.952407 0.214939 0.430961
0.00128176 0.287068 0.319966
0.010132 0.280415 0.31545
0.0868696 0.290288 0.330709
0.156268 0.308659 0.35845
0.243122 0.333562 0.402502
0.398108 0.355871 0.436576
0.58677 0.372168 0.448997
0.802258 0.380499 0.46067
0.999008 0.389059 0.492332
0.131258 0.441764 0.413855
0.146288 0.437903 0.410559
0.215442 0.452384 0.423178
0.298634 0.474388 0.446021
0.395773 0.501625 0.466468
0.487495 0.529747 0.488701
0.671153 0.544244 0.49308
0.875425 0.548882 0.516869
1 0.561624 0.54461
0.276112 0.634913 0.529351
0.282246 0.631144 0.52517
0.323323 0.642771 0.532784
0.372915 0.661982 0.543938
0.434134 0.688441 0.544305
0.623987 0.688487 0.578561
0.802823 0.692851 0.553552
0.910002 0.700755 0.567987
1 0.715663 0.590997
0.403937 0.790021 0.619333
0.397604 0.786587 0.613245
0.42945 0.790722 0.613352
0.496696 0.797574 0.617975
0.61326 0.801083 0.623041
0.751095 0.789792 0.684413
0.801602 0.805112 0.668833
0.887633 0.812863 0.660334
0.991943 0.813046 0.637919
0.616144 0.88365 0.697215
0.616953 0.880903 0.693935
0.647166 0.88098 0.695705
0.696986 0.882856 0.703868
0.759197 0.879515 0.719753
0.832776 0.875196 0.766125
0.86743 0.879316 0.7776
0.903029 0.890974 0.758602
0.980117 0.898726 0.739666
0.788663 0.960784 0.800855
0.790555 0.95848 0.796658
0.804715 0.958663 0.800855
0.828687 0.960784 0.808881
0.863096 0.960784 0.820203
0.902831 0.957153 0.84036
0.941665 0.960784 0.874769
0.968826 0.964904 0.887068
0.996078 0.976471 0.864271
0.0065919 0.0117647 0.0948653
0.0065156 0.0130159 0.120546
0.00601205 0.0216068 0.214298
0.0348211 0.0357214 0.329625
0.146197 0.0610666 0.400961
0.281239 0.0883497 0.444556
0.456428 0.108476 0.489342
0.70515 0.0841077 0.522301
0.926223 0.0345617 0.547707
0 0.0531777 0.274846
0 0.0543984 0.290288
0 0.06598 0.344121
0.0238193 0.0819562 0.386267
0.149416 0.102266 0.411963
0.282261 0.123445 0.441978
0.446921 0.138323 0.476249
0.670665 0.132311 0.500954
0.916213 0.105669 0.52604
0 0.178485 0.361791
0 0.173632 0.365728
0 0.180728 0.404639
0.0248722 0.190295 0.447715
0.182376 0.201831 0.474632
0.329824 0.217014 0.493645
0.500893 0.229129 0.512306
0.724941 0.229221 0.529
0.941024 0.24715 0.553445
0 0.306249 0.425681
0 0.298695 0.421683
0.000488289 0.308095 0.450996
0.0894179 0.323247 0.489906
0.234958 0.342138 0.536065
0.410666 0.364446 0.562432
0.607172 0.376394 0.574395
0.820615 0.388785 0.586023
0.960357 0.428305 0.605753
0.103624 0.460166 0.491051
0.122484 0.460014 0.487861
0.195773 0.473869 0.503151
0.279591 0.49427 0.528481
0.373632 0.521111 0.55996
0.492424 0.543816 0.602304
0.693843 0.552285 0.614069
0.83299 0.572839 0.626413
0.952392 0.60766 0.654063
0.366079 0.639261 0.599603
0.371145 0.636774 0.593698
0.412619 0.642908 0.603418
0.479515 0.661494 0.618555
0.561654 0.677104 0.637751
0.649409 0.693034 0.652705
0.751156 0.708232 0.661585
0.845167 0.72723 0.677333
0.972183 0.731746 0.707576
0.565988 0.774975 0.700511
0.562432 0.774639 0.695735
0.584451 0.77702 0.699809
0.623102 0.786023 0.707378
0.662211 0.797436 0.707805
0.728511 0.804944 0.708324
0.809964 0.808865 0.734722
0.906401 0.812848 0.719921
0.991974 0.816678 0.730999
0.674723 0.879423 0.762921
0.671382 0.876616 0.758862
0.68542 0.877256 0.756893
0.712978 0.882872 0.758404
0.754894 0.883116 0.762051
0.80972 0.883238 0.770245
0.871534 0.88304 0.805188
0.906722 0.891203 0.793835
0.988098 0.898726 0.774441
0.804654 0.960784 0.836027
0.803937 0.95848 0.832212
0.814359 0.958846 0.832822
0.836484 0.960784 0.839704
0.863386 0.960784 0.843931
0.894987 0.961303 0.855161
0.937743 0.964706 0.875471
0.972717 0.968627 0.902358
0.996323 0.976471 0.906371
0 0.0156863 0.238911
0 0.0195773 0.278874
0 0.0247044 0.411032
0 0.0383764 0.532921
0.115953 0.0650492 0.591394
0.278126 0.0924392 0.640467
0.469993 0.108705 0.684169
0.729641 0.0781109 0.713314
0.951171 0.0149996 0.735912
0 0.0616007 0.482673
0 0.0622568 0.485557
0 0.0720531 0.52636
0 0.0872206 0.559808
0.124178 0.106065 0.586374
0.2795 0.126726 0.61706
0.458091 0.141619 0.65069
0.692897 0.131472 0.675395
0.941741 0.0998856 0.699367
0 0.189776 0.573877
0 0.183459 0.566888
0 0.187137 0.594827
0 0.196857 0.627176
0.16611 0.208164 0.646799
0.331151 0.221851 0.664424
0.512489 0.233494 0.682322
0.751049 0.233524 0.697383
0.960784 0.255329 0.723934
0 0.328298 0.636774
0 0.317205 0.626291
0 0.322271 0.652216
0.000717174 0.334127 0.687007
0.228351 0.355032 0.71667
0.418875 0.372595 0.734417
0.627039 0.38439 0.742336
0.836561 0.396704 0.746059
0.968002 0.443702 0.754086
1.5259e-05 0.494942 0.662165
0 0.493751 0.6598
0.00375372 0.503151 0.681071
0.149599 0.524804 0.716045
0.319951 0.540902 0.743297
0.507485 0.552209 0.758251
0.705882 0.560723 0.758679
0.85214 0.584283 0.7626
0.948425 0.623148 0.770275
0.334325 0.666453 0.705455
0.342535 0.661799 0.700313
0.384329 0.670115 0.706706
0.448203 0.684871 0.723796
0.530617 0.70016 0.739757
0.639429 0.708202 0.762509
0.762951 0.716121 0.7738
0.856504 0.731792 0.78175
0.93756 0.754253 0.793332
0.619364 0.782589 0.759426
0.618021 0.778622 0.754635
0.643824 0.782742 0.758679
0.681682 0.789364 0.765957
0.731395 0.793866 0.773968
0.77406 0.804868 0.782177
0.813413 0.813092 0.793896
0.879408 0.820981 0.805417
0.949599 0.832303 0.81677
0.778698 0.86804 0.817609
0.775082 0.865354 0.817563
0.786923 0.867247 0.817685
0.805188 0.871275 0.824231
0.820981 0.875212 0.828016
0.840299 0.882902 0.831937
0.860563 0.890745 0.832227
0.910887 0.89482 0.844099
0.991897 0.898863 0.844099
0.852506 0.956558 0.879347
0.84802 0.954665 0.875853
0.852308 0.954772 0.875975
0.864073 0.957336 0.878935
0.879484 0.960784 0.882902
0.902892 0.964706 0.883177
0.930358 0.968627 0.89099
0.972732 0.968963 0.913909
1 0.976471 0.925689
0 0.00784314 0.554406
0 0.00784314 0.615961
0 0.00831617 0.750439
0 0.0227817 0.813962
0 0.053315 0.848539
0.242206 0.0845045 0.873625
0.468589 0.101549 0.895674
0.747082 0.0611429 0.908263
0.960784 0.0214694 0.917647
0 0.0563668 0.809003
0 0.0554818 0.812985
0 0.0635538 0.829343
0 0.0817273 0.845609
0.0030518 0.10016 0.864942
0.245396 0.122103 0.881559
0.45594 0.139116 0.89134
0.712291 0.122713 0.896086
0.9523 0.105699 0.902327
0 0.191119 0.871839
0 0.185168 0.867948
0 0.187869 0.869764
0 0.199405 0.879164
0.0900893 0.209323 0.88307
0.322301 0.222919 0.88751
0.523415 0.236591 0.892866
0.774594 0.238911 0.900465
0.966934 0.270832 0.906065
0 0.33872 0.900252
0 0.331304 0.897887
0 0.332967 0.898741
0 0.345693 0.908644
0.215015 0.364202 0.919875
0.431174 0.384146 0.924208
0.650233 0.395956 0.924193
0.844068 0.412558 0.920455
0.967926 0.463569 0.912886
0 0.523232 0.911879
0 0.520211 0.907317
0 0.527291 0.912276
0.0174868 0.541054 0.9178
0.324605 0.552804 0.921279
0.535637 0.564523 0.917357
0.724559 0.576455 0.913191
0.852079 0.603906 0.905562
0.948714 0.642283 0.901961
0.0200809 0.704784 0.897688
0.0802319 0.699077 0.892683
0.221241 0.703609 0.895445
0.353231 0.712184 0.901717
0.50396 0.715694 0.901732
0.658549 0.719966 0.901961
0.771145 0.731441 0.901961
0.863691 0.746654 0.901961
0.945373 0.762158 0.902235
0.503548 0.809369 0.890501
0.508156 0.809247 0.885451
0.543603 0.809781 0.889723
0.596918 0.812757 0.898039
0.673548 0.812757 0.901961
0.747387 0.816678 0.905882
0.813474 0.820676 0.906096
0.88336 0.828565 0.909804
0.957076 0.84007 0.910018
0.736278 0.88333 0.898039
0.737606 0.880369 0.894011
0.747677 0.88072 0.89456
0.767132 0.886824 0.901961
0.794079 0.8869 0.905882
0.825376 0.890822 0.909804
0.863996 0.894881 0.913741
0.914427 0.898863 0.917784
0.972854 0.910414 0.921721
0.909804 0.952941 0.917647
0.905867 0.950729 0.91574
0.912139 0.951232 0.919524
0.922042 0.953414 0.921569
0.933654 0.956863 0.921889
0.949325 0.960784 0.92549
0.964965 0.964965 0.929671
0.984497 0.972549 0.937255
1 0.976471 0.941176
