public/luts/creative_looks/Punch.cube
#Created by: Denver Riddle
#Copyright: (C) Copyright Color Grading Central LLC
#LUT Size
LUT_3D_SIZE 33
0 0 0
0.00131228 0 0
0.0052491 0 0
0.0118105 0 0
0.0210117 0 0
0.0328222 0 0
0.0472725 0 0
0.0643473 0 0
0.0840467 0 0
0.106371 0 0
0.131319 0 0
0.158892 0 0
0.189105 0 0
0.221927 0 0
0.257389 0 0
0.295476 0 0
0.336187 0 0
0.379522 0 0
0.425498 0 0
0.474083 0 0
0.525307 0 0
0.579141 0 0
0.635615 0 0
0.694713 0 0
0.752148 0 0
0.792325 0 0
0.829862 0 0
0.86479 0 0
0.897078 0 0
0.926757 0 0
0.953796 0 0
0.97821 0 0
1 0 0
0 0.00163272 0
0.00198367 0.00190738 0
0.00805676 0.00192264 0
0.0177615 0.00195315 0
0.0300603 0.00204471 0
0.0447242 0.0021973 0
0.0617533 0.00236515 0
0.0812543 0.00254826 0
0.103288 0.00274662 0
0.12784 0.00292973 0
0.155001 0.0031281 0
0.184741 0.00331121 0
0.217075 0.00350958 0
0.252003 0.00370794 0
0.289555 0.00389105 0
0.329717 0.00408942 0
0.372457 0.00428778 0
0.417838 0.00447089 0
0.465812 0.00466926 0
0.516396 0.00485237 0
0.569604 0.00505074 0
0.625422 0.0052491 0
0.683864 0.00543221 0
0.728985 0.00563058 0
0.769512 0.00582895 0
0.807446 0.00601205 0
0.842786 0.00621042 0
0.875502 0.00639353 0
0.905623 0.0065919 0
0.93312 0.00679026 0
0.958022 0.00697337 0
0.980316 0.00717174 0
1 0.00735485 0
0 0.0065156 0
0.00256352 0.00704967 0
0.00793469 0.00761425 0
0.0180362 0.00769055 0
0.0322576 0.00769055 0
0.0501869 0.00770581 0
0.071046 0.00779736 0
0.0944533 0.00796521 0
0.120256 0.00820935 0
0.14844 0.00848402 0
0.178912 0.0087892 0
0.211765 0.0091249 0
0.247044 0.00947585 0
0.284794 0.00984207 0
0.325048 0.0102083 0
0.367819 0.0105898 0
0.413199 0.0109712 0
0.461021 0.0113527 0
0.511421 0.0117342 0
0.564431 0.0121157 0
0.62005 0.0124971 0
0.667765 0.0128786 0
0.710918 0.0132753 0
0.751476 0.0136568 0
0.789441 0.0140383 0
0.824842 0.014435 0
0.857633 0.0148165 0
0.887846 0.015198 0
0.915465 0.0155795 0
0.94049 0.0159762 0
0.962921 0.0163577 0
0.982757 0.0167391 0
1 0.0171359 0
0 0.0146639 0
0.00332647 0.0154116 0
0.0087892 0.0164034 0
0.0178683 0.0171359 0
0.0319066 0.0173037 0
0.0502632 0.0173037 0
0.0725872 0.0172885 0
0.0986954 0.0173037 0
0.127916 0.01738 0
0.159869 0.0175479 0
0.194369 0.017792 0
0.231281 0.0180972 0
0.270573 0.0184634 0
0.312337 0.0188602 0
0.356268 0.0193027 0
0.402564 0.019791 0
0.45124 0.0202792 0
0.502327 0.020798 0
0.555856 0.0213321 0
0.606149 0.0218814 0
0.652216 0.0224308 0
0.695598 0.0229801 0
0.736309 0.0235447 0
0.774395 0.0241093 0
0.809918 0.0246738 0
0.842756 0.0252384 0
0.872953 0.0258183 0
0.900603 0.0263981 0
0.925658 0.026978 0
0.948135 0.0275425 0
0.968002 0.0281224 0
0.985306 0.0287022 0
1 0.0292821 0
0 0.0260777 0
0.00407416 0.027039 0
0.0102693 0.0282139 0
0.0188449 0.0295872 0
0.0317693 0.030457 0
0.0497292 0.0307317 0
0.0721447 0.0307774 0
0.0986343 0.0307622 0
0.129061 0.0307469 0
0.163302 0.0307469 0
0.200793 0.030808 0
0.241169 0.0309606 0
0.284215 0.0311894 0
0.329809 0.0315099 0
0.377844 0.0318761 0
0.42826 0.0323186 0
0.481025 0.0328222 0
0.535653 0.033341 0
0.586862 0.0339208 0
0.634668 0.0345312 0
0.679408 0.035172 0
0.721172 0.0358434 0
0.760052 0.0365148 0
0.796109 0.0372168 0
0.829419 0.0379339 0
0.859998 0.0386511 0
0.887907 0.0393835 0
0.913146 0.040116 0
0.935744 0.0408637 0
0.955734 0.0416114 0
0.973083 0.042359 0
0.987839 0.043122 0
1 0.0438697 0
0 0.0407568 0
0.00480659 0.0419471 0
0.0117952 0.0432898 0
0.0208286 0.0449683 0
0.0328527 0.0466011 0
0.0496376 0.0476081 0
0.071519 0.0479744 0
0.0979324 0.0480812 0
0.128542 0.0480812 0
0.163134 0.0480507 0
0.201648 0.0480354 0
0.244038 0.0480354 0
0.289769 0.0480964 0
0.33846 0.0482338 0
0.38996 0.0484474 0
0.444099 0.0487373 0
0.500771 0.0491188 0
0.556542 0.0495613 0
0.608347 0.0500801 0
0.656428 0.0506447 0
0.700984 0.0512703 0
0.742138 0.0519417 0
0.78024 0.0526284 0
0.815015 0.0533761 0
0.846769 0.0541543 0
0.875624 0.054963 0
0.901595 0.055787 0
0.924788 0.0566415 0
0.94522 0.057496 0
0.962921 0.058381 0
0.977935 0.059266 0
0.990295 0.0601663 0
1 0.0610819 0
0 0.0587015 0
0.00553903 0.0601205 0
0.0133211 0.0616312 0
0.0230869 0.063508 0
0.0351415 0.0655985 0
0.0508125 0.0674296 0
0.0714733 0.0685435 0
0.097261 0.0690471 0
0.127657 0.0692149 0
0.162341 0.0692454 0
0.201068 0.0692302 0
0.243778 0.0691997 0
0.290394 0.0691844 0
0.340871 0.0691691 0
0.394827 0.0692149 0
0.451804 0.069337 0
0.511681 0.0695354 0
0.569223 0.0698253 0
0.6224 0.0701915 0
0.671427 0.070634 0
0.716503 0.0711528 0
0.757839 0.0717327 0
0.795544 0.0723888 0
0.829816 0.0730907 0
0.860792 0.0738384 0
0.888533 0.0746319 0
0.913329 0.0754406 0
0.934936 0.0763256 0
0.953597 0.0772412 0
0.96939 0.078172 0
0.982361 0.0791485 0
0.992554 0.0801404 0
1 0.0811475 0
0 0.0798962 0
0.0062562 0.0815595 0
0.0148165 0.0832532 0
0.0254063 0.0852827 0
0.0380102 0.0876478 0
0.0533303 0.090074 0
0.0727398 0.0920729 0
0.0972915 0.0933089 0
0.12697 0.0939193 0
0.161334 0.0941634 0
0.200046 0.0942397 0
0.242893 0.0942397 0
0.289754 0.0942092 0
0.340551 0.0941787 0
0.395254 0.0941634 0
0.453834 0.0941634 0
0.515999 0.0941939 0
0.575387 0.0943008 0
0.630106 0.0944839 0
0.68043 0.0947585 0
0.726482 0.0951095 0
0.76846 0.0955367 0
0.8065 0.0960555 0
0.840803 0.0966354 0
0.871473 0.0972915 0
0.898665 0.0980087 0
0.922484 0.0987869 0
0.943053 0.0996262 0
0.960464 0.100511 0
0.974777 0.101442 0
0.986145 0.102373 0
0.994522 0.103365 0
1 0.104417 0
0 0.104356 0
0.00698863 0.106249 0
0.0162966 0.108156 0
0.0276951 0.110338 0
0.041062 0.112902 0
0.0566415 0.115694 0
0.0754101 0.118379 0
0.0986343 0.120516 0
0.127077 0.121874 0
0.160647 0.122606 0
0.198962 0.122942 0
0.241688 0.123079 0
0.288609 0.123095 0
0.33959 0.123079 0
0.394553 0.123049 0
0.453468 0.123018 0
0.516258 0.122988 0
0.576852 0.122988 0
0.633097 0.123003 0
0.684764 0.123095 0
0.731945 0.123278 0
0.774807 0.123537 0
0.813504 0.123873 0
0.848173 0.1243 0
0.878981 0.124788 0
0.90602 0.125368 0
0.929458 0.126024 0
0.949386 0.126757 0
0.965927 0.127535 0
0.979171 0.128389 0
0.989212 0.129305 0
0.996124 0.130266 0
1 0.131273 0
0 0.132067 0
0.00772107 0.134203 0
0.0177615 0.136339 0
0.0299687 0.138674 0
0.0441444 0.141405 0
0.0603342 0.144442 0
0.0790875 0.147601 0
0.101427 0.1505 0
0.128511 0.152758 0
0.160845 0.154253 0
0.198291 0.155093 0
0.240543 0.155535 0
0.287251 0.155734 0
0.338231 0.155795 0
0.393317 0.155795 0
0.45243 0.155764 0
0.515511 0.155718 0
0.576471 0.155688 0
0.633188 0.155657 0
0.68571 0.155657 0
0.734005 0.155673 0
0.777844 0.155749 0
0.817365 0.155901 0
0.852598 0.156146 0
0.883772 0.156481 0
0.910964 0.156893 0
0.934325 0.157382 0
0.953964 0.157946 0
0.970001 0.158587 0
0.982513 0.159319 0
0.991623 0.160113 0
0.997436 0.160967 0
1 0.161883 0
0 0.163058 0
0.0084535 0.165423 0
0.0192264 0.167803 0
0.0322271 0.170291 0
0.0472114 0.173175 0
0.0641489 0.17641 0
0.0833143 0.179889 0
0.105379 0.183352 0
0.131411 0.18645 0
0.162356 0.18883 0
0.198566 0.190433 0
0.239918 0.191394 0
0.286076 0.191943 0
0.336782 0.192218 0
0.391775 0.192325 0
0.45095 0.192355 0
0.514183 0.192325 0
0.575509 0.192294 0
0.632563 0.192248 0
0.685389 0.192203 0
0.734005 0.192187 0
0.778439 0.192172 0
0.818723 0.192172 0
0.854673 0.192248 0
0.886381 0.192386 0
0.913924 0.192615 0
0.937438 0.192935 0
0.957046 0.193332 0
0.972839 0.193805 0
0.984939 0.194354 0
0.993439 0.194995 0
0.998428 0.195712 0
1 0.196506 0
0 0.197299 0
0.00918593 0.199908 0
0.020676 0.202518 0
0.0344549 0.205188 0
0.0502632 0.208225 0
0.0680095 0.211627 0
0.0878004 0.215351 0
0.110048 0.219226 0
0.135576 0.22295 0
0.165347 0.2262 0
0.200168 0.228687 0
0.240269 0.230426 0
0.285496 0.23151 0
0.335592 0.232166 0
0.390249 0.232517 0
0.449271 0.232685 0
0.512489 0.232746 0
0.574121 0.232731 0
0.631479 0.2327 0
0.684596 0.232654 0
0.733486 0.232609 0
0.778164 0.232563 0
0.818662 0.232547 0
0.855024 0.232517 0
0.887266 0.232532 0
0.915282 0.232593 0
0.939132 0.232715 0
0.958892 0.232929 0
0.974655 0.233234 0
0.986557 0.233616 0
0.99469 0.234073 0
0.99913 0.234623 0
1 0.235248 0
0 0.234791 0
0.00991836 0.237659 0
0.0221408 0.240497 0
0.0366674 0.243366 0
0.0532845 0.24654 0
0.0718547 0.250111 0
0.0923781 0.254032 0
0.115114 0.258198 0
0.140597 0.262409 0
0.16968 0.266361 0
0.20325 0.269749 0
0.241947 0.272374 0
0.285939 0.27422 0
0.335058 0.275441 0
0.389059 0.276188 0
0.447669 0.276631 0
0.510689 0.27686 0
0.572473 0.276967 0
0.630076 0.276982 0
0.683452 0.276967 0
0.732601 0.276921 0
0.777523 0.276875 0
0.81825 0.276814 0
0.854795 0.276768 0
0.887205 0.276738 0
0.91548 0.276722 0
0.939666 0.276722 0
0.959701 0.276768 0
0.975631 0.27689 0
0.987533 0.277089 0
0.995483 0.277378 0
0.999619 0.277745 0
1 0.278187 0
0 0.275563 0
0.0106508 0.27866 0
0.0236057 0.281743 0
0.0388647 0.284825 0
0.0562905 0.288151 0
0.0756847 0.291875 0
0.0970016 0.295964 0
0.120378 0.300374 0
0.146181 0.304936 0
0.175021 0.309438 0
0.207736 0.313603 0
0.245136 0.317128 0
0.287709 0.31986 0
0.335592 0.321828 0
0.388602 0.323171 0
0.446494 0.324041 0
0.509056 0.324559 0
0.570779 0.324865 0
0.628504 0.325017 0
0.682078 0.325078 0
0.731456 0.325063 0
0.776608 0.325032 0
0.817563 0.324987 0
0.854307 0.324926 0
0.886885 0.324865 0
0.915312 0.324819 0
0.939605 0.324788 0
0.959792 0.324773 0
0.975921 0.324773 0
0.987945 0.324804 0
0.995911 0.32491 0
0.999908 0.325093 0
1 0.325368 0
0 0.319585 0
0.0113832 0.322927 0
0.0250706 0.326253 0
0.041062 0.329564 0
0.059266 0.333043 0
0.0794842 0.336919 0
0.101625 0.341176 0
0.12575 0.345769 0
0.152056 0.350622 0
0.181018 0.35555 0
0.213321 0.360311 0
0.249729 0.364645 0
0.290974 0.368292 0
0.337438 0.37116 0
0.389212 0.373251 0
0.446097 0.374716 0
0.507897 0.375692 0
0.569314 0.376318 0
0.626963 0.376699 0
0.680598 0.376898 0
0.730129 0.376989 0
0.775494 0.37702 0
0.816632 0.376989 0
0.85359 0.376944 0
0.886351 0.376883 0
0.914931 0.376822 0
0.939376 0.376761 0
0.95967 0.376715 0
0.975875 0.376684 0
0.987976 0.376669 0
0.996033 0.376654 0
1 0.376684 0
1 0.376776 0
0 0.366873 0
0.0121157 0.370443 0
0.0265202 0.374014 0
0.0432441 0.377569 0
0.0622416 0.381216 0
0.0832685 0.385229 0
0.106233 0.389639 0
0.131136 0.39443 0
0.158114 0.399512 0
0.187457 0.404761 0
0.219699 0.410025 0
0.255528 0.415015 0
0.295689 0.419516 0
0.340795 0.423285 0
0.39115 0.426261 0
0.446799 0.428473 0
0.507576 0.43006 0
0.568338 0.431159 0
0.62565 0.431876 0
0.67921 0.432334 0
0.728771 0.432609 0
0.774258 0.432746 0
0.815579 0.432792 0
0.852705 0.432792 0
0.885649 0.432746 0
0.914397 0.4327 0
0.938979 0.432624 0
0.959411 0.432563 0
0.975723 0.432502 0
0.9879 0.432456 0
0.996002 0.432425 0
1 0.432395 0
1 0.43238 0
0 0.417426 0
0.0128328 0.421225 0
0.027985 0.42504 0
0.0454414 0.428824 0
0.0651865 0.43267 0
0.0870222 0.436835 0
0.110811 0.441398 0
0.136538 0.446342 0
0.164248 0.451621 0
0.194141 0.45716 0
0.226612 0.462791 0
0.262242 0.468315 0
0.301671 0.473548 0
0.345602 0.478187 0
0.394583 0.482078 0
0.448829 0.485176 0
0.508354 0.487511 0
0.568109 0.489219 0
0.624811 0.49044 0
0.67805 0.491264 0
0.72752 0.491798 0
0.773022 0.492134 0
0.814435 0.492317 0
0.851713 0.492409 0
0.884825 0.492424 0
0.913741 0.492409 0
0.938476 0.492348 0
0.959045 0.492287 0
0.975464 0.492226 0
0.987762 0.492149 0
0.995926 0.492088 0
1 0.492042 0
1 0.491997 0
0 0.471229 0
0.0135653 0.475288 0
0.0294499 0.479316 0
0.0476387 0.48336 0
0.0681163 0.487388 0
0.0907454 0.491722 0
0.115373 0.496437 0
0.141909 0.501534 0
0.170413 0.506996 0
0.200977 0.512749 0
0.233875 0.5187 0
0.269581 0.524697 0
0.308659 0.53048 0
0.351736 0.535348 0
0.399496 0.539559 0
0.452338 0.543099 0
0.510475 0.545937 0
0.568872 0.548119 0
0.624674 0.549737 0
0.677348 0.550896 0
0.726528 0.55172 0
0.771908 0.55227 0
0.813336 0.552636 0
0.85069 0.55285 0
0.883925 0.552956 0
0.912993 0.553002 0
0.937881 0.553002 0
0.958602 0.552972 0
0.975143 0.552911 0
0.987549 0.55285 0
0.995804 0.552789 0
0.999954 0.552712 0
1 0.552666 0
0 0.528313 0
0.0142977 0.532586 0
0.0309148 0.536873 0
0.0498207 0.541146 0
0.071046 0.545403 0
0.0944686 0.549874 0
0.119905 0.554742 0
0.14728 0.560006 0
0.176577 0.564935 0
0.207874 0.569574 0
0.241352 0.574395 0
0.277363 0.579339 0
0.316365 0.584237 0
0.358968 0.588922 0
0.405768 0.593271 0
0.457343 0.597086 0
0.514061 0.60029 0
0.570809 0.602884 0
0.625422 0.604898 0
0.677272 0.606424 0
0.725933 0.607553 0
0.771038 0.608347 0
0.81236 0.608911 0
0.849729 0.609277 0
0.883024 0.609522 0
0.9122 0.609659 0
0.937224 0.60972 0
0.958083 0.609735 0
0.974762 0.60972 0
0.987289 0.609674 0
0.995651 0.609628 0
0.999893 0.609567 0
1 0.609506 0
0 0.588647 0
0.0150301 0.593164 0
0.0323644 0.596445 0
0.052018 0.599527 0
0.0739757 0.602594 0
0.0981765 0.605768 0
0.124407 0.609201 0
0.152605 0.612909 0
0.182727 0.616861 0
0.214801 0.621073 0
0.248966 0.625467 0
0.285451 0.630014 0
0.324636 0.634607 0
0.367041 0.639078 0
0.413199 0.643381 0
0.463737 0.647303 0
0.519158 0.650752 0
0.57406 0.653651 0
0.627192 0.656031 0
0.677989 0.657877 0
0.725902 0.659312 0
0.770565 0.66038 0
0.811627 0.661158 0
0.848875 0.661707 0
0.88217 0.662089 0
0.911421 0.662348 0
0.936538 0.662501 0
0.957519 0.662593 0
0.974334 0.662623 0
0.986984 0.662623 0
0.995468 0.662593 0
0.999802 0.662547 0
1 0.662486 0
0 0.641337 0
0.0157626 0.64419 0
0.0338293 0.647044 0
0.0542 0.649897 0
0.0768902 0.652735 0
0.101854 0.655619 0
0.128893 0.658732 0
0.157916 0.662058 0
0.188861 0.665629 0
0.221744 0.669413 0
0.256641 0.673396 0
0.293706 0.677531 0
0.333272 0.681758 0
0.375708 0.685985 0
0.421561 0.690074 0
0.471702 0.69395 0
0.525673 0.69749 0
0.578637 0.700587 0
0.630121 0.703197 0
0.679622 0.705348 0
0.726589 0.707057 0
0.770581 0.70837 0
0.811231 0.709377 0
0.848249 0.71014 0
0.881453 0.710674 0
0.910689 0.71107 0
0.935882 0.71133 0
0.956954 0.711498 0
0.973877 0.711604 0
0.986648 0.71165 0
0.995254 0.71165 0
0.99971 0.711635 0
1 0.711604 0
0 0.689158 0
0.016495 0.691783 0
0.0352941 0.694408 0
0.0563973 0.697017 0
0.0798199 0.699611 0
0.105531 0.702235 0
0.133364 0.705028 0
0.163195 0.708019 0
0.19498 0.711208 0
0.228672 0.714595 0
0.264332 0.718181 0
0.302083 0.721904 0
0.342153 0.725734 0
0.384848 0.729625 0
0.43061 0.733471 0
0.481483 0.737163 0
0.533455 0.740658 0
0.584482 0.743816 0
0.634226 0.746578 0
0.682246 0.748928 0
0.728069 0.750866 0
0.771221 0.752407 0
0.811276 0.753628 0
0.847944 0.754574 0
0.880934 0.755291 0
0.910094 0.755825 0
0.935271 0.756207 0
0.956405 0.756466 0
0.973434 0.756649 0
0.986313 0.756756 0
0.995041 0.756817 0
0.999603 0.756848 0
1 0.756848 0
0 0.73373 0
0.0172274 0.73611 0
0.036759 0.738491 0
0.0585946 0.740871 0
0.0827344 0.743236 0
0.109194 0.745602 0
0.137819 0.748089 0
0.16846 0.750759 0
0.201068 0.753597 0
0.235584 0.756603 0
0.272053 0.759793 0
0.310536 0.763119 0
0.351202 0.766567 0
0.394308 0.770077 0
0.441001 0.773602 0
0.49218 0.77705 0
0.542321 0.780377 0
0.591485 0.783475 0
0.63946 0.786282 0
0.685908 0.788739 0
0.730419 0.790829 0
0.772549 0.792569 0
0.811872 0.793973 0
0.848005 0.795087 0
0.88069 0.795956 0
0.909667 0.796628 0
0.934783 0.797131 0
0.955917 0.797498 0
0.973007 0.797772 0
0.985977 0.797955 0
0.994812 0.798077 0
0.999481 0.798138 0
1 0.798184 0
0 0.775036 0
0.0179599 0.777173 0
0.0382239 0.779324 0
0.0607767 0.78146 0
0.0856641 0.783581 0
0.11284 0.785718 0
0.14226 0.787915 0
0.173709 0.790265 0
0.207126 0.792782 0
0.242481 0.795438 0
0.279744 0.79823 0
0.319005 0.801175 0
0.360342 0.804227 0
0.403983 0.807355 0
0.453849 0.810529 0
0.503502 0.813687 0
0.552056 0.816754 0
0.599481 0.819715 0
0.645731 0.822446 0
0.690578 0.824903 0
0.733684 0.82707 0
0.774655 0.828916 0
0.813077 0.830457 0
0.848554 0.831708 0
0.880781 0.832715 0
0.909468 0.833524 0
0.934447 0.834134 0
0.955535 0.834607 0
0.972625 0.834974 0
0.985656 0.835233 0
0.994583 0.835416 0
0.999374 0.835538 0
1 0.835615 0
0 0.813077 0
0.0186923 0.814984 0
0.0396735 0.816876 0
0.062974 0.818784 0
0.0885786 0.820676 0
0.116503 0.822568 0
0.14667 0.824506 0
0.178927 0.826551 0
0.213169 0.828748 0
0.249348 0.831052 0
0.287434 0.833494 0
0.327489 0.836057 0
0.369558 0.838727 0
0.417319 0.841474 0
0.467063 0.844282 0
0.515389 0.847105 0
0.562448 0.849897 0
0.608316 0.852598 0
0.652934 0.855161 0
0.696193 0.857542 0
0.737835 0.859678 0
0.777554 0.86157 0
0.814939 0.863172 0
0.849622 0.86453 0
0.88127 0.865644 0
0.909575 0.866545 0
0.934295 0.867262 0
0.955261 0.867826 0
0.97232 0.868269 0
0.985382 0.868605 0
0.994385 0.868849 0
0.999268 0.869032 0
1 0.869169 0
0 0.847852 0
0.0194095 0.849515 0
0.0411383 0.851179 0
0.0651713 0.852857 0
0.0914931 0.854505 0
0.12015 0.856168 0
0.15108 0.857847 0
0.184131 0.859602 0
0.219181 0.861479 0
0.256184 0.863478 0
0.295109 0.865568 0
0.335958 0.867765 0
0.381338 0.870054 0
0.431815 0.872435 0
0.480522 0.874861 0
0.527672 0.877333 0
0.573388 0.879789 0
0.617838 0.8822 0
0.660914 0.88455 0
0.702632 0.886763 0
0.742824 0.888792 0
0.781216 0.890623 0
0.817487 0.892241 0
0.851255 0.893629 0
0.882216 0.894804 0
0.910018 0.895766 0
0.934401 0.896559 0
0.955169 0.8972 0
0.972137 0.897704 0
0.985168 0.8981 0
0.994202 0.898421 0
0.999161 0.89865 0
1 0.898817 0
0 0.879377 0
0.0201419 0.880796 0
0.0426032 0.882231 0
0.0673533 0.88365 0
0.0944228 0.885084 0
0.123796 0.886503 0
0.155489 0.887922 0
0.189319 0.889418 0
0.225177 0.891005 0
0.262989 0.892668 0
0.302754 0.894438 0
0.345052 0.896284 0
0.396765 0.898207 0
0.446403 0.900221 0
0.494163 0.902281 0
0.54023 0.904372 0
0.584741 0.906493 0
0.627817 0.908598 0
0.669551 0.910643 0
0.709819 0.912627 0
0.748577 0.914488 0
0.785641 0.916197 0
0.820706 0.917739 0
0.853483 0.919097 0
0.883635 0.920272 0
0.910826 0.921263 0
0.934783 0.922087 0
0.955261 0.922774 0
0.972061 0.923323 0
0.985031 0.923766 0
0.994064 0.924117 0
0.999084 0.924392 0
1 0.924605 0
0 0.907637 0
0.0208743 0.908827 0
0.0440681 0.910018 0
0.0695506 0.911208 0
0.0973526 0.912383 0
0.127459 0.913573 0
0.159869 0.914748 0
0.194491 0.915984 0
0.231144 0.917281 0
