public/luts/creative_looks/Punch.cube
#Created by: Denver Riddle
#Copyright: (C) Copyright Color Grading Central LLC
#LUT Size
LUT_3D_SIZE 9
0 0 0
0.0210117 0 0
0.0840467 0 0
0.189105 0 0
0.336187 0 0
0.525307 0 0
0.752148 0 0
0.897078 0 0
1 0 0
0 0.0260777 0
0.0317693 0.030457 0
0.129061 0.0307469 0
0.284215 0.0311894 0
0.481025 0.0328222 0
0.679408 0.035172 0
0.829419 0.0379339 0
0.935744 0.0408637 0
1 0.0438697 0
0 0.104356 0
0.041062 0.112902 0
0.127077 0.121874 0
0.288609 0.123095 0
0.516258 0.122988 0
0.731945 0.123278 0
0.878981 0.124788 0
0.965927 0.127535 0
1 0.131273 0
0 0.234791 0
0.0532845 0.24654 0
0.140597 0.262409 0
0.285939 0.27422 0
0.510689 0.27686 0
0.732601 0.276921 0
0.887205 0.276738 0
0.975631 0.27689 0
1 0.278187 0
0 0.417426 0
0.0651865 0.43267 0
0.164248 0.451621 0
0.301671 0.473548 0
0.508354 0.487511 0
0.72752 0.491798 0
0.884825 0.492424 0
0.975464 0.492226 0
1 0.491997 0
0 0.641337 0
0.0768902 0.652735 0
0.188861 0.665629 0
0.333272 0.681758 0
0.525673 0.69749 0
0.726589 0.707057 0
0.881453 0.710674 0
0.973877 0.711604 0
1 0.711604 0
0 0.813077 0
0.0885786 0.820676 0
0.213169 0.828748 0
0.369558 0.838727 0
0.562448 0.849897 0
0.737835 0.859678 0
0.88127 0.865644 0
0.97232 0.868269 0
1 0.869169 0
0 0.932631 0
0.100267 0.936431 0
0.23711 0.940322 0
0.427573 0.944961 0
0.608286 0.950362 0
0.76199 0.955901 0
0.887984 0.960464 0
0.972412 0.963287 0
1 0.964691 0
0 1 0
0.111955 1 0
0.282322 1 0
0.488807 1 0
0.657008 1 0
0.793912 1 0
0.902235 1 0
0.975479 1 0
1 1 0
0 0 0.0133211
0.0188907 0 0.0171359
0.0731975 0 0.0210727
0.162951 0 0.0249943
0.288823 0 0.0289311
0.455283 0 0.0327764
0.66334 0 0.0364843
0.880446 0 0.0400549
1 0 0.0435492
0 0.027039 0.0258946
0.0322423 0.0307469 0.0282292
0.10985 0.0332494 0.0316167
0.227207 0.0363317 0.0348211
0.38645 0.0394141 0.0379339
0.587533 0.0424811 0.0410163
0.776822 0.0455482 0.0440986
0.909316 0.0486152 0.0471656
1 0.0516823 0.050248
0 0.106218 0.0378424
0.043183 0.113848 0.0412604
0.127871 0.122545 0.0321813
0.290379 0.122988 0.0282139
0.50956 0.12372 0.029572
0.71043 0.12665 0.0332647
0.85362 0.131106 0.0375067
0.948653 0.136446 0.0418097
1 0.142199 0.0459144
0 0.237598 0.0496071
0.0548714 0.249058 0.0529641
0.144732 0.262364 0.0525521
0.287098 0.275227 0.0363928
0.513817 0.276905 0.0294652
0.733989 0.276738 0.0282292
0.886122 0.277073 0.028748
0.972152 0.279164 0.0312047
1 0.283055 0.034699
0 0.421164 0.0613413
0.0665751 0.436439 0.0646677
0.169268 0.45243 0.0669261
0.305486 0.473884 0.0581826
0.50988 0.488869 0.0406195
0.729763 0.492164 0.0319371
0.886244 0.492241 0.0290532
0.97586 0.491997 0.0282597
1 0.492149 0.0284276
0 0.644144 0.0730602
0.0782635 0.655604 0.0763561
0.193256 0.667109 0.0793469
0.340261 0.681727 0.0766613
0.529061 0.69807 0.0622873
0.727733 0.708064 0.0448463
0.882841 0.711116 0.03505
0.97467 0.711574 0.0307012
1 0.711421 0.0289006
0 0.814939 0.0847639
0.0899672 0.822583 0.0880598
0.2168 0.830182 0.0912184
0.378698 0.839002 0.0914778
0.569924 0.849882 0.08336
0.739727 0.860197 0.0661631
0.882033 0.866316 0.049073
0.972976 0.86865 0.0385138
1 0.869245 0.0329595
0 0.933562 0.0964675
0.101671 0.937377 0.0997482
0.240162 0.941176 0.102922
0.439689 0.945296 0.104692
0.617945 0.950362 0.10074
0.766384 0.955947 0.0885023
0.889021 0.960754 0.0700389
0.972793 0.963638 0.0532998
1 0.964904 0.0422065
0 1 0.108171
0.113359 1 0.111452
0.290639 1 0.114626
0.499794 1 0.117174
0.667247 1 0.11577
0.800275 1 0.107942
0.904555 1 0.0928664
0.975937 1 0.073991
1 1 0.0575418
0 0 0.0532998
0.0200656 0 0.0608072
0.0755474 0 0.068574
0.166461 0 0.0764172
0.292805 0 0.0842756
0.454597 0 0.092134
0.65182 0 0.0999924
0.876356 0 0.107866
1 0 0.115709
0 0.0281071 0.0787213
0.032639 0.0319829 0.0860761
0.100725 0.0359197 0.0937514
0.204227 0.0398413 0.10161
0.343175 0.0437781 0.109468
0.520134 0.0475624 0.117281
0.739528 0.0510567 0.124834
0.893004 0.0544137 0.132097
1 0.0576791 0.139132
0 0.108156 0.103578
0.0447089 0.11574 0.111147
0.128985 0.122988 0.112947
0.267353 0.126879 0.119463
0.439399 0.133043 0.126497
0.641917 0.139208 0.132967
0.80296 0.145373 0.139284
0.922347 0.151522 0.145525
1 0.157671 0.151736
0 0.240406 0.127657
0.0563821 0.25185 0.134936
0.149355 0.26331 0.141649
0.28838 0.276188 0.120394
0.516228 0.276738 0.112856
0.729931 0.277607 0.115114
0.873198 0.28159 0.122148
0.960388 0.287877 0.130526
1 0.295613 0.139178
0 0.424887 0.151385
0.0680552 0.440177 0.15845
0.172747 0.455451 0.165072
0.311101 0.473884 0.161761
0.511498 0.490181 0.128756
0.732113 0.49221 0.115419
0.88719 0.491997 0.112886
0.975448 0.492332 0.113695
1 0.494896 0.118318
0 0.646937 0.17496
0.0797436 0.658412 0.181888
0.196139 0.669856 0.188464
0.347875 0.682155 0.192004
0.533593 0.698405 0.171969
0.728908 0.709072 0.137179
0.884352 0.711391 0.120317
0.975372 0.711437 0.11458
1 0.711254 0.112932
0 0.8168 0.198474
0.0914321 0.82446 0.20531
0.219532 0.83209 0.211872
0.390219 0.839841 0.217456
0.578943 0.849836 0.210224
0.742031 0.860624 0.179965
0.882811 0.866987 0.145617
0.973663 0.868925 0.126482
1 0.869215 0.117891
0 0.934493 0.221942
0.103136 0.938323 0.228717
0.242924 0.942138 0.235264
0.449424 0.945937 0.241489
0.628153 0.950469 0.240757
0.771695 0.955962 0.222843
0.890196 0.961028 0.187701
0.973175 0.963973 0.154055
1 0.965087 0.133364
0 1 0.245396
0.114824 1 0.256413
0.29897 1 0.27602
0.507942 1 0.294972
0.677119 1 0.303166
0.80737 1 0.275456
0.907332 1 0.232761
0.976425 1 0.195499
1 1 0.162509
0 0 0.119936
0.0212558 0 0.131106
0.0779126 0 0.142596
0.169986 0 0.154299
0.29749 0 0.166064
0.460441 0 0.177844
0.658824 0 0.189639
0.877516 0 0.201419
1 0 0.213214
0 0.0292515 0.158114
0.0337987 0.0331426 0.1691
0.10309 0.0370794 0.180377
0.207752 0.0410163 0.192065
0.34786 0.0449378 0.203845
0.5234 0.0488746 0.215625
0.734386 0.0528115 0.22742
0.89012 0.056733 0.239216
1 0.0606546 0.250996
0 0.110262 0.196002
0.0461128 0.117876 0.207233
0.128252 0.125612 0.218265
0.245518 0.133501 0.229831
0.39823 0.14136 0.241627
0.586618 0.149187 0.253422
0.772122 0.156451 0.265003
0.905608 0.163272 0.276081
1 0.169863 0.286717
0 0.243351 0.233051
0.057969 0.254749 0.244419
0.152361 0.266133 0.255741
0.290242 0.276738 0.254154
0.492592 0.281117 0.262745
0.682155 0.290089 0.274342
0.829557 0.299351 0.284611
0.935561 0.308614 0.294392
1 0.317861 0.303944
0 0.428687 0.269306
0.0696422 0.443915 0.280446
0.175708 0.45919 0.291264
0.318379 0.474556 0.300832
0.513359 0.491371 0.264775
0.733959 0.491997 0.253941
0.885039 0.492912 0.256672
0.969619 0.497704 0.266697
1 0.505577 0.279057
0 0.649744 0.305089
0.0813001 0.661204 0.315969
0.199069 0.672663 0.326467
0.353613 0.684108 0.336294
0.540307 0.698466 0.327138
0.73019 0.710018 0.277134
0.885908 0.711421 0.257862
0.97586 0.711254 0.253971
1 0.711437 0.254871
0 0.818677 0.340627
0.0929732 0.826307 0.351293
0.222446 0.833967 0.361624
0.397803 0.841596 0.371405
0.589059 0.850019 0.374899
0.745068 0.860914 0.341238
0.883635 0.867643 0.289708
0.974426 0.869093 0.265156
1 0.869123 0.256565
0 0.935424 0.376715
0.104662 0.939254 0.394232
0.245838 0.943069 0.411246
0.456291 0.946883 0.427527
0.637705 0.95082 0.440177
0.778195 0.955932 0.417411
0.891585 0.961257 0.353002
0.973587 0.964294 0.302327
1 0.965225 0.274311
0 1 0.435554
0.116335 1 0.452888
0.307698 1 0.469764
0.514778 1 0.486046
0.685374 1 0.501106
0.815 1 0.496025
0.910689 1 0.447181
0.976974 1 0.36463
1 1 0.314977
0 0 0.21323
0.0224155 0 0.228061
0.080293 0 0.243214
0.173541 0 0.258686
0.302205 0 0.274311
0.4663 0 0.289998
0.665843 0 0.305699
0.878691 0 0.321416
1 0 0.337133
0 0.030396 0.264118
0.0349584 0.034287 0.278767
0.105455 0.0382239 0.293675
0.211307 0.0421759 0.309041
0.35256 0.0460975 0.324666
0.529259 0.0500343 0.340352
0.741405 0.0539712 0.356069
0.891279 0.0578927 0.371786
1 0.0618296 0.387518
0 0.112459 0.314916
0.0473335 0.12015 0.329671
0.130571 0.127932 0.34432
0.249073 0.135805 0.359426
0.40293 0.143679 0.375036
0.592218 0.151553 0.390738
0.77232 0.159411 0.406455
0.903883 0.167269 0.422171
1 0.175128 0.437903
0 0.246479 0.365087
0.0594186 0.257877 0.380179
0.1552 0.269306 0.395163
0.286824 0.280919 0.409888
0.453285 0.292729 0.425406
0.643122 0.304524 0.441123
0.798138 0.316045 0.456809
0.918273 0.326543 0.471916
1 0.336538 0.486305
0 0.432639 0.414313
0.0712139 0.447822 0.42948
0.178882 0.463004 0.444617
0.322957 0.478218 0.459632
0.515984 0.491997 0.451835
0.720577 0.496284 0.461372
0.856489 0.507576 0.477867
0.948974 0.519829 0.492424
1 0.532189 0.505989
0 0.652628 0.46276
0.0829023 0.664042 0.477729
0.202228 0.675471 0.4925
0.357961 0.686931 0.506798
0.549935 0.69868 0.517952
0.731685 0.710857 0.465385
0.88716 0.711254 0.451438
0.975021 0.711788 0.454337
1 0.715023 0.466987
0 0.820554 0.510658
0.0945754 0.828183 0.525368
0.225559 0.835828 0.539788
0.405051 0.843473 0.553689
0.597482 0.851087 0.566644
0.749523 0.861021 0.548333
0.88452 0.868254 0.481636
0.975204 0.869108 0.456779
1 0.869001 0.451484
0 0.936355 0.558236
0.106233 0.940185 0.572702
0.248905 0.943999 0.586862
0.463523 0.947829 0.600519
0.644236 0.951644 0.613489
0.785687 0.955978 0.61529
0.893385 0.96144 0.565881
0.973999 0.964614 0.498268
1 0.965301 0.466438
0 1 0.605585
0.117906 1 0.619852
0.316808 1 0.633814
0.521996 1 0.647349
0.691005 1 0.660304
0.82237 1 0.669078
0.914809 1 0.647059
0.977615 1 0.58143
1 1 0.515038
0 0 0.333165
0.0235904 0 0.351675
0.0826581 0 0.370489
0.177096 0 0.389654
0.306935 0 0.409064
0.472206 0 0.428611
0.672892 0 0.448218
0.879866 0 0.467842
1 0 0.48748
0 0.0315404 0.39678
0.0361028 0.0354467 0.415106
0.107805 0.0393835 0.433661
0.214862 0.0433204 0.452659
0.35729 0.0472572 0.472007
0.535149 0.051194 0.491554
0.74844 0.0551308 0.511162
0.892454 0.0590677 0.5308
1 0.0629892 0.550454
0 0.114717 0.460395
0.0485237 0.122438 0.478721
0.132876 0.130251 0.497047
0.252628 0.138109 0.515724
0.40766 0.145998 0.534966
0.598093 0.153872 0.554513
0.774655 0.16173 0.574136
0.905043 0.169604 0.593774
1 0.177462 0.613428
0 0.249729 0.523583
0.0607462 0.261173 0.542214
0.157671 0.272709 0.560662
0.290303 0.284382 0.578988
0.458015 0.296208 0.597925
0.646632 0.308019 0.617472
0.799847 0.319814 0.632258
0.917647 0.331609 0.644053
1 0.343389 0.655848
0 0.436774 0.585946
0.072694 0.451957 0.604868
0.181811 0.467155 0.623758
0.327276 0.482399 0.635508
0.50837 0.497887 0.646571
0.684413 0.513634 0.658259
0.82504 0.529351 0.670054
0.931075 0.544106 0.681682
1 0.557671 0.692699
0 0.655604 0.638422
0.0844739 0.666987 0.64979
0.205386 0.678386 0.661158
0.362722 0.689769 0.672496
0.556466 0.701198 0.683665
0.733745 0.711254 0.673609
0.88043 0.713619 0.679377
0.962341 0.721386 0.692088
1 0.730419 0.703624
0 0.822492 0.674815
0.0961624 0.830091 0.686076
0.228748 0.837705 0.697261
0.412894 0.845335 0.708309
0.603174 0.852979 0.718914
0.756359 0.861036 0.725307
0.885588 0.868788 0.683375
0.975845 0.869001 0.673243
1 0.869276 0.674891
0 0.937316 0.710842
0.107836 0.941115 0.72195
0.256245 0.94493 0.732952
0.471229 0.94876 0.743709
0.649943 0.952575 0.75404
0.792538 0.956405 0.7635
0.895994 0.961517 0.745037
0.974472 0.96492 0.695369
1 0.965316 0.677302
0 1 0.746624
0.119493 1 0.757595
0.326238 1 0.768399
0.529625 1 0.778973
0.696727 1 0.789151
0.82768 1 0.79881
0.919707 1 0.797681
0.978408 1 0.757519
1 1 0.707744
0 0 0.479759
0.0247501 0 0.501945
0.085008 0 0.524422
0.180667 0 0.547265
0.311696 0 0.570397
0.478126 0 0.593744
0.679973 0 0.617212
0.881041 0 0.640726
1 0 0.664271
0 0.0327001 0.5561
0.0372625 0.0366064 0.578088
0.11014 0.040528 0.600305
0.218418 0.04448 0.622934
0.362051 0.0484169 0.64596
0.54107 0.0523537 0.669276
0.751827 0.0562905 0.692744
0.893629 0.0602274 0.716274
1 0.0641642 0.739818
0 0.117006 0.632471
0.0496986 0.124758 0.654429
0.135195 0.132555 0.676417
0.256153 0.140429 0.698711
0.412406 0.148302 0.721553
0.604013 0.156191 0.744823
0.77702 0.164065 0.7561
0.906218 0.171923 0.763943
1 0.179797 0.771801
0 0.253056 0.708598
0.0619821 0.264561 0.730755
0.160037 0.276158 0.750912
0.293782 0.287861 0.758251
0.46276 0.299672 0.765728
0.650172 0.311498 0.773449
0.802197 0.323293 0.781277
0.918807 0.335103 0.789136
1 0.346883 0.796994
0 0.441047 0.761349
0.0740673 0.456275 0.768856
0.184466 0.47155 0.776318
0.330983 0.486931 0.783688
0.513024 0.50251 0.791028
0.687953 0.518273 0.798627
0.827375 0.534005 0.80647
0.931411 0.549737 0.814313
1 0.565454 0.822187
0 0.658686 0.786206
0.0859541 0.670085 0.793774
0.208362 0.681468 0.801358
0.367178 0.692866 0.808911
0.562341 0.70428 0.816434
0.725719 0.715908 0.823835
0.852567 0.727718 0.831647
0.944137 0.739391 0.839506
1 0.74992 0.847059
0 0.824491 0.810742
0.0977188 0.832074 0.818326
0.231891 0.839673 0.825895
0.420829 0.847257 0.833463
0.609506 0.854871 0.841001
0.761746 0.862486 0.848356
0.887007 0.869001 0.83888
0.973327 0.870161 0.841871
1 0.87483 0.850355
0 0.938293 0.835019
0.109422 0.942092 0.842542
0.265843 0.945891 0.85005
0.47921 0.949691 0.857496
0.656168 0.953506 0.864805
0.796811 0.957336 0.871794
0.90016 0.961517 0.87425
0.975021 0.965164 0.845182
1 0.965255 0.838605
0 1 0.859083
0.121096 1 0.866545
0.335836 1 0.87393
0.53753 1 0.881239
0.702861 1 0.88838
0.831907 1 0.895201
0.924529 1 0.901122
0.979553 1 0.885725
1 1 0.85304
0 0 0.653025
0.0259098 0 0.678859
0.0873579 0 0.705013
0.184207 0 0.731502
0.316442 0 0.758343
0.484047 0 0.785443
0.687083 0 0.812711
0.882216 0 0.840085
1 0 0.867521
0 0.0338598 0.742061
0.0384222 0.0377661 0.767727
0.112459 0.0416876 0.793606
0.221942 0.0456245 0.819867
0.366796 0.0495766 0.846555
0.54699 0.0535134 0.873579
0.754208 0.0574502 0.878691
0.894804 0.061387 0.882597
1 0.0653239 0.886519
0 0.119295 0.831189
0.0508583 0.127062 0.856779
0.137514 0.134874 0.876066
0.259663 0.142733 0.879774
0.417136 0.150622 0.883543
0.609949 0.158495 0.887388
0.779385 0.166384 0.891279
0.907393 0.174243 0.895186
1 0.182116 0.899107
0 0.256428 0.881453
0.0632029 0.267979 0.88513
0.162387 0.279606 0.888792
0.297246 0.291325 0.892454
0.46746 0.303136 0.896178
0.653742 0.314961 0.899992
0.804562 0.326772 0.903868
0.919982 0.338582 0.90779
1 0.350378 0.911711
0 0.445426 0.894087
0.0753643 0.460716 0.89781
0.186954 0.476066 0.901503
0.334539 0.491524 0.90518
0.517662 0.507134 0.908843
0.691508 0.522881 0.912596
0.82974 0.538643 0.916457
0.932586 0.554391 0.920378
1 0.570123 0.9243
0 0.661875 0.906615
0.0873579 0.673274 0.910384
0.211109 0.684703 0.914137
0.371176 0.696147 0.917876
0.567285 0.707683 0.921569
0.729229 0.719371 0.925231
0.854917 0.731197 0.929046
0.945174 0.742992 0.932967
1 0.754788 0.936904
0 0.826535 0.919005
0.0992142 0.834134 0.922805
0.234882 0.841718 0.926589
0.428305 0.849317 0.930388
0.615503 0.856901 0.934157
0.766217 0.864515 0.937926
0.88011 0.872267 0.941649
0.957763 0.88014 0.945571
1 0.887648 0.949462
0 0.939284 0.931273
0.110979 0.943084 0.935058
0.275212 0.946883 0.938842
0.487098 0.950668 0.942626
0.662547 0.954467 0.94641
0.801541 0.958267 0.950164
0.904112 0.962097 0.95378
0.975753 0.965255 0.947692
1 0.965667 0.948791
0 1 0.94342
0.122683 1 0.947188
0.345388 1 0.950942
0.545525 1 0.954681
0.709239 1 0.958404
0.83653 1 0.962036
0.927504 1 0.965484
0.981399 1 0.96556
1 1 0.950744
0 0 0.852918
0.0270695 0 0.882445
0.0896925 0 0.912245
0.187747 0 0.942412
0.321187 0 0.972915
0.489982 0 1
0.694194 0 1
0.883406 0 1
1 0 1
0 0.0350042 0.954681
0.0395819 0.0389258 0.984024
0.114794 0.0428473 1
0.225467 0.0467842 1
0.371527 0.050721 1
0.552926 0.0546731 1
0.756573 0.0586099 1
0.895994 0.0625467 1
1 0.0664836 1
0 0.121599 1
0.0520333 0.129366 1
0.139818 0.137194 1
0.263157 0.145037 1
0.421851 0.152926 1
0.615885 0.160815 1
0.78175 0.168688 1
0.908583 0.176562 1
1 0.184436 1
0 0.259831 1
0.0643931 0.271427 1
0.164721 0.28307 1
0.300725 0.294804 1
0.472145 0.306584 1
0.657298 0.31841 1
0.806928 0.330251 1
0.921172 0.342061 1
1 0.353872 1
0 0.449882 1
0.0766155 0.465217 1
0.18938 0.480629 1
0.338048 0.496132 1
0.522286 0.511757 1
0.695033 0.527504 1
0.83212 0.543267 1
0.933761 0.55903 1
1 0.574777 1
0 0.665125 1
0.0887007 0.676555 1
0.213718 0.688029 1
0.374914 0.699535 1
0.57203 0.711131 1
0.732708 0.722835 1
0.857298 0.734661 1
0.946349 0.746487 1
1 0.758282 1
0 0.828641 1
0.100649 0.83624 1
0.237705 0.843854 1
0.435248 0.851469 1
0.620859 0.859098 1
0.769955 0.866773 1
0.882445 0.874571 1
0.958938 0.88246 1
1 0.890318 1
0 0.940307 1
0.112474 0.944106 1
0.284215 0.947906 1
0.494621 0.95169 1
0.668574 0.955489 1
0.806073 0.959289 1
0.907118 0.963088 1
0.971527 0.966964 1
1 0.970901 1
0 1 1
0.124224 1 1
0.354742 1 1
0.553368 1 1
0.715557 1 1
0.841306 1 1
0.930617 1 1
0.983536 1 1
1 1 1
