public/luts/creative_looks/Punch.cube
#Created by: Denver Riddle
#Copyright: (C) Copyright Color Grading Central LLC
#LUT Size
LUT_3D_SIZE 5
0 0 0
0.0840467 0 0
0.336187 0 0
0.752148 0 0
1 0 0
0 0.104356 0
0.127077 0.121874 0
0.516258 0.122988 0
0.878981 0.124788 0
1 0.131273 0
0 0.417426 0
0.164248 0.451621 0
0.508354 0.487511 0
0.884825 0.492424 0
1 0.491997 0
0 0.813077 0
0.213169 0.828748 0
0.562448 0.849897 0
0.88127 0.865644 0
1 0.869169 0
0 1 0
0.282322 1 0
0.657008 1 0
0.902235 1 0
1 1 0
0 0 0.0532998
0.0755474 0 0.068574
0.292805 0 0.0842756
0.65182 0 0.0999924
1 0 0.115709
0 0.108156 0.103578
0.128985 0.122988 0.112947
0.439399 0.133043 0.126497
0.80296 0.145373 0.139284
1 0.157671 0.151736
0 0.424887 0.151385
0.172747 0.455451 0.165072
0.511498 0.490181 0.128756
0.88719 0.491997 0.112886
1 0.494896 0.118318
0 0.8168 0.198474
0.219532 0.83209 0.211872
0.578943 0.849836 0.210224
0.882811 0.866987 0.145617
1 0.869215 0.117891
0 1 0.245396
0.29897 1 0.27602
0.677119 1 0.303166
0.907332 1 0.232761
1 1 0.162509
0 0 0.21323
0.080293 0 0.243214
0.302205 0 0.274311
0.665843 0 0.305699
1 0 0.337133
0 0.112459 0.314916
0.130571 0.127932 0.34432
0.40293 0.143679 0.375036
0.77232 0.159411 0.406455
1 0.175128 0.437903
0 0.432639 0.414313
0.178882 0.463004 0.444617
0.515984 0.491997 0.451835
0.856489 0.507576 0.477867
1 0.532189 0.505989
0 0.820554 0.510658
0.225559 0.835828 0.539788
0.597482 0.851087 0.566644
0.88452 0.868254 0.481636
1 0.869001 0.451484
0 1 0.605585
0.316808 1 0.633814
0.691005 1 0.660304
0.914809 1 0.647059
1 1 0.515038
0 0 0.479759
0.085008 0 0.524422
0.311696 0 0.570397
0.679973 0 0.617212
1 0 0.664271
0 0.117006 0.632471
0.135195 0.132555 0.676417
0.412406 0.148302 0.721553
0.77702 0.164065 0.7561
1 0.179797 0.771801
0 0.441047 0.761349
0.184466 0.47155 0.776318
0.513024 0.50251 0.791028
0.827375 0.534005 0.80647
1 0.565454 0.822187
0 0.824491 0.810742
0.231891 0.839673 0.825895
0.609506 0.854871 0.841001
0.887007 0.869001 0.83888
1 0.87483 0.850355
0 1 0.859083
0.335836 1 0.87393
0.702861 1 0.88838
0.924529 1 0.901122
1 1 0.85304
0 0 0.852918
0.0896925 0 0.912245
0.321187 0 0.972915
0.694194 0 1
1 0 1
0 0.121599 1
0.139818 0.137194 1
0.421851 0.152926 1
0.78175 0.168688 1
1 0.184436 1
0 0.449882 1
0.18938 0.480629 1
0.522286 0.511757 1
0.83212 0.543267 1
1 0.574777 1
0 0.828641 1
0.237705 0.843854 1
0.620859 0.859098 1
0.882445 0.874571 1
1 0.890318 1
0 1 1
0.354742 1 1
0.715557 1 1
0.930617 1 1
1 1 1
