public/luts/creative_looks/Stranger Things.cube
#Created by: Denver Riddle
#Copyright: (C) Copyright Color Grading Central LLC
#LUT Size
LUT_3D_SIZE 33
0.104997 0.104997 0.104997
0.104997 0.104997 0.104997
0.11368 0.104845 0.104845
0.122835 0.105013 0.105013
0.132265 0.10486 0.10486
0.143679 0.104356 0.104356
0.158846 0.102739 0.102739
0.178103 0.0999161 0.0999161
0.201022 0.0958572 0.0958572
0.227222 0.0911269 0.0911269
0.256062 0.0857404 0.0857404
0.287877 0.07953 0.07953
0.323583 0.0720684 0.0720684
0.362463 0.0640879 0.0640879
0.402289 0.0558938 0.0558938
0.439002 0.0486458 0.0486458
0.471305 0.0425269 0.0425269
0.499519 0.0379492 0.0379492
0.525765 0.0341192 0.0341192
0.549554 0.0307317 0.0307164
0.572671 0.0280613 0.0280613
0.595331 0.0259709 0.0259709
0.617395 0.0243076 0.0243076
0.639506 0.0230259 0.0230259
0.661692 0.0215305 0.0215305
0.684718 0.0203403 0.0203403
0.708492 0.0192416 0.0192416
0.732433 0.0184024 0.0184024
0.75613 0.0177768 0.0177768
0.778958 0.0170596 0.0170596
0.799283 0.0168154 0.0168154
0.817838 0.0166476 0.0166476
0.835462 0.0167086 0.0167086
0.104997 0.104997 0.104997
0.104997 0.104997 0.104997
0.113573 0.104845 0.104845
0.122713 0.105028 0.105028
0.132082 0.10486 0.10486
0.143435 0.104387 0.104387
0.158801 0.102754 0.102754
0.178225 0.0998856 0.0998856
0.200961 0.0958572 0.0958572
0.227161 0.0911421 0.0911421
0.256062 0.0857404 0.0857404
0.287877 0.07953 0.07953
0.323751 0.0720378 0.0720378
0.362722 0.0640421 0.0640421
0.402411 0.0558785 0.0558785
0.439139 0.0486152 0.0486152
0.471443 0.0425116 0.0425116
0.499626 0.0379339 0.0379339
0.525933 0.0341039 0.0341039
0.549844 0.0306859 0.0306859
0.572808 0.0280461 0.0280461
0.595438 0.0259556 0.0259556
0.617548 0.0242924 0.0242924
0.639643 0.0230259 0.0230259
0.661875 0.0215152 0.0215152
0.685023 0.020325 0.020325
0.708629 0.0192416 0.0192416
0.732631 0.0183871 0.0183871
0.756344 0.0177615 0.0177615
0.779126 0.0170748 0.0170748
0.80061 0.0176394 0.0176394
0.82092 0.019089 0.0187839
0.839475 0.0212406 0.0200504
0.104921 0.112902 0.104921
0.104921 0.112886 0.104921
0.112886 0.11281 0.104967
0.122454 0.113542 0.105303
0.132677 0.113008 0.105333
0.144884 0.111955 0.10338
0.161151 0.109957 0.100816
0.181491 0.106889 0.0976425
0.20531 0.102861 0.0937209
0.231876 0.0978408 0.0888533
0.261265 0.0923629 0.0835431
0.293553 0.0861524 0.0774395
0.330068 0.0789654 0.0703441
0.368902 0.0711223 0.0626078
0.408484 0.0635386 0.0551156
0.446036 0.0566262 0.0482032
0.478264 0.0508278 0.0425727
0.506874 0.0465858 0.0383917
0.533715 0.0435035 0.0352789
0.558694 0.0411688 0.0329747
0.582544 0.0395209 0.031342
0.605432 0.0379339 0.0298314
0.628016 0.0369726 0.0289158
0.65098 0.0363012 0.0281682
0.674403 0.035935 0.0278172
0.698604 0.0356451 0.027512
0.722774 0.035111 0.0269474
0.747387 0.0350805 0.0267491
0.772122 0.0352483 0.0267185
0.796368 0.035996 0.0272068
0.818265 0.0373388 0.0280308
0.839124 0.0394751 0.0294652
0.858869 0.0419623 0.0312657
0.105241 0.121416 0.105226
0.105241 0.121401 0.105226
0.11342 0.121828 0.104997
0.121187 0.12108 0.105043
0.131182 0.121904 0.104906
0.142809 0.121309 0.104723
0.160861 0.118639 0.102663
0.183734 0.114992 0.0988937
0.208759 0.110826 0.0944991
0.236011 0.106065 0.089128
0.26659 0.100862 0.0832532
0.299886 0.0950942 0.0771954
0.336812 0.0882429 0.0702678
0.376745 0.0806744 0.0630198
0.417121 0.073518 0.0556954
0.454902 0.067216 0.0495003
0.488853 0.0626535 0.0451972
0.518959 0.0591745 0.0416266
0.54612 0.0567788 0.0392767
0.571557 0.0548867 0.0374456
0.596307 0.0540017 0.0365606
0.620096 0.053315 0.0359197
0.643961 0.0532235 0.0357366
0.667475 0.0531777 0.0357061
0.691432 0.0532692 0.0357671
0.716243 0.0537881 0.0362402
0.74136 0.0541085 0.0365454
0.7664 0.054551 0.0369421
0.791989 0.0553445 0.0376745
0.817121 0.0568551 0.0389715
0.84007 0.0589609 0.040528
0.861494 0.0617685 0.0426184
0.881514 0.064744 0.0448768
0.104952 0.129839 0.104936
0.104952 0.129839 0.104936
0.1131 0.130419 0.104768
0.121736 0.130617 0.104738
0.129809 0.129641 0.104906
0.142061 0.130541 0.104509
0.157397 0.129168 0.102998
0.178546 0.126482 0.100984
0.209018 0.121553 0.0958114
0.241093 0.115969 0.0908217
0.274281 0.110491 0.0859083
0.310079 0.104891 0.0804303
0.348516 0.0986801 0.0738537
0.389181 0.0924544 0.0669871
0.429496 0.0860609 0.0601663
0.467887 0.0809491 0.0543832
0.501961 0.0770275 0.0504311
0.532982 0.0744945 0.0474403
0.560876 0.0728771 0.045655
0.586954 0.0716869 0.0444038
0.612253 0.0713512 0.044007
0.637049 0.0715038 0.0440375
0.661448 0.0720226 0.0447395
0.685847 0.0727092 0.0455024
0.710536 0.0733959 0.0461738
0.735805 0.0740978 0.0467536
0.761944 0.075227 0.0475776
0.788037 0.0765393 0.0488289
0.814313 0.0782177 0.0506752
0.839658 0.0800641 0.0523384
0.863157 0.0826276 0.0540322
0.885435 0.0860456 0.0566873
0.906065 0.0897993 0.0591592
0.103532 0.139086 0.103517
0.103532 0.139086 0.103517
0.111864 0.139986 0.103517
0.120668 0.140581 0.1037
0.13022 0.141054 0.104234
0.139513 0.139315 0.10428
0.156435 0.140169 0.10338
0.177279 0.139147 0.101686
0.201343 0.136797 0.0991531
0.235203 0.132494 0.0940719
0.27538 0.12639 0.0883192
0.315862 0.119982 0.0833448
0.358679 0.113313 0.0775158
0.403113 0.106844 0.0716106
0.446128 0.100923 0.0662242
0.485084 0.0968032 0.0616464
0.519371 0.0936294 0.0579385
0.549661 0.0918135 0.0556344
0.577951 0.0912642 0.0542458
0.604562 0.0912032 0.0534371
0.630213 0.0915236 0.0531319
0.65536 0.0922103 0.0534066
0.680385 0.0934005 0.0540322
0.705425 0.094667 0.0552529
0.731029 0.0961013 0.0564279
0.757183 0.0975814 0.0576486
0.783825 0.0991989 0.0588693
0.810758 0.10135 0.0608835
0.837415 0.103471 0.0628367
0.863462 0.105837 0.0649271
0.887633 0.10898 0.067155
0.910048 0.112932 0.0696574
0.930968 0.117357 0.0725872
0.10045 0.14995 0.100328
0.100435 0.149996 0.100313
0.108797 0.151308 0.100572
0.11751 0.152697 0.101045
0.127672 0.154452 0.1019
0.139223 0.154177 0.102525
0.148531 0.148028 0.103334
0.174838 0.153964 0.102159
0.201221 0.153903 0.10042
0.230015 0.151827 0.0980392
0.263828 0.148806 0.0941939
0.307866 0.142763 0.0869764
0.358206 0.134966 0.0801709
0.408133 0.127825 0.074464
0.4551 0.121645 0.0695964
0.497185 0.117067 0.065919
0.533974 0.114458 0.0639048
0.565667 0.113008 0.0627146
0.594842 0.112612 0.0621653
0.622507 0.113191 0.0621653
0.649195 0.114794 0.0629282
0.674617 0.116304 0.0634775
0.699611 0.117922 0.0643931
0.724987 0.119783 0.0652628
0.751369 0.122103 0.0663005
0.778073 0.124239 0.0678874
0.805356 0.126528 0.0694591
0.83241 0.128893 0.0711681
0.85951 0.131365 0.0730907
0.88603 0.134417 0.0754253
0.911437 0.138766 0.0785229
0.933471 0.143343 0.0809186
0.954543 0.14818 0.0837873
0.0967727 0.159747 0.0966201
0.0967727 0.159747 0.0966201
0.104158 0.165026 0.0960555
0.113817 0.167803 0.0974441
0.124636 0.170718 0.0991379
0.137514 0.172869 0.100725
0.151522 0.170199 0.101457
0.159411 0.158755 0.102647
0.195407 0.170535 0.100603
0.228321 0.172488 0.0988022
0.261707 0.171221 0.0967422
0.297581 0.168826 0.0937362
0.341878 0.16405 0.0873579
0.396963 0.156786 0.0783856
0.452155 0.149294 0.072221
0.499763 0.143771 0.0685435
0.539651 0.14078 0.0669566
0.574456 0.139788 0.0668956
0.605905 0.139574 0.067216
0.635203 0.140459 0.0686046
0.663264 0.141772 0.0702983
0.690227 0.143648 0.0720073
0.716793 0.14583 0.0734417
0.743709 0.14844 0.0753796
0.770367 0.150988 0.0768749
0.797909 0.15404 0.0786755
0.825559 0.156909 0.0802319
0.852903 0.160067 0.0820325
0.880415 0.163241 0.0842451
0.907546 0.167254 0.0864271
0.932937 0.172122 0.0894942
0.955489 0.177874 0.0928206
0.97702 0.183932 0.0962387
0.0933089 0.170733 0.0931106
0.0933089 0.170748 0.0930953
0.100465 0.177188 0.0931106
0.109499 0.184665 0.0937667
0.120745 0.189776 0.0956588
0.134371 0.193988 0.0978866
0.151232 0.195254 0.0991226
0.16817 0.190463 0.0999619
0.171084 0.170413 0.101396
0.216922 0.188922 0.0990616
0.257099 0.194369 0.0974441
0.296483 0.194553 0.0950484
0.337209 0.192325 0.0924239
0.382147 0.188754 0.0878614
0.433417 0.18378 0.0805371
0.486168 0.178195 0.07364
0.533608 0.174136 0.0702983
0.573449 0.172091 0.0698558
0.608515 0.171954 0.0713054
0.640391 0.172641 0.0731975
0.670085 0.17409 0.0752422
0.698894 0.175891 0.0777752
0.727565 0.178668 0.080293
0.756085 0.181399 0.0832532
0.784741 0.184421 0.0856641
0.813825 0.187549 0.0883955
0.842298 0.190784 0.0906386
0.87155 0.194888 0.0934615
0.90016 0.199359 0.096376
0.92781 0.204044 0.0992447
0.952499 0.209293 0.102281
0.975219 0.215824 0.105592
0.996612 0.222339 0.108904
0.0893416 0.183764 0.0891737
0.0893263 0.183795 0.0891585
0.0962387 0.189471 0.089601
0.105562 0.197345 0.0908827
0.11635 0.208011 0.0924086
0.130358 0.216403 0.0944686
0.148287 0.220539 0.096437
0.16968 0.221241 0.0977798
0.187411 0.212451 0.0989242
0.186496 0.18587 0.100237
0.239597 0.208927 0.0978866
0.289586 0.219913 0.0953841
0.335729 0.221592 0.0933089
0.380957 0.219715 0.090425
0.426032 0.217258 0.0876478
0.469795 0.215427 0.084184
0.513283 0.213489 0.0806134
0.555535 0.211994 0.0783703
0.595926 0.21088 0.0777752
0.633127 0.210849 0.078645
0.667338 0.212039 0.080827
0.698985 0.214038 0.083299
0.729976 0.216373 0.0863661
0.7608 0.219806 0.0897993
0.791714 0.223224 0.0933394
0.822812 0.226902 0.0968338
0.85362 0.230915 0.100328
0.883955 0.234913 0.103593
0.913863 0.239353 0.106981
0.942397 0.24448 0.110887
0.968246 0.250462 0.114626
0.990539 0.256764 0.117556
1 0.263737 0.120623
0.0852674 0.199832 0.0851453
0.0852369 0.199954 0.0851148
0.0920729 0.205951 0.0857404
0.101045 0.213657 0.0869459
0.111955 0.224506 0.0891737
0.125704 0.238849 0.0911116
0.144579 0.2477 0.0934005
0.167758 0.251881 0.0951095
0.192828 0.251514 0.0961166
0.210773 0.239277 0.0971542
0.210864 0.21001 0.0986496
0.26923 0.235462 0.0963302
0.327718 0.249775 0.0938888
0.377951 0.251804 0.0910048
0.426017 0.251545 0.0887465
0.468803 0.250904 0.0878004
0.507378 0.251225 0.0878004
0.542443 0.252659 0.0884871
0.576974 0.2542 0.0895399
0.612528 0.255619 0.0909285
0.648768 0.257374 0.0927901
0.684291 0.25919 0.0948196
0.719951 0.261921 0.0976883
0.75433 0.264866 0.100389
0.788205 0.268055 0.103563
0.822278 0.271931 0.106752
0.854948 0.275731 0.109941
0.887327 0.279652 0.113405
0.918578 0.283955 0.116915
0.948837 0.288746 0.120699
0.974685 0.294179 0.124178
0.997238 0.300496 0.127275
1 0.30721 0.130251
0.0794232 0.223957 0.0793164
0.0793622 0.224125 0.0792554
0.0865492 0.230442 0.0801862
0.0961166 0.238346 0.0822919
0.107591 0.249302 0.0851453
0.121111 0.263127 0.0872969
0.14023 0.27776 0.0895552
0.164065 0.283619 0.0919509
0.191165 0.286824 0.0934615
0.219669 0.285481 0.0944381
0.238025 0.268849 0.0953078
0.23888 0.237613 0.0966964
0.302861 0.265064 0.0944686
0.369177 0.282795 0.0912642
0.421225 0.286336 0.0892042
0.468513 0.288701 0.0886549
0.508125 0.289784 0.0892195
0.542992 0.29221 0.0911727
0.575555 0.296208 0.0941482
0.606607 0.30013 0.0979934
0.637293 0.304128 0.102358
0.66923 0.307988 0.107134
0.702129 0.311543 0.111772
0.736599 0.314961 0.115938
0.772076 0.318654 0.119631
0.807446 0.321859 0.122255
0.842206 0.324819 0.124498
0.876341 0.328405 0.127062
0.909606 0.332006 0.12958
0.940902 0.335958 0.132128
0.967407 0.341161 0.134722
0.989929 0.346456 0.137102
1 0.352422 0.139284
0.0735485 0.251942 0.0734417
0.0735332 0.251987 0.0734264
0.0811017 0.25835 0.0746777
0.0911879 0.266407 0.077348
0.10219 0.277302 0.0799268
0.116533 0.291386 0.0835279
0.135454 0.307286 0.0856336
0.159365 0.318105 0.0875257
0.186999 0.322911 0.0895705
0.217914 0.325292 0.0911727
0.249271 0.322515 0.0921035
0.268513 0.302495 0.0936751
0.270436 0.268894 0.0952163
0.339101 0.297276 0.0920882
0.411612 0.319677 0.0886854
0.462547 0.325994 0.0882124
0.507897 0.332006 0.0899214
0.544015 0.335912 0.0923171
0.576944 0.339864 0.0956741
0.608026 0.344793 0.0999008
0.63798 0.350027 0.104417
0.667109 0.354986 0.109102
0.696818 0.359899 0.11458
0.727321 0.364675 0.120607
0.75874 0.368551 0.126589
0.791363 0.372015 0.131868
0.824079 0.375036 0.136202
0.85713 0.378149 0.140047
0.88893 0.381277 0.142657
0.919493 0.384436 0.144869
0.944945 0.388693 0.146471
0.966857 0.393591 0.148272
0.986145 0.399145 0.14992
0.066331 0.282872 0.0662547
0.066331 0.282948 0.0662394
0.0746624 0.289494 0.0681621
0.0847791 0.298009 0.0708934
0.0966354 0.309438 0.0743877
0.110338 0.322667 0.0775616
0.128862 0.338094 0.0803845
0.153674 0.354726 0.0825513
0.182269 0.361425 0.0854047
0.21416 0.36611 0.0870832
0.248371 0.367666 0.0882277
0.283131 0.36466 0.0891585
0.306493 0.345388 0.0901656
0.314122 0.312444 0.0922255
0.381384 0.336019 0.0888228
0.456413 0.364645 0.0878157
0.502434 0.372534 0.0895094
0.543084 0.380926 0.0926986
0.577813 0.386877 0.0963302
0.608789 0.391638 0.100603
0.6383 0.396246 0.104738
0.66656 0.401465 0.108766
0.694728 0.406958 0.113375
0.723049 0.411917 0.118074
0.752071 0.415885 0.122881
0.78233 0.419242 0.128023
0.812909 0.422019 0.132982
0.842893 0.42472 0.137911
0.872709 0.427161 0.142718
0.900954 0.429679 0.14638
0.924407 0.432975 0.148623
0.944976 0.437217 0.150622
0.962783 0.441794 0.151568
0.057847 0.318105 0.0577707
0.0578317 0.318196 0.0577707
0.0666819 0.324666 0.06009
0.0775311 0.33373 0.0635386
0.0900587 0.344793 0.0678569
0.104067 0.358114 0.071458
0.122774 0.373312 0.0751049
0.147768 0.390265 0.0779431
0.178485 0.403784 0.0816358
0.211673 0.409613 0.0848096
0.248386 0.414511 0.0867781
0.287266 0.416724 0.0880903
0.326253 0.412802 0.0887312
0.361395 0.403098 0.0882124
0.371481 0.368978 0.0882124
0.428229 0.382696 0.0874037
0.499657 0.415381 0.0895705
0.539849 0.423484 0.0924086
0.575051 0.43064 0.0958114
0.608652 0.438148 0.100389
0.637888 0.442939 0.10399
0.665675 0.44741 0.10779
0.692897 0.451652 0.111376
0.719387 0.455726 0.114931
0.74641 0.459693 0.118486
0.773617 0.462989 0.121935
0.801633 0.465583 0.124865
0.829892 0.467308 0.128435
0.858595 0.468788 0.132082
0.885863 0.470466 0.135515
0.909667 0.473289 0.138628
0.928756 0.476417 0.139956
0.946136 0.480156 0.140612
0.0479591 0.366491 0.0477455
0.0479133 0.366735 0.0476844
0.0587472 0.372457 0.0515908
0.0708629 0.379049 0.0564126
0.0841688 0.387121 0.0617838
0.099382 0.398291 0.0666667
0.119265 0.41355 0.071519
0.146075 0.431006 0.0769665
0.179278 0.449012 0.0818341
0.213718 0.455894 0.085771
0.250309 0.459693 0.0886244
0.29131 0.464347 0.0907301
0.33492 0.465995 0.0913558
0.377447 0.462348 0.0911269
0.415106 0.454978 0.089601
0.437522 0.434638 0.0886091
0.485008 0.443061 0.0894179
0.539254 0.465858 0.0932479
0.575494 0.474434 0.0963455
0.607553 0.480461 0.0999008
0.637598 0.485969 0.103395
0.664683 0.489723 0.106645
0.690867 0.492912 0.109545
0.716548 0.49601 0.112337
0.742031 0.498711 0.114656
0.76788 0.501518 0.116686
0.793698 0.5037 0.118502
0.819577 0.505287 0.120333
0.845624 0.506401 0.122332
0.871412 0.508019 0.124605
0.893797 0.509773 0.126467
0.912612 0.512749 0.127459
0.930083 0.515602 0.128038
0.0441138 0.419028 0.0436713
0.0441291 0.41915 0.0436713
0.0562753 0.425483 0.0484627
0.0697185 0.43299 0.0544137
0.0840314 0.441215 0.0607767
0.100938 0.450034 0.0672618
0.121935 0.459754 0.073228
0.148379 0.472038 0.0792248
0.182513 0.489403 0.085771
0.221225 0.503166 0.091722
0.258061 0.506966 0.0943618
0.297948 0.509148 0.0963607
0.342687 0.511345 0.0969558
0.388296 0.511254 0.0964981
0.431006 0.508309 0.0954452
0.468162 0.503151 0.0942855
0.499565 0.496361 0.0937819
0.540658 0.505196 0.0956283
0.577935 0.514763 0.0984817
0.608484 0.519326 0.101152
0.636561 0.522927 0.103319
0.663661 0.526299 0.105989
0.68957 0.529488 0.108476
0.714366 0.531685 0.110262
0.739391 0.533715 0.111986
0.763928 0.535195 0.113237
0.78883 0.536538 0.114244
0.813504 0.53817 0.115404
0.838132 0.539528 0.11635
0.86186 0.540749 0.11725
0.882704 0.542458 0.118105
0.901015 0.545037 0.118746
0.917952 0.547494 0.119265
0.0501717 0.473564 0.0492866
0.0502174 0.473671 0.0493324
0.06392 0.481163 0.0552529
0.0783246 0.489387 0.06215
0.0941939 0.498268 0.0695659
0.112566 0.507973 0.0769818
0.134417 0.516442 0.0835126
0.161074 0.524742 0.0895552
0.191867 0.53286 0.0945602
0.229755 0.544427 0.100084
0.269322 0.551278 0.103563
0.309316 0.553368 0.104768
0.352819 0.553689 0.104738
0.398093 0.552895 0.103655
0.442405 0.550988 0.102373
0.482033 0.548653 0.100984
0.516091 0.545373 0.100206
0.544884 0.542138 0.0999619
0.577569 0.546365 0.101061
0.609812 0.552911 0.102983
0.637491 0.556374 0.104738
0.663249 0.558511 0.106416
0.688533 0.561013 0.107927
0.713405 0.563119 0.109178
0.737636 0.564477 0.110338
0.762234 0.565698 0.111513
0.786892 0.566537 0.112261
0.811002 0.567376 0.112871
0.834684 0.568399 0.113344
0.857542 0.569741 0.113954
0.877302 0.571328 0.114092
0.894545 0.57351 0.114137
0.911452 0.576089 0.114778
0.0649119 0.529137 0.0634623
0.0649577 0.529259 0.063508
0.0799573 0.537469 0.0704662
0.095079 0.546334 0.0779278
0.111009 0.555062 0.0852064
0.129229 0.563424 0.0921035
0.151858 0.571023 0.0983902
0.178622 0.577554 0.103685
0.208576 0.582727 0.107637
0.242695 0.587488 0.110506
0.280308 0.591043 0.112856
0.319371 0.591928 0.113527
0.361959 0.591363 0.11284
0.406744 0.589715 0.11075
0.450904 0.587488 0.108644
0.490761 0.58497 0.106783
0.525856 0.583261 0.105577
0.556329 0.581857 0.104967
0.581476 0.578744 0.104585
0.609354 0.580758 0.10486
0.638148 0.58529 0.105913
0.664225 0.588342 0.107088
0.688457 0.589807 0.108049
0.712627 0.591302 0.109133
0.73698 0.592584 0.109957
0.761212 0.593469 0.110628
0.78558 0.594079 0.111086
0.80975 0.594934 0.111589
0.833036 0.595315 0.111742
0.855543 0.596063 0.112016
0.875044 0.597543 0.112062
0.892226 0.599664 0.112184
0.908171 0.602075 0.112276
0.0806134 0.576043 0.0788739
0.0806439 0.576135 0.0789044
0.0955978 0.58378 0.0856489
0.109773 0.591211 0.0922713
0.125017 0.598413 0.0990768
0.142336 0.605219 0.10486
0.164065 0.611261 0.110002
0.190234 0.616434 0.114565
0.219928 0.620905 0.117662
0.253178 0.624018 0.119875
0.288716 0.625864 0.120668
0.327047 0.625742 0.120363
0.368917 0.624201 0.119097
0.412985 0.621897 0.116716
0.457145 0.619226 0.113878
0.497093 0.61677 0.111192
0.531426 0.614618 0.109163
0.561837 0.613413 0.108522
0.589426 0.61265 0.108019
0.613825 0.61088 0.108049
0.639399 0.612375 0.107851
0.664698 0.614969 0.108141
0.689799 0.617395 0.108858
0.713375 0.618296 0.109407
0.737255 0.619348 0.110231
0.760906 0.61973 0.11046
0.785092 0.620142 0.110536
0.808835 0.620584 0.110872
0.832029 0.620691 0.110872
0.854353 0.621012 0.110887
0.874022 0.622492 0.111086
0.89099 0.624079 0.110994
0.906905 0.626596 0.110933
0.0949874 0.618128 0.0931258
0.0951247 0.618555 0.0932631
0.109651 0.625299 0.099382
0.123049 0.631876 0.105623
0.137575 0.638285 0.111315
0.154482 0.643885 0.116472
0.175509 0.648356 0.120836
0.200214 0.651896 0.123674
0.228656 0.654368 0.125658
0.260884 0.656214 0.126879
0.296223 0.657511 0.127443
0.334127 0.657191 0.126467
0.374716 0.654429 0.12401
0.418265 0.650996 0.121035
0.460929 0.647456 0.117647
0.500648 0.644709 0.114885
0.535836 0.642985 0.112886
0.56611 0.641825 0.111635
0.593362 0.640818 0.110796
0.619074 0.640681 0.110231
0.642664 0.639918 0.109941
0.667155 0.641154 0.109865
0.691035 0.642817 0.109804
0.714427 0.6439 0.11014
0.737636 0.64419 0.110353
0.761288 0.644724 0.110613
0.784863 0.644648 0.110445
0.808454 0.644846 0.110552
0.831525 0.644892 0.110475
0.85391 0.645182 0.110384
0.873457 0.646448 0.110536
0.890211 0.64799 0.110201
0.905959 0.649851 0.11014
0.108309 0.657542 0.10634
0.108339 0.657603 0.106355
0.122469 0.663783 0.112123
0.134813 0.669261 0.116869
0.14844 0.674357 0.121843
0.164538 0.679057 0.125948
0.185046 0.682841 0.129503
0.208972 0.685039 0.131319
0.236622 0.686152 0.132372
0.267628 0.68658 0.132738
0.301503 0.686091 0.132082
0.338689 0.685161 0.130846
0.379812 0.682521 0.127993
0.422446 0.678325 0.124178
0.465217 0.674327 0.121019
0.504143 0.671046 0.117784
0.538811 0.668925 0.115694
0.569329 0.668025 0.114488
0.59675 0.667231 0.113375
0.622003 0.666606 0.112474
0.645884 0.666239 0.11191
0.669047 0.66598 0.111879
0.692042 0.666651 0.111467
0.715007 0.667582 0.110903
0.738262 0.668162 0.110719
0.761685 0.668437 0.110887
0.785077 0.668238 0.110613
0.808316 0.668254 0.110521
0.831403 0.66836 0.110506
0.853727 0.668452 0.110185
0.873045 0.669581 0.110231
0.889845 0.67097 0.109941
0.90573 0.673106 0.110033
0.118563 0.692775 0.116289
0.118563 0.692775 0.116289
0.131975 0.698146 0.121386
0.143801 0.702983 0.125612
0.156771 0.707393 0.129809
0.172244 0.711055 0.132967
0.191974 0.713603 0.135531
0.215671 0.715053 0.13698
0.243183 0.715892 0.137789
0.273625 0.715343 0.137346
0.306874 0.714076 0.135973
0.343328 0.71191 0.133791
0.383978 0.708873 0.131167
0.426108 0.704433 0.127108
0.468071 0.699779 0.123415
0.50724 0.696315 0.120302
0.541543 0.693889 0.117968
0.571435 0.692393 0.116243
0.598627 0.691585 0.115434
0.623789 0.69099 0.114549
0.648127 0.690837 0.113863
0.670985 0.690501 0.11313
0.693385 0.690242 0.113024
0.71574 0.690455 0.112261
0.738628 0.690791 0.111315
0.76199 0.691341 0.111101
0.785504 0.691295 0.110918
0.808606 0.691203 0.11075
0.831632 0.69131 0.110536
0.853635 0.691234 0.11014
0.872831 0.69221 0.110124
0.889906 0.69366 0.110033
0.905516 0.695628 0.109941
0.126009 0.7243 0.123507
0.126177 0.724361 0.123552
0.138735 0.728847 0.127871
0.14995 0.733074 0.131502
0.162417 0.737041 0.135134
0.177615 0.739986 0.137942
0.19733 0.742016 0.13994
0.220645 0.742855 0.140826
0.247654 0.74284 0.140932
0.278035 0.741894 0.140124
0.311177 0.740261 0.138796
0.3467 0.737484 0.13637
0.386526 0.733593 0.133074
0.428611 0.72903 0.129198
0.470527 0.724392 0.125307
0.509194 0.720638 0.122011
0.543389 0.717861 0.119768
0.572992 0.716014 0.117906
0.59997 0.71516 0.116869
0.625116 0.714565 0.115938
0.649042 0.714351 0.115419
0.672389 0.714305 0.114534
0.694636 0.713954 0.113497
0.716731 0.71368 0.113375
0.739254 0.713619 0.112474
0.762249 0.713787 0.111528
0.785428 0.713802 0.110796
0.808637 0.713893 0.110475
0.831479 0.713832 0.110323
0.853559 0.713817 0.110033
0.872862 0.714885 0.110262
0.88957 0.716243 0.109895
0.905425 0.71812 0.109957
0.130953 0.752743 0.128527
0.131319 0.752819 0.128603
0.143725 0.757076 0.132311
0.153918 0.760494 0.135546
0.166339 0.763668 0.138567
0.181323 0.766369 0.141238
0.200381 0.767849 0.142733
0.223835 0.768658 0.143679
0.25066 0.7682 0.143313
0.280537 0.766781 0.142184
0.313298 0.764797 0.140612
0.348821 0.761669 0.137972
0.388281 0.757443 0.13431
0.430335 0.753017 0.130556
0.47219 0.748165 0.126329
0.510201 0.744137 0.122957
0.544228 0.741238 0.120699
0.573739 0.739269 0.118914
0.600549 0.738338 0.117784
0.625589 0.737652 0.116762
0.649729 0.737514 0.116152
0.672694 0.737133 0.11548
0.694987 0.736873 0.114549
0.717525 0.73698 0.113817
0.739803 0.736599 0.113405
0.762814 0.736477 0.112352
0.785763 0.736431 0.11107
0.808759 0.736477 0.110521
0.831373 0.736431 0.110262
0.853437 0.7364 0.109957
0.872496 0.737499 0.109957
0.889372 0.73904 0.109651
0.905364 0.741054 0.109926
0.134447 0.779446 0.131487
0.135271 0.779858 0.131731
0.146578 0.783642 0.13518
0.156786 0.786694 0.137957
0.168536 0.789349 0.140734
0.183612 0.79173 0.143099
0.202518 0.793027 0.144503
0.225864 0.793362 0.144839
0.252567 0.79266 0.144457
0.282094 0.790875 0.143038
0.314595 0.788586 0.141192
0.349966 0.78529 0.138384
0.389502 0.781048 0.134813
0.431571 0.77641 0.130709
0.472557 0.77142 0.126223
0.51046 0.767132 0.122881
0.544228 0.764279 0.120638
0.573892 0.762478 0.119036
0.60087 0.761532 0.11812
0.625757 0.760662 0.117067
0.64947 0.76022 0.116289
0.672496 0.759854 0.115679
0.694926 0.759808 0.115175
0.717418 0.759762 0.114412
0.739864 0.759609 0.113252
0.763134 0.759564 0.112917
0.785901 0.759182 0.111513
0.808896 0.759258 0.110567
0.831189 0.759167 0.10985
0.853086 0.759213 0.109545
0.872358 0.760449 0.109651
0.889128 0.76199 0.109331
0.90515 0.764279 0.109728
0.136416 0.805417 0.133211
0.137285 0.805692 0.133516
0.148363 0.809186 0.13669
0.158175 0.811856 0.139162
0.169772 0.814359 0.141756
0.184619 0.81648 0.143771
0.203845 0.8177 0.144991
0.226627 0.817517 0.145083
0.253422 0.816587 0.144549
0.282902 0.814618 0.143023
0.315053 0.812116 0.14078
0.350912 0.80885 0.138277
0.390082 0.804334 0.134188
0.43183 0.799313 0.130251
0.472724 0.794324 0.125734
