public/luts/creative_looks/Stranger Things.cube
#Created by: Denver Riddle
#Copyright: (C) Copyright Color Grading Central LLC
#LUT Size
LUT_3D_SIZE 5
0.104997 0.104997 0.104997
0.201022 0.0958572 0.0958572
0.471305 0.0425269 0.0425269
0.661692 0.0215305 0.0215305
0.835462 0.0167086 0.0167086
0.0933089 0.170733 0.0931106
0.171084 0.170413 0.101396
0.533608 0.174136 0.0702983
0.784741 0.184421 0.0856641
0.996612 0.222339 0.108904
0.0441138 0.419028 0.0436713
0.182513 0.489403 0.085771
0.499565 0.496361 0.0937819
0.739391 0.533715 0.111986
0.917952 0.547494 0.119265
0.130953 0.752743 0.128527
0.25066 0.7682 0.143313
0.544228 0.741238 0.120699
0.739803 0.736599 0.113405
0.905364 0.741054 0.109926
0.139727 0.940398 0.135515
0.276371 0.946395 0.143145
0.566201 0.917983 0.120607
0.758465 0.915373 0.119402
0.919966 0.915541 0.114046
0.104036 0.104067 0.170138
0.192218 0.0945296 0.19234
0.447776 0.0465248 0.141756
0.642054 0.0294194 0.128725
0.815885 0.0293278 0.13933
0.0965744 0.166796 0.165759
0.191989 0.191913 0.192004
0.496452 0.176776 0.178164
0.74818 0.202899 0.202899
0.964263 0.246937 0.246937
0.0561379 0.444999 0.147814
0.197131 0.502464 0.196979
0.522652 0.510323 0.229236
0.750256 0.539986 0.224033
0.933379 0.547768 0.259602
0.133043 0.754162 0.235203
0.25597 0.772503 0.252781
0.547311 0.744717 0.227634
0.74342 0.740154 0.22417
0.908919 0.744732 0.222553
0.13753 0.941238 0.264286
0.279667 0.949279 0.274556
0.568917 0.920668 0.24828
0.76051 0.918059 0.244343
0.919173 0.914916 0.242374
0.105394 0.105348 0.104555
0.15169 0.0951858 0.297963
0.432105 0.0332189 0.430976
0.601541 0.0218357 0.397284
0.807523 0.0234531 0.448692
0.102388 0.140047 0.177279
0.161898 0.161776 0.380011
0.497993 0.185595 0.499504
0.703243 0.196231 0.500313
0.94432 0.260334 0.584543
0.073991 0.298222 0.281041
0.171725 0.451347 0.47866
0.51989 0.519768 0.519875
0.744228 0.528832 0.531044
0.920775 0.542458 0.546288
0.121157 0.706752 0.523568
0.230976 0.748928 0.571633
0.54963 0.729244 0.576776
0.739208 0.726284 0.559197
0.906157 0.731823 0.544854
0.126741 0.922118 0.590356
0.258961 0.936553 0.596063
0.560952 0.910445 0.558724
0.750195 0.905852 0.560891
0.903395 0.897597 0.610925
0.105638 0.105486 0
0.135164 0.106432 0.120256
0.310384 0.0545052 0.492821
0.629984 0.0226139 0.627253
0.806363 0.0265202 0.648157
0.106065 0.125216 0.0470893
0.130175 0.13022 0.227665
0.360769 0.140764 0.588739
0.740856 0.219959 0.7458
0.952575 0.27068 0.793103
0.0863813 0.215366 0.135058
0.123415 0.272618 0.498909
0.46656 0.46569 0.729397
0.738293 0.533761 0.742794
0.908644 0.545174 0.747494
0.090837 0.573495 0.536248
0.166629 0.65156 0.721279
0.490715 0.71136 0.772778
0.729931 0.729824 0.7299
0.902556 0.733181 0.73434
0.127977 0.912978 0.778454
0.214542 0.920012 0.853849
0.535897 0.902327 0.795621
0.745037 0.903441 0.74493
0.898665 0.89044 0.788098
0.106737 0.106294 0
0.132937 0.107301 0.0421912
0.296727 0.0623484 0.435187
0.582727 0.0312657 0.686915
0.822889 0.0383917 0.818265
0.106645 0.12636 0
0.123812 0.123857 0.0797589
0.26302 0.114855 0.511833
0.670787 0.174487 0.815473
0.965942 0.279896 0.973114
0.0777142 0.220203 0.0577859
0.111192 0.217227 0.280324
0.243885 0.243977 0.68687
0.723323 0.465736 0.955962
0.908965 0.541878 0.924804
0.0957961 0.600381 0.492485
0.121218 0.567956 0.707164
0.26804 0.622141 0.935195
0.695659 0.695598 0.96408
0.897505 0.735073 0.905074
0.127443 0.911254 0.863416
0.173327 0.908125 1
0.402899 0.891646 1
0.720958 0.890059 0.982742
0.891661 0.891539 0.891661
