public/luts/creative_looks/Stranger Things.cube
#Created by: Denver Riddle
#Copyright: (C) Copyright Color Grading Central LLC
#LUT Size
LUT_3D_SIZE 9
0.104997 0.104997 0.104997
0.132265 0.10486 0.10486
0.201022 0.0958572 0.0958572
0.323583 0.0720684 0.0720684
0.471305 0.0425269 0.0425269
0.572671 0.0280613 0.0280613
0.661692 0.0215305 0.0215305
0.75613 0.0177768 0.0177768
0.835462 0.0167086 0.0167086
0.104952 0.129839 0.104936
0.129809 0.129641 0.104906
0.209018 0.121553 0.0958114
0.348516 0.0986801 0.0738537
0.501961 0.0770275 0.0504311
0.612253 0.0713512 0.044007
0.710536 0.0733959 0.0461738
0.814313 0.0782177 0.0506752
0.906065 0.0897993 0.0591592
0.0933089 0.170733 0.0931106
0.120745 0.189776 0.0956588
0.171084 0.170413 0.101396
0.337209 0.192325 0.0924239
0.533608 0.174136 0.0702983
0.670085 0.17409 0.0752422
0.784741 0.184421 0.0856641
0.90016 0.199359 0.096376
0.996612 0.222339 0.108904
0.0735485 0.251942 0.0734417
0.10219 0.277302 0.0799268
0.186999 0.322911 0.0895705
0.270436 0.268894 0.0952163
0.507897 0.332006 0.0899214
0.63798 0.350027 0.104417
0.75874 0.368551 0.126589
0.88893 0.381277 0.142657
0.986145 0.399145 0.14992
0.0441138 0.419028 0.0436713
0.0840314 0.441215 0.0607767
0.182513 0.489403 0.085771
0.342687 0.511345 0.0969558
0.499565 0.496361 0.0937819
0.636561 0.522927 0.103319
0.739391 0.533715 0.111986
0.838132 0.539528 0.11635
0.917952 0.547494 0.119265
0.0949874 0.618128 0.0931258
0.137575 0.638285 0.111315
0.228656 0.654368 0.125658
0.374716 0.654429 0.12401
0.535836 0.642985 0.112886
0.642664 0.639918 0.109941
0.737636 0.64419 0.110353
0.831525 0.644892 0.110475
0.905959 0.649851 0.11014
0.130953 0.752743 0.128527
0.166339 0.763668 0.138567
0.25066 0.7682 0.143313
0.388281 0.757443 0.13431
0.544228 0.741238 0.120699
0.649729 0.737514 0.116152
0.739803 0.736599 0.113405
0.831373 0.736431 0.110262
0.905364 0.741054 0.109926
0.138247 0.854185 0.134905
0.171359 0.862287 0.142702
0.254826 0.862974 0.144366
0.391394 0.849607 0.133135
0.544198 0.832731 0.119478
0.649317 0.828931 0.117174
0.740505 0.829023 0.115694
0.833143 0.829114 0.112947
0.906004 0.834241 0.109865
0.139727 0.940398 0.135515
0.182055 0.948638 0.143771
0.276371 0.946395 0.143145
0.422477 0.931685 0.131167
0.566201 0.917983 0.120607
0.667384 0.915648 0.120455
0.758465 0.915373 0.119402
0.849821 0.914214 0.116075
0.919966 0.915541 0.114046
0.104982 0.105028 0.12932
0.13106 0.105226 0.131106
0.195727 0.0970474 0.122805
0.314626 0.0744488 0.100252
0.458412 0.0464485 0.0724193
0.560357 0.0328222 0.0589456
0.649409 0.0272526 0.0541238
0.744076 0.0243076 0.0519265
0.823117 0.0248417 0.055314
0.105043 0.129763 0.129641
0.130312 0.130282 0.130327
0.199771 0.123186 0.123186
0.32874 0.104524 0.104524
0.484596 0.0823377 0.0823377
0.597726 0.0766308 0.0766308
0.696788 0.0786755 0.0786755
0.80119 0.0836805 0.0836805
0.892989 0.0962844 0.0962844
0.0919814 0.182254 0.115938
0.1205 0.172457 0.120577
0.183795 0.179736 0.128985
0.346639 0.194186 0.120607
0.544289 0.176852 0.103197
0.667536 0.181476 0.105547
0.777447 0.194369 0.113436
0.893904 0.209415 0.125307
0.993774 0.233249 0.143084
0.0736706 0.266758 0.0951553
0.106508 0.26862 0.106401
0.186892 0.314626 0.119646
0.278645 0.276814 0.120058
0.515389 0.339025 0.122194
0.649149 0.356405 0.139162
0.775769 0.373663 0.163958
0.902144 0.386801 0.173724
0.99527 0.405402 0.181964
0.0494087 0.43357 0.072221
0.0912947 0.450233 0.0908064
0.1823 0.48127 0.114046
0.3467 0.516091 0.128542
0.506035 0.502876 0.125429
0.64239 0.528939 0.135073
0.744045 0.537881 0.1411
0.846006 0.542153 0.148409
0.930175 0.548653 0.158572
0.0992599 0.624765 0.122896
0.143847 0.64477 0.142458
0.233951 0.659434 0.156146
0.378897 0.658671 0.153353
0.539193 0.646647 0.141421
0.646632 0.643717 0.140169
0.740703 0.647761 0.140032
0.834745 0.647868 0.138872
0.909422 0.652735 0.139757
0.13193 0.756085 0.155749
0.169986 0.76762 0.168109
0.253727 0.771206 0.171817
0.39147 0.760647 0.162478
0.546731 0.743877 0.147631
0.652308 0.740063 0.143816
0.742809 0.73962 0.142931
0.834119 0.739315 0.139849
0.908202 0.744213 0.142123
0.13724 0.856321 0.160937
0.173907 0.865049 0.171283
0.257221 0.865599 0.172747
0.39408 0.852583 0.161578
0.546456 0.835218 0.14641
0.651743 0.831281 0.143816
0.743374 0.831907 0.143389
0.836057 0.831952 0.142641
0.908904 0.837385 0.143008
0.137942 0.942473 0.169192
0.184482 0.951644 0.180774
0.279698 0.949615 0.180179
0.425666 0.935103 0.167636
0.569131 0.920882 0.155734
0.670054 0.918486 0.154574
0.761257 0.918425 0.153826
0.851926 0.916503 0.150973
0.921248 0.917403 0.151629
0.104036 0.104067 0.170138
0.126802 0.103593 0.185718
0.192218 0.0945296 0.19234
0.29984 0.0746929 0.167834
0.447776 0.0465248 0.141756
0.552697 0.0336614 0.130877
0.642054 0.0294194 0.128725
0.736004 0.0281376 0.129976
0.815885 0.0293278 0.13933
0.103288 0.126085 0.179339
0.127443 0.127413 0.192096
0.195483 0.122972 0.195453
0.295583 0.107195 0.171054
0.465385 0.0872816 0.15819
0.580682 0.083772 0.156817
0.679042 0.0880446 0.162737
0.78291 0.0952926 0.172091
0.873411 0.108965 0.191882
0.0965744 0.166796 0.165759
0.121706 0.17615 0.176104
0.191989 0.191913 0.192004
0.284245 0.171679 0.172168
0.496452 0.176776 0.178164
0.635752 0.188006 0.188006
0.74818 0.202899 0.202899
0.867323 0.222019 0.222019
0.964263 0.246937 0.246937
0.0749828 0.28574 0.161975
0.110567 0.31014 0.178882
0.171023 0.261723 0.179751
0.279316 0.27126 0.183124
0.544106 0.330694 0.193042
0.684871 0.345281 0.209705
0.793179 0.376471 0.235416
0.910643 0.392889 0.239597
0.999573 0.410224 0.248737
0.0561379 0.444999 0.147814
0.103044 0.481849 0.173938
0.197131 0.502464 0.196979
0.332631 0.499611 0.202457
0.522652 0.510323 0.229236
0.647532 0.532982 0.213733
0.750256 0.539986 0.224033
0.85658 0.540551 0.244755
0.933379 0.547768 0.259602
0.102708 0.623499 0.200473
0.147799 0.65069 0.222614
0.238911 0.664103 0.236851
0.378485 0.658457 0.232471
0.540322 0.647837 0.222126
0.648524 0.64506 0.22266
0.742092 0.649165 0.218051
0.836713 0.648936 0.215763
0.911925 0.652995 0.223331
0.133043 0.754162 0.235203
0.169696 0.768811 0.246586
0.25597 0.772503 0.252781
0.392767 0.761257 0.24239
0.547311 0.744717 0.227634
0.652674 0.740566 0.223239
0.74342 0.740154 0.22417
0.835126 0.740581 0.218555
0.908919 0.744732 0.222553
0.137652 0.855329 0.242267
0.172686 0.865339 0.250309
0.25835 0.865904 0.25449
0.394827 0.852888 0.242359
0.547326 0.83592 0.226734
0.65211 0.832044 0.223102
0.74403 0.832746 0.22327
0.836667 0.83267 0.224796
0.909331 0.838163 0.225757
0.13753 0.941238 0.264286
0.182101 0.951324 0.272755
0.279667 0.949279 0.274556
0.425834 0.934737 0.261402
0.568917 0.920668 0.24828
0.669352 0.918074 0.245945
0.76051 0.918059 0.244343
0.850782 0.915267 0.240681
0.919173 0.914916 0.242374
0.104631 0.104723 0.160067
0.121431 0.102052 0.22118
0.172503 0.093019 0.279362
0.297887 0.0668193 0.297658
0.378592 0.0548104 0.229892
0.533181 0.0307774 0.248005
0.633799 0.0260014 0.260121
0.732189 0.0256199 0.26772
0.81265 0.0268406 0.283757
0.102739 0.121004 0.193591
0.120623 0.120592 0.245243
0.177737 0.117235 0.294652
0.312352 0.102907 0.312886
0.393637 0.0847486 0.242741
0.559747 0.0790875 0.27454
0.674174 0.0868696 0.300404
0.782162 0.0959487 0.317037
0.873549 0.111101 0.344656
0.0983597 0.150134 0.209934
0.116838 0.154345 0.230564
0.190143 0.189807 0.314778
0.332464 0.195102 0.332753
0.433219 0.16556 0.27744
0.598077 0.182361 0.312428
0.732006 0.210361 0.355596
0.849271 0.231357 0.381064
0.943847 0.256626 0.411658
0.0860304 0.222965 0.218708
0.110613 0.261524 0.265354
0.166995 0.262531 0.263859
0.32398 0.323873 0.32398
0.488502 0.311955 0.312825
0.636835 0.334432 0.336492
0.773892 0.37731 0.381109
0.891386 0.395621 0.395621
0.975509 0.413291 0.413291
0.0582437 0.405249 0.250874
0.100008 0.457008 0.299947
0.198993 0.507942 0.341085
0.332357 0.493019 0.346258
0.517662 0.510155 0.35613
0.674067 0.519936 0.350668
0.786725 0.518227 0.346822
0.86891 0.529381 0.358846
0.935073 0.543481 0.372824
0.0942397 0.593469 0.319692
0.14023 0.631098 0.358938
0.234302 0.661265 0.38117
0.382528 0.654658 0.394903
0.53344 0.638941 0.401999
0.649775 0.637766 0.402884
0.74136 0.644388 0.36022
0.849149 0.639338 0.339971
0.926711 0.640345 0.370443
0.128344 0.736629 0.376928
0.163592 0.755367 0.393225
0.249332 0.768307 0.39649
0.389715 0.757244 0.389258
0.54258 0.740276 0.372442
0.649332 0.733486 0.402502
0.743191 0.731029 0.420035
0.831525 0.736431 0.36054
0.905776 0.740383 0.366369
0.133181 0.844099 0.392569
0.166735 0.855924 0.400229
0.251484 0.861555 0.397391
0.391318 0.848249 0.38764
0.542824 0.831556 0.372015
0.648112 0.827909 0.370214
0.740017 0.828473 0.371511
0.833677 0.826932 0.39234
0.904784 0.834089 0.37084
0.131807 0.932113 0.428473
0.175387 0.943755 0.433875
0.27216 0.944839 0.427451
0.427161 0.92845 0.42179
0.566964 0.914885 0.41088
0.665843 0.912123 0.412772
0.755947 0.911315 0.416358
0.844526 0.90811 0.408927
0.909072 0.905119 0.44947
0.105394 0.105348 0.104555
0.119066 0.105196 0.155764
0.15169 0.0951858 0.297963
0.241581 0.0740215 0.373907
0.432105 0.0332189 0.430976
0.506432 0.0261997 0.386892
0.601541 0.0218357 0.397284
0.720546 0.0211948 0.429221
0.807523 0.0234531 0.448692
0.105501 0.117647 0.131762
0.117006 0.117006 0.207248
0.150225 0.111955 0.32192
0.253559 0.0988632 0.399588
0.458747 0.0793164 0.459907
0.533104 0.0712749 0.41384
0.637858 0.0771801 0.434272
0.770504 0.0921645 0.479133
0.871565 0.110185 0.512322
0.102388 0.140047 0.177279
0.114397 0.146792 0.277287
0.161898 0.161776 0.380011
0.306493 0.181949 0.480064
0.497993 0.185595 0.499504
0.588067 0.176394 0.470695
0.703243 0.196231 0.500313
0.84715 0.233036 0.554009
0.94432 0.260334 0.584543
0.0921798 0.181018 0.226795
0.107683 0.193973 0.274434
0.158526 0.245289 0.381186
0.321828 0.321248 0.499718
0.517815 0.344732 0.518334
0.644648 0.357885 0.531991
0.757733 0.380056 0.55494
0.869596 0.398062 0.574289
0.953124 0.415717 0.590448
0.073991 0.298222 0.281041
0.093019 0.34992 0.363134
0.171725 0.451347 0.47866
0.325368 0.495216 0.506172
0.51989 0.519768 0.519875
0.642206 0.523842 0.524834
0.744228 0.528832 0.531044
0.845502 0.533822 0.536782
0.920775 0.542458 0.546288
0.0777447 0.532631 0.413809
0.120394 0.578912 0.487816
0.211978 0.633814 0.5458
0.363821 0.648661 0.54638
0.529778 0.637781 0.531548
0.640116 0.637461 0.530892
0.752316 0.631678 0.528679
0.876722 0.618982 0.505333
0.929992 0.632593 0.533394
0.121157 0.706752 0.523568
0.152193 0.726284 0.554788
0.230976 0.748928 0.571633
0.376898 0.749966 0.55581
0.54963 0.729244 0.576776
0.642695 0.726238 0.585077
0.739208 0.726284 0.559197
0.839475 0.725628 0.520592
0.906157 0.731823 0.544854
0.127398 0.826291 0.559091
0.157717 0.837964 0.574472
0.236301 0.848173 0.57583
0.381018 0.84213 0.553994
0.538552 0.825406 0.53994
0.641321 0.821973 0.550423
0.739544 0.818936 0.582208
0.835203 0.817899 0.576532
0.898451 0.827939 0.546105
0.126741 0.922118 0.590356
0.16669 0.933242 0.60177
0.258961 0.936553 0.596063
0.419608 0.923674 0.573495
0.560952 0.910445 0.558724
0.660655 0.907851 0.558358
0.750195 0.905852 0.560891
0.8392 0.900084 0.575921
0.903395 0.897597 0.610925
0.105669 0.105562 0.0399176
0.115114 0.105638 0.0956741
0.141161 0.102327 0.209201
0.210925 0.0784619 0.398672
0.368063 0.0434119 0.482856
0.534936 0.0213321 0.53312
0.621866 0.0188602 0.534112
0.711543 0.0203555 0.534539
0.803876 0.0242161 0.554833
0.105409 0.112902 0.0656138
0.115465 0.11545 0.1243
0.138125 0.112734 0.258915
0.211002 0.0968795 0.425879
0.395895 0.0772869 0.517205
0.570916 0.0777142 0.572
0.668009 0.0839094 0.579705
0.767498 0.0927901 0.589059
0.869413 0.112154 0.619928
0.105303 0.130617 0.112566
0.114351 0.134844 0.182864
0.139467 0.139437 0.351034
0.236728 0.150652 0.497215
0.460151 0.169833 0.587167
0.624689 0.197101 0.627726
0.732662 0.214694 0.643458
0.84448 0.234165 0.663722
0.943832 0.262898 0.693812
0.0982681 0.161059 0.149783
0.106767 0.178454 0.263569
0.14287 0.211353 0.437476
0.280812 0.280339 0.58468
0.501274 0.32726 0.63151
0.655955 0.368902 0.658442
0.763806 0.386786 0.673762
0.868284 0.400046 0.686427
0.951049 0.417563 0.699184
0.0813764 0.2477 0.235523
0.0940261 0.272831 0.358434
0.138659 0.322866 0.481605
0.295918 0.460304 0.615808
0.509789 0.509377 0.63769
0.639628 0.527092 0.640726
0.738155 0.534051 0.646922
0.833997 0.537133 0.649775
0.908858 0.544762 0.655528
0.0591897 0.404196 0.365606
0.0843977 0.453422 0.472694
0.167697 0.561486 0.609186
0.323445 0.621073 0.658961
0.517479 0.631388 0.64509
0.638285 0.638163 0.63827
0.733684 0.637598 0.638346
0.829908 0.635904 0.637385
0.90518 0.640146 0.642145
0.115236 0.667765 0.588113
0.140551 0.685069 0.634974
0.205341 0.717983 0.681086
0.345525 0.734401 0.681132
0.527398 0.729122 0.652445
0.640375 0.728847 0.641291
0.73135 0.729107 0.641199
0.830121 0.725917 0.645212
0.924926 0.724132 0.647959
0.12781 0.811322 0.656382
0.152392 0.819562 0.682109
0.216495 0.831662 0.699886
0.355016 0.83267 0.682521
0.529931 0.82298 0.648493
0.653468 0.817136 0.674296
0.741238 0.816266 0.690227
0.829099 0.817533 0.685145
0.897719 0.827024 0.648173
0.125994 0.916625 0.692882
0.160723 0.925338 0.715602
0.239796 0.929305 0.722469
0.398352 0.919738 0.697658
0.556909 0.908827 0.664179
0.658656 0.907179 0.657755
0.747677 0.904433 0.657618
0.838788 0.896162 0.679789
0.900755 0.892943 0.713314
0.105638 0.105486 0
0.112886 0.105943 0.0278935
0.135164 0.106432 0.120256
0.1944 0.0879835 0.312688
0.310384 0.0545052 0.492821
0.500801 0.0266423 0.573632
0.629984 0.0226139 0.627253
0.726711 0.0223239 0.636835
0.806363 0.0265202 0.648157
0.105577 0.110643 0
0.112062 0.112001 0.0548409
0.13257 0.115129 0.138262
0.187976 0.100496 0.357824
0.315419 0.0789654 0.517815
0.532662 0.0723125 0.614023
0.67628 0.088838 0.677211
0.783917 0.0994736 0.694301
0.875563 0.11754 0.717037
0.106065 0.125216 0.0470893
0.11223 0.126955 0.101946
0.130175 0.13022 0.227665
0.190097 0.131212 0.455116
0.360769 0.140764 0.588739
0.593652 0.177295 0.689372
0.740856 0.219959 0.7458
0.860273 0.245975 0.769726
0.952575 0.27068 0.793103
0.10071 0.148852 0.0916609
0.107759 0.157733 0.150576
0.128878 0.17641 0.374044
0.214969 0.214847 0.57116
0.426642 0.270283 0.675395
0.636896 0.340124 0.745007
0.769268 0.3897 0.775433
0.875547 0.407065 0.783917
0.953689 0.420706 0.793362
0.0863813 0.215366 0.135058
0.094316 0.228077 0.252003
0.123415 0.272618 0.498909
0.23653 0.370306 0.644083
0.46656 0.46569 0.729397
0.630701 0.510552 0.744198
0.738293 0.533761 0.742794
0.834577 0.539025 0.742519
0.908644 0.545174 0.747494
0.0603647 0.375845 0.30695
0.0734112 0.382483 0.442145
0.118837 0.429969 0.577661
0.253223 0.549249 0.706355
0.478767 0.608011 0.749249
0.628626 0.62826 0.740673
0.7299 0.638193 0.731319
0.823148 0.638041 0.730053
0.896437 0.642725 0.735012
0.090837 0.573495 0.536248
0.113207 0.594629 0.610391
0.166629 0.65156 0.721279
0.289174 0.700938 0.789792
0.490715 0.71136 0.772778
0.631479 0.722774 0.74287
0.729931 0.729824 0.7299
0.825544 0.72842 0.729
0.902556 0.733181 0.73434
0.129503 0.791516 0.714458
0.147234 0.795056 0.755184
0.191806 0.805478 0.807767
0.309453 0.814893 0.816953
0.500618 0.811109 0.777493
0.636027 0.816999 0.746868
0.732677 0.822049 0.733669
0.824063 0.821927 0.735302
0.904265 0.824292 0.741161
0.127977 0.912978 0.778454
0.154208 0.917403 0.820035
0.214542 0.920012 0.853849
0.359899 0.913512 0.844312
0.535897 0.902327 0.795621
0.653635 0.904891 0.757794
0.745037 0.903441 0.74493
0.837125 0.893843 0.764431
0.898665 0.89044 0.788098
0.10634 0.106004 0
0.113054 0.106157 0
0.132296 0.106691 0.0736858
0.18706 0.0975662 0.194522
0.298146 0.0588693 0.475059
0.45066 0.0324102 0.572229
0.611994 0.0293126 0.68098
0.733043 0.0289311 0.729519
0.814374 0.0295872 0.746532
0.105714 0.110994 0
0.111467 0.111345 0
0.128389 0.113497 0.0810864
0.175387 0.10811 0.211154
0.29044 0.0798962 0.498024
0.469978 0.0650492 0.604685
0.652842 0.0861372 0.731624
0.789929 0.105028 0.790524
0.886687 0.124132 0.820554
0.106218 0.124926 0
0.11078 0.123919 0.0366827
0.12546 0.125521 0.120729
0.165103 0.124483 0.307057
0.290425 0.122713 0.560479
0.517983 0.139818 0.679957
0.716167 0.201953 0.812451
0.86302 0.247211 0.869612
0.961166 0.276722 0.896345
0.101045 0.147936 0.0468299
0.106325 0.147173 0.0918746
0.123415 0.154314 0.207233
0.167483 0.167544 0.479484
0.324544 0.207904 0.656199
0.575418 0.275578 0.776364
0.754086 0.361776 0.868681
0.877165 0.403326 0.88748
0.956054 0.422538 0.890745
0.0819715 0.215015 0.0875563
0.0927138 0.214282 0.140887
0.11249 0.231449 0.402853
0.181491 0.278889 0.613642
0.382757 0.382177 0.78146
0.602426 0.460273 0.844892
0.728222 0.511681 0.85507
0.833417 0.534829 0.843931
0.908248 0.546166 0.841062
0.0599222 0.372702 0.203159
0.0702373 0.35671 0.336049
0.0997024 0.370092 0.560708
0.189197 0.448753 0.70016
0.406668 0.565591 0.840864
0.599344 0.598703 0.861341
0.718151 0.623652 0.847807
0.821027 0.63595 0.828061
0.89604 0.642771 0.827878
0.0923476 0.583642 0.530419
0.101579 0.573297 0.60058
0.131655 0.575204 0.702159
0.220295 0.631235 0.82504
0.416617 0.680858 0.901915
0.606149 0.702037 0.875166
0.721111 0.720729 0.844938
0.822003 0.729183 0.824048
0.896834 0.734997 0.828458
0.127245 0.741314 0.704128
0.139773 0.742199 0.756863
0.167971 0.756405 0.855817
0.250492 0.785718 0.94754
0.434516 0.790707 0.940307
0.611337 0.801556 0.890898
0.724498 0.81677 0.844526
0.82266 0.822629 0.822644
0.898436 0.825971 0.82652
0.128649 0.909499 0.840726
0.147814 0.910231 0.902205
0.187884 0.911452 0.976516
0.295445 0.906233 1
0.483604 0.893416 0.975921
0.631998 0.894026 0.911269
0.737469 0.898741 0.854231
0.831006 0.893477 0.838087
0.895384 0.890593 0.839353
0.106737 0.106294 0
0.113832 0.106462 0
0.132937 0.107301 0.0421912
0.187854 0.100542 0.142428
0.296727 0.0623484 0.435187
0.447883 0.0339818 0.583535
0.582727 0.0312657 0.686915
0.731609 0.0374304 0.785336
0.822889 0.0383917 0.818265
0.105974 0.111711 0
0.112688 0.11249 0
0.129076 0.113924 0.0505074
0.174807 0.110903 0.147173
0.280003 0.0819562 0.444831
0.452277 0.0642557 0.605447
0.615854 0.079057 0.733028
0.784741 0.108659 0.847105
0.895079 0.13228 0.89575
0.106645 0.12636 0
0.111635 0.125139 0.00389105
0.123812 0.123857 0.0797589
0.158648 0.125246 0.193851
0.26302 0.114855 0.511833
0.468666 0.121996 0.66276
0.670787 0.174487 0.815473
0.854353 0.24152 0.930739
0.965942 0.279896 0.973114
0.0998245 0.150866 0.0157473
0.105852 0.148241 0.0603647
0.121172 0.14725 0.129137
0.151354 0.151446 0.353613
0.268544 0.174197 0.614633
0.514366 0.225406 0.765545
0.725505 0.325368 0.910887
0.87274 0.389349 0.965438
0.95906 0.418952 0.972259
0.0777142 0.220203 0.0577859
0.0902113 0.218082 0.107485
0.111192 0.217227 0.280324
0.154971 0.235859 0.566064
0.243885 0.243977 0.68687
0.537469 0.341665 0.879164
0.723323 0.465736 0.955962
0.834241 0.516014 0.940948
0.908965 0.541878 0.924804
0.0563668 0.382635 0.13022
0.0683909 0.367132 0.255619
0.0916609 0.350393 0.516396
0.16141 0.398169 0.694133
0.257801 0.445457 0.818479
0.521645 0.521782 0.941894
0.694209 0.587091 0.956466
0.815259 0.621851 0.927443
0.895964 0.640574 0.909209
0.0957961 0.600381 0.492485
0.102754 0.587762 0.590921
0.121218 0.567956 0.707164
0.182177 0.58117 0.823377
0.26804 0.622141 0.935195
0.508431 0.650614 0.983719
0.695659 0.695598 0.96408
0.816022 0.719112 0.923751
0.897505 0.735073 0.905074
0.127611 0.765408 0.722118
0.137819 0.757687 0.786038
0.157244 0.740291 0.880476
0.21323 0.748226 0.986877
0.284596 0.763561 1
0.529244 0.769146 1
0.70454 0.802899 0.967544
0.819852 0.819654 0.913664
0.896284 0.827436 0.897841
0.127443 0.911254 0.863416
0.143084 0.909606 0.941421
0.173327 0.908125 1
0.235035 0.904555 1
0.402899 0.891646 1
0.600214 0.883635 1
0.720958 0.890059 0.982742
0.823789 0.89218 0.91252
0.891661 0.891539 0.891661
