70 CGC LUTs/Log to Rec709/Blackmagic 4K Film to Rec709.cube
LUT_3D_SIZE 33
0.0000000000 0.0000000000 0.0000000000
0.0030816537 0.0000000000 0.0000000000
0.0521393195 0.0000000000 0.0000000000
0.1038699225 0.0000000000 0.0000000000
0.1489136070 0.0000000000 0.0000000000
0.1894128919 0.0000000000 0.0000000000
0.2275069207 0.0000000000 0.0000000000
0.2643055618 0.0000000000 0.0000000000
0.3004819155 0.0000000000 0.0000000000
0.3364898264 0.0000000000 0.0000000000
0.3726603091 0.0000000000 0.0000000000
0.4092504680 0.0000000000 0.0000000000
0.4464706481 0.0000000000 0.0000000000
0.4845006168 0.0000000000 0.0000000000
0.5234996080 0.0000000000 0.0000000000
0.5636128783 0.0000000000 0.0000000000
0.6049766541 0.0000000000 0.0000000000
0.6477208138 0.0000000000 0.0000000000
0.6919719577 0.0000000000 0.0000000000
0.7378546596 0.0000000000 0.0000000000
0.7797069550 0.0000000000 0.0000000000
0.8090997338 0.0000000000 0.0000000000
0.8326490521 0.0000000000 0.0000000000
0.8526343703 0.0000000000 0.0000000000
0.8702281117 0.0000000000 0.0000000000
0.8861134052 0.0000000000 0.0000000000
0.9007231593 0.0000000000 0.0000000000
0.9143491387 0.0000000000 0.0000000000
0.9271970987 0.0000000000 0.0000000000
0.9394174814 0.0000000000 0.0000000000
0.9511235952 0.0000000000 0.0000000000
0.9624027610 0.0000000000 0.0000000000
0.9733237624 0.0000000000 0.0000000000
0.0000000000 0.0000000000 0.0000000000
0.0060943738 0.0000000000 0.0000000000
0.0551520437 0.0000000000 0.0000000000
0.1064606383 0.0000000000 0.0000000000
0.1509468555 0.0000000000 0.0000000000
0.1911052465 0.0000000000 0.0000000000
0.2289624214 0.0000000000 0.0000000000
0.2655836940 0.0000000000 0.0000000000
0.3016205132 0.0000000000 0.0000000000
0.3375147581 0.0000000000 0.0000000000
0.3735902309 0.0000000000 0.0000000000
0.4100993574 0.0000000000 0.0000000000
0.4472494125 0.0000000000 0.0000000000
0.4852178991 0.0000000000 0.0000000000
0.5241624117 0.0000000000 0.0000000000
0.5642270446 0.0000000000 0.0000000000
0.6055470109 0.0000000000 0.0000000000
0.6482515335 0.0000000000 0.0000000000
0.6924666762 0.0000000000 0.0000000000
0.7383164167 0.0000000000 0.0000000000
0.7800055742 0.0000000000 0.0000000000
0.8093069196 0.0000000000 0.0000000000
0.8328036666 0.0000000000 0.0000000000
0.8527549505 0.0000000000 0.0000000000
0.8703250289 0.0000000000 0.0000000000
0.8861929178 0.0000000000 0.0000000000
0.9007894397 0.0000000000 0.0000000000
0.9144051075 0.0000000000 0.0000000000
0.9272447824 0.0000000000 0.0000000000
0.9394584298 0.0000000000 0.0000000000
0.9511590600 0.0000000000 0.0000000000
0.9624335766 0.0000000000 0.0000000000
0.9733505845 0.0000000000 0.0000000000
0.0000000000 0.0443394035 0.0000000000
0.0091225784 0.0394301489 0.0000000000
0.0581802502 0.0344956554 0.0000000000
0.1090250388 0.0291445144 0.0000000000
0.1529703885 0.0231960323 0.0000000000
0.1927942187 0.0165835302 0.0000000000
0.2304175049 0.0092328861 0.0000000000
0.2668628991 0.0010617042 0.0000000000
0.3027609885 0.0000000000 0.0000000000
0.3385419846 0.0000000000 0.0000000000
0.3745226562 0.0000000000 0.0000000000
0.4109508991 0.0000000000 0.0000000000
0.4480308294 0.0000000000 0.0000000000
0.4859377742 0.0000000000 0.0000000000
0.5248277187 0.0000000000 0.0000000000
0.5648436546 0.0000000000 0.0000000000
0.6061197519 0.0000000000 0.0000000000
0.6487845778 0.0000000000 0.0000000000
0.6929635406 0.0000000000 0.0000000000
0.7387802601 0.0000000000 0.0000000000
0.7803045511 0.0000000000 0.0000000000
0.8095147014 0.0000000000 0.0000000000
0.8329588175 0.0000000000 0.0000000000
0.8528760076 0.0000000000 0.0000000000
0.8704223037 0.0000000000 0.0000000000
0.8862727284 0.0000000000 0.0000000000
0.9008560777 0.0000000000 0.0000000000
0.9144613147 0.0000000000 0.0000000000
0.9272927046 0.0000000000 0.0000000000
0.9394996166 0.0000000000 0.0000000000
0.9511946440 0.0000000000 0.0000000000
0.9624645114 0.0000000000 0.0000000000
0.9733775854 0.0000000000 0.0000000000
0.0000000000 0.0931034386 0.0000000000
0.0124064749 0.0884879977 0.0000000000
0.0614641458 0.0837044790 0.0000000000
0.1117630005 0.0781224668 0.0000000000
0.1551425606 0.0721739754 0.0000000000
0.1946124136 0.0655614808 0.0000000000
0.2319866121 0.0582108386 0.0000000000
0.2682439685 0.0500396565 0.0000000000
0.3039933145 0.0409563407 0.0000000000
0.3396526277 0.0308590680 0.0000000000
0.3755313158 0.0196346529 0.0000000000
0.4118723571 0.0071572755 0.0000000000
0.4488766789 0.0000000000 0.0000000000
0.4867172241 0.0000000000 0.0000000000
0.5255482793 0.0000000000 0.0000000000
0.5655115843 0.0000000000 0.0000000000
0.6067402363 0.0000000000 0.0000000000
0.6493620872 0.0000000000 0.0000000000
0.6935019493 0.0000000000 0.0000000000
0.7392829657 0.0000000000 0.0000000000
0.7806275487 0.0000000000 0.0000000000
0.8097393513 0.0000000000 0.0000000000
0.8331266642 0.0000000000 0.0000000000
0.8530070782 0.0000000000 0.0000000000
0.8705276847 0.0000000000 0.0000000000
0.8863592744 0.0000000000 0.0000000000
0.9009281993 0.0000000000 0.0000000000
0.9145222306 0.0000000000 0.0000000000
0.9273446202 0.0000000000 0.0000000000
0.9395442009 0.0000000000 0.0000000000
0.9512332082 0.0000000000 0.0000000000
0.9624980092 0.0000000000 0.0000000000
0.9734068513 0.0000000000 0.0000000000
0.0000000000 0.1372414827 0.0000000000
0.0160569474 0.1336766481 0.0000000000
0.0651146173 0.1300249398 0.0000000000
0.1147564426 0.1259827018 0.0000000000
0.1575308889 0.1213824376 0.0000000000
0.1966175437 0.1161268651 0.0000000000
0.2337202728 0.1100940779 0.0000000000
0.2697717845 0.1031278893 0.0000000000
0.3053577840 0.0950225368 0.0000000000
0.3408832550 0.0854969174 0.0000000000
0.3766494691 0.0740799382 0.0000000000
0.4128943086 0.0616025664 0.0000000000
0.4498150647 0.0477323607 0.0000000000
0.4875822067 0.0323138572 0.0000000000
0.5263481140 0.0151741970 0.0000000000
0.5662530661 0.0000000000 0.0000000000
0.6074292064 0.0000000000 0.0000000000
0.6500034332 0.0000000000 0.0000000000
0.6940999627 0.0000000000 0.0000000000
0.7398413420 0.0000000000 0.0000000000
0.7809850574 0.0000000000 0.0000000000
0.8099883795 0.0000000000 0.0000000000
0.8333128691 0.0000000000 0.0000000000
0.8531525135 0.0000000000 0.0000000000
0.8706446290 0.0000000000 0.0000000000
0.8864552975 0.0000000000 0.0000000000
0.9010083675 0.0000000000 0.0000000000
0.9145898819 0.0000000000 0.0000000000
0.9274023175 0.0000000000 0.0000000000
0.9395937920 0.0000000000 0.0000000000
0.9512760639 0.0000000000 0.0000000000
0.9625352621 0.0000000000 0.0000000000
0.9734393954 0.0000000000 0.0000000000
0.0000000000 0.1767075807 0.0000000000
0.0201149192 0.1737641245 0.0000000000
0.0691725835 0.1707658768 0.0000000000
0.1180250198 0.1674677581 0.0000000000
0.1601543278 0.1637419164 0.0000000000
0.1988271773 0.1595228761 0.0000000000
0.2356345952 0.1547318548 0.0000000000
0.2714611292 0.1492728144 0.0000000000
0.3068680465 0.1430268884 0.0000000000
0.3422462940 0.1358440369 0.0000000000
0.3778886795 0.1275304258 0.0000000000
0.4140274227 0.1178277880 0.0000000000
0.4508559108 0.1063781306 0.0000000000
0.4885418713 0.0926576406 0.0000000000
0.5272356868 0.0756971389 0.0000000000
0.5670760870 0.0566442199 0.0000000000
0.6081940532 0.0354644395 0.0000000000
0.6507155895 0.0119204093 0.0000000000
0.6947640777 0.0000000000 0.0000000000
0.7404615283 0.0000000000 0.0000000000
0.7813807130 0.0000000000 0.0000000000
0.8102643490 0.0000000000 0.0000000000
0.8335193992 0.0000000000 0.0000000000
0.8533138633 0.0000000000 0.0000000000
0.8707744479 0.0000000000 0.0000000000
0.8865619302 0.0000000000 0.0000000000
0.9010972977 0.0000000000 0.0000000000
0.9146650434 0.0000000000 0.0000000000
0.9274663925 0.0000000000 0.0000000000
0.9396488070 0.0000000000 0.0000000000
0.9513236284 0.0000000000 0.0000000000
0.9625766277 0.0000000000 0.0000000000
0.9734755158 0.0000000000 0.0000000000
0.0000000000 0.2137178034 0.0000000000
0.0246258713 0.2111983895 0.0000000000
0.0736835450 0.2086405605 0.0000000000
0.1215892360 0.2058370709 0.0000000000
0.1630330235 0.2026831657 0.0000000000
0.2012601793 0.1991292238 0.0000000000
0.2377470136 0.1951167732 0.0000000000
0.2733280659 0.1905764192 0.0000000000
0.3085388243 0.1854248941 0.0000000000
0.3437555134 0.1795610636 0.0000000000
0.3792616427 0.1728603691 0.0000000000
0.4152834713 0.1651664972 0.0000000000
0.4520101547 0.1562789381 0.0000000000
0.4896064699 0.1459331065 0.0000000000
0.5282205939 0.1337666214 0.0000000000
0.5679895878 0.1192583218 0.0000000000
0.6090431213 0.1016048640 0.0000000000
0.6515062451 0.0791994333 0.0000000000
0.6955015063 0.0530272089 0.0000000000
0.7411502004 0.0239333864 0.0000000000
0.7818181515 0.0000000000 0.0000000000
0.8105699420 0.0000000000 0.0000000000
0.8337482810 0.0000000000 0.0000000000
0.8534928560 0.0000000000 0.0000000000
0.8709185123 0.0000000000 0.0000000000
0.8866803050 0.0000000000 0.0000000000
0.9011961222 0.0000000000 0.0000000000
0.9147484899 0.0000000000 0.0000000000
0.9275375605 0.0000000000 0.0000000000
0.9397099614 0.0000000000 0.0000000000
0.9513765574 0.0000000000 0.0000000000
0.9626226425 0.0000000000 0.0000000000
0.9735156894 0.0000000000 0.0000000000
0.0000000000 0.2494016290 0.0000000000
0.0296403766 0.2471962422 0.0000000000
0.0786980391 0.2449620962 0.0000000000
0.1254704744 0.2425190657 0.0000000000
0.1661883593 0.2397780120 0.0000000000
0.2039368153 0.2366988212 0.0000000000
0.2400764078 0.2332348675 0.0000000000
0.2753900886 0.2293316871 0.0000000000
0.3103863597 0.2249251753 0.0000000000
0.3454258144 0.2199391425 0.0000000000
0.3807822168 0.2142822593 0.0000000000
0.4166752994 0.2078437060 0.0000000000
0.4532897472 0.2004869133 0.0000000000
0.4907871485 0.1920406371 0.0000000000
0.5293132067 0.1822853237 0.0000000000
0.5690032840 0.1709313840 0.0000000000
0.6099855900 0.1575826705 0.0000000000
0.6523840427 0.1416700333 0.0000000000
0.6963202953 0.1223176792 0.0000000000
0.7419149876 0.0980332792 0.0000000000
0.7823016644 0.0663811415 0.0000000000
0.8109083176 0.0304294452 0.0000000000
0.8340020180 0.0000000000 0.0000000000
0.8536913395 0.0000000000 0.0000000000
0.8710783124 0.0000000000 0.0000000000
0.8868117332 0.0000000000 0.0000000000
0.9013057947 0.0000000000 0.0000000000
0.9148411751 0.0000000000 0.0000000000
0.9276165962 0.0000000000 0.0000000000
0.9397779107 0.0000000000 0.0000000000
0.9514353275 0.0000000000 0.0000000000
0.9626737237 0.0000000000 0.0000000000
0.9735602736 0.0000000000 0.0000000000
0.0000000000 0.2844364643 0.0000000000
0.0352146402 0.2824762464 0.0000000000
0.0844890997 0.2804934978 0.0000000000
0.1296908557 0.2783289254 0.0000000000
0.1696428955 0.2759047449 0.0000000000
0.2068786770 0.2731873095 0.0000000000
0.2426430732 0.2701377571 0.0000000000
0.2776661217 0.2667112350 0.0000000000
0.3124282360 0.2628555894 0.0000000000
0.3472736478 0.2585097551 0.0000000000
0.3824656904 0.2536017299 0.0000000000
0.4182171524 0.2480459362 0.0000000000
0.4547079802 0.2417395562 0.0000000000
0.4920962155 0.2345574200 0.0000000000
0.5305250883 0.2263449878 0.0000000000
0.5701279044 0.2169078141 0.0000000000
0.6110314131 0.2059954852 0.0000000000
0.6533582807 0.1932759434 0.0000000000
0.6972292662 0.1782916337 0.0000000000
0.7427641749 0.1603786647 0.0000000000
0.7828357816 0.1385009438 0.0000000000
0.8112828135 0.1108533591 0.0000000000
0.8342831135 0.0736023486 0.0000000000
0.8539113998 0.0291762166 0.0000000000
0.8712556362 0.0000000000 0.0000000000
0.8869575262 0.0000000000 0.0000000000
0.9014275670 0.0000000000 0.0000000000
0.9149440527 0.0000000000 0.0000000000
0.9277043939 0.0000000000 0.0000000000
0.9398533702 0.0000000000 0.0000000000
0.9515005350 0.0000000000 0.0000000000
0.9627304673 0.0000000000 0.0000000000
0.9736098647 0.0000000000 0.0000000000
0.0000000000 0.3192752898 0.0000000000
0.0414111465 0.3175137341 0.0000000000
0.0904421359 0.3157338798 0.0000000000
0.1342733353 0.3137931526 0.0000000000
0.1734204292 0.3116225898 0.0000000000
0.2101088911 0.3091931939 0.0000000000
0.2454688698 0.3064716458 0.0000000000
0.2801766098 0.3034198880 0.0000000000
0.3146836162 0.2999939322 0.0000000000
0.3493168056 0.2961428165 0.0000000000
0.3843286335 0.2918072641 0.0000000000
0.4199245274 0.2869176865 0.0000000000
0.4562793076 0.2813918293 0.0000000000
0.4935472906 0.2751317322 0.0000000000
0.5318688750 0.2680190206 0.0000000000
0.5713753104 0.2599092126 0.0000000000
0.6121917367 0.2506228983 0.0000000000
0.6544394493 0.2399327904 0.0000000000
0.6982381940 0.2275438011 0.0000000000
0.7437069416 0.2130603194 0.0000000000
0.7834253907 0.1959295720 0.0000000000
0.8116970658 0.1753333807 0.0000000000
0.8345944285 0.1499574333 0.0000000000
0.8541553617 0.1174030900 0.0000000000
0.8714522719 0.0722091421 0.0000000000
0.8871192932 0.0173109956 0.0000000000
0.9015626907 0.0000000000 0.0000000000
0.9150582552 0.0000000000 0.0000000000
0.9278018475 0.0000000000 0.0000000000
0.9399371743 0.0000000000 0.0000000000
0.9515730739 0.0000000000 0.0000000000
0.9627934694 0.0000000000 0.0000000000
0.9736648798 0.0000000000 0.0000000000
0.0000000000 0.3542464972 0.0000000000
0.0482993573 0.3526502848 0.0000000000
0.0968021080 0.3510389030 0.0000000000
0.1392415166 0.3492834270 0.0000000000
0.1775458753 0.3473220766 0.0000000000
0.2136519253 0.3451293409 0.0000000000
0.2485772073 0.3426762223 0.0000000000
0.2829437256 0.3399295509 0.0000000000
0.3171732426 0.3368514180 0.0000000000
0.3515747786 0.3333981931 0.0000000000
0.3863892853 0.3295195103 0.0000000000
0.4218144715 0.3251568377 0.0000000000
0.4580197036 0.3202418983 0.0000000000
0.4951552749 0.3146943450 0.0000000000
0.5333586335 0.3084187806 0.0000000000
0.5727587342 0.3013010919 0.0000000000
0.6134788990 0.2932028174 0.0000000000
0.6556391716 0.2839536965 0.0000000000
0.6993579865 0.2733407021 0.0000000000
0.7447533607 0.2610914111 0.0000000000
0.7840757966 0.2468476743 0.0000000000
0.8121550679 0.2301217020 0.0000000000
0.8349391222 0.2102167010 0.0000000000
0.8544256687 0.1860695928 0.0000000000
0.8716703057 0.1558922678 0.0000000000
0.8872987032 0.1161584035 0.0000000000
0.9017126560 0.0590195507 0.0000000000
0.9151850343 0.0000000000 0.0000000000
0.9279100299 0.0000000000 0.0000000000
0.9400302172 0.0000000000 0.0000000000
0.9516535401 0.0000000000 0.0000000000
0.9628635049 0.0000000000 0.0000000000
0.9737260342 0.0000000000 0.0000000000
0.0071497029 0.3896039724 0.0000000000
0.0559564978 0.3881482780 0.0000000000
0.1035879552 0.3866797090 0.0000000000
0.1446196884 0.3850809634 0.0000000000
0.1820452809 0.3832961619 0.0000000000
0.2175337523 0.3813025951 0.0000000000
0.2519931197 0.3790745437 0.0000000000
0.2859912813 0.3765828013 0.0000000000
0.3199195862 0.3737940490 0.0000000000
0.3540686667 0.3706701994 0.0000000000
0.3886675239 0.3671675622 0.0000000000
0.4239056408 0.3632358015 0.0000000000
0.4599466026 0.3588166237 0.0000000000
0.4969364703 0.3538421094 0.0000000000
0.5350096226 0.3482327461 0.0000000000
0.5742924809 0.3418945074 0.0000000000
0.6149064302 0.3347154856 0.0000000000
0.6569700241 0.3265606463 0.0000000000
0.7006004453 0.3172653317 0.0000000000
0.7459148169 0.3066252470 0.0000000000
0.7847926021 0.2943821251 0.0000000000
0.8126611710 0.2802013755 0.0000000000
0.8353205323 0.2636355758 0.0000000000
0.8547251225 0.2440616935 0.0000000000
0.8719120026 0.2205622792 0.0000000000
0.8874977231 0.1916745156 0.0000000000
0.9018790126 0.1547605395 0.0000000000
0.9153257608 0.1039087102 0.0000000000
0.9280301332 0.0299725644 0.0000000000
0.9401335120 0.0000000000 0.0000000000
0.9517429471 0.0000000000 0.0000000000
0.9629412293 0.0000000000 0.0000000000
0.9737939835 0.0000000000 0.0000000000
0.0156615879 0.4255544841 0.0000000000
0.0644683838 0.4242201149 0.0000000000
0.1108191237 0.4228746891 0.0000000000
0.1504327953 0.4214108586 0.0000000000
0.1869457811 0.4197776914 0.0000000000
0.2217816859 0.4179547727 0.0000000000
0.2557432652 0.4159191251 0.0000000000
0.2893447578 0.4136446416 0.0000000000
0.3229469061 0.4111016989 0.0000000000
0.3568214178 0.4082565904 0.0000000000
0.3911848664 0.4050707817 0.0000000000
0.4262182713 0.4015002549 0.0000000000
0.4620790780 0.3974942565 0.0000000000
0.4989089668 0.3929941654 0.0000000000
0.5368387699 0.3879319727 0.0000000000
0.5759924054 0.3822281361 0.0000000000
0.6164892912 0.3757890165 0.0000000000
0.6584461331 0.3685034811 0.0000000000
0.7019789219 0.3602382243 0.0000000000
0.7472035289 0.3508316278 0.0000000000
0.7855820656 0.3400845230 0.0000000000
0.8132199645 0.3277473152 0.0000000000
0.8357424140 0.3135001659 0.0000000000
0.8550566435 0.2969215214 0.0000000000
0.8721798062 0.2774352431 0.0000000000
0.8877183795 0.2542146146 0.0000000000
0.9020634890 0.2259899080 0.0000000000
0.9154818654 0.1906035691 0.0000000000
0.9281634688 0.1437236667 0.0000000000
0.9402481914 0.0730947033 0.0000000000
0.9518421888 0.0000000000 0.0000000000
0.9630275965 0.0000000000 0.0000000000
0.9738694429 0.0000000000 0.0000000000
0.0251236428 0.4622740149 0.0000000000
0.0739304423 0.4610458314 0.0000000000
0.1185156256 0.4598080218 0.0000000000
0.1567063034 0.4584618509 0.0000000000
0.1922755390 0.4569607675 0.0000000000
0.2264245301 0.4552862644 0.0000000000
0.2598559558 0.4534175396 0.0000000000
0.2930315137 0.4513311386 0.0000000000
0.3262812793 0.4490004182 0.0000000000
0.3598577976 0.4463952184 0.0000000000
0.3939648271 0.4434812367 0.0000000000
0.4287745655 0.4402193427 0.0000000000
0.4644380808 0.4365648329 0.0000000000
0.5010923147 0.4324662089 0.0000000000
0.5388646126 0.4278642833 0.0000000000
0.5778760314 0.4226903021 0.0000000000
0.6182437539 0.4168641269 0.0000000000
0.6600828171 0.4102917314 0.0000000000
0.7035077810 0.4028618038 0.0000000000
0.7486333847 0.3944414854 0.0000000000
0.7864505649 0.3848701715 0.0000000000
0.8138366938 0.3739513159 0.0000000000
0.8362087607 0.3614402115 0.0000000000
0.8554236293 0.3470259905 0.0000000000
0.8724764585 0.3303034604 0.0000000000
0.8879629374 0.3107267916 0.0000000000
0.9022681713 0.2875278294 0.0000000000
0.9156550765 0.2595591247 0.0000000000
0.9283113480 0.2249513716 0.0000000000
0.9403754473 0.1802136004 0.0000000000
0.9519523978 0.1169503629 0.0000000000
0.9631235003 0.0174408816 0.0000000000
0.9739531875 0.0000000000 0.0000000000
0.0356419310 0.4999181628 0.0000000000
0.0846618563 0.4987838566 0.0000000000
0.1266981512 0.4976410568 0.0000000000
0.1634663343 0.4963987172 0.0000000000
0.1980637014 0.4950140119 0.0000000000
0.2314924300 0.4934700727 0.0000000000
0.2643611729 0.4917479753 0.0000000000
0.2970806956 0.4898264408 0.0000000000
0.3299507797 0.4876813293 0.0000000000
0.3632045388 0.4852854908 0.0000000000
0.3970327973 0.4826080203 0.0000000000
0.4315985441 0.4796139002 0.0000000000
0.4670463204 0.4762631655 0.0000000000
0.5035080314 0.4725101590 0.0000000000
0.5411073565 0.4683025181 0.0000000000
0.5799623728 0.4635800123 0.0000000000
0.6201879382 0.4582727849 0.0000000000
0.6618972421 0.4522996843 0.0000000000
0.7052032351 0.4455655813 0.0000000000
0.7502193451 0.4379582703 0.0000000000
0.7874051929 0.4293441474 0.0000000000
0.8145167232 0.4195623696 0.0000000000
0.8367240429 0.4084170163 0.0000000000
0.8558295965 0.3956654668 0.0000000000
0.8728049397 0.3810016811 0.0000000000
0.8882339597 0.3640303016 0.0000000000
0.9024949670 0.3442246616 0.0000000000
0.9158471227 0.3208549321 0.0000000000
0.9284754992 0.2928536236 0.0000000000
0.9405167103 0.2585357130 0.0000000000
0.9520747066 0.2149107009 0.0000000000
0.9632299542 0.1554806679 0.0000000000
0.9740462303 0.0591635853 0.0000000000
0.0473343655 0.5386284590 0.0000000000
0.0956979096 0.5375779271 0.0000000000
0.1353880614 0.5365197659 0.0000000000
0.1707395315 0.5353698730 0.0000000000
0.2043403238 0.5340886712 0.0000000000
0.2370167971 0.5326606631 0.0000000000
0.2692905068 0.5310686827 0.0000000000
0.3015233278 0.5292931199 0.0000000000
0.3339853585 0.5273121595 0.0000000000
0.3668904603 0.5251010060 0.0000000000
0.4004162252 0.5226317644 0.0000000000
0.4347163439 0.5198727250 0.0000000000
0.4699285626 0.5167879462 0.0000000000
0.5061796308 0.5133364797 0.0000000000
0.5435892344 0.5094717145 0.0000000000
0.5822724700 0.5051398873 0.0000000000
0.6223416328 0.5002796054 0.0000000000
0.6639079452 0.4948195219 0.0000000000
0.7070827484 0.4886770546 0.0000000000
0.7519781590 0.4817554951 0.0000000000
0.7884532213 0.4739409983 0.0000000000
0.8152660131 0.4650984108 0.0000000000
0.8372930288 0.4550655782 0.0000000000
0.8562784791 0.4436455667 0.0000000000
0.8731685281 0.4305957556 0.0000000000
0.8885341287 0.4156119227 0.0000000000
0.9027464390 0.3983035684 0.0000000000
0.9160601497 0.3781555295 0.0000000000
0.9286575317 0.3544622958 0.0000000000
0.9406734109 0.3262094259 0.0000000000
0.9522104263 0.2918330729 0.0000000000
0.9633480906 0.2486626208 0.0000000000
0.9741495252 0.1912846565 0.0000000000
0.0603320003 0.5785372257 0.0000000000
0.1071307063 0.5775619149 0.0000000000
0.1446074843 0.5765798688 0.0000000000
0.1785530150 0.5755128860 0.0000000000
0.2111362815 0.5743244290 0.0000000000
0.2430303693 0.5730002522 0.0000000000
0.2746770680 0.5715245605 0.0000000000
0.3063922226 0.5698794127 0.0000000000
0.3384170830 0.5680447817 0.0000000000
0.3709464371 0.5659981370 0.0000000000
0.4041447639 0.5637139678 0.0000000000
0.4381562769 0.5611634254 0.0000000000
0.4731117189 0.5583139658 0.0000000000
0.5091326237 0.5551285744 0.0000000000
0.5463345051 0.5515652895 0.0000000000
0.5848292112 0.5475759506 0.0000000000
0.6247265339 0.5431057215 0.0000000000
0.6661355495 0.5380914211 0.0000000000
0.7091658115 0.5324601531 0.0000000000
0.7539281249 0.5261273384 0.0000000000
0.7896024585 0.5189943314 0.0000000000
0.8160908222 0.5109450817 0.0000000000
0.8379207850 0.5018421412 0.0000000000
0.8567745090 0.4915210009 0.0000000000
0.8735707402 0.4797827005 0.0000000000
0.8888664842 0.4663828313 0.0000000000
0.9030250311 0.4510163367 0.0000000000
0.9162962437 0.4332941771 0.0000000000
0.9288594127 0.4127066135 0.0000000000
0.9408472776 0.3885629773 0.0000000000
0.9523611069 0.3598824739 0.0000000000
0.9634792209 0.3251829147 0.0000000000
0.9742642045 0.2820045650 0.0000000000
0.0747805312 0.6197707057 0.0000000000
0.1189918891 0.6188634634 0.0000000000
0.1543794423 0.6179500818 0.0000000000
0.1869346052 0.6169580221 0.0000000000
0.2184833437 0.6158532500 0.0000000000
0.2495670319 0.6146226525 0.0000000000
0.2805556655 0.6132516861 0.0000000000
0.3117220700 0.6117238402 0.0000000000
0.3432799280 0.6100207567 0.0000000000
0.3754055202 0.6081216335 0.0000000000
0.4082502425 0.6060032248 0.0000000000
0.4419488907 0.6036391258 0.0000000000
0.4766250253 0.6009996533 0.0000000000
0.5123948455 0.5980511904 0.0000000000
0.5493695736 0.5947556496 0.0000000000
0.5876578093 0.5910695791 0.0000000000
0.6273664832 0.5869436264 0.0000000000
0.6686025858 0.5823212266 0.0000000000
0.7114737630 0.5771374106 0.0000000000
0.7560893297 0.5713172555 0.0000000000
0.7908608913 0.5647741556 0.0000000000
0.8169978261 0.5574067831 0.0000000000
0.8386129737 0.5490966439 0.0000000000
0.8573223948 0.5397033095 0.0000000000
0.8740155697 0.5290590525 0.0000000000
0.8892343640 0.5169618130 0.0000000000
0.9033335447 0.5031639934 0.0000000000
0.9165578485 0.4873577058 0.0000000000
0.9290832281 0.4691523314 0.0000000000
0.9410401583 0.4480394125 0.0000000000
0.9525281787 0.4233350158 0.0000000000
0.9636247754 0.3940793574 0.0000000000
0.9743914604 0.3588428795 0.0000000000
0.0907933339 0.6624515057 0.0000000000
0.1313131452 0.6616060734 0.0000000000
0.1647278816 0.6607551575 0.0000000000
0.1959125996 0.6598310471 0.0000000000
0.2264139354 0.6588021517 0.0000000000
0.2566618323 0.6576564312 0.0000000000
0.2869625390 0.6563803554 0.0000000000
0.3175493479 0.6549586654 0.0000000000
0.3486100435 0.6533744335 0.0000000000
0.3803029954 0.6516085863 0.0000000000
0.4127668738 0.6496396065 0.0000000000
0.4461270571 0.6474434137 0.0000000000
0.4804999828 0.6449927092 0.0000000000
0.5159963965 0.6422567964 0.0000000000
0.5527232289 0.6392009854 0.0000000000
0.5907854438 0.6357858181 0.0000000000
0.6302874684 0.6319664121 0.0000000000
0.6713336706 0.6276919246 0.0000000000
0.7140299678 0.6229038835 0.0000000000
0.7584840059 0.6175353527 0.0000000000
0.7922371030 0.6115092635 0.0000000000
