70 CGC LUTs/Log to Rec709/Blackmagic Cinema Camera Film to Rec709.cube
LUT_3D_SIZE 33
0.0000000000 0.0000000000 0.0000000000
0.0206323788 0.0000000000 0.0000000000
0.0733479485 0.0000000000 0.0000000000
0.1250998229 0.0000000000 0.0000000000
0.1717638820 0.0000000000 0.0000000000
0.2166144103 0.0000000000 0.0000000000
0.2612044215 0.0000000000 0.0000000000
0.3064717948 0.0000000000 0.0000000000
0.3530775309 0.0000000000 0.0000000000
0.4015429914 0.0000000000 0.0000000000
0.4523156285 0.0000000000 0.0000000000
0.5058041215 0.0000000000 0.0000000000
0.5623990893 0.0000000000 0.0000000000
0.6224865317 0.0000000000 0.0000000000
0.6864566803 0.0000000000 0.0000000000
0.7547107339 0.0000000000 0.0000000000
0.8052539825 0.0000000000 0.0000000000
0.8402388096 0.0000000000 0.0000000000
0.8682669401 0.0000000000 0.0000000000
0.8922739029 0.0000000000 0.0000000000
0.9136880636 0.0000000000 0.0000000000
0.9333119988 0.0000000000 0.0000000000
0.9516411424 0.0000000000 0.0000000000
0.9690020084 0.0000000000 0.0000000000
0.9856208563 0.0000000000 0.0000000000
1.0000000000 0.0000000000 0.0000000000
1.0000000000 0.0000000000 0.0000000000
1.0000000000 0.0000000000 0.0000000000
1.0000000000 0.0000000000 0.0000000000
1.0000000000 0.0000000000 0.0000000000
1.0000000000 0.0000000000 0.0000000000
1.0000000000 0.0000000000 0.0000000000
1.0000000000 0.0000000000 0.0000000000
0.0000000000 0.0134249032 0.0000000000
0.0015194302 0.0050116968 0.0000000000
0.0542350002 0.0000000000 0.0000000000
0.1097976491 0.0000000000 0.0000000000
0.1598025411 0.0000000000 0.0000000000
0.2067763656 0.0000000000 0.0000000000
0.2528752983 0.0000000000 0.0000000000
0.2992886603 0.0000000000 0.0000000000
0.3468036652 0.0000000000 0.0000000000
0.3960130215 0.0000000000 0.0000000000
0.4474080503 0.0000000000 0.0000000000
0.5014261603 0.0000000000 0.0000000000
0.5584776998 0.0000000000 0.0000000000
0.6189627647 0.0000000000 0.0000000000
0.6832820773 0.0000000000 0.0000000000
0.7518447042 0.0000000000 0.0000000000
0.8038610816 0.0000000000 0.0000000000
0.8393403888 0.0000000000 0.0000000000
0.8676341176 0.0000000000 0.0000000000
0.8918050528 0.0000000000 0.0000000000
0.9133291245 0.0000000000 0.0000000000
0.9330310225 0.0000000000 0.0000000000
0.9514175057 0.0000000000 0.0000000000
0.9688219428 0.0000000000 0.0000000000
0.9854744077 0.0000000000 0.0000000000
1.0000000000 0.0000000000 0.0000000000
1.0000000000 0.0000000000 0.0000000000
1.0000000000 0.0000000000 0.0000000000
1.0000000000 0.0000000000 0.0000000000
1.0000000000 0.0000000000 0.0000000000
1.0000000000 0.0000000000 0.0000000000
1.0000000000 0.0000000000 0.0000000000
1.0000000000 0.0000000000 0.0000000000
0.0000000000 0.0589522421 0.0000000000
0.0000000000 0.0505390354 0.0000000000
0.0351135731 0.0421220995 0.0000000000
0.0929762423 0.0328507908 0.0000000000
0.1471182406 0.0218876600 0.0000000000
0.1965307146 0.0089239841 0.0000000000
0.2442940772 0.0000000000 0.0000000000
0.2919403017 0.0000000000 0.0000000000
0.3404171169 0.0000000000 0.0000000000
0.3904039860 0.0000000000 0.0000000000
0.4424437881 0.0000000000 0.0000000000
0.4970068336 0.0000000000 0.0000000000
0.5545257330 0.0000000000 0.0000000000
0.6154161692 0.0000000000 0.0000000000
0.6800901890 0.0000000000 0.0000000000
0.7489655614 0.0000000000 0.0000000000
0.8024430275 0.0000000000 0.0000000000
0.8384314179 0.0000000000 0.0000000000
0.8669960499 0.0000000000 0.0000000000
0.8913332224 0.0000000000 0.0000000000
0.9129684567 0.0000000000 0.0000000000
0.9327489138 0.0000000000 0.0000000000
0.9511932135 0.0000000000 0.0000000000
0.9686413407 0.0000000000 0.0000000000
0.9853276610 0.0000000000 0.0000000000
1.0000000000 0.0000000000 0.0000000000
1.0000000000 0.0000000000 0.0000000000
1.0000000000 0.0000000000 0.0000000000
1.0000000000 0.0000000000 0.0000000000
1.0000000000 0.0000000000 0.0000000000
1.0000000000 0.0000000000 0.0000000000
1.0000000000 0.0000000000 0.0000000000
1.0000000000 0.0000000000 0.0000000000
0.0000000000 0.1070984825 0.0000000000
0.0000000000 0.0997885764 0.0000000000
0.0140512064 0.0921308845 0.0000000000
0.0721177235 0.0832367167 0.0000000000
0.1321509928 0.0720363036 0.0000000000
0.1847176552 0.0590726249 0.0000000000
0.2345277071 0.0437433459 0.0000000000
0.2836455405 0.0256167911 0.0000000000
0.3332483768 0.0041825138 0.0000000000
0.3841332495 0.0000000000 0.0000000000
0.4369104207 0.0000000000 0.0000000000
0.4920921028 0.0000000000 0.0000000000
0.5501385331 0.0000000000 0.0000000000
0.6114844680 0.0000000000 0.0000000000
0.6765557528 0.0000000000 0.0000000000
0.7457802892 0.0000000000 0.0000000000
0.8008514643 0.0000000000 0.0000000000
0.8374181390 0.0000000000 0.0000000000
0.8662872910 0.0000000000 0.0000000000
0.8908102512 0.0000000000 0.0000000000
0.9125692844 0.0000000000 0.0000000000
0.9324370027 0.0000000000 0.0000000000
0.9509453773 0.0000000000 0.0000000000
0.9684419632 0.0000000000 0.0000000000
0.9851657152 0.0000000000 0.0000000000
1.0000000000 0.0000000000 0.0000000000
1.0000000000 0.0000000000 0.0000000000
1.0000000000 0.0000000000 0.0000000000
1.0000000000 0.0000000000 0.0000000000
1.0000000000 0.0000000000 0.0000000000
1.0000000000 0.0000000000 0.0000000000
1.0000000000 0.0000000000 0.0000000000
1.0000000000 0.0000000000 0.0000000000
0.0000000000 0.1515571028 0.0000000000
0.0000000000 0.1458446831 0.0000000000
0.0000000000 0.1399618834 0.0000000000
0.0472119115 0.1332700104 0.0000000000
0.1127612069 0.1250396222 0.0000000000
0.1699228138 0.1148034483 0.0000000000
0.2225081027 0.1018678993 0.0000000000
0.2735444009 0.0851189792 0.0000000000
0.3245793879 0.0634822473 0.0000000000
0.3765874207 0.0381366573 0.0000000000
0.4302758574 0.0081660189 0.0000000000
0.4862153232 0.0000000000 0.0000000000
0.5449035168 0.0000000000 0.0000000000
0.6068007350 0.0000000000 0.0000000000
0.6723507643 0.0000000000 0.0000000000
0.7419947386 0.0000000000 0.0000000000
0.7989279032 0.0000000000 0.0000000000
0.8362032771 0.0000000000 0.0000000000
0.8654410243 0.0000000000 0.0000000000
0.8901875019 0.0000000000 0.0000000000
0.9120946527 0.0000000000 0.0000000000
0.9320666194 0.0000000000 0.0000000000
0.9506513476 0.0000000000 0.0000000000
0.9682055712 0.0000000000 0.0000000000
0.9849737883 0.0000000000 0.0000000000
1.0000000000 0.0000000000 0.0000000000
1.0000000000 0.0000000000 0.0000000000
1.0000000000 0.0000000000 0.0000000000
1.0000000000 0.0000000000 0.0000000000
1.0000000000 0.0000000000 0.0000000000
1.0000000000 0.0000000000 0.0000000000
1.0000000000 0.0000000000 0.0000000000
1.0000000000 0.0000000000 0.0000000000
0.0000000000 0.1940483749 0.0000000000
0.0000000000 0.1893509924 0.0000000000
0.0000000000 0.1845560074 0.0000000000
0.0177613012 0.1791569293 0.0000000000
0.0865824893 0.1726025790 0.0000000000
0.1510308981 0.1645936817 0.0000000000
0.2075454742 0.1547217816 0.0000000000
0.2611503005 0.1424061209 0.0000000000
0.3140400946 0.1267715991 0.0000000000
0.3674713671 0.1063798964 0.0000000000
0.4222970903 0.0782867298 0.0000000000
0.4791716933 0.0428470671 0.0000000000
0.5386453271 0.0009404022 0.0000000000
0.6012128592 0.0000000000 0.0000000000
0.6673420072 0.0000000000 0.0000000000
0.7374913096 0.0000000000 0.0000000000
0.7965922356 0.0000000000 0.0000000000
0.8347425461 0.0000000000 0.0000000000
0.8644286990 0.0000000000 0.0000000000
0.8894447684 0.0000000000 0.0000000000
0.9115298390 0.0000000000 0.0000000000
0.9316264391 0.0000000000 0.0000000000
0.9503022432 0.0000000000 0.0000000000
0.9679251313 0.0000000000 0.0000000000
0.9847462177 0.0000000000 0.0000000000
1.0000000000 0.0000000000 0.0000000000
1.0000000000 0.0000000000 0.0000000000
1.0000000000 0.0000000000 0.0000000000
1.0000000000 0.0000000000 0.0000000000
1.0000000000 0.0000000000 0.0000000000
1.0000000000 0.0000000000 0.0000000000
1.0000000000 0.0000000000 0.0000000000
1.0000000000 0.0000000000 0.0000000000
0.0000000000 0.2361548990 0.0000000000
0.0000000000 0.2321785986 0.0000000000
0.0000000000 0.2281412482 0.0000000000
0.0000000000 0.2236224264 0.0000000000
0.0515990220 0.2181771249 0.0000000000
0.1261530817 0.2115869671 0.0000000000
0.1886114776 0.2035667300 0.0000000000
0.2457863092 0.1937342435 0.0000000000
0.3011371791 0.1815598309 0.0000000000
0.3564026952 0.1662739962 0.0000000000
0.4126653671 0.1466801018 0.0000000000
0.4707050323 0.1207108125 0.0000000000
0.5311468840 0.0840813294 0.0000000000
0.5945340991 0.0343029238 0.0000000000
0.6613671184 0.0000000000 0.0000000000
0.7321275473 0.0000000000 0.0000000000
0.7937397957 0.0000000000 0.0000000000
0.8329802752 0.0000000000 0.0000000000
0.8632149696 0.0000000000 0.0000000000
0.8885575533 0.0000000000 0.0000000000
0.9108567834 0.0000000000 0.0000000000
0.9311028123 0.0000000000 0.0000000000
0.9498875141 0.0000000000 0.0000000000
0.9675922394 0.0000000000 0.0000000000
0.9844763279 0.0000000000 0.0000000000
1.0000000000 0.0000000000 0.0000000000
1.0000000000 0.0000000000 0.0000000000
1.0000000000 0.0000000000 0.0000000000
1.0000000000 0.0000000000 0.0000000000
1.0000000000 0.0000000000 0.0000000000
1.0000000000 0.0000000000 0.0000000000
1.0000000000 0.0000000000 0.0000000000
1.0000000000 0.0000000000 0.0000000000
0.0000000000 0.2788106501 0.0000000000
0.0000000000 0.2753818035 0.0000000000
0.0000000000 0.2719126046 0.0000000000
0.0000000000 0.2680447996 0.0000000000
0.0104194880 0.2634058893 0.0000000000
0.0915151089 0.2578250766 0.0000000000
0.1640430689 0.2510850430 0.0000000000
0.2264633179 0.2429045886 0.0000000000
0.2851911783 0.2329115719 0.0000000000
0.3428744078 0.2205987871 0.0000000000
0.4009821117 0.2052463442 0.0000000000
0.4604905546 0.1857724488 0.0000000000
0.5221369863 0.1604063064 0.0000000000
0.5865337849 0.1258161217 0.0000000000
0.6542270780 0.0737534165 0.0000000000
0.7257299423 0.0044644992 0.0000000000
0.7902306914 0.0000000000 0.0000000000
0.8308452964 0.0000000000 0.0000000000
0.8617557287 0.0000000000 0.0000000000
0.8874956965 0.0000000000 0.0000000000
0.9100534916 0.0000000000 0.0000000000
0.9304791689 0.0000000000 0.0000000000
0.9493942857 0.0000000000 0.0000000000
0.9671967626 0.0000000000 0.0000000000
0.9841560125 0.0000000000 0.0000000000
1.0000000000 0.0000000000 0.0000000000
1.0000000000 0.0000000000 0.0000000000
1.0000000000 0.0000000000 0.0000000000
1.0000000000 0.0000000000 0.0000000000
1.0000000000 0.0000000000 0.0000000000
1.0000000000 0.0000000000 0.0000000000
1.0000000000 0.0000000000 0.0000000000
1.0000000000 0.0000000000 0.0000000000
0.0000000000 0.3226631284 0.0000000000
0.0000000000 0.3196685910 0.0000000000
0.0000000000 0.3166462779 0.0000000000
0.0000000000 0.3132857978 0.0000000000
0.0000000000 0.3092683852 0.0000000000
0.0429174788 0.3044546545 0.0000000000
0.1307754517 0.2986703515 0.0000000000
0.2016304135 0.2916949689 0.0000000000
0.2652239203 0.2832451463 0.0000000000
0.3261937797 0.2729490101 0.0000000000
0.3867212534 0.2603057325 0.0000000000
0.4481100738 0.2446156591 0.0000000000
0.5112723708 0.2248512805 0.0000000000
0.5769237876 0.1993885636 0.0000000000
0.6456758976 0.1653466821 0.0000000000
0.7180857658 0.1164460629 0.0000000000
0.7858732939 0.0384700969 0.0000000000
0.8282453418 0.0000000000 0.0000000000
0.8599951863 0.0000000000 0.0000000000
0.8862216473 0.0000000000 0.0000000000
0.9090932012 0.0000000000 0.0000000000
0.9297354221 0.0000000000 0.0000000000
0.9488071203 0.0000000000 0.0000000000
0.9667266607 0.0000000000 0.0000000000
0.9837755561 0.0000000000 0.0000000000
1.0000000000 0.0000000000 0.0000000000
1.0000000000 0.0000000000 0.0000000000
1.0000000000 0.0000000000 0.0000000000
1.0000000000 0.0000000000 0.0000000000
1.0000000000 0.0000000000 0.0000000000
1.0000000000 0.0000000000 0.0000000000
1.0000000000 0.0000000000 0.0000000000
1.0000000000 0.0000000000 0.0000000000
0.0000000000 0.3682170212 0.0000000000
0.0000000000 0.3655776978 0.0000000000
0.0000000000 0.3629187644 0.0000000000
0.0000000000 0.3599680960 0.0000000000
0.0000000000 0.3564487994 0.0000000000
0.0000000000 0.3522439301 0.0000000000
0.0815936998 0.3472091258 0.0000000000
0.1685717404 0.3411644697 0.0000000000
0.2397345006 0.3338832557 0.0000000000
0.3053743839 0.3250754178 0.0000000000
0.3691682518 0.3143628538 0.0000000000
0.4330135882 0.3012405336 0.0000000000
0.4981121421 0.2850110233 0.0000000000
0.5653401613 0.2646667361 0.0000000000
0.6354068518 0.2386531830 0.0000000000
0.7089323401 0.2043192089 0.0000000000
0.7803959250 0.1562988609 0.0000000000
0.8250581622 0.0786810145 0.0000000000
0.8578624129 0.0000000000 0.0000000000
0.8846885562 0.0000000000 0.0000000000
0.9079426527 0.0000000000 0.0000000000
0.9288470149 0.0000000000 0.0000000000
0.9481073022 0.0000000000 0.0000000000
0.9661672115 0.0000000000 0.0000000000
0.9833233356 0.0000000000 0.0000000000
0.9997831583 0.0000000000 0.0000000000
1.0000000000 0.0000000000 0.0000000000
1.0000000000 0.0000000000 0.0000000000
1.0000000000 0.0000000000 0.0000000000
1.0000000000 0.0000000000 0.0000000000
1.0000000000 0.0000000000 0.0000000000
1.0000000000 0.0000000000 0.0000000000
1.0000000000 0.0000000000 0.0000000000
0.0000000000 0.4159014523 0.0000000000
0.0000000000 0.4135593176 0.0000000000
0.0000000000 0.4112029672 0.0000000000
0.0000000000 0.4085919559 0.0000000000
0.0000000000 0.4054831564 0.0000000000
0.0000000000 0.4017765522 0.0000000000
0.0132590095 0.3973498344 0.0000000000
0.1215131655 0.3920522928 0.0000000000
0.2061846256 0.3856964707 0.0000000000
0.2789264321 0.3780469000 0.0000000000
0.3473140597 0.3688033819 0.0000000000
0.4144576192 0.3575765491 0.0000000000
0.4820778668 0.3438495994 0.0000000000
0.5513160229 0.3269149661 0.0000000000
0.6230328083 0.3057624996 0.0000000000
0.6979423165 0.2788611650 0.0000000000
0.7733969688 0.2436710149 0.0000000000
0.8211187124 0.1953008324 0.0000000000
0.8552652001 0.1210769713 0.0000000000
0.8828371167 0.0000000000 0.0000000000
0.9065605402 0.0000000000 0.0000000000
0.9277836680 0.0000000000 0.0000000000
0.9472717643 0.0000000000 0.0000000000
0.9655005932 0.0000000000 0.0000000000
0.9827853441 0.0000000000 0.0000000000
0.9993450642 0.0000000000 0.0000000000
1.0000000000 0.0000000000 0.0000000000
1.0000000000 0.0000000000 0.0000000000
1.0000000000 0.0000000000 0.0000000000
1.0000000000 0.0000000000 0.0000000000
1.0000000000 0.0000000000 0.0000000000
1.0000000000 0.0000000000 0.0000000000
1.0000000000 0.0000000000 0.0000000000
0.0000000000 0.4661058784 0.0000000000
0.0000000000 0.4640165567 0.0000000000
0.0000000000 0.4619168043 0.0000000000
0.0000000000 0.4595927298 0.0000000000
0.0000000000 0.4568292201 0.0000000000
0.0000000000 0.4535396099 0.0000000000
0.0000000000 0.4496185482 0.0000000000
0.0462751538 0.4449373186 0.0000000000
0.1595158130 0.4393375218 0.0000000000
0.2443928272 0.4326226413 0.0000000000
0.3196530938 0.4245461524 0.0000000000
0.3913989961 0.4147949219 0.0000000000
0.4623907208 0.4029641747 0.0000000000
0.5342404246 0.3885192275 0.0000000000
0.6080577374 0.3707329631 0.0000000000
0.6847029924 0.3485766351 0.0000000000
0.7642480135 0.3205114007 0.0000000000
0.8161965013 0.2840360105 0.0000000000
0.8520815372 0.2345009595 0.0000000000
0.8805913329 0.1607598066 0.0000000000
0.9048949480 0.0222662017 0.0000000000
0.9265077710 0.0000000000 0.0000000000
0.9462724328 0.0000000000 0.0000000000
0.9647051096 0.0000000000 0.0000000000
0.9821444154 0.0000000000 0.0000000000
0.9988239408 0.0000000000 0.0000000000
1.0000000000 0.0000000000 0.0000000000
1.0000000000 0.0000000000 0.0000000000
1.0000000000 0.0000000000 0.0000000000
1.0000000000 0.0000000000 0.0000000000
1.0000000000 0.0000000000 0.0000000000
1.0000000000 0.0000000000 0.0000000000
1.0000000000 0.0000000000 0.0000000000
0.0000000000 0.5192006826 0.0000000000
0.0000000000 0.5173293352 0.0000000000
0.0000000000 0.5154501796 0.0000000000
0.0000000000 0.5133720636 0.0000000000
0.0000000000 0.5109035969 0.0000000000
0.0000000000 0.5079688430 0.0000000000
0.0000000000 0.5044760704 0.0000000000
0.0000000000 0.5003136992 0.0000000000
0.0855083168 0.4953458011 0.0000000000
0.1970892400 0.4894050360 0.0000000000
0.2837478220 0.4822842181 0.0000000000
0.3622956276 0.4737239778 0.0000000000
0.4379634559 0.4633953869 0.0000000000
0.5132930279 0.4508747756 0.0000000000
0.5898340940 0.4356043935 0.0000000000
0.6686862111 0.4168297350 0.0000000000
0.7507212162 0.3934908807 0.0000000000
0.8099581003 0.3640180826 0.0000000000
0.8481465578 0.3258992136 0.0000000000
0.8778521419 0.2745846212 0.0000000000
0.9028798342 0.1997408718 0.0000000000
0.9249724746 0.0595202446 0.0000000000
0.9450744390 0.0000000000 0.0000000000
0.9637541771 0.0000000000 0.0000000000
0.9813799262 0.0000000000 0.0000000000
0.9982033372 0.0000000000 0.0000000000
1.0000000000 0.0000000000 0.0000000000
1.0000000000 0.0000000000 0.0000000000
1.0000000000 0.0000000000 0.0000000000
1.0000000000 0.0000000000 0.0000000000
1.0000000000 0.0000000000 0.0000000000
1.0000000000 0.0000000000 0.0000000000
1.0000000000 0.0000000000 0.0000000000
0.0000000000 0.5755505562 0.0000000000
0.0000000000 0.5738689899 0.0000000000
0.0000000000 0.5721815228 0.0000000000
0.0000000000 0.5703167915 0.0000000000
0.0000000000 0.5681034923 0.0000000000
0.0000000000 0.5654746890 0.0000000000
0.0000000000 0.5623497367 0.0000000000
0.0000000000 0.5586310625 0.0000000000
0.0000000000 0.5542003512 0.0000000000
0.1251509637 0.5489132404 0.0000000000
0.2350974530 0.5425925851 0.0000000000
0.3246861994 0.5350188613 0.0000000000
0.4072006345 0.5259178877 0.0000000000
0.4873335660 0.5149427056 0.0000000000
0.5674941540 0.5016471148 0.0000000000
0.6492032409 0.4854458272 0.0000000000
0.7335669398 0.4655500650 0.0000000000
0.8018960357 0.4408579171 0.0000000000
0.8432303071 0.4097504616 0.0000000000
0.8744877577 0.3696674109 0.0000000000
0.9004298449 0.3160630763 0.0000000000
0.9231183529 0.2390113920 0.0000000000
0.9436344504 0.1023315564 0.0000000000
0.9626150131 0.0000000000 0.0000000000
0.9804664850 0.0000000000 0.0000000000
0.9974632263 0.0000000000 0.0000000000
1.0000000000 0.0000000000 0.0000000000
1.0000000000 0.0000000000 0.0000000000
1.0000000000 0.0000000000 0.0000000000
1.0000000000 0.0000000000 0.0000000000
1.0000000000 0.0000000000 0.0000000000
1.0000000000 0.0000000000 0.0000000000
1.0000000000 0.0000000000 0.0000000000
0.0000000000 0.6355233192 0.0000000000
0.0000000000 0.6340084076 0.0000000000
0.0000000000 0.6324889660 0.0000000000
0.0000000000 0.6308108568 0.0000000000
0.0000000000 0.6288204193 0.0000000000
0.0000000000 0.6264581084 0.0000000000
0.0000000000 0.6236525774 0.0000000000
0.0000000000 0.6203178167 0.0000000000
0.0000000000 0.6163499355 0.0000000000
0.0000000000 0.6116230488 0.0000000000
0.1630636752 0.6059835553 0.0000000000
0.2741329372 0.5992429852 0.0000000000
0.3675836027 0.5911682844 0.0000000000
0.4546983242 0.5814685822 0.0000000000
0.5398360491 0.5697762966 0.0000000000
0.6253334284 0.5556195974 0.0000000000
0.7127078176 0.5383812189 0.0000000000
0.7911847830 0.5172317028 0.0000000000
0.8369999528 0.4910177886 0.0000000000
0.8703186512 0.4580553174 0.0000000000
0.8974329233 0.4157060385 0.0000000000
0.9208692312 0.3593572080 0.0000000000
0.9418976307 0.2792303264 0.0000000000
0.9612467885 0.1428441852 0.0000000000
0.9793727398 0.0000000000 0.0000000000
0.9965791702 0.0000000000 0.0000000000
1.0000000000 0.0000000000 0.0000000000
1.0000000000 0.0000000000 0.0000000000
1.0000000000 0.0000000000 0.0000000000
1.0000000000 0.0000000000 0.0000000000
1.0000000000 0.0000000000 0.0000000000
1.0000000000 0.0000000000 0.0000000000
1.0000000000 0.0000000000 0.0000000000
0.0000000000 0.6994965672 0.0000000000
0.0000000000 0.6981289983 0.0000000000
0.0000000000 0.6967578530 0.0000000000
0.0000000000 0.6952442527 0.0000000000
0.0000000000 0.6934498549 0.0000000000
0.0000000000 0.6913215518 0.0000000000
0.0000000000 0.6887958646 0.0000000000
0.0000000000 0.6857964396 0.0000000000
0.0000000000 0.6822314858 0.0000000000
0.0000000000 0.6779901981 0.0000000000
0.0286612380 0.6729381680 0.0000000000
0.2006470114 0.6669116020 0.0000000000
0.3146536350 0.6597096324 0.0000000000
0.4127839208 0.6510841846 0.0000000000
0.5051141977 0.6407257318 0.0000000000
0.5958046913 0.6282435060 0.0000000000
0.6871641874 0.6131371260 0.0000000000
0.7763463259 0.5947527289 0.0000000000
0.8289493322 0.5722144246 0.0000000000
0.8650922775 0.5443083048 0.0000000000
0.8937386274 0.5092708468 0.0000000000
0.9181257486 0.4643601477 0.0000000000
0.9397943020 0.4048396349 0.0000000000
0.9595983028 0.3208955824 0.0000000000
0.9780598879 0.1819909811 0.0000000000
0.9955211282 0.0000000000 0.0000000000
1.0000000000 0.0000000000 0.0000000000
1.0000000000 0.0000000000 0.0000000000
1.0000000000 0.0000000000 0.0000000000
1.0000000000 0.0000000000 0.0000000000
1.0000000000 0.0000000000 0.0000000000
1.0000000000 0.0000000000 0.0000000000
1.0000000000 0.0000000000 0.0000000000
0.0000000000 0.7666314244 0.0000000000
0.0000000000 0.7656423450 0.0000000000
0.0000000000 0.7646405101 0.0000000000
0.0000000000 0.7635223269 0.0000000000
0.0000000000 0.7621796727 0.0000000000
0.0000000000 0.7604765892 0.0000000000
0.0000000000 0.7581977248 0.0000000000
0.0000000000 0.7554934621 0.0000000000
0.0000000000 0.7522822022 0.0000000000
0.0000000000 0.7484657168 0.0000000000
0.0000000000 0.7439255118 0.0000000000
0.0644879714 0.7385178804 0.0000000000
0.2387296408 0.7320680022 0.0000000000
0.3570465744 0.7243612409 0.0000000000
0.4606162310 0.7151328325 0.0000000000
0.5587767363 0.7040527463 0.0000000000
0.6555853486 0.6907047629 0.0000000000
0.7533577085 0.6745563149 0.0000000000
0.8182551861 0.6549128890 0.0000000000
0.8584387302 0.6308459640 0.0000000000
0.8891389966 0.6010724902 0.0000000000
0.9147559404 0.5637360811 0.0000000000
0.9372339249 0.5159675479 0.0000000000
0.9576042295 0.4528587759 0.0000000000
0.9764792323 0.3644207418 0.0000000000
0.9942516685 0.2210336030 0.0000000000
1.0000000000 0.0000000000 0.0000000000
1.0000000000 0.0000000000 0.0000000000
1.0000000000 0.0000000000 0.0000000000
1.0000000000 0.0000000000 0.0000000000
1.0000000000 0.0000000000 0.0000000000
1.0000000000 0.0000000000 0.0000000000
1.0000000000 0.0000000000 0.0000000000
0.0000000000 0.8121466637 0.0000000000
0.0000000000 0.8115868568 0.0000000000
0.0000000000 0.8110228777 0.0000000000
0.0000000000 0.8103970289 0.0000000000
0.0000000000 0.8096506000 0.0000000000
0.0000000000 0.8087589741 0.0000000000
0.0000000000 0.8076916933 0.0000000000
0.0000000000 0.8064110875 0.0000000000
0.0000000000 0.8048699498 0.0000000000
0.0000000000 0.8030086160 0.0000000000
0.0000000000 0.8007504940 0.0000000000
0.0000000000 0.7979958057 0.0000000000
0.1051760986 0.7946115732 0.0000000000
0.2778871655 0.7904167771 0.0000000000
0.4016613960 0.7851561904 0.0000000000
0.5114060044 0.7784556746 0.0000000000
0.6160234809 0.7697362304 0.0000000000
0.7195398211 0.7575373054 0.0000000000
0.8034443855 0.7402498722 0.0000000000
0.8497864604 0.7192289233 0.0000000000
0.8833367229 0.6934873462 0.0000000000
0.9105798006 0.6616642475 0.0000000000
0.9340971708 0.6217971444 0.0000000000
0.9551806450 0.5708678961 0.0000000000
0.9745692015 0.5037532449 0.0000000000
0.9927242994 0.4101748466 0.0000000000
1.0000000000 0.2607513666 0.0000000000
1.0000000000 0.0000000000 0.0000000000
1.0000000000 0.0000000000 0.0000000000
1.0000000000 0.0000000000 0.0000000000
1.0000000000 0.0000000000 0.0000000000
1.0000000000 0.0000000000 0.0000000000
1.0000000000 0.0000000000 0.0000000000
0.0000000000 0.8453325629 0.0000000000
0.0000000000 0.8449625969 0.0000000000
0.0000000000 0.8445907831 0.0000000000
0.0000000000 0.8441792130 0.0000000000
0.0000000000 0.8436897993 0.0000000000
0.0000000000 0.8431072235 0.0000000000
0.0000000000 0.8424128294 0.0000000000
0.0000000000 0.8415839076 0.0000000000
0.0000000000 0.8405925632 0.0000000000
0.0000000000 0.8394042850 0.0000000000
0.0000000000 0.8379760981 0.0000000000
0.0000000000 0.8362539411 0.0000000000
0.0000000000 0.8341686130 0.0000000000
0.1437399983 0.8316308856 0.0000000000
0.3185687661 0.8285228610 0.0000000000
0.4488295913 0.8246854544 0.0000000000
0.5654826164 0.8198978305 0.0000000000
0.6772053242 0.8138418198 0.0000000000
0.7814620733 0.8060368896 0.0000000000
0.8381854892 0.7957081795 0.0000000000
0.8758869767 0.7814874649 0.0000000000
