70 CGC LUTs/Log to Rec709/Blackmagic 4K Film to Rec709.cube
LUT_3D_SIZE 5
0.0000000000 0.0000000000 0.0000000000
0.3004819155 0.0000000000 0.0000000000
0.6049766541 0.0000000000 0.0000000000
0.8702281117 0.0000000000 0.0000000000
0.9733237624 0.0000000000 0.0000000000
0.0000000000 0.2844364643 0.0000000000
0.3124282360 0.2628555894 0.0000000000
0.6110314131 0.2059954852 0.0000000000
0.8712556362 0.0000000000 0.0000000000
0.9736098647 0.0000000000 0.0000000000
0.0603320003 0.5785372257 0.0000000000
0.3384170830 0.5680447817 0.0000000000
0.6247265339 0.5431057215 0.0000000000
0.8735707402 0.4797827005 0.0000000000
0.9742642045 0.2820045650 0.0000000000
0.1908095479 0.8577924967 0.0000000000
0.3926754296 0.8558008671 0.0000000000
0.6554895639 0.8510223627 0.0000000000
0.8787231445 0.8386344910 0.0000000000
0.9757695794 0.7990898490 0.0000000000
0.3561810851 0.9651163220 0.0000000000
0.4969987273 0.9645974040 0.0000000000
0.7218489051 0.9633907080 0.0000000000
0.8895906210 0.9605044723 0.0000000000
0.9791738391 0.9533423185 0.0000000000
0.0000000000 0.0000000000 0.3427625000
0.2504914999 0.0000000000 0.3128270209
0.5813770890 0.0000000000 0.2311302871
0.8662013412 0.0000000000 0.0000000000
0.9722277522 0.0000000000 0.0000000000
0.0000000000 0.2860550880 0.2969722748
0.2644731402 0.2645924091 0.2623220384
0.5876869559 0.2081329823 0.1608829498
0.8672812581 0.0000000000 0.0000000000
0.9725177288 0.0000000000 0.0000000000
0.0000000000 0.5793459415 0.1531108320
0.2943728566 0.5688690543 0.0851970166
0.6019405723 0.5439692140 0.0000000000
0.8697119951 0.4807627797 0.0000000000
0.9731810093 0.2836357951 0.0000000000
0.1084183678 0.8579455614 0.0000000000
0.3550816476 0.8559577465 0.0000000000
0.6338719130 0.8511888385 0.0000000000
0.8751095533 0.8388286829 0.0000000000
0.9747066498 0.7994072437 0.0000000000
0.3144707978 0.9651566148 0.0000000000
0.4677925706 0.9646379352 0.0000000000
0.7024074197 0.9634318352 0.0000000000
0.8864433169 0.9605471492 0.0000000000
0.9781552553 0.9533889890 0.0000000000
0.0000000000 0.0000000000 0.6748222113
0.0720254928 0.0000000000 0.6601868272
0.5228769779 0.0000000000 0.6251343489
0.8560909629 0.0000000000 0.5340390801
0.9696480632 0.0000000000 0.1994787902
0.0000000000 0.2897477150 0.6528117061
0.1028434560 0.2685500085 0.6376391053
0.5299109817 0.2129826844 0.6011957526
0.8573146462 0.0000000000 0.5056165457
0.9699475169 0.0000000000 0.1163432822
0.0000000000 0.5812018514 0.5989190340
0.1579400450 0.5707605481 0.5822645426
0.5457387567 0.5459502935 0.5419231057
0.8600609899 0.4830099046 0.4330728948
0.9706322551 0.2873566747 0.0000000000
0.0000000000 0.8582964540 0.4475730658
0.2494461089 0.8563174605 0.4248724282
0.5809146166 0.8515704870 0.3674454987
0.8661220670 0.8392736316 0.1778170168
0.9722065926 0.8001327515 0.0000000000
0.1903096288 0.9652491808 0.0000000000
0.3924136460 0.9647310972 0.0000000000
0.6553344727 0.9635263681 0.0000000000
0.8786973357 0.9606451392 0.0000000000
0.9757618308 0.9534960985 0.0000000000
0.0000000000 0.0000000000 0.8978924155
0.0000000000 0.0000000000 0.8959128857
0.3497732878 0.0000000000 0.8911646605
0.8259655833 0.0000000000 0.8788641095
0.9632903337 0.0000000000 0.8397070169
0.0000000000 0.2981955409 0.8949145079
0.0000000000 0.2775815725 0.8928592205
0.3601781428 0.2239474654 0.8879213333
0.8277398348 0.0151180699 0.8750713468
0.9636144042 0.0000000000 0.8334373832
0.0000000000 0.5855056047 0.8876129985
0.0000000000 0.5751457810 0.8853594661
0.3830835521 0.5505410433 0.8799216747
0.8316787481 0.4882087409 0.8655994534
0.9643550515 0.2958669364 0.8168323040
0.0000000000 0.8591088653 0.8674620390
0.0000000000 0.8571500182 0.8645543456
0.4319037795 0.8524534702 0.8574362993
0.8401760459 0.8403016925 0.8378842473
0.9660559297 0.8017994761 0.7544017434
0.0000000000 0.9654645920 0.7796709538
0.0971116647 0.9649478793 0.7706683874
0.5285047889 0.9637464881 0.7436872125
0.8570702076 0.9608732462 0.6698349118
0.9698874354 0.9537454247 0.4498543143
0.0000000000 0.0405649953 0.9930490851
0.0000000000 0.0000000000 0.9924486279
0.0000000000 0.0000000000 0.9910499454
0.6431871653 0.0000000000 0.9876908064
0.9461606741 0.0000000000 0.9792653918
0.0000000000 0.3170869350 0.9921496511
0.0000000000 0.2976748049 0.9915423989
0.0000000000 0.2478941083 0.9901277423
0.6488664150 0.0661142617 0.9867289662
0.9465615749 0.0000000000 0.9781965017
0.0000000000 0.5954144001 0.9900414348
0.0000000000 0.5852379799 0.9894179702
0.0000000000 0.5610942245 0.9879650474
0.6617357731 0.5001177192 0.9844714999
0.9474763274 0.3148876429 0.9756821394
0.0000000000 0.8609718680 0.9848995209
0.0000000000 0.8590584397 0.9842346907
0.0000000000 0.8544753194 0.9826839566
0.6907554865 0.8426489234 0.9789474607
0.9495697021 0.8055564761 0.9694942832
0.0000000000 0.9659646153 0.9714530110
0.0000000000 0.9654511213 0.9706664681
0.0000000000 0.9642572999 0.9688271880
0.7538113594 0.9614025950 0.9643674493
0.9542489052 0.9543237090 0.9528930187
