70 CGC LUTs/Log to Rec709/Blackmagic Cinema Camera Film to Rec709.cube
LUT_3D_SIZE 5
0.0000000000 0.0000000000 0.0000000000
0.3530775309 0.0000000000 0.0000000000
0.8052539825 0.0000000000 0.0000000000
0.9856208563 0.0000000000 0.0000000000
1.0000000000 0.0000000000 0.0000000000
0.0000000000 0.3226631284 0.0000000000
0.2652239203 0.2832451463 0.0000000000
0.7858732939 0.0384700969 0.0000000000
0.9837755561 0.0000000000 0.0000000000
1.0000000000 0.0000000000 0.0000000000
0.0000000000 0.7666314244 0.0000000000
0.0000000000 0.7522822022 0.0000000000
0.6555853486 0.6907047629 0.0000000000
0.9764792323 0.3644207418 0.0000000000
1.0000000000 0.0000000000 0.0000000000
0.0000000000 0.9713879228 0.0000000000
0.0000000000 0.9704235196 0.0000000000
0.0000000000 0.9667139053 0.0000000000
0.9401968122 0.9507080317 0.0000000000
1.0000000000 0.8021253347 0.0000000000
0.0000000000 1.0000000000 0.0000000000
0.0000000000 1.0000000000 0.0000000000
0.0000000000 1.0000000000 0.0000000000
0.0000000000 1.0000000000 0.0000000000
1.0000000000 1.0000000000 0.0000000000
0.0000000000 0.0000000000 0.3551827371
0.3310362697 0.0000000000 0.3408120275
0.8003605008 0.0000000000 0.2811444402
0.9851163030 0.0000000000 0.0000000000
1.0000000000 0.0000000000 0.0000000000
0.0000000000 0.2814917564 0.2538457811
0.2359426320 0.2360480726 0.2339769602
0.7795914412 0.0000000000 0.1417433918
0.9832592607 0.0000000000 0.0000000000
1.0000000000 0.0000000000 0.0000000000
0.0000000000 0.7516247630 0.0000000000
0.0000000000 0.7356721163 0.0000000000
0.6440432668 0.6724578142 0.0000000000
0.9759137630 0.3281889558 0.0000000000
1.0000000000 0.0000000000 0.0000000000
0.0000000000 0.9703830481 0.0000000000
0.0000000000 0.9694064260 0.0000000000
0.0000000000 0.9656484723 0.0000000000
0.9393066764 0.9494057298 0.0000000000
1.0000000000 0.7934651375 0.0000000000
0.0000000000 1.0000000000 0.0000000000
0.0000000000 1.0000000000 0.0000000000
0.0000000000 1.0000000000 0.0000000000
0.0000000000 1.0000000000 0.0000000000
1.0000000000 1.0000000000 0.0000000000
0.0000000000 0.0000000000 0.8073340654
0.2325496823 0.0000000000 0.8042082191
0.7788742185 0.0000000000 0.7913169265
0.9832026958 0.0000000000 0.7105267048
1.0000000000 0.0000000000 0.0000000000
0.0000000000 0.0177428424 0.7855367064
0.0754529908 0.0000000000 0.7814111710
0.7492352128 0.0000000000 0.7637960315
0.9813003540 0.0000000000 0.6657146811
1.0000000000 0.0000000000 0.0000000000
0.0000000000 0.6872840524 0.6332054138
0.0000000000 0.6696823239 0.6252912879
0.5988322496 0.5990519524 0.5947368741
0.9737647176 0.1336043179 0.4587433636
1.0000000000 0.0000000000 0.0000000000
0.0000000000 0.9665129781 0.0000000000
0.0000000000 0.9654878378 0.0000000000
0.0000000000 0.9615373611 0.0000000000
0.9358906746 0.9443439841 0.0000000000
1.0000000000 0.7476410866 0.0000000000
0.0000000000 1.0000000000 0.0000000000
0.0000000000 1.0000000000 0.0000000000
0.0000000000 1.0000000000 0.0000000000
0.0000000000 1.0000000000 0.0000000000
1.0000000000 1.0000000000 0.0000000000
0.0000000000 0.0000000000 0.9865027666
0.0000000000 0.0000000000 0.9861724377
0.6341904998 0.0000000000 0.9849259257
0.9754363298 0.0000000000 0.9799745083
1.0000000000 0.0000000000 0.9576091766
0.0000000000 0.0000000000 0.9844232798
0.0000000000 0.0000000000 0.9840842485
0.5895798802 0.0000000000 0.9828046560
0.9733383656 0.0000000000 0.9777165055
1.0000000000 0.0000000000 0.9546127915
0.0000000000 0.3371646404 0.9761390090
0.0000000000 0.2995147705 0.9757630825
0.3772068620 0.0802519321 0.9743426442
0.9649754763 0.0000000000 0.9686689377
1.0000000000 0.0000000000 0.9423094392
0.0000000000 0.9497182369 0.9330390692
0.0000000000 0.9484528899 0.9323951602
0.0000000000 0.9435403347 0.9299425483
0.9213037491 0.9213833809 0.9198099375
1.0000000000 0.4491551518 0.8618721366
0.0000000000 1.0000000000 0.0000000000
0.0000000000 1.0000000000 0.0000000000
0.0000000000 1.0000000000 0.0000000000
0.0000000000 1.0000000000 0.0000000000
1.0000000000 1.0000000000 0.0000000000
0.0000000000 0.0000000000 1.0000000000
0.0000000000 0.0000000000 1.0000000000
0.0000000000 0.0000000000 1.0000000000
0.9359927773 0.0000000000 1.0000000000
1.0000000000 0.0000000000 1.0000000000
0.0000000000 0.0000000000 1.0000000000
0.0000000000 0.0000000000 1.0000000000
0.0000000000 0.0000000000 1.0000000000
0.9325361252 0.0000000000 1.0000000000
1.0000000000 0.0000000000 1.0000000000
0.0000000000 0.0000000000 1.0000000000
0.0000000000 0.0000000000 1.0000000000
0.0000000000 0.0000000000 1.0000000000
0.9181187749 0.0000000000 1.0000000000
1.0000000000 0.0000000000 1.0000000000
0.0000000000 0.7733323574 1.0000000000
0.0000000000 0.7611801624 1.0000000000
0.0000000000 0.7004755139 1.0000000000
0.8063117266 0.3828569651 1.0000000000
1.0000000000 0.0000000000 1.0000000000
0.0000000000 1.0000000000 1.0000000000
0.0000000000 1.0000000000 1.0000000000
0.0000000000 1.0000000000 1.0000000000
0.0000000000 1.0000000000 1.0000000000
1.0000000000 1.0000000000 1.0000000000
