70 CGC LUTs/Log to Rec709/Blackmagic 4.6K Film to Rec709.cube
LUT_3D_SIZE 5
0.0000000000 0.0000000000 0.0000000000
0.2280144840 0.0000000000 0.0000000000
0.6659308672 0.0000000000 0.0000000000
1.0000000000 0.0000000000 0.0000000000
1.0000000000 0.0000000000 0.0000000000
0.0000000000 0.2401528805 0.0000000000
0.2478810251 0.2286521494 0.0000000000
0.6731826663 0.1684784889 0.0000000000
1.0000000000 0.0000000000 0.0000000000
1.0000000000 0.0000000000 0.0000000000
0.1501978785 0.6898815632 0.0000000000
0.3246725798 0.6858550906 0.0000000000
0.7052127123 0.6671849489 0.0000000000
1.0000000000 0.5665581822 0.0000000000
1.0000000000 0.0000000000 0.0000000000
0.4876868129 1.0000000000 0.0000000000
0.5693609118 1.0000000000 0.0000000000
0.8433206677 1.0000000000 0.0000000000
1.0000000000 1.0000000000 0.0000000000
1.0000000000 1.0000000000 0.0000000000
1.0000000000 1.0000000000 0.0000000000
1.0000000000 1.0000000000 0.0000000000
1.0000000000 1.0000000000 0.0000000000
1.0000000000 1.0000000000 0.0000000000
1.0000000000 1.0000000000 0.0000000000
0.0000000000 0.0000000000 0.2443867326
0.1895442158 0.0000000000 0.2239173204
0.6531544924 0.0000000000 0.0979683027
1.0000000000 0.0000000000 0.0000000000
1.0000000000 0.0000000000 0.0000000000
0.0000000000 0.2246476263 0.2337724268
0.2124409825 0.2124411315 0.2124420702
0.6605554819 0.1473129690 0.0757865682
1.0000000000 0.0000000000 0.0000000000
1.0000000000 0.0000000000 0.0000000000
0.0923285708 0.6844871044 0.1790457070
0.2975834906 0.6804265380 0.1519058198
0.6932080388 0.6615930200 0.0000000000
1.0000000000 0.5599051118 0.0000000000
1.0000000000 0.0000000000 0.0000000000
0.4698673487 1.0000000000 0.0000000000
0.5542382002 1.0000000000 0.0000000000
0.8334569931 1.0000000000 0.0000000000
1.0000000000 1.0000000000 0.0000000000
1.0000000000 1.0000000000 0.0000000000
1.0000000000 1.0000000000 0.0000000000
1.0000000000 1.0000000000 0.0000000000
1.0000000000 1.0000000000 0.0000000000
1.0000000000 1.0000000000 0.0000000000
1.0000000000 1.0000000000 0.0000000000
0.0000000000 0.0000000000 0.6982734203
0.0000000000 0.0000000000 0.6911889911
0.5912560821 0.0000000000 0.6578851342
1.0000000000 0.0000000000 0.4595888257
1.0000000000 0.0000000000 0.0000000000
0.0000000000 0.1380919218 0.6945430636
0.0000000000 0.1197878569 0.6874174476
0.5994658470 0.0136487558 0.6539086699
1.0000000000 0.0000000000 0.4538063407
1.0000000000 0.0000000000 0.0000000000
0.0000000000 0.6593174934 0.6772719026
0.1244779080 0.6550906301 0.6699500084
0.6354578137 0.6354581118 0.6354603171
1.0000000000 0.5285001397 0.4264740646
1.0000000000 0.0000000000 0.0000000000
0.3782269061 1.0000000000 0.5850574374
0.4791443348 1.0000000000 0.5764955282
0.7868142128 1.0000000000 0.5356916785
1.0000000000 1.0000000000 0.2554644048
1.0000000000 1.0000000000 0.0000000000
0.9903466105 1.0000000000 0.0000000000
1.0000000000 1.0000000000 0.0000000000
1.0000000000 1.0000000000 0.0000000000
1.0000000000 1.0000000000 0.0000000000
1.0000000000 1.0000000000 0.0000000000
0.0000000000 0.0000000000 1.0000000000
0.0000000000 0.0000000000 1.0000000000
0.0000000000 0.0000000000 1.0000000000
1.0000000000 0.0000000000 1.0000000000
1.0000000000 0.0000000000 0.9927595854
0.0000000000 0.0000000000 1.0000000000
0.0000000000 0.0000000000 1.0000000000
0.0000000000 0.0000000000 1.0000000000
1.0000000000 0.0000000000 1.0000000000
1.0000000000 0.0000000000 0.9918884039
0.0000000000 0.5178843737 1.0000000000
0.0000000000 0.5124335885 1.0000000000
0.1668446958 0.4868142903 1.0000000000
1.0000000000 0.3345093727 1.0000000000
1.0000000000 0.0000000000 0.9878345728
0.0000000000 1.0000000000 1.0000000000
0.0000000000 1.0000000000 1.0000000000
0.4937341213 1.0000000000 1.0000000000
1.0000000000 1.0000000000 1.0000000000
1.0000000000 1.0000000000 0.9656707644
0.8975920677 1.0000000000 1.0000000000
0.9261547327 1.0000000000 1.0000000000
1.0000000000 1.0000000000 1.0000000000
1.0000000000 1.0000000000 1.0000000000
1.0000000000 1.0000000000 0.7107006311
0.0000000000 0.0000000000 1.0000000000
0.0000000000 0.0000000000 1.0000000000
0.0000000000 0.0000000000 1.0000000000
0.2034612149 0.0000000000 1.0000000000
1.0000000000 0.0000000000 1.0000000000
0.0000000000 0.0000000000 1.0000000000
0.0000000000 0.0000000000 1.0000000000
0.0000000000 0.0000000000 1.0000000000
0.2251735777 0.0000000000 1.0000000000
1.0000000000 0.0000000000 1.0000000000
0.0000000000 0.0000000000 1.0000000000
0.0000000000 0.0000000000 1.0000000000
0.0000000000 0.0000000000 1.0000000000
0.3071557879 0.0000000000 1.0000000000
1.0000000000 0.0000000000 1.0000000000
0.0000000000 1.0000000000 1.0000000000
0.0000000000 1.0000000000 1.0000000000
0.0000000000 1.0000000000 1.0000000000
0.5594905615 1.0000000000 1.0000000000
1.0000000000 0.8549195528 1.0000000000
0.0000000000 1.0000000000 1.0000000000
0.0000000000 1.0000000000 1.0000000000
0.0000000000 1.0000000000 1.0000000000
1.0000000000 1.0000000000 1.0000000000
1.0000000000 1.0000000000 1.0000000000
