70 CGC LUTs/Log to Rec709/Blackmagic 4.6K Film to Rec709.cube
LUT_3D_SIZE 33
0.0000000000 0.0000000000 0.0000000000
0.0000000000 0.0000000000 0.0000000000
0.0000000000 0.0000000000 0.0000000000
0.0281582437 0.0000000000 0.0000000000
0.0639054999 0.0000000000 0.0000000000
0.1057038754 0.0000000000 0.0000000000
0.1462567002 0.0000000000 0.0000000000
0.1866581440 0.0000000000 0.0000000000
0.2280144840 0.0000000000 0.0000000000
0.2710848749 0.0000000000 0.0000000000
0.3164710701 0.0000000000 0.0000000000
0.3647007942 0.0000000000 0.0000000000
0.4162703454 0.0000000000 0.0000000000
0.4716691971 0.0000000000 0.0000000000
0.5313954949 0.0000000000 0.0000000000
0.5959671736 0.0000000000 0.0000000000
0.6659308672 0.0000000000 0.0000000000
0.7418688536 0.0000000000 0.0000000000
0.8244060874 0.0000000000 0.0000000000
0.9024510384 0.0000000000 0.0000000000
0.9576668739 0.0000000000 0.0000000000
1.0000000000 0.0000000000 0.0000000000
1.0000000000 0.0000000000 0.0000000000
1.0000000000 0.0000000000 0.0000000000
1.0000000000 0.0000000000 0.0000000000
1.0000000000 0.0000000000 0.0000000000
1.0000000000 0.0000000000 0.0000000000
1.0000000000 0.0000000000 0.0000000000
1.0000000000 0.0000000000 0.0000000000
1.0000000000 0.0000000000 0.0000000000
1.0000000000 0.0000000000 0.0000000000
1.0000000000 0.0000000000 0.0000000000
1.0000000000 0.0000000000 0.0000000000
0.0000000000 0.0000000000 0.0000000000
0.0000000000 0.0000000000 0.0000000000
0.0000000000 0.0000000000 0.0000000000
0.0318942070 0.0000000000 0.0000000000
0.0676414669 0.0000000000 0.0000000000
0.1088761315 0.0000000000 0.0000000000
0.1488080621 0.0000000000 0.0000000000
0.1887795329 0.0000000000 0.0000000000
0.2298148423 0.0000000000 0.0000000000
0.2726338208 0.0000000000 0.0000000000
0.3178165555 0.0000000000 0.0000000000
0.3658777773 0.0000000000 0.0000000000
0.4173053205 0.0000000000 0.0000000000
0.4725829363 0.0000000000 0.0000000000
0.5322047472 0.0000000000 0.0000000000
0.5966856480 0.0000000000 0.0000000000
0.6665698886 0.0000000000 0.0000000000
0.7424381375 0.0000000000 0.0000000000
0.8249138594 0.0000000000 0.0000000000
0.9027602673 0.0000000000 0.0000000000
0.9578588009 0.0000000000 0.0000000000
1.0000000000 0.0000000000 0.0000000000
1.0000000000 0.0000000000 0.0000000000
1.0000000000 0.0000000000 0.0000000000
1.0000000000 0.0000000000 0.0000000000
1.0000000000 0.0000000000 0.0000000000
1.0000000000 0.0000000000 0.0000000000
1.0000000000 0.0000000000 0.0000000000
1.0000000000 0.0000000000 0.0000000000
1.0000000000 0.0000000000 0.0000000000
1.0000000000 0.0000000000 0.0000000000
1.0000000000 0.0000000000 0.0000000000
1.0000000000 0.0000000000 0.0000000000
0.0000000000 0.0000000000 0.0000000000
0.0000000000 0.0000000000 0.0000000000
0.0027817965 0.0000000000 0.0000000000
0.0356301703 0.0000000000 0.0000000000
0.0713774189 0.0000000000 0.0000000000
0.1119902879 0.0000000000 0.0000000000
0.1513277441 0.0000000000 0.0000000000
0.1908819526 0.0000000000 0.0000000000
0.2316032201 0.0000000000 0.0000000000
0.2741748691 0.0000000000 0.0000000000
0.3191567361 0.0000000000 0.0000000000
0.3670511246 0.0000000000 0.0000000000
0.4183377922 0.0000000000 0.0000000000
0.4734949470 0.0000000000 0.0000000000
0.5330127478 0.0000000000 0.0000000000
0.5974031687 0.0000000000 0.0000000000
0.6672083139 0.0000000000 0.0000000000
0.7430069447 0.0000000000 0.0000000000
0.8254212737 0.0000000000 0.0000000000
0.9030687809 0.0000000000 0.0000000000
0.9580504298 0.0000000000 0.0000000000
1.0000000000 0.0000000000 0.0000000000
1.0000000000 0.0000000000 0.0000000000
1.0000000000 0.0000000000 0.0000000000
1.0000000000 0.0000000000 0.0000000000
1.0000000000 0.0000000000 0.0000000000
1.0000000000 0.0000000000 0.0000000000
1.0000000000 0.0000000000 0.0000000000
1.0000000000 0.0000000000 0.0000000000
1.0000000000 0.0000000000 0.0000000000
1.0000000000 0.0000000000 0.0000000000
1.0000000000 0.0000000000 0.0000000000
1.0000000000 0.0000000000 0.0000000000
0.0000000000 0.0349101499 0.0000000000
0.0000000000 0.0327752382 0.0000000000
0.0065177591 0.0306403227 0.0000000000
0.0393661372 0.0285054147 0.0000000000
0.0751133859 0.0261820983 0.0000000000
0.1150492579 0.0233509056 0.0000000000
0.1538167596 0.0198985338 0.0000000000
0.1929659247 0.0156887062 0.0000000000
0.2333798409 0.0105552273 0.0000000000
0.2757081985 0.0042954413 0.0000000000
0.3204917014 0.0000000000 0.0000000000
0.3682208657 0.0000000000 0.0000000000
0.4193677306 0.0000000000 0.0000000000
0.4744051695 0.0000000000 0.0000000000
0.5338194370 0.0000000000 0.0000000000
0.5981197953 0.0000000000 0.0000000000
0.6678460240 0.0000000000 0.0000000000
0.7435752749 0.0000000000 0.0000000000
0.8259283304 0.0000000000 0.0000000000
0.9033764601 0.0000000000 0.0000000000
0.9582418203 0.0000000000 0.0000000000
1.0000000000 0.0000000000 0.0000000000
1.0000000000 0.0000000000 0.0000000000
1.0000000000 0.0000000000 0.0000000000
1.0000000000 0.0000000000 0.0000000000
1.0000000000 0.0000000000 0.0000000000
1.0000000000 0.0000000000 0.0000000000
1.0000000000 0.0000000000 0.0000000000
1.0000000000 0.0000000000 0.0000000000
1.0000000000 0.0000000000 0.0000000000
1.0000000000 0.0000000000 0.0000000000
1.0000000000 0.0000000000 0.0000000000
1.0000000000 0.0000000000 0.0000000000
0.0000000000 0.0731066763 0.0000000000
0.0000000000 0.0709717721 0.0000000000
0.0105834231 0.0688368604 0.0000000000
0.0434317961 0.0667019486 0.0000000000
0.0791790560 0.0643786341 0.0000000000
0.1183185875 0.0615474358 0.0000000000
0.1564918607 0.0580950677 0.0000000000
0.1952133328 0.0538852401 0.0000000000
0.2353001833 0.0487517603 0.0000000000
0.2773682177 0.0424919724 0.0000000000
0.3219386041 0.0348587781 0.0000000000
0.3694897592 0.0255508237 0.0000000000
0.4204857051 0.0142006902 0.0000000000
0.4753936827 0.0003602993 0.0000000000
0.5346959829 0.0000000000 0.0000000000
0.5988986492 0.0000000000 0.0000000000
0.6685392857 0.0000000000 0.0000000000
0.7441932559 0.0000000000 0.0000000000
0.8264797926 0.0000000000 0.0000000000
0.9037103653 0.0000000000 0.0000000000
0.9584496617 0.0000000000 0.0000000000
1.0000000000 0.0000000000 0.0000000000
1.0000000000 0.0000000000 0.0000000000
1.0000000000 0.0000000000 0.0000000000
1.0000000000 0.0000000000 0.0000000000
1.0000000000 0.0000000000 0.0000000000
1.0000000000 0.0000000000 0.0000000000
1.0000000000 0.0000000000 0.0000000000
1.0000000000 0.0000000000 0.0000000000
1.0000000000 0.0000000000 0.0000000000
1.0000000000 0.0000000000 0.0000000000
1.0000000000 0.0000000000 0.0000000000
1.0000000000 0.0000000000 0.0000000000
0.0000000000 0.1158412471 0.0000000000
0.0000000000 0.1141077131 0.0000000000
0.0155378394 0.1123567745 0.0000000000
0.0483862124 0.1105879247 0.0000000000
0.0843530074 0.1086419970 0.0000000000
0.1222230867 0.1062401533 0.0000000000
0.1597061753 0.1032640114 0.0000000000
0.1979239583 0.0995608568 0.0000000000
0.2376222163 0.0949277282 0.0000000000
0.2793790400 0.0890882313 0.0000000000
0.3236936331 0.0816530362 0.0000000000
0.3710304201 0.0720971301 0.0000000000
0.4218441546 0.0607470013 0.0000000000
0.4765955210 0.0469066091 0.0000000000
0.5357620716 0.0300295725 0.0000000000
0.5998463035 0.0094496598 0.0000000000
0.6693831086 0.0000000000 0.0000000000
0.7449455261 0.0000000000 0.0000000000
0.8271512389 0.0000000000 0.0000000000
0.9041159153 0.0000000000 0.0000000000
0.9587023854 0.0000000000 0.0000000000
1.0000000000 0.0000000000 0.0000000000
1.0000000000 0.0000000000 0.0000000000
1.0000000000 0.0000000000 0.0000000000
1.0000000000 0.0000000000 0.0000000000
1.0000000000 0.0000000000 0.0000000000
1.0000000000 0.0000000000 0.0000000000
1.0000000000 0.0000000000 0.0000000000
1.0000000000 0.0000000000 0.0000000000
1.0000000000 0.0000000000 0.0000000000
1.0000000000 0.0000000000 0.0000000000
1.0000000000 0.0000000000 0.0000000000
1.0000000000 0.0000000000 0.0000000000
0.0000000000 0.1568523496 0.0000000000
0.0000000000 0.1554543674 0.0000000000
0.0215792749 0.1540469080 0.0000000000
0.0544276498 0.1526298225 0.0000000000
0.0901649296 0.1510765254 0.0000000000
0.1268731356 0.1491675675 0.0000000000
0.1635608226 0.1468152255 0.0000000000
0.2011889368 0.1439090073 0.0000000000
0.2404274791 0.1403066069 0.0000000000
0.2818135321 0.1358221024 0.0000000000
0.3258217275 0.1302078664 0.0000000000
0.3729007840 0.1231257692 0.0000000000
0.4234947860 0.1140976399 0.0000000000
0.4780569077 0.1024128497 0.0000000000
0.5370591283 0.0869343355 0.0000000000
0.6009997725 0.0662083924 0.0000000000
0.6704105139 0.0411131904 0.0000000000
0.7458618283 0.0105120409 0.0000000000
0.8279691935 0.0000000000 0.0000000000
0.9046086073 0.0000000000 0.0000000000
0.9590098858 0.0000000000 0.0000000000
1.0000000000 0.0000000000 0.0000000000
1.0000000000 0.0000000000 0.0000000000
1.0000000000 0.0000000000 0.0000000000
1.0000000000 0.0000000000 0.0000000000
1.0000000000 0.0000000000 0.0000000000
1.0000000000 0.0000000000 0.0000000000
1.0000000000 0.0000000000 0.0000000000
1.0000000000 0.0000000000 0.0000000000
1.0000000000 0.0000000000 0.0000000000
1.0000000000 0.0000000000 0.0000000000
1.0000000000 0.0000000000 0.0000000000
1.0000000000 0.0000000000 0.0000000000
0.0000000000 0.1979433000 0.0000000000
0.0000000000 0.1967790723 0.0000000000
0.0289462171 0.1956092119 0.0000000000
0.0617945939 0.1944336593 0.0000000000
0.0969692916 0.1931477785 0.0000000000
0.1323896945 0.1915713847 0.0000000000
0.1681695729 0.1896348894 0.0000000000
0.2051124573 0.1872518063 0.0000000000
0.2438103557 0.1843126416 0.0000000000
0.2847566605 0.1806773990 0.0000000000
0.3283992112 0.1761648804 0.0000000000
0.3751693368 0.1705368608 0.0000000000
0.4254989922 0.1634734273 0.0000000000
0.4798327982 0.1545326710 0.0000000000
0.5386363864 0.1430796236 0.0000000000
0.6024032235 0.1281483322 0.0000000000
0.6716610789 0.1081358492 0.0000000000
0.7469775081 0.0797238126 0.0000000000
0.8289654851 0.0424085855 0.0000000000
0.9052064419 0.0000000000 0.0000000000
0.9593837857 0.0000000000 0.0000000000
1.0000000000 0.0000000000 0.0000000000
1.0000000000 0.0000000000 0.0000000000
1.0000000000 0.0000000000 0.0000000000
1.0000000000 0.0000000000 0.0000000000
1.0000000000 0.0000000000 0.0000000000
1.0000000000 0.0000000000 0.0000000000
1.0000000000 0.0000000000 0.0000000000
1.0000000000 0.0000000000 0.0000000000
1.0000000000 0.0000000000 0.0000000000
1.0000000000 0.0000000000 0.0000000000
1.0000000000 0.0000000000 0.0000000000
1.0000000000 0.0000000000 0.0000000000
0.0000000000 0.2401528805 0.0000000000
0.0050811223 0.2391638011 0.0000000000
0.0379294939 0.2381712049 0.0000000000
0.0707778707 0.2371750176 0.0000000000
0.1048944965 0.2360867858 0.0000000000
0.1389063895 0.2347548306 0.0000000000
0.1736612618 0.2331217676 0.0000000000
0.2098146230 0.2311170399 0.0000000000
0.2478810251 0.2286521494 0.0000000000
0.2883085907 0.2256154269 0.0000000000
0.3315167427 0.2218648195 0.0000000000
0.3779177666 0.2172175199 0.0000000000
0.4279303253 0.2114351094 0.0000000000
0.4819893837 0.2042007893 0.0000000000
0.5405532718 0.1950832158 0.0000000000
0.6041098833 0.1834748685 0.0000000000
0.6731826663 0.1684784889 0.0000000000
0.7483354807 0.1486713588 0.0000000000
0.8301784992 0.1215283424 0.0000000000
0.9059314132 0.0815514997 0.0000000000
0.9598380327 0.0258177835 0.0000000000
1.0000000000 0.0000000000 0.0000000000
1.0000000000 0.0000000000 0.0000000000
1.0000000000 0.0000000000 0.0000000000
1.0000000000 0.0000000000 0.0000000000
1.0000000000 0.0000000000 0.0000000000
1.0000000000 0.0000000000 0.0000000000
1.0000000000 0.0000000000 0.0000000000
1.0000000000 0.0000000000 0.0000000000
1.0000000000 0.0000000000 0.0000000000
1.0000000000 0.0000000000 0.0000000000
1.0000000000 0.0000000000 0.0000000000
1.0000000000 0.0000000000 0.0000000000
0.0000000000 0.2842146754 0.0000000000
0.0160353649 0.2833631337 0.0000000000
0.0488837361 0.2825092673 0.0000000000
0.0819792598 0.2816530764 0.0000000000
0.1140761301 0.2807186246 0.0000000000
0.1465689391 0.2795760930 0.0000000000
0.1801801175 0.2781771719 0.0000000000
0.2154326290 0.2764627039 0.0000000000
0.2527671456 0.2743590176 0.0000000000
0.2925866842 0.2717739940 0.0000000000
0.3352813423 0.2685917020 0.0000000000
0.3812432289 0.2646650672 0.0000000000
0.4308767021 0.2598056495 0.0000000000
0.4846059680 0.2537689507 0.0000000000
0.5428813100 0.2462324947 0.0000000000
0.6061842442 0.2367612422 0.0000000000
0.6750330925 0.2247506082 0.0000000000
0.7499878407 0.2093242854 0.0000000000
0.8316550851 0.1891318858 0.0000000000
0.9068092704 0.1618861556 0.0000000000
0.9603894949 0.1230295822 0.0000000000
1.0000000000 0.0610727035 0.0000000000
1.0000000000 0.0000000000 0.0000000000
1.0000000000 0.0000000000 0.0000000000
1.0000000000 0.0000000000 0.0000000000
1.0000000000 0.0000000000 0.0000000000
1.0000000000 0.0000000000 0.0000000000
1.0000000000 0.0000000000 0.0000000000
1.0000000000 0.0000000000 0.0000000000
1.0000000000 0.0000000000 0.0000000000
1.0000000000 0.0000000000 0.0000000000
1.0000000000 0.0000000000 0.0000000000
1.0000000000 0.0000000000 0.0000000000
0.0000000000 0.3307218552 0.0000000000
0.0293929949 0.3299817741 0.0000000000
0.0622413680 0.3292401433 0.0000000000
0.0947368443 0.3284969628 0.0000000000
0.1246561408 0.3276863694 0.0000000000
0.1555343568 0.3266960382 0.0000000000
0.1878857613 0.3254846036 0.0000000000
0.2221214622 0.3240016103 0.0000000000
0.2586152554 0.3221846223 0.0000000000
0.2977273166 0.3199559450 0.0000000000
0.3398185968 0.3172185123 0.0000000000
0.3852606416 0.3138504028 0.0000000000
0.4344426095 0.3096973300 0.0000000000
0.4877773523 0.3045621812 0.0000000000
0.5457061529 0.2981902361 0.0000000000
0.6087036133 0.2902470529 0.0000000000
0.6772823334 0.2802846134 0.0000000000
0.7519974113 0.2676858902 0.0000000000
0.8334517479 0.2515680492 0.0000000000
0.9078708887 0.2305966169 0.0000000000
0.9610584378 0.2025787830 0.0000000000
1.0000000000 0.1633778512 0.0000000000
1.0000000000 0.1027595922 0.0000000000
1.0000000000 0.0034567756 0.0000000000
1.0000000000 0.0000000000 0.0000000000
1.0000000000 0.0000000000 0.0000000000
1.0000000000 0.0000000000 0.0000000000
1.0000000000 0.0000000000 0.0000000000
1.0000000000 0.0000000000 0.0000000000
1.0000000000 0.0000000000 0.0000000000
1.0000000000 0.0000000000 0.0000000000
1.0000000000 0.0000000000 0.0000000000
1.0000000000 0.0000000000 0.0000000000
0.0128329536 0.3802020550 0.0000000000
0.0456813425 0.3795544207 0.0000000000
0.0785297155 0.3789057434 0.0000000000
0.1090232953 0.3782559633 0.0000000000
0.1367824227 0.3775476217 0.0000000000
0.1659698784 0.3766826689 0.0000000000
0.1969525963 0.3756253719 0.0000000000
0.2300542146 0.3743321598 0.0000000000
0.2655920088 0.3727493584 0.0000000000
0.3038877249 0.3708104789 0.0000000000
0.3452749252 0.3684328794 0.0000000000
0.3901050091 0.3655134439 0.0000000000
0.4387518764 0.3619228899 0.0000000000
0.4916164279 0.3574977219 0.0000000000
0.5491304994 0.3520296812 0.0000000000
0.6117610335 0.3452502787 0.0000000000
0.6800142527 0.3368083835 0.0000000000
0.7544400692 0.3262358606 0.0000000000
0.8356369138 0.3128920794 0.0000000000
0.9091522694 0.2958692014 0.0000000000
0.9618690014 0.2738130391 0.0000000000
1.0000000000 0.2445453554 0.0000000000
1.0000000000 0.2041030675 0.0000000000
1.0000000000 0.1434175074 0.0000000000
1.0000000000 0.0338056348 0.0000000000
1.0000000000 0.0000000000 0.0000000000
1.0000000000 0.0000000000 0.0000000000
1.0000000000 0.0000000000 0.0000000000
1.0000000000 0.0000000000 0.0000000000
1.0000000000 0.0000000000 0.0000000000
1.0000000000 0.0000000000 0.0000000000
1.0000000000 0.0000000000 0.0000000000
1.0000000000 0.0000000000 0.0000000000
0.0326949880 0.4331560731 0.0000000000
0.0655433759 0.4325864315 0.0000000000
0.0977358371 0.4320160151 0.0000000000
0.1249659806 0.4314448833 0.0000000000
0.1506087035 0.4308224618 0.0000000000
0.1780517995 0.4300627708 0.0000000000
0.2075688690 0.4291346371 0.0000000000
0.2394218445 0.4280000925 0.0000000000
0.2738846838 0.4266126156 0.0000000000
0.3112473190 0.4249146581 0.0000000000
0.3518194854 0.4228349924 0.0000000000
0.3959340155 0.4202852547 0.0000000000
0.4439501464 0.4171552360 0.0000000000
0.4962569177 0.4133068323 0.0000000000
0.5532764792 0.4085657001 0.0000000000
0.6154676080 0.4027100503 0.0000000000
0.6833297610 0.3954546452 0.0000000000
0.7574071288 0.3864274323 0.0000000000
0.8382930756 0.3751339912 0.0000000000
0.9106957912 0.3609014750 0.0000000000
0.9628497362 0.3427823186 0.0000000000
1.0000000000 0.3193776309 0.0000000000
1.0000000000 0.2884705961 0.0000000000
1.0000000000 0.2461307198 0.0000000000
1.0000000000 0.1838160604 0.0000000000
1.0000000000 0.0708126053 0.0000000000
1.0000000000 0.0000000000 0.0000000000
1.0000000000 0.0000000000 0.0000000000
1.0000000000 0.0000000000 0.0000000000
1.0000000000 0.0000000000 0.0000000000
1.0000000000 0.0000000000 0.0000000000
1.0000000000 0.0000000000 0.0000000000
1.0000000000 0.0000000000 0.0000000000
0.0569148399 0.4900811315 0.0000000000
0.0897758305 0.4895780683 0.0000000000
0.1182157323 0.4890744984 0.0000000000
0.1427021176 0.4885704219 0.0000000000
0.1662949771 0.4880212247 0.0000000000
0.1919646710 0.4873511195 0.0000000000
0.2199353725 0.4865327477 0.0000000000
0.2504324913 0.4855329096 0.0000000000
0.2837013304 0.4843108654 0.0000000000
0.3200088739 0.4828164876 0.0000000000
0.3596461117 0.4809878170 0.0000000000
0.4029303491 0.4787483811 0.0000000000
0.4502077699 0.4760031700 0.0000000000
0.5018563867 0.4726337790 0.0000000000
0.5582888722 0.4684920311 0.0000000000
0.6199558973 0.4633910060 0.0000000000
0.6873497367 0.4570932686 0.0000000000
0.7610082626 0.4492938221 0.0000000000
0.8415196538 0.4395956695 0.0000000000
0.9125505686 0.4274729490 0.0000000000
0.9640344977 0.4122123122 0.0000000000
1.0000000000 0.3928147852 0.0000000000
1.0000000000 0.3678159416 0.0000000000
1.0000000000 0.3349218071 0.0000000000
1.0000000000 0.2901398838 0.0000000000
1.0000000000 0.2251026779 0.0000000000
1.0000000000 0.1128147542 0.0000000000
1.0000000000 0.0000000000 0.0000000000
1.0000000000 0.0000000000 0.0000000000
1.0000000000 0.0000000000 0.0000000000
1.0000000000 0.0000000000 0.0000000000
1.0000000000 0.0000000000 0.0000000000
1.0000000000 0.0000000000 0.0000000000
0.0866065100 0.5514854193 0.0000000000
0.1155533791 0.5510398149 0.0000000000
0.1403693408 0.5505938530 0.0000000000
0.1623802483 0.5501475334 0.0000000000
0.1840084642 0.5496613979 0.0000000000
0.2079005986 0.5490683913 0.0000000000
0.2342641503 0.5483443141 0.0000000000
0.2633101940 0.5474600792 0.0000000000
0.2952703238 0.5463798642 0.0000000000
0.3303987086 0.5450596213 0.0000000000
0.3689743876 0.5434451699 0.0000000000
0.4113035798 0.5414698720 0.0000000000
0.4577223361 0.5390509963 0.0000000000
0.5085992813 0.5360861421 0.0000000000
0.5643385649 0.5324477553 0.0000000000
0.6253829598 0.5279762149 0.0000000000
0.6922178864 0.5224701762 0.0000000000
0.7653747797 0.5156744123 0.0000000000
0.8454358578 0.5072612166 0.0000000000
0.9147726893 0.4968050718 0.0000000000
0.9654630423 0.4837431312 0.0000000000
1.0000000000 0.4673144221 0.0000000000
1.0000000000 0.4464570880 0.0000000000
1.0000000000 0.4196239114 0.0000000000
1.0000000000 0.3844113946 0.0000000000
1.0000000000 0.3366945982 0.0000000000
1.0000000000 0.2680548131 0.0000000000
1.0000000000 0.1532681882 0.0000000000
1.0000000000 0.0000000000 0.0000000000
1.0000000000 0.0000000000 0.0000000000
1.0000000000 0.0000000000 0.0000000000
1.0000000000 0.0000000000 0.0000000000
1.0000000000 0.0000000000 0.0000000000
0.1180965900 0.6178988218 0.0000000000
0.1425975710 0.6175031662 0.0000000000
0.1643833369 0.6171072721 0.0000000000
0.1841620803 0.6167110801 0.0000000000
0.2039251029 0.6162796617 0.0000000000
0.2260592431 0.6157534719 0.0000000000
0.2507772744 0.6151111722 0.0000000000
0.2782933414 0.6143270731 0.0000000000
0.3088390827 0.6133694649 0.0000000000
0.3426664770 0.6121996045 0.0000000000
0.3800504804 0.6107699275 0.0000000000
0.4212920666 0.6090217829 0.0000000000
0.4667211473 0.6068828702 0.0000000000
0.5166997910 0.6042639613 0.0000000000
0.5716254115 0.6010541916 0.0000000000
0.6319342256 0.5971157551 0.0000000000
0.6981050372 0.5922759771 0.0000000000
0.7706630826 0.5863177776 0.0000000000
0.8501756787 0.5789654851 0.0000000000
0.9174258709 0.5698660612 0.0000000000
0.9671813250 0.5585612059 0.0000000000
1.0000000000 0.5444462299 0.0000000000
1.0000000000 0.5267048478 0.0000000000
1.0000000000 0.5042021275 0.0000000000
1.0000000000 0.4752912223 0.0000000000
1.0000000000 0.4374307394 0.0000000000
1.0000000000 0.3863059282 0.0000000000
1.0000000000 0.3132821321 0.0000000000
1.0000000000 0.1937978268 0.0000000000
1.0000000000 0.0000000000 0.0000000000
1.0000000000 0.0000000000 0.0000000000
1.0000000000 0.0000000000 0.0000000000
1.0000000000 0.0000000000 0.0000000000
0.1501978785 0.6898815632 0.0000000000
0.1712448597 0.6895295978 0.0000000000
0.1904569864 0.6891774535 0.0000000000
0.2082242519 0.6888251305 0.0000000000
0.2262313366 0.6884415150 0.0000000000
0.2466485351 0.6879736781 0.0000000000
0.2697060406 0.6874027252 0.0000000000
0.2956330776 0.6867058873 0.0000000000
0.3246725798 0.6858550906 0.0000000000
0.3570841253 0.6848161221 0.0000000000
0.3931469619 0.6835469007 0.0000000000
0.4331635535 0.6819958091 0.0000000000
0.4774629474 0.6800992489 0.0000000000
0.5264046788 0.6777789593 0.0000000000
0.5803822279 0.6749380827 0.0000000000
0.6398270726 0.6714565754 0.0000000000
0.7052127123 0.6671849489 0.0000000000
0.7770588994 0.6619364619 0.0000000000
0.8557606339 0.6554759741 0.0000000000
0.9205808640 0.6475052834 0.0000000000
0.9692427516 0.6376428008 0.0000000000
1.0000000000 0.6253936887 0.0000000000
1.0000000000 0.6101056337 0.0000000000
1.0000000000 0.5909001231 0.0000000000
1.0000000000 0.5665581822 0.0000000000
1.0000000000 0.5353172421 0.0000000000
1.0000000000 0.4944716692 0.0000000000
1.0000000000 0.4394650161 0.0000000000
1.0000000000 0.3613173366 0.0000000000
1.0000000000 0.2354280353 0.0000000000
1.0000000000 0.0000000000 0.0000000000
1.0000000000 0.0000000000 0.0000000000
1.0000000000 0.0000000000 0.0000000000
0.1835386008 0.7680314779 0.0000000000
0.2018036097 0.7677178979 0.0000000000
0.2188043296 0.7674041986 0.0000000000
0.2347601503 0.7670903802 0.0000000000
0.2511263788 0.7667486668 0.0000000000
0.2698859274 0.7663320899 0.0000000000
0.2912909091 0.7658237219 0.0000000000
0.3155921102 0.7652033567 0.0000000000
0.3430514634 0.7644461393 0.0000000000
0.3739442527 0.7635217309 0.0000000000
0.4085619152 0.7623927593 0.0000000000
0.4472154379 0.7610136867 0.0000000000
0.4902392328 0.7593284249 0.0000000000
0.5379952192 0.7572678328 0.0000000000
0.5908770561 0.7547469735 0.0000000000
0.6493142843 0.7516607046 0.0000000000
0.7137773037 0.7478786111 0.0000000000
0.7847815752 0.7432386279 0.0000000000
0.8622249961 0.7375379205 0.0000000000
0.9243150949 0.7305216193 0.0000000000
0.9717076421 0.7218664885 0.0000000000
1.0000000000 0.7111591697 0.0000000000
1.0000000000 0.6978637576 0.0000000000
1.0000000000 0.6812751293 0.0000000000
1.0000000000 0.6604445577 0.0000000000
1.0000000000 0.6340581775 0.0000000000
1.0000000000 0.6002218127 0.0000000000
1.0000000000 0.5560389757 0.0000000000
1.0000000000 0.4966642559 0.0000000000
1.0000000000 0.4126576483 0.0000000000
1.0000000000 0.2788845003 0.0000000000
1.0000000000 0.0000000000 0.0000000000
1.0000000000 0.0000000000 0.0000000000
0.2186052650 0.8529288769 0.0000000000
0.2345726639 0.8526569009 0.0000000000
0.2496564388 0.8523843288 0.0000000000
0.2639819086 0.8521110415 0.0000000000
0.2788247168 0.8518130183 0.0000000000
0.2960004508 0.8514487743 0.0000000000
0.3157822490 0.8510029316 0.0000000000
0.3384439945 0.8504570127 0.0000000000
0.3642705083 0.8497878313 0.0000000000
0.3935582936 0.8489702344 0.0000000000
0.4266173840 0.8479645252 0.0000000000
0.4637740850 0.8467364311 0.0000000000
0.5053746104 0.8452362418 0.0000000000
0.5517891049 0.8434029818 0.0000000000
0.6034162045 0.8411615491 0.0000000000
0.6606877446 0.8384195566 0.0000000000
0.7240739465 0.8350625038 0.0000000000
0.7940884829 0.8309489489 0.0000000000
0.8696479201 0.8259025216 0.0000000000
0.9287112355 0.8197029829 0.0000000000
0.9746440053 0.8120734096 0.0000000000
