70 CGC LUTs/Log to Rec709/Canon Log.cube
#Generated by Picture Instruments - Look Converter
TITLE "Canon CLog"
LUT_3D_SIZE 8
DOMAIN_MIN 0.000000 0.000000 0.000000
DOMAIN_MAX 0.903226 0.903226 0.903226
0.0000 0.0000 0.0000
0.0392 0.0000 0.0000
0.2549 0.0000 0.0039
0.4510 0.0039 0.0039
0.6745 0.0078 0.0078
0.9137 0.0118 0.0118
0.9608 0.0157 0.0118
0.9608 0.0157 0.0118
0.0039 0.0353 0.0039
0.0392 0.0353 0.0000
0.2588 0.0392 0.0000
0.4549 0.0353 0.0000
0.6784 0.0392 0.0000
0.9373 0.0353 0.0000
0.9922 0.0392 0.0000
0.9961 0.0392 0.0000
0.0039 0.2431 0.0039
0.0431 0.2510 0.0000
0.2588 0.2510 0.0000
0.4510 0.2549 0.0000
0.6784 0.2510 0.0000
0.9255 0.2510 0.0000
0.9922 0.2549 0.0000
0.9922 0.2549 0.0039
0.0078 0.4353 0.0078
0.0431 0.4471 0.0000
0.2549 0.4510 0.0039
0.4549 0.4510 0.0039
0.6784 0.4471 0.0039
0.9294 0.4510 0.0039
0.9922 0.4510 0.0000
0.9922 0.4549 0.0039
0.0078 0.6588 0.0118
0.0392 0.6824 0.0039
0.2510 0.6784 0.0039
0.4510 0.6824 0.0039
0.6706 0.6745 0.0039
0.9255 0.6784 0.0039
0.9961 0.6784 0.0039
0.9922 0.6745 0.0039
0.0157 0.9137 0.0157
0.0431 0.9333 0.0000
0.2510 0.9294 0.0000
0.4510 0.9333 0.0000
0.6784 0.9333 0.0000
0.9294 0.9333 0.0000
0.9922 0.9333 0.0039
0.9922 0.9294 0.0039
0.0235 0.9882 0.0235
0.0471 0.9961 0.0000
0.2588 0.9961 0.0000
0.4549 0.9961 0.0000
0.6784 0.9961 0.0000
0.9333 0.9961 0.0000
1.0000 1.0000 0.0039
1.0000 0.9961 0.0039
0.0275 0.9922 0.0275
0.0431 0.9961 0.0000
0.2510 0.9961 0.0000
0.4549 0.9961 0.0000
0.6784 0.9961 0.0000
0.9294 0.9961 0.0000
1.0000 1.0000 0.0039
1.0000 0.9961 0.0000
0.0392 0.0039 0.0314
0.0353 0.0000 0.0431
0.2510 0.0039 0.0431
0.4431 0.0039 0.0431
0.6667 0.0078 0.0392
0.9098 0.0118 0.0431
0.9647 0.0118 0.0431
0.9647 0.0118 0.0431
0.0314 0.0314 0.0275
0.0392 0.0392 0.0431
0.2510 0.0353 0.0392
0.4510 0.0392 0.0392
0.6745 0.0392 0.0471
0.9294 0.0392 0.0392
0.9922 0.0392 0.0353
0.9922 0.0392 0.0392
0.0353 0.2275 0.0353
0.0431 0.2549 0.0353
0.2510 0.2471 0.0431
0.4510 0.2549 0.0431
0.6745 0.2549 0.0392
0.9294 0.2510 0.0431
0.9922 0.2510 0.0392
0.9922 0.2510 0.0392
0.0314 0.4275 0.0353
0.0392 0.4471 0.0431
0.2549 0.4471 0.0392
0.4510 0.4471 0.0431
0.6745 0.4510 0.0392
0.9294 0.4471 0.0392
0.9922 0.4510 0.0431
0.9922 0.4510 0.0353
0.0353 0.6549 0.0392
0.0392 0.6706 0.0353
0.2588 0.6745 0.0392
0.4510 0.6706 0.0392
0.6784 0.6745 0.0431
0.9294 0.6745 0.0431
0.9922 0.6745 0.0353
0.9922 0.6745 0.0431
0.0353 0.9098 0.0353
0.0353 0.9294 0.0392
0.2510 0.9294 0.0431
0.4510 0.9294 0.0431
0.6745 0.9333 0.0392
0.9255 0.9333 0.0431
0.9922 0.9294 0.0392
0.9922 0.9294 0.0392
0.0392 0.9882 0.0314
0.0392 0.9961 0.0392
0.2549 0.9961 0.0392
0.4510 0.9961 0.0392
0.6745 0.9961 0.0431
0.9294 0.9961 0.0392
1.0000 0.9961 0.0392
0.9961 0.9961 0.0431
0.0431 0.9882 0.0314
0.0392 0.9961 0.0392
0.2549 0.9961 0.0392
0.4510 0.9961 0.0392
0.6745 0.9961 0.0392
0.9294 0.9961 0.0431
1.0000 0.9961 0.0431
0.9961 0.9961 0.0431
0.0353 0.0000 0.2275
0.0392 0.0000 0.2510
0.2549 0.0000 0.2510
0.4471 0.0039 0.2510
0.6784 0.0039 0.2549
0.9137 0.0078 0.2549
0.9725 0.0078 0.2549
0.9686 0.0078 0.2510
0.0314 0.0314 0.2196
0.0392 0.0431 0.2549
0.2510 0.0392 0.2510
0.4510 0.0431 0.2549
0.6706 0.0392 0.2510
0.9255 0.0431 0.2510
0.9922 0.0392 0.2549
0.9922 0.0392 0.2549
0.0314 0.2314 0.2353
0.0392 0.2549 0.2471
0.2510 0.2549 0.2549
0.4510 0.2510 0.2471
0.6745 0.2510 0.2510
0.9255 0.2549 0.2588
0.9922 0.2549 0.2471
0.9922 0.2549 0.2510
0.0353 0.4314 0.2275
0.0431 0.4510 0.2549
0.2549 0.4510 0.2510
0.4510 0.4471 0.2549
0.6745 0.4510 0.2549
0.9255 0.4471 0.2510
0.9922 0.4471 0.2549
0.9922 0.4471 0.2549
0.0314 0.6510 0.2314
0.0392 0.6745 0.2549
0.2549 0.6706 0.2588
0.4510 0.6745 0.2510
0.6784 0.6745 0.2549
0.9255 0.6745 0.2549
0.9922 0.6745 0.2510
0.9922 0.6745 0.2510
0.0314 0.9059 0.2314
0.0431 0.9294 0.2549
0.2510 0.9255 0.2510
0.4549 0.9294 0.2549
0.6784 0.9255 0.2510
0.9333 0.9294 0.2549
0.9922 0.9255 0.2510
0.9922 0.9294 0.2510
0.0392 0.9882 0.2314
0.0392 0.9961 0.2510
0.2510 0.9961 0.2549
0.4510 0.9961 0.2549
0.6745 0.9961 0.2549
0.9294 0.9961 0.2510
1.0000 0.9961 0.2549
0.9961 0.9961 0.2549
0.0392 0.9882 0.2392
0.0431 0.9961 0.2510
0.2549 0.9961 0.2549
0.4549 0.9961 0.2549
0.6784 0.9961 0.2549
0.9333 0.9961 0.2588
1.0000 0.9961 0.2510
0.9961 0.9961 0.2549
0.0314 0.0000 0.4314
0.0392 0.0000 0.4549
0.2510 0.0000 0.4549
0.4549 0.0000 0.4549
0.6745 0.0000 0.4431
0.9333 0.0000 0.4549
0.9961 0.0000 0.4471
0.9961 0.0000 0.4549
0.0353 0.0314 0.4275
0.0431 0.0392 0.4510
0.2549 0.0392 0.4549
0.4510 0.0392 0.4471
0.6745 0.0392 0.4549
0.9294 0.0392 0.4471
0.9922 0.0431 0.4510
0.9922 0.0392 0.4510
0.0353 0.2353 0.4353
0.0353 0.2549 0.4431
0.2549 0.2549 0.4510
0.4471 0.2510 0.4510
0.6745 0.2549 0.4471
0.9255 0.2549 0.4471
0.9922 0.2549 0.4471
0.9922 0.2549 0.4471
0.0314 0.4314 0.4235
0.0392 0.4510 0.4549
0.2549 0.4510 0.4471
0.4510 0.4510 0.4510
0.6745 0.4471 0.4510
0.9294 0.4510 0.4471
0.9922 0.4510 0.4549
0.9922 0.4510 0.4471
0.0353 0.6549 0.4314
0.0431 0.6745 0.4510
0.2510 0.6706 0.4510
0.4510 0.6745 0.4471
0.6745 0.6745 0.4510
0.9294 0.6745 0.4510
0.9922 0.6745 0.4510
0.9922 0.6745 0.4510
0.0314 0.9098 0.4275
0.0392 0.9255 0.4471
0.2549 0.9294 0.4510
0.4510 0.9255 0.4471
0.6745 0.9294 0.4471
0.9294 0.9294 0.4471
0.9922 0.9294 0.4510
0.9922 0.9294 0.4510
0.0314 0.9922 0.4275
0.0431 0.9961 0.4510
0.2549 0.9961 0.4510
0.4510 0.9961 0.4471
0.6784 0.9961 0.4549
0.9333 0.9961 0.4510
0.9961 0.9961 0.4510
0.9961 0.9961 0.4510
0.0314 0.9882 0.4314
0.0392 0.9961 0.4471
0.2549 0.9961 0.4471
0.4510 0.9961 0.4510
0.6784 0.9961 0.4510
0.9294 0.9922 0.4549
1.0000 0.9961 0.4471
0.9961 0.9961 0.4510
0.0314 0.0000 0.6549
0.0392 0.0000 0.6824
0.2549 0.0000 0.6784
0.4510 0.0000 0.6745
0.6824 0.0000 0.6745
0.9294 0.0000 0.6745
1.0000 0.0000 0.6784
0.9961 0.0000 0.6784
0.0314 0.0314 0.6431
0.0392 0.0392 0.6745
0.2549 0.0353 0.6745
0.4471 0.0392 0.6784
0.6784 0.0431 0.6784
0.9216 0.0392 0.6706
0.9922 0.0431 0.6745
0.9922 0.0392 0.6784
0.0314 0.2353 0.6510
0.0431 0.2510 0.6745
0.2549 0.2549 0.6745
0.4510 0.2549 0.6784
0.6784 0.2549 0.6706
0.9294 0.2549 0.6745
0.9922 0.2549 0.6706
0.9922 0.2549 0.6745
0.0314 0.4314 0.6510
0.0431 0.4510 0.6745
0.2510 0.4510 0.6706
0.4510 0.4510 0.6745
0.6706 0.4471 0.6745
0.9255 0.4549 0.6745
0.9922 0.4510 0.6745
0.9922 0.4549 0.6745
0.0314 0.6549 0.6549
0.0392 0.6745 0.6745
0.2510 0.6745 0.6784
0.4510 0.6745 0.6667
0.6745 0.6745 0.6745
0.9294 0.6745 0.6784
0.9922 0.6745 0.6706
0.9922 0.6745 0.6784
0.0353 0.9098 0.6549
0.0431 0.9255 0.6745
0.2549 0.9333 0.6784
0.4510 0.9255 0.6706
0.6784 0.9294 0.6706
0.9255 0.9255 0.6745
0.9922 0.9333 0.6745
0.9922 0.9255 0.6745
0.0314 0.9882 0.6471
0.0392 0.9961 0.6745
0.2510 0.9961 0.6784
0.4549 0.9961 0.6745
0.6784 0.9961 0.6824
0.9294 0.9961 0.6706
0.9961 0.9961 0.6784
1.0000 0.9961 0.6824
0.0353 0.9882 0.6549
0.0431 0.9961 0.6745
0.2549 0.9961 0.6745
0.4549 0.9961 0.6745
0.6824 0.9961 0.6745
0.9294 0.9961 0.6824
0.9961 0.9961 0.6784
1.0000 0.9961 0.6824
0.0196 0.0196 0.8627
0.0431 0.0196 0.9098
0.2471 0.0196 0.9059
0.4471 0.0196 0.9059
0.6706 0.0196 0.9020
0.9176 0.0196 0.9059
0.9725 0.0196 0.9020
0.9725 0.0196 0.9020
0.0078 0.0353 0.8941
0.0392 0.0353 0.9333
0.2510 0.0353 0.9333
0.4510 0.0392 0.9294
0.6745 0.0314 0.9294
0.9333 0.0392 0.9255
0.9922 0.0392 0.9255
0.9961 0.0392 0.9294
0.0157 0.2431 0.9059
0.0353 0.2549 0.9294
0.2510 0.2510 0.9294
0.4510 0.2510 0.9333
0.6706 0.2549 0.9333
0.9294 0.2549 0.9294
0.9922 0.2510 0.9255
0.9922 0.2549 0.9294
0.0157 0.4392 0.9059
0.0431 0.4471 0.9294
0.2549 0.4510 0.9294
0.4549 0.4510 0.9333
0.6784 0.4510 0.9373
0.9294 0.4510 0.9294
0.9922 0.4510 0.9294
0.9922 0.4510 0.9294
0.0196 0.6627 0.9137
0.0392 0.6745 0.9294
0.2549 0.6745 0.9333
0.4471 0.6745 0.9255
0.6745 0.6784 0.9294
0.9255 0.6745 0.9294
0.9922 0.6784 0.9294
0.9922 0.6745 0.9294
0.0235 0.9137 0.9137
0.0431 0.9255 0.9294
0.2549 0.9294 0.9255
0.4510 0.9294 0.9294
0.6784 0.9294 0.9255
0.9294 0.9294 0.9294
0.9922 0.9255 0.9294
0.9922 0.9294 0.9294
0.0275 0.9922 0.9176
0.0471 0.9961 0.9294
0.2549 0.9961 0.9333
0.4510 0.9961 0.9333
0.6824 0.9961 0.9294
0.9333 0.9961 0.9294
1.0000 0.9961 0.9294
1.0000 0.9961 0.9333
0.0275 0.9922 0.9373
0.0431 0.9961 0.9294
0.2588 0.9961 0.9294
0.4510 0.9961 0.9333
0.6784 0.9961 0.9333
0.9333 0.9961 0.9333
1.0000 0.9961 0.9294
1.0000 0.9961 0.9333
0.0471 0.0196 0.9451
0.0471 0.0196 0.9529
0.2392 0.0196 0.9529
0.4431 0.0196 0.9529
0.6627 0.0196 0.9490
0.9176 0.0196 0.9490
0.9686 0.0196 0.9490
0.9686 0.0196 0.9490
0.0353 0.0314 0.9804
0.0392 0.0392 0.9922
0.2510 0.0353 0.9922
0.4510 0.0392 0.9922
0.6745 0.0392 0.9922
0.9294 0.0392 0.9922
0.9922 0.0392 0.9922
0.9922 0.0392 0.9922
0.0353 0.2353 0.9804
0.0392 0.2510 0.9922
0.2510 0.2510 0.9922
0.4510 0.2471 0.9922
0.6745 0.2549 0.9922
0.9255 0.2471 0.9922
0.9922 0.2510 0.9922
0.9922 0.2510 0.9922
0.0353 0.4314 0.9843
0.0431 0.4471 0.9922
0.2510 0.4510 0.9922
0.4549 0.4510 0.9922
0.6706 0.4510 0.9922
0.9294 0.4510 0.9922
0.9922 0.4510 0.9922
0.9922 0.4510 0.9922
0.0353 0.6510 0.9804
0.0431 0.6706 0.9922
0.2549 0.6706 0.9922
0.4549 0.6745 0.9922
0.6784 0.6745 0.9922
0.9294 0.6784 0.9922
0.9922 0.6745 0.9922
0.9922 0.6745 0.9922
0.0353 0.9098 0.9804
0.0353 0.9294 0.9922
0.2510 0.9294 0.9922
0.4510 0.9294 0.9922
0.6745 0.9294 0.9922
0.9294 0.9333 0.9922
0.9922 0.9294 0.9922
0.9922 0.9333 0.9922
0.0431 0.9882 0.9882
0.0471 0.9961 0.9961
0.2588 0.9922 0.9961
0.4510 0.9961 0.9961
0.6784 0.9961 0.9961
0.9294 0.9961 0.9961
1.0000 1.0000 1.0000
1.0000 1.0000 1.0000
0.0431 0.9882 0.9882
0.0431 0.9961 0.9961
0.2588 0.9961 0.9961
0.4549 0.9961 0.9961
0.6784 0.9961 0.9961
0.9294 0.9922 0.9961
1.0000 1.0000 1.0000
1.0000 1.0000 1.0000
0.0353 0.0118 0.9569
0.0471 0.0118 0.9725
0.2510 0.0118 0.9725
0.4510 0.0118 0.9725
0.6745 0.0118 0.9686
0.9216 0.0118 0.9725
0.9804 0.0118 0.9686
0.9804 0.0118 0.9686
0.0235 0.0353 0.9765
0.0392 0.0392 0.9922
0.2549 0.0392 0.9922
0.4510 0.0392 0.9922
0.6745 0.0392 0.9922
0.9255 0.0392 0.9922
0.9922 0.0392 0.9922
0.9922 0.0392 0.9922
0.0275 0.2392 0.9765
0.0431 0.2510 0.9922
0.2510 0.2549 0.9922
0.4510 0.2549 0.9922
0.6745 0.2510 0.9922
0.9255 0.2549 0.9922
0.9922 0.2549 0.9922
0.9922 0.2549 0.9922
0.0275 0.4353 0.9765
0.0392 0.4510 0.9882
0.2549 0.4471 0.9922
0.4510 0.4510 0.9922
0.6784 0.4471 0.9922
0.9333 0.4510 0.9922
0.9922 0.4471 0.9922
0.9922 0.4510 0.9922
0.0275 0.6588 0.9804
0.0431 0.6745 0.9922
0.2549 0.6745 0.9922
0.4471 0.6745 0.9882
0.6745 0.6745 0.9922
0.9294 0.6745 0.9922
0.9922 0.6745 0.9922
0.9922 0.6745 0.9922
0.0314 0.9137 0.9843
0.0431 0.9255 0.9922
0.2549 0.9255 0.9922
0.4549 0.9255 0.9922
0.6784 0.9294 0.9922
0.9333 0.9294 0.9922
0.9922 0.9294 0.9961
0.9922 0.9294 0.9922
0.0353 0.9882 0.9882
0.0431 0.9961 0.9961
0.2510 0.9961 0.9961
0.4510 0.9961 0.9961
0.6784 0.9961 0.9961
0.9294 0.9922 0.9922
1.0000 1.0000 1.0000
1.0000 1.0000 1.0000
0.0392 0.9882 0.9882
0.0431 0.9961 0.9961
0.2588 0.9961 0.9961
0.4549 0.9961 0.9961
0.6784 0.9922 0.9961
0.9294 0.9922 0.9922
1.0000 1.0000 1.0000
1.0000 1.0000 1.0000
