70 CGC LUTs/Log to Rec709/Canon Log2.cube
#Generated by Picture Instruments - Look Converter
TITLE "CLog2"
LUT_3D_SIZE 5
DOMAIN_MIN 0.000000 0.000000 0.000000
DOMAIN_MAX 0.903226 0.903226 0.903226
0.0000 0.0000 0.0000
0.0941 0.0000 0.0000
0.4588 0.0039 0.0118
0.8431 0.0078 0.0824
0.9608 0.0196 0.1529
0.0078 0.0941 0.0000
0.0824 0.0980 0.0000
0.5608 0.0588 0.0000
0.9882 0.0314 0.1608
0.9882 0.1137 0.2706
0.0039 0.4314 0.0078
0.0039 0.4824 0.0039
0.4157 0.4471 0.0039
0.9804 0.3686 0.2667
0.9922 0.4353 0.5294
0.0078 0.8392 0.0392
0.0000 0.8902 0.0353
0.0157 0.9647 0.0392
0.8000 0.8667 0.0078
0.9922 0.8157 0.7922
0.3216 0.9843 0.3961
0.4588 0.9922 0.5176
0.6824 0.9882 0.7176
0.9020 0.9922 0.9098
0.9922 0.9961 0.9725
0.0275 0.0039 0.0706
0.1098 0.0000 0.0902
0.4157 0.0039 0.1843
0.8275 0.0078 0.1608
0.9608 0.0196 0.1765
0.0235 0.0863 0.0784
0.0941 0.0902 0.1020
0.6549 0.0235 0.2275
0.9882 0.0353 0.2353
0.9882 0.1294 0.2902
0.0118 0.4314 0.0275
0.0000 0.4902 0.0157
0.4314 0.4588 0.0039
0.9843 0.3725 0.3059
0.9922 0.4431 0.5333
0.0118 0.8549 0.0431
0.0000 0.8980 0.0431
0.0196 0.9686 0.0627
0.8157 0.8745 0.0118
0.9922 0.8314 0.8118
0.3608 0.9804 0.4353
0.5137 0.9922 0.5725
0.7216 0.9922 0.7529
0.9294 0.9922 0.9333
0.9961 0.9922 0.9804
0.0353 0.0000 0.3294
0.1451 0.0000 0.3255
0.4471 0.0000 0.4157
0.8667 0.0000 0.4157
0.9882 0.0314 0.2471
0.0431 0.0510 0.6235
0.2000 0.0392 0.6824
0.7333 0.0000 0.6863
0.9882 0.0431 0.5216
0.9922 0.1569 0.3490
0.0196 0.4235 0.4196
0.0000 0.4824 0.4667
0.4196 0.4392 0.4431
0.9843 0.3804 0.6039
0.9922 0.4784 0.5804
0.0157 0.8706 0.1137
0.0000 0.9176 0.1255
0.0510 0.9765 0.1804
0.8471 0.8902 0.0314
0.9922 0.8588 0.8431
0.4353 0.9765 0.5059
0.5882 0.9882 0.6314
0.7725 0.9882 0.8000
0.9569 0.9961 0.9608
1.0000 1.0000 1.0000
0.0275 0.0039 0.6824
0.0745 0.0039 0.8902
0.4431 0.0078 0.8706
0.8627 0.0118 0.8078
0.9647 0.0392 0.5176
0.1098 0.0314 0.9804
0.1686 0.0510 0.9882
0.5176 0.0549 0.9882
0.9647 0.0471 0.9098
0.9882 0.1804 0.5922
0.2549 0.3294 0.9765
0.3137 0.3608 0.9843
0.5294 0.3961 0.9882
0.9725 0.3882 0.9373
0.9922 0.5020 0.7451
0.0000 0.8510 0.8196
0.0000 0.8902 0.8667
0.0471 0.9490 0.9176
0.8275 0.8588 0.8588
0.9922 0.8902 0.9294
0.5529 0.9882 0.6353
0.6745 0.9922 0.7373
0.8431 0.9922 0.8745
0.9843 0.9961 0.9882
0.9961 0.9961 0.9961
0.0510 0.0000 0.8980
0.0745 0.0000 0.9647
0.1686 0.0392 0.9686
0.5216 0.0627 0.9725
0.9451 0.0431 0.9059
0.1569 0.0471 0.9686
0.1922 0.0824 0.9882
0.2784 0.1608 0.9882
0.5882 0.2039 0.9922
0.9647 0.1843 0.9216
0.3765 0.3137 0.9725
0.4235 0.3608 0.9882
0.5020 0.4353 0.9882
0.7255 0.4941 0.9922
0.9765 0.5137 0.9490
0.6510 0.6745 0.9843
0.6902 0.7059 0.9922
0.7647 0.7725 0.9922
0.8941 0.8588 0.9922
0.9882 0.9137 0.9882
0.5725 0.9647 0.9686
0.7059 0.9765 0.9843
0.8902 0.9882 0.9922
0.9922 0.9961 0.9961
1.0000 1.0000 1.0000
