70 CGC LUTs/Log to Rec709/Canon Log.cube
#Generated by Picture Instruments - Look Converter
TITLE "Canon CLog"
LUT_3D_SIZE 5
DOMAIN_MIN 0.000000 0.000000 0.000000
DOMAIN_MAX 0.903226 0.903226 0.903226
0.0000 0.0000 0.0000
0.2039 0.0000 0.0000
0.5569 0.0039 0.0039
0.9451 0.0118 0.0118
0.9608 0.0157 0.0118
0.0039 0.1961 0.0039
0.2078 0.2039 0.0000
0.5569 0.2039 0.0000
0.9725 0.2039 0.0000
0.9922 0.2039 0.0000
0.0078 0.5412 0.0078
0.2039 0.5529 0.0039
0.5569 0.5529 0.0039
0.9725 0.5569 0.0039
0.9961 0.5608 0.0039
0.0157 0.9647 0.0157
0.2039 0.9765 0.0000
0.5569 0.9765 0.0000
0.9765 0.9765 0.0000
0.9961 0.9765 0.0039
0.0275 0.9922 0.0275
0.2039 0.9961 0.0000
0.5569 0.9961 0.0000
0.9765 0.9961 0.0000
1.0000 0.9961 0.0000
0.0353 0.0039 0.1804
0.2039 0.0039 0.2039
0.5490 0.0078 0.2000
0.9490 0.0118 0.2039
0.9647 0.0118 0.2039
0.0353 0.1843 0.1765
0.2000 0.2039 0.2000
0.5569 0.2039 0.2039
0.9765 0.2039 0.2000
0.9922 0.2039 0.2000
0.0314 0.5333 0.1804
0.2039 0.5529 0.2000
0.5608 0.5529 0.2039
0.9725 0.5529 0.2000
0.9922 0.5529 0.2000
0.0314 0.9608 0.1804
0.2039 0.9765 0.2039
0.5569 0.9765 0.2000
0.9725 0.9765 0.2039
0.9961 0.9765 0.2039
0.0353 0.9882 0.1843
0.2078 0.9961 0.2039
0.5608 0.9961 0.2078
0.9765 0.9961 0.2039
0.9961 0.9961 0.2078
0.0392 0.0000 0.5333
0.2039 0.0000 0.5608
0.5569 0.0000 0.5529
0.9765 0.0000 0.5529
0.9961 0.0000 0.5529
0.0353 0.1804 0.5333
0.2039 0.2039 0.5569
0.5569 0.2039 0.5529
0.9725 0.2039 0.5569
0.9922 0.2039 0.5529
0.0353 0.5333 0.5373
0.2000 0.5569 0.5608
0.5529 0.5529 0.5569
0.9725 0.5569 0.5529
0.9922 0.5529 0.5529
0.0392 0.9608 0.5333
0.2039 0.9725 0.5569
0.5529 0.9725 0.5608
0.9725 0.9725 0.5608
0.9922 0.9725 0.5569
0.0392 0.9882 0.5373
0.2078 0.9961 0.5569
0.5569 0.9961 0.5569
0.9765 0.9922 0.5608
0.9961 0.9961 0.5569
0.0314 0.0196 0.9137
0.2000 0.0196 0.9333
0.5529 0.0196 0.9333
0.9569 0.0196 0.9333
0.9725 0.0196 0.9333
0.0235 0.1804 0.9569
0.2039 0.2000 0.9725
0.5529 0.2039 0.9725
0.9725 0.2039 0.9725
0.9922 0.2039 0.9725
0.0275 0.5412 0.9569
0.2039 0.5569 0.9725
0.5569 0.5569 0.9725
0.9725 0.5569 0.9725
0.9922 0.5569 0.9725
0.0275 0.9647 0.9608
0.2039 0.9765 0.9725
0.5569 0.9765 0.9725
0.9765 0.9765 0.9725
0.9961 0.9765 0.9765
0.0314 0.9922 0.9686
0.2078 0.9961 0.9725
0.5529 0.9961 0.9765
0.9765 0.9961 0.9765
1.0000 0.9961 0.9804
0.0353 0.0118 0.9569
0.2039 0.0118 0.9725
0.5569 0.0118 0.9725
0.9608 0.0118 0.9686
0.9804 0.0118 0.9686
0.0275 0.1922 0.9765
0.2039 0.2039 0.9922
0.5529 0.2000 0.9882
0.9725 0.2039 0.9922
0.9922 0.2039 0.9922
0.0235 0.5373 0.9804
0.2039 0.5490 0.9922
0.5529 0.5569 0.9882
0.9725 0.5529 0.9922
0.9922 0.5529 0.9922
0.0353 0.9647 0.9843
0.2039 0.9765 0.9922
0.5608 0.9765 0.9922
0.9765 0.9765 0.9922
0.9961 0.9765 0.9961
0.0392 0.9882 0.9882
0.2078 0.9961 0.9961
0.5569 0.9922 0.9961
0.9804 0.9961 0.9961
1.0000 1.0000 1.0000
