70 CGC LUTs/Log to Rec709/Canon Log3.cube
#Generated by Picture Instruments - Look Converter
TITLE "CLog3"
LUT_3D_SIZE 5
DOMAIN_MIN 0.000000 0.000000 0.000000
DOMAIN_MAX 0.903226 0.903226 0.903226
0.0000 0.0000 0.0000
0.1608 0.0000 0.0000
0.5216 0.0039 0.0078
0.7922 0.0078 0.0471
0.9255 0.0118 0.1059
0.0039 0.1529 0.0039
0.1373 0.1686 0.0039
0.5137 0.1686 0.0000
0.9882 0.0863 0.1176
0.9882 0.1294 0.2588
0.0078 0.5137 0.0118
0.0078 0.5804 0.0000
0.5098 0.5373 0.0000
0.9608 0.4784 0.0235
0.9922 0.4824 0.5176
0.0078 0.8039 0.0314
0.0000 0.8745 0.0196
0.0275 0.9569 0.0000
0.7882 0.8314 0.0039
0.9961 0.7647 0.5608
0.0118 0.9647 0.0863
0.0784 0.9882 0.1725
0.3608 0.9922 0.4157
0.6000 0.9961 0.5882
0.9373 0.9725 0.3176
0.0275 0.0039 0.1020
0.1647 0.0000 0.1451
0.4902 0.0039 0.2784
0.7725 0.0078 0.2941
0.9529 0.0118 0.1647
0.0314 0.1373 0.1255
0.1608 0.1608 0.1647
0.7569 0.0784 0.2824
0.9882 0.0863 0.3490
0.9882 0.1451 0.3059
0.0157 0.5255 0.0706
0.0000 0.6000 0.0314
0.5294 0.5490 0.0000
0.9804 0.4784 0.1412
0.9922 0.4902 0.5490
0.0157 0.8235 0.0549
0.0000 0.8863 0.0431
0.0275 0.9686 0.0196
0.8000 0.8471 0.0000
0.9961 0.7804 0.6078
0.0275 0.9725 0.1098
0.1333 0.9922 0.2314
0.4157 0.9922 0.4706
0.6510 0.9922 0.6353
0.9490 0.9725 0.4157
0.0471 0.0039 0.3725
0.2235 0.0000 0.3529
0.5412 0.0000 0.4980
0.8275 0.0000 0.4902
0.9882 0.0000 0.3961
0.0471 0.1255 0.5843
0.2824 0.0980 0.8039
0.8667 0.0275 0.8196
0.9882 0.0941 0.6235
0.9882 0.1608 0.4980
0.0196 0.5176 0.4980
0.0000 0.5882 0.5686
0.5216 0.5294 0.5333
0.9725 0.4706 0.6157
0.9922 0.5176 0.6706
0.0196 0.8471 0.2039
0.0000 0.9020 0.2039
0.0471 0.9804 0.2118
0.8314 0.8667 0.0235
0.9922 0.8000 0.6824
0.0706 0.9765 0.1961
0.2235 0.9922 0.3294
0.5020 0.9922 0.5608
0.7373 0.9961 0.7333
0.9725 0.9843 0.6353
0.0392 0.0157 0.6235
0.1608 0.0157 0.8078
0.5333 0.0157 0.8000
0.8275 0.0157 0.7765
0.9647 0.0157 0.5961
0.1059 0.0784 0.9804
0.2353 0.1176 0.9843
0.6784 0.0902 0.9882
0.9765 0.0941 0.9255
0.9882 0.1765 0.6706
0.1490 0.4510 0.9569
0.2392 0.4902 0.9843
0.6353 0.4745 0.9882
0.9804 0.4627 0.9451
0.9922 0.5333 0.7961
0.0000 0.8196 0.7882
0.0000 0.8784 0.8510
0.0235 0.9451 0.9255
0.8118 0.8196 0.8196
0.9922 0.8157 0.8588
0.1020 0.9843 0.4039
0.2745 0.9922 0.5059
0.5569 0.9961 0.6863
0.7922 0.9961 0.8392
0.9843 0.9882 0.8157
0.0431 0.0078 0.7686
0.0941 0.0039 0.9569
0.2627 0.0275 0.9647
0.6706 0.0157 0.9725
0.9569 0.0078 0.9098
0.1725 0.0824 0.9686
0.2392 0.1333 0.9843
0.3725 0.2078 0.9843
0.7294 0.1922 0.9843
0.9725 0.1725 0.9294
0.4118 0.3843 0.9765
0.4706 0.4392 0.9882
0.5804 0.5137 0.9882
0.8235 0.5294 0.9922
0.9843 0.5333 0.9569
0.4431 0.6824 0.9843
0.5333 0.7137 0.9922
0.6588 0.7804 0.9922
0.8627 0.8118 0.9961
0.9882 0.8196 0.9804
0.0980 0.9529 0.9255
0.2431 0.9686 0.9451
0.5686 0.9804 0.9647
0.8235 0.9882 0.9843
0.9843 0.9843 0.9882
