70 CGC LUTs/Log to Rec709/Canon Log.cube
#Generated by Picture Instruments - Look Converter
TITLE "Canon CLog"
LUT_3D_SIZE 32
0.0000 0.0000 0.0000
0.0000 0.0000 0.0000
0.0000 0.0000 0.0000
0.0196 0.0000 0.0000
0.0392 0.0000 0.0000
0.0941 0.0000 0.0000
0.1490 0.0000 0.0000
0.2039 0.0000 0.0000
0.2549 0.0000 0.0039
0.3020 0.0000 0.0039
0.3490 0.0039 0.0039
0.3961 0.0039 0.0039
0.4510 0.0039 0.0039
0.5059 0.0039 0.0039
0.5569 0.0039 0.0039
0.6078 0.0039 0.0039
0.6745 0.0078 0.0078
0.7373 0.0078 0.0078
0.8000 0.0078 0.0118
0.8627 0.0078 0.0118
0.9137 0.0118 0.0118
0.9451 0.0118 0.0118
0.9608 0.0157 0.0118
0.9608 0.0157 0.0118
0.9608 0.0157 0.0118
0.9608 0.0157 0.0118
0.9608 0.0157 0.0118
0.9608 0.0157 0.0118
0.9608 0.0157 0.0118
0.9608 0.0157 0.0118
0.9608 0.0157 0.0118
0.9608 0.0157 0.0118
0.0000 0.0000 0.0000
0.0000 0.0000 0.0000
0.0000 0.0000 0.0000
0.0196 0.0000 0.0000
0.0392 0.0000 0.0000
0.0941 0.0000 0.0000
0.1490 0.0000 0.0000
0.2039 0.0000 0.0000
0.2510 0.0000 0.0039
0.2980 0.0000 0.0039
0.3451 0.0000 0.0000
0.3922 0.0000 0.0000
0.4510 0.0000 0.0000
0.5020 0.0000 0.0000
0.5569 0.0000 0.0039
0.6078 0.0000 0.0039
0.6745 0.0039 0.0039
0.7373 0.0039 0.0039
0.8000 0.0039 0.0039
0.8627 0.0039 0.0039
0.9176 0.0039 0.0039
0.9569 0.0039 0.0039
0.9765 0.0078 0.0039
0.9765 0.0078 0.0039
0.9765 0.0078 0.0039
0.9765 0.0078 0.0039
0.9765 0.0078 0.0039
0.9765 0.0078 0.0039
0.9765 0.0078 0.0039
0.9765 0.0078 0.0039
0.9765 0.0078 0.0039
0.9765 0.0118 0.0078
0.0000 0.0000 0.0000
0.0000 0.0000 0.0000
0.0000 0.0000 0.0000
0.0196 0.0000 0.0000
0.0431 0.0000 0.0000
0.0980 0.0000 0.0000
0.1490 0.0000 0.0000
0.2039 0.0000 0.0000
0.2510 0.0000 0.0039
0.2980 0.0000 0.0039
0.3451 0.0000 0.0000
0.3922 0.0000 0.0000
0.4510 0.0000 0.0000
0.5020 0.0000 0.0000
0.5569 0.0000 0.0039
0.6118 0.0000 0.0039
0.6784 0.0000 0.0039
0.7412 0.0000 0.0039
0.8000 0.0000 0.0000
0.8627 0.0000 0.0000
0.9216 0.0000 0.0000
0.9725 0.0000 0.0000
0.9922 0.0000 0.0000
0.9922 0.0000 0.0000
0.9922 0.0000 0.0000
0.9922 0.0000 0.0000
0.9922 0.0000 0.0000
0.9922 0.0000 0.0000
0.9922 0.0000 0.0000
0.9922 0.0000 0.0000
0.9922 0.0039 0.0000
0.9922 0.0078 0.0039
0.0000 0.0157 0.0000
0.0000 0.0157 0.0000
0.0000 0.0196 0.0000
0.0196 0.0157 0.0000
0.0392 0.0157 0.0000
0.0941 0.0196 0.0000
0.1490 0.0196 0.0000
0.2039 0.0196 0.0000
0.2549 0.0196 0.0000
0.3020 0.0196 0.0000
0.3490 0.0196 0.0000
0.3961 0.0196 0.0000
0.4549 0.0157 0.0000
0.5059 0.0157 0.0000
0.5569 0.0157 0.0000
0.6118 0.0157 0.0000
0.6784 0.0196 0.0000
0.7412 0.0196 0.0000
0.8039 0.0196 0.0000
0.8706 0.0196 0.0000
0.9294 0.0157 0.0000
0.9765 0.0157 0.0000
0.9922 0.0157 0.0000
0.9922 0.0157 0.0000
0.9922 0.0196 0.0000
0.9922 0.0196 0.0000
0.9922 0.0196 0.0000
0.9922 0.0196 0.0000
0.9922 0.0196 0.0000
0.9922 0.0196 0.0000
0.9922 0.0275 0.0000
0.9882 0.0353 0.0039
0.0039 0.0353 0.0039
0.0000 0.0353 0.0000
0.0000 0.0392 0.0000
0.0196 0.0353 0.0000
0.0392 0.0353 0.0000
0.0941 0.0392 0.0000
0.1490 0.0392 0.0000
0.2078 0.0392 0.0000
0.2588 0.0392 0.0000
0.3059 0.0392 0.0000
0.3529 0.0392 0.0000
0.4000 0.0392 0.0000
0.4549 0.0353 0.0000
0.5059 0.0353 0.0000
0.5608 0.0353 0.0000
0.6118 0.0353 0.0000
0.6784 0.0392 0.0000
0.7412 0.0392 0.0000
0.8078 0.0392 0.0000
0.8784 0.0392 0.0000
0.9373 0.0353 0.0000
0.9765 0.0353 0.0000
0.9961 0.0353 0.0000
0.9961 0.0353 0.0000
0.9922 0.0392 0.0000
0.9922 0.0392 0.0000
0.9922 0.0392 0.0000
0.9922 0.0392 0.0000
0.9961 0.0392 0.0000
0.9961 0.0392 0.0000
0.9922 0.0510 0.0000
0.9882 0.0627 0.0039
0.0039 0.0902 0.0039
0.0000 0.0902 0.0000
0.0000 0.0941 0.0000
0.0196 0.0902 0.0000
0.0392 0.0902 0.0000
0.0941 0.0941 0.0000
0.1529 0.0941 0.0000
0.2078 0.0941 0.0000
0.2549 0.0941 0.0000
0.3020 0.0941 0.0000
0.3490 0.0941 0.0000
0.3961 0.0941 0.0000
0.4549 0.0941 0.0000
0.5059 0.0941 0.0000
0.5608 0.0941 0.0000
0.6118 0.0941 0.0000
0.6784 0.0941 0.0000
0.7412 0.0941 0.0000
0.8039 0.0941 0.0000
0.8745 0.0941 0.0000
0.9333 0.0941 0.0000
0.9765 0.0941 0.0000
0.9961 0.0941 0.0000
0.9961 0.0941 0.0000
0.9922 0.0941 0.0000
0.9922 0.0941 0.0000
0.9922 0.0941 0.0000
0.9922 0.0941 0.0000
0.9961 0.0941 0.0000
0.9961 0.0941 0.0000
0.9922 0.1059 0.0000
0.9882 0.1137 0.0039
0.0039 0.1412 0.0039
0.0039 0.1451 0.0000
0.0039 0.1490 0.0000
0.0196 0.1451 0.0000
0.0392 0.1451 0.0000
0.0980 0.1451 0.0000
0.1529 0.1490 0.0000
0.2078 0.1490 0.0000
0.2549 0.1490 0.0000
0.3020 0.1490 0.0000
0.3490 0.1490 0.0000
0.3961 0.1490 0.0000
0.4510 0.1490 0.0000
0.5020 0.1490 0.0000
0.5569 0.1490 0.0000
0.6118 0.1490 0.0000
0.6784 0.1490 0.0000
0.7373 0.1451 0.0000
0.8000 0.1451 0.0039
0.8667 0.1451 0.0039
0.9294 0.1490 0.0000
0.9725 0.1490 0.0000
0.9922 0.1490 0.0000
0.9922 0.1490 0.0000
0.9922 0.1490 0.0039
0.9922 0.1490 0.0039
0.9922 0.1451 0.0039
0.9922 0.1451 0.0039
0.9922 0.1451 0.0000
0.9922 0.1451 0.0000
0.9882 0.1569 0.0000
0.9882 0.1647 0.0039
0.0039 0.1961 0.0039
0.0039 0.2000 0.0000
0.0039 0.2039 0.0000
0.0196 0.2039 0.0000
0.0392 0.2039 0.0000
0.0980 0.2039 0.0000
0.1529 0.2039 0.0000
0.2078 0.2039 0.0000
0.2549 0.2039 0.0000
0.3020 0.2039 0.0000
0.3490 0.2039 0.0000
0.3961 0.2039 0.0000
0.4510 0.2039 0.0000
0.5020 0.2039 0.0000
0.5569 0.2039 0.0000
0.6118 0.2039 0.0000
0.6784 0.2039 0.0000
0.7373 0.2039 0.0000
0.8000 0.2000 0.0039
0.8627 0.2000 0.0039
0.9255 0.2039 0.0000
0.9725 0.2039 0.0000
0.9922 0.2039 0.0000
0.9922 0.2039 0.0000
0.9922 0.2078 0.0039
0.9922 0.2078 0.0039
0.9922 0.2039 0.0039
0.9922 0.2039 0.0039
0.9922 0.2039 0.0000
0.9922 0.2039 0.0000
0.9882 0.2118 0.0000
0.9882 0.2196 0.0039
0.0039 0.2431 0.0039
0.0039 0.2471 0.0000
0.0039 0.2549 0.0000
0.0235 0.2549 0.0000
0.0431 0.2510 0.0000
0.0980 0.2510 0.0000
0.1490 0.2510 0.0000
0.2078 0.2510 0.0000
0.2588 0.2510 0.0000
0.3059 0.2510 0.0000
0.3529 0.2549 0.0000
0.4000 0.2549 0.0000
0.4510 0.2549 0.0000
0.5020 0.2549 0.0000
0.5569 0.2549 0.0039
0.6118 0.2510 0.0039
0.6784 0.2510 0.0000
0.7373 0.2510 0.0000
0.8000 0.2510 0.0000
0.8627 0.2510 0.0000
0.9255 0.2510 0.0000
0.9725 0.2510 0.0000
0.9922 0.2510 0.0000
0.9922 0.2510 0.0000
0.9922 0.2549 0.0000
0.9922 0.2549 0.0000
0.9922 0.2549 0.0000
0.9922 0.2549 0.0000
0.9922 0.2549 0.0039
0.9922 0.2549 0.0039
0.9882 0.2627 0.0039
0.9882 0.2706 0.0039
0.0039 0.2902 0.0039
0.0039 0.2941 0.0000
0.0039 0.3020 0.0000
0.0235 0.3020 0.0000
0.0431 0.2980 0.0000
0.0980 0.2941 0.0000
0.1490 0.2941 0.0000
0.2078 0.2941 0.0000
0.2588 0.2980 0.0000
0.3059 0.2980 0.0000
0.3529 0.3020 0.0000
0.4000 0.3020 0.0000
0.4549 0.3020 0.0000
0.5059 0.3020 0.0000
0.5608 0.3020 0.0039
0.6118 0.2980 0.0039
0.6784 0.2980 0.0000
0.7412 0.2980 0.0000
0.8039 0.2980 0.0000
0.8706 0.2980 0.0000
0.9294 0.2980 0.0000
0.9765 0.2980 0.0000
0.9922 0.2980 0.0000
0.9922 0.2980 0.0000
0.9922 0.2980 0.0000
0.9922 0.2980 0.0000
0.9922 0.3020 0.0000
0.9922 0.3020 0.0000
0.9922 0.3020 0.0039
0.9922 0.3020 0.0039
0.9882 0.3098 0.0039
0.9882 0.3176 0.0039
0.0039 0.3373 0.0039
0.0039 0.3412 0.0000
0.0039 0.3490 0.0000
0.0235 0.3490 0.0000
0.0431 0.3451 0.0000
0.0980 0.3412 0.0000
0.1490 0.3412 0.0000
0.2078 0.3412 0.0000
0.2588 0.3451 0.0000
0.3020 0.3451 0.0000
0.3529 0.3451 0.0000
0.4000 0.3451 0.0000
0.4549 0.3490 0.0000
0.5059 0.3490 0.0000
0.5608 0.3490 0.0000
0.6157 0.3451 0.0039
0.6824 0.3451 0.0000
0.7412 0.3451 0.0000
0.8078 0.3490 0.0000
0.8745 0.3490 0.0000
0.9333 0.3490 0.0000
0.9765 0.3490 0.0000
0.9922 0.3451 0.0000
0.9922 0.3451 0.0000
0.9922 0.3451 0.0000
0.9922 0.3451 0.0000
0.9922 0.3490 0.0000
0.9922 0.3490 0.0000
0.9922 0.3490 0.0039
0.9922 0.3490 0.0039
0.9922 0.3569 0.0039
0.9882 0.3647 0.0039
0.0039 0.3843 0.0078
0.0039 0.3882 0.0039
0.0039 0.3961 0.0000
0.0235 0.3961 0.0000
0.0431 0.3922 0.0000
0.0980 0.3922 0.0000
0.1529 0.3922 0.0000
0.2078 0.3922 0.0000
0.2588 0.3922 0.0000
0.3020 0.3922 0.0000
0.3490 0.3922 0.0000
0.3961 0.3922 0.0000
0.4549 0.3961 0.0000
0.5059 0.3961 0.0000
0.5608 0.3961 0.0000
0.6157 0.3922 0.0039
0.6824 0.3922 0.0000
0.7412 0.3922 0.0000
0.8039 0.3961 0.0000
0.8706 0.3961 0.0000
0.9333 0.3961 0.0000
0.9765 0.3961 0.0000
0.9922 0.3922 0.0000
0.9922 0.3922 0.0000
0.9922 0.3961 0.0000
0.9922 0.3961 0.0000
0.9922 0.3961 0.0000
0.9922 0.3961 0.0000
0.9922 0.3961 0.0039
0.9922 0.3961 0.0039
0.9922 0.4039 0.0039
0.9882 0.4157 0.0039
0.0078 0.4353 0.0078
0.0039 0.4431 0.0039
0.0039 0.4510 0.0039
0.0235 0.4471 0.0039
0.0431 0.4471 0.0000
0.0980 0.4471 0.0000
0.1529 0.4510 0.0000
0.2078 0.4510 0.0039
0.2549 0.4510 0.0039
0.3020 0.4471 0.0000
0.3490 0.4471 0.0000
0.3961 0.4471 0.0000
0.4549 0.4510 0.0039
0.5059 0.4510 0.0000
0.5608 0.4471 0.0000
0.6118 0.4471 0.0039
0.6784 0.4471 0.0039
0.7373 0.4471 0.0000
0.8000 0.4510 0.0000
0.8706 0.4510 0.0000
0.9294 0.4510 0.0039
0.9725 0.4510 0.0039
0.9922 0.4510 0.0039
0.9922 0.4510 0.0039
0.9922 0.4510 0.0000
0.9922 0.4510 0.0000
0.9922 0.4510 0.0000
0.9922 0.4510 0.0000
0.9922 0.4549 0.0039
0.9922 0.4549 0.0039
0.9922 0.4588 0.0039
0.9882 0.4706 0.0039
0.0078 0.4863 0.0078
0.0039 0.4941 0.0039
0.0039 0.5020 0.0039
0.0235 0.4980 0.0039
0.0431 0.4980 0.0000
0.0980 0.4980 0.0000
0.1490 0.5020 0.0000
0.2078 0.5020 0.0039
0.2549 0.5020 0.0039
0.3020 0.5020 0.0000
0.3490 0.5059 0.0000
0.3961 0.5059 0.0000
0.4549 0.5059 0.0039
0.5059 0.5020 0.0000
0.5608 0.4980 0.0000
0.6118 0.4980 0.0039
0.6745 0.4980 0.0039
0.7373 0.4980 0.0000
0.8000 0.5020 0.0000
0.8706 0.5059 0.0000
0.9294 0.5059 0.0039
0.9725 0.5020 0.0039
0.9922 0.5020 0.0039
0.9922 0.5020 0.0039
0.9922 0.5020 0.0000
0.9922 0.5020 0.0000
0.9922 0.5020 0.0000
0.9922 0.5020 0.0000
0.9922 0.5059 0.0039
0.9922 0.5059 0.0039
0.9922 0.5098 0.0039
0.9882 0.5176 0.0039
0.0078 0.5412 0.0078
0.0039 0.5490 0.0039
0.0000 0.5569 0.0000
0.0196 0.5529 0.0000
0.0392 0.5529 0.0000
0.0941 0.5529 0.0000
0.1490 0.5529 0.0000
0.2039 0.5529 0.0039
0.2510 0.5569 0.0039
0.2980 0.5608 0.0000
0.3451 0.5647 0.0000
0.3922 0.5647 0.0000
0.4510 0.5608 0.0039
0.5020 0.5569 0.0039
0.5569 0.5529 0.0039
0.6078 0.5529 0.0039
0.6706 0.5529 0.0039
0.7333 0.5529 0.0000
0.7961 0.5569 0.0000
0.8667 0.5608 0.0000
0.9255 0.5608 0.0039
0.9725 0.5569 0.0039
0.9922 0.5569 0.0039
0.9922 0.5569 0.0039
0.9922 0.5569 0.0000
0.9922 0.5569 0.0000
0.9922 0.5569 0.0000
0.9922 0.5569 0.0000
0.9961 0.5608 0.0039
0.9961 0.5608 0.0039
0.9922 0.5647 0.0039
0.9882 0.5686 0.0039
0.0078 0.5961 0.0078
0.0039 0.6039 0.0039
0.0000 0.6118 0.0000
0.0196 0.6118 0.0000
0.0392 0.6157 0.0000
0.0941 0.6157 0.0000
0.1490 0.6118 0.0000
0.2039 0.6118 0.0039
0.2471 0.6118 0.0039
0.2941 0.6157 0.0000
0.3412 0.6157 0.0000
0.3922 0.6157 0.0000
0.4510 0.6157 0.0039
0.5020 0.6157 0.0039
0.5529 0.6157 0.0039
0.6039 0.6078 0.0039
0.6706 0.6078 0.0039
0.7333 0.6078 0.0000
0.7961 0.6118 0.0000
0.8588 0.6157 0.0000
0.9255 0.6157 0.0039
0.9725 0.6118 0.0039
0.9922 0.6157 0.0039
0.9922 0.6157 0.0039
0.9922 0.6118 0.0000
0.9922 0.6118 0.0000
0.9922 0.6118 0.0000
0.9922 0.6118 0.0000
0.9961 0.6118 0.0039
0.9961 0.6157 0.0039
0.9922 0.6196 0.0039
0.9882 0.6235 0.0039
0.0078 0.6588 0.0118
0.0039 0.6667 0.0039
0.0000 0.6745 0.0000
0.0196 0.6784 0.0000
0.0392 0.6824 0.0039
0.0941 0.6824 0.0039
0.1490 0.6784 0.0039
0.2039 0.6784 0.0039
0.2510 0.6784 0.0039
0.2980 0.6784 0.0039
0.3451 0.6784 0.0039
0.3922 0.6784 0.0039
0.4510 0.6824 0.0039
0.5020 0.6824 0.0039
0.5529 0.6824 0.0039
0.6039 0.6745 0.0039
0.6706 0.6745 0.0039
0.7333 0.6745 0.0039
0.7961 0.6784 0.0039
0.8588 0.6784 0.0039
0.9255 0.6784 0.0039
0.9725 0.6784 0.0039
0.9922 0.6824 0.0039
0.9922 0.6824 0.0039
0.9961 0.6784 0.0039
0.9961 0.6745 0.0039
0.9961 0.6745 0.0039
0.9961 0.6745 0.0039
0.9922 0.6745 0.0039
0.9922 0.6784 0.0039
0.9882 0.6863 0.0039
0.9882 0.6941 0.0078
0.0118 0.7216 0.0118
0.0039 0.7255 0.0039
0.0000 0.7294 0.0000
0.0196 0.7333 0.0000
0.0392 0.7373 0.0039
0.0980 0.7373 0.0039
0.1529 0.7373 0.0039
0.2078 0.7373 0.0039
0.2588 0.7373 0.0039
0.3059 0.7373 0.0039
0.3529 0.7373 0.0039
0.4000 0.7373 0.0039
0.4510 0.7373 0.0039
0.5020 0.7373 0.0039
0.5569 0.7373 0.0039
0.6118 0.7373 0.0039
0.6784 0.7373 0.0039
0.7412 0.7373 0.0039
0.8039 0.7373 0.0039
0.8667 0.7373 0.0039
0.9255 0.7373 0.0039
0.9725 0.7373 0.0039
0.9922 0.7373 0.0039
0.9922 0.7373 0.0039
0.9961 0.7373 0.0039
0.9961 0.7373 0.0039
0.9961 0.7333 0.0039
0.9961 0.7333 0.0039
0.9922 0.7333 0.0039
0.9922 0.7333 0.0039
0.9882 0.7490 0.0039
0.9882 0.7608 0.0078
0.0157 0.7843 0.0118
0.0078 0.7882 0.0039
0.0039 0.7961 0.0000
0.0235 0.8000 0.0000
0.0431 0.8000 0.0039
0.0980 0.8000 0.0039
0.1529 0.8000 0.0039
0.2078 0.8000 0.0039
0.2588 0.8000 0.0039
0.3059 0.8000 0.0039
0.3529 0.8000 0.0039
0.4000 0.8000 0.0039
0.4510 0.8000 0.0039
0.5020 0.8000 0.0039
0.5569 0.8000 0.0039
0.6118 0.8000 0.0039
0.6784 0.8000 0.0039
0.7412 0.8000 0.0039
0.8039 0.8000 0.0039
0.8667 0.8000 0.0039
0.9294 0.8000 0.0039
0.9725 0.8039 0.0039
0.9922 0.8039 0.0039
0.9922 0.8000 0.0039
0.9922 0.8000 0.0039
0.9922 0.8000 0.0039
0.9922 0.7961 0.0039
0.9922 0.7961 0.0039
0.9922 0.7961 0.0039
0.9922 0.7961 0.0039
0.9882 0.8118 0.0039
0.9882 0.8235 0.0039
0.0157 0.8471 0.0118
0.0078 0.8588 0.0039
0.0039 0.8667 0.0000
0.0235 0.8706 0.0000
0.0431 0.8706 0.0039
0.0980 0.8706 0.0039
0.1490 0.8667 0.0039
0.2039 0.8667 0.0039
0.2549 0.8667 0.0039
0.3020 0.8667 0.0039
0.3529 0.8706 0.0039
0.4000 0.8706 0.0039
0.4510 0.8706 0.0039
0.5020 0.8706 0.0039
0.5569 0.8706 0.0039
0.6118 0.8706 0.0039
0.6784 0.8706 0.0039
0.7412 0.8706 0.0039
0.8039 0.8706 0.0039
0.8667 0.8706 0.0039
0.9294 0.8706 0.0039
0.9725 0.8745 0.0039
0.9922 0.8745 0.0039
0.9922 0.8706 0.0039
0.9922 0.8706 0.0039
0.9922 0.8706 0.0039
0.9922 0.8667 0.0039
0.9922 0.8667 0.0039
0.9922 0.8667 0.0039
0.9922 0.8667 0.0039
0.9882 0.8745 0.0039
0.9882 0.8784 0.0039
0.0157 0.9137 0.0157
0.0078 0.9216 0.0078
0.0000 0.9333 0.0039
0.0196 0.9333 0.0000
0.0431 0.9333 0.0000
0.0941 0.9333 0.0000
0.1490 0.9294 0.0000
0.2039 0.9294 0.0000
0.2510 0.9294 0.0000
0.2980 0.9294 0.0000
0.3490 0.9333 0.0000
0.3961 0.9333 0.0000
0.4510 0.9333 0.0000
0.5020 0.9333 0.0000
0.5569 0.9333 0.0000
0.6118 0.9333 0.0000
0.6784 0.9333 0.0000
0.7373 0.9333 0.0000
0.8000 0.9333 0.0000
0.8627 0.9333 0.0000
0.9294 0.9333 0.0000
0.9765 0.9333 0.0000
0.9922 0.9373 0.0039
0.9922 0.9333 0.0039
0.9922 0.9333 0.0039
0.9922 0.9333 0.0039
0.9922 0.9294 0.0039
0.9922 0.9294 0.0039
0.9922 0.9294 0.0039
0.9922 0.9294 0.0039
0.9922 0.9333 0.0039
0.9922 0.9333 0.0039
0.0157 0.9647 0.0157
0.0078 0.9686 0.0078
0.0000 0.9765 0.0039
0.0196 0.9765 0.0000
0.0392 0.9765 0.0000
0.0941 0.9765 0.0000
0.1490 0.9765 0.0000
0.2039 0.9765 0.0000
0.2510 0.9765 0.0000
0.2980 0.9765 0.0000
0.3451 0.9765 0.0000
0.3961 0.9765 0.0000
0.4510 0.9765 0.0000
0.5020 0.9765 0.0000
0.5569 0.9765 0.0000
0.6118 0.9765 0.0000
0.6784 0.9765 0.0000
0.7333 0.9765 0.0000
0.7922 0.9765 0.0000
0.8627 0.9765 0.0000
0.9294 0.9765 0.0000
0.9765 0.9765 0.0000
0.9961 0.9804 0.0039
0.9961 0.9804 0.0039
0.9961 0.9804 0.0039
0.9961 0.9804 0.0039
0.9961 0.9804 0.0039
0.9961 0.9804 0.0039
0.9961 0.9765 0.0039
0.9961 0.9765 0.0039
0.9961 0.9765 0.0039
0.9961 0.9765 0.0039
0.0157 0.9843 0.0196
0.0078 0.9882 0.0118
0.0000 0.9961 0.0039
0.0196 0.9961 0.0000
0.0392 0.9961 0.0000
0.0941 0.9961 0.0000
0.1490 0.9961 0.0000
0.2039 0.9961 0.0000
0.2510 0.9961 0.0000
0.2980 0.9961 0.0000
0.3451 0.9961 0.0000
0.3961 0.9961 0.0000
0.4549 0.9961 0.0000
0.5059 0.9961 0.0000
0.5608 0.9961 0.0000
0.6157 0.9961 0.0000
0.6784 0.9961 0.0000
0.7333 0.9961 0.0000
0.7961 0.9961 0.0000
0.8667 0.9961 0.0000
0.9294 0.9961 0.0000
0.9804 0.9961 0.0000
1.0000 1.0000 0.0039
1.0000 1.0000 0.0039
1.0000 1.0000 0.0039
1.0000 1.0000 0.0039
1.0000 1.0000 0.0039
1.0000 1.0000 0.0039
1.0000 0.9961 0.0039
1.0000 0.9961 0.0039
1.0000 0.9961 0.0039
1.0000 0.9961 0.0039
0.0196 0.9843 0.0196
0.0078 0.9882 0.0118
0.0000 0.9961 0.0039
0.0196 0.9961 0.0000
0.0431 0.9961 0.0000
0.0980 0.9961 0.0000
0.1529 0.9961 0.0000
0.2078 0.9961 0.0000
0.2588 0.9961 0.0000
0.3059 0.9961 0.0000
0.3490 0.9961 0.0000
0.3961 0.9961 0.0000
0.4549 0.9961 0.0000
0.5059 0.9961 0.0000
0.5608 0.9961 0.0000
0.6157 0.9961 0.0000
0.6784 0.9961 0.0000
0.7412 0.9961 0.0000
0.8039 0.9961 0.0000
0.8745 0.9961 0.0000
0.9333 0.9961 0.0000
0.9804 0.9961 0.0000
1.0000 1.0000 0.0039
1.0000 1.0000 0.0039
1.0000 1.0000 0.0039
1.0000 1.0000 0.0039
1.0000 1.0000 0.0039
1.0000 1.0000 0.0039
1.0000 0.9961 0.0039
1.0000 0.9961 0.0039
1.0000 0.9961 0.0039
1.0000 0.9961 0.0039
0.0235 0.9882 0.0235
0.0118 0.9922 0.0118
0.0000 0.9961 0.0000
0.0235 0.9961 0.0000
0.0471 0.9961 0.0000
0.1020 0.9961 0.0000
0.1529 0.9961 0.0000
0.2078 0.9961 0.0000
0.2588 0.9961 0.0000
0.3059 0.9961 0.0000
0.3490 0.9961 0.0000
0.3961 0.9961 0.0000
0.4549 0.9961 0.0000
0.5059 0.9961 0.0000
0.5608 0.9961 0.0000
0.6118 0.9961 0.0000
0.6784 0.9961 0.0000
0.7412 0.9961 0.0000
0.8039 0.9961 0.0000
0.8745 0.9961 0.0000
0.9333 0.9961 0.0000
0.9804 0.9961 0.0000
1.0000 1.0000 0.0039
1.0000 1.0000 0.0039
1.0000 1.0000 0.0039
1.0000 1.0000 0.0039
1.0000 1.0000 0.0039
1.0000 1.0000 0.0039
1.0000 0.9961 0.0039
1.0000 0.9961 0.0039
1.0000 0.9961 0.0039
1.0000 0.9961 0.0039
0.0235 0.9882 0.0235
0.0118 0.9922 0.0118
0.0000 0.9961 0.0000
0.0235 0.9961 0.0000
0.0471 0.9961 0.0000
0.1020 0.9961 0.0000
0.1529 0.9961 0.0000
0.2078 0.9961 0.0000
0.2549 0.9961 0.0000
0.3020 0.9961 0.0000
0.3490 0.9961 0.0000
0.3961 0.9961 0.0000
0.4549 0.9961 0.0000
0.5059 0.9961 0.0000
0.5608 0.9961 0.0000
0.6118 0.9961 0.0000
0.6784 0.9961 0.0000
0.7412 0.9961 0.0000
0.8039 0.9961 0.0000
0.8706 0.9961 0.0000
0.9333 0.9961 0.0000
0.9804 0.9961 0.0000
1.0000 1.0000 0.0039
1.0000 1.0000 0.0039
1.0000 1.0000 0.0039
1.0000 1.0000 0.0039
1.0000 1.0000 0.0039
1.0000 1.0000 0.0039
1.0000 0.9961 0.0039
1.0000 0.9961 0.0039
1.0000 0.9961 0.0039
1.0000 0.9961 0.0039
0.0235 0.9882 0.0235
0.0118 0.9922 0.0118
0.0000 0.9961 0.0000
0.0196 0.9961 0.0000
0.0431 0.9961 0.0000
0.0980 0.9961 0.0000
0.1529 0.9961 0.0000
0.2039 0.9961 0.0000
0.2510 0.9961 0.0000
0.2980 0.9961 0.0000
0.3490 0.9961 0.0000
0.3961 0.9961 0.0000
0.4549 0.9961 0.0000
0.5059 0.9961 0.0000
0.5608 0.9961 0.0000
0.6118 0.9961 0.0000
0.6784 0.9961 0.0000
0.7412 0.9961 0.0000
0.8039 0.9961 0.0000
0.8667 0.9961 0.0000
0.9294 0.9961 0.0039
0.9765 0.9961 0.0039
1.0000 1.0000 0.0039
1.0000 1.0000 0.0039
1.0000 1.0000 0.0039
1.0000 1.0000 0.0039
1.0000 1.0000 0.0039
1.0000 1.0000 0.0039
1.0000 0.9961 0.0039
1.0000 0.9961 0.0039
1.0000 0.9961 0.0039
1.0000 0.9961 0.0039
0.0235 0.9882 0.0235
0.0118 0.9922 0.0118
0.0000 0.9961 0.0000
0.0196 0.9961 0.0000
0.0431 0.9961 0.0000
0.0980 0.9961 0.0000
0.1529 0.9961 0.0000
0.2039 0.9961 0.0000
0.2510 0.9961 0.0000
0.2980 0.9961 0.0000
0.3490 0.9961 0.0000
0.3961 0.9961 0.0000
0.4549 0.9961 0.0000
0.5059 0.9961 0.0000
0.5608 0.9961 0.0000
0.6118 0.9961 0.0000
0.6784 0.9961 0.0000
0.7412 0.9961 0.0000
0.8039 0.9961 0.0000
0.8627 0.9961 0.0000
0.9255 0.9961 0.0039
0.9765 0.9961 0.0039
1.0000 1.0000 0.0039
1.0000 1.0000 0.0039
1.0000 1.0000 0.0039
1.0000 1.0000 0.0039
1.0000 1.0000 0.0039
1.0000 1.0000 0.0039
1.0000 0.9961 0.0039
1.0000 0.9961 0.0039
1.0000 0.9961 0.0039
1.0000 0.9961 0.0039
0.0275 0.9922 0.0275
0.0118 0.9922 0.0118
0.0000 0.9961 0.0000
0.0196 0.9961 0.0000
