70 CGC LUTs/Log to Rec709/Cinelike D to Rec709.cube
LUT_3D_SIZE 33
0 0 0
0 0 0
0.0068513 0 0
0.104463 0 0
0.177172 0 0
0.242618 0 0
0.304631 0 0
0.36434 0 0
0.422507 0 0
0.479759 0 0
0.536828 0 0
0.595819 0 0
0.656428 0 0
0.711116 0 0
0.764187 0 0
0.815549 0 0
0.866011 0 0
0.915496 0 0
0.963882 0 0
1 0 0
1 0 0
1 0 0
1 0 0
1 0 0
1 0 0
1 0 0
1 0 0
1 0 0
1 0 0
1 0 0
1 0 0
1 0 0
1 0 0
0 0 0
0 0 0
0 0 0
0.0902724 0 0
0.164096 0 0
0.23093 0 0
0.29482 0 0
0.357412 0 0
0.422965 0 0
0.483726 0 0
0.540871 0 0
0.595895 0 0
0.6495 0 0
0.701473 0 0
0.752468 0 0
0.80267 0 0
0.852003 0 0
0.900313 0 0
0.948165 0 0
0.995377 0 0
1 0 0
1 0 0
1 0 0
1 0 0
1 0 0
1 0 0
1 0 0
1 0 0
1 0 0
1 0 0
1 0 0
1 0 0
1 0 0
0 0 0
0 0 0
0 0 0
0.0737316 0 0
0.151217 0 0
0.225818 0 0
0.2916 0 0
0.352972 0 0
0.411673 0 0
0.467918 0 0
0.522683 0 0
0.576272 0 0
0.628336 0 0
0.679332 0 0
0.729641 0 0
0.779095 0 0
0.827756 0 0
0.875517 0 0
0.92285 0 0
0.969589 0 0
1 0 0
1 0 0
1 0 0
1 0 0
1 0 0
1 0 0
1 0 0
1 0 0
1 0 0
1 0 0
1 0 0
1 0 0
1 0 0
0 0.0571145 0
0 0.0588235 0
0 0.0593118 0
0.0530098 0.0494698 0
0.128206 0.0453346 0
0.194842 0.0421912 0
0.257481 0.039765 0
0.316915 0.037583 0
0.373922 0.035523 0
0.429252 0.0337835 0
0.483024 0.0321508 0
0.535546 0.0303044 0
0.587152 0.0287633 0
0.637522 0.0273747 0
0.687282 0.0259556 0
0.736233 0.0245975 0
0.784466 0.02327 0
0.831983 0.021912 0
0.878752 0.0204776 0
0.925139 0.0192569 0
0.971008 0.0180667 0
1 0.016907 0
1 0.0157626 0
1 0.0146181 0
1 0.0134585 0
1 0.0123751 0
1 0.0113069 0
1 0.010193 0
1 0.00915541 0
1 0.00807202 0
1 0.00704967 0
1 0.00619516 0
1 0.00521859 0
0 0.132769 0
0 0.129747 0
0 0.123781 0
0.0381628 0.111177 0
0.111513 0.105196 0
0.17702 0.100923 0
0.238453 0.0973068 0
0.29691 0.0941329 0
0.353307 0.0914626 0
0.40795 0.0890516 0
0.461143 0.0868238 0
0.513207 0.0845197 0
0.564248 0.0824292 0
0.614191 0.0805982 0
0.663554 0.0787823 0
0.712139 0.0770428 0
0.760021 0.0753796 0
0.807279 0.0737774 0
0.853941 0.0722362 0
0.900053 0.0707256 0
0.945663 0.069276 0
0.990799 0.0678569 0
1 0.0664683 0
1 0.0649577 0
1 0.0637369 0
1 0.0623636 0
1 0.0610208 0
1 0.0596475 0
1 0.0586252 0
1 0.0573281 0
1 0.0561227 0
1 0.0550698 0
1 0.0541085 0
0 0.19144 0
0 0.186984 0
0 0.179553 0
0.0244602 0.166171 0
0.0969558 0.159335 0
0.161685 0.154284 0
0.222385 0.14992 0
0.280415 0.146319 0
0.336294 0.143145 0
0.390478 0.140261 0
0.443244 0.137621 0
0.495094 0.135088 0
0.545861 0.132723 0
0.595468 0.130556 0
0.644297 0.128222 0
0.692561 0.126162 0
0.740169 0.124224 0
0.787167 0.122362 0
0.8336 0.120577 0
0.879484 0.118853 0
0.924865 0.117174 0
0.969787 0.115557 0
1 0.11397 0
1 0.112413 0
1 0.110857 0
1 0.109407 0
1 0.107988 0
1 0.106508 0
1 0.10515 0
1 0.103746 0
1 0.102419 0
1 0.101259 0
1 0.0999924 0
0 0.244678 0
0 0.2392 0
0 0.231266 0
0.0118563 0.217273 0
0.0838026 0.209888 0
0.148089 0.204395 0
0.20853 0.199786 0
0.265919 0.195529 0
0.321416 0.191959 0
0.37525 0.188739 0
0.427695 0.185779 0
0.47924 0.18294 0
0.529717 0.180301 0
0.579065 0.177859 0
0.627863 0.175494 0
0.675914 0.17322 0
0.723308 0.171054 0
0.770092 0.168978 0
0.816312 0.166995 0
0.861997 0.165072 0
0.907195 0.16321 0
0.951949 0.16141 0
0.996262 0.159655 0
1 0.157931 0
1 0.156222 0
1 0.15462 0
1 0.153048 0
1 0.151431 0
1 0.14992 0
1 0.148394 0
1 0.146944 0
1 0.145647 0
1 0.144274 0
0 0.294759 0
0 0.288777 0
0 0.280369 0
0 0.265934 0
0.0711223 0.258152 0
0.135058 0.252293 0
0.195148 0.247333 0
0.252461 0.243015 0
0.307683 0.23917 0
0.361227 0.235645 0
0.413413 0.232441 0
0.464622 0.229267 0
0.514733 0.226246 0
0.563821 0.223575 0
0.612451 0.221027 0
0.660273 0.218524 0
0.707469 0.216159 0
0.75407 0.213901 0
0.800107 0.211734 0
0.845624 0.209644 0
0.890669 0.207614 0
0.935241 0.205661 0
0.979553 0.203906 0
1 0.202029 0
1 0.200198 0
1 0.198459 0
1 0.196841 0
1 0.195102 0
1 0.193469 0
1 0.191821 0
1 0.190249 0
1 0.188861 0
1 0.187366 0
0 0.342718 0
0 0.336583 0
0 0.327611 0
0 0.312871 0
0.0587015 0.304723 0
0.122332 0.298573 0
0.182162 0.293339 0
0.239216 0.288777 0
0.294194 0.284672 0
0.347509 0.280934 0
0.399481 0.277501 0
0.450568 0.274205 0
0.500618 0.271138 0
0.549538 0.268284 0
0.59794 0.265522 0
0.64564 0.262882 0
0.692668 0.260365 0
0.739101 0.257939 0
0.784985 0.255619 0
0.83035 0.253376 0
0.875257 0.251209 0
0.919707 0.249119 0
0.963729 0.247074 0
1 0.245075 0
1 0.243107 0
1 0.24123 0
1 0.239414 0
1 0.237766 0
1 0.236072 0
1 0.234318 0
1 0.232639 0
1 0.231144 0
1 0.229541 0
0 0.38883 0
0 0.382406 0
0 0.373358 0
0 0.358343 0
0.0471809 0.349996 0
0.110582 0.343603 0
0.170184 0.338155 0
0.227024 0.333364 0
0.281804 0.329061 0
0.334936 0.325139 0
0.386709 0.321508 0
0.437613 0.318044 0
0.487495 0.314794 0
0.536263 0.311788 0
0.584497 0.308858 0
0.632044 0.306065 0
0.67892 0.303395 0
0.725216 0.300847 0
0.770962 0.298375 0
0.816205 0.29601 0
0.860975 0.293706 0
0.905303 0.291493 0
0.949203 0.289326 0
0.992828 0.287221 0
1 0.28513 0
1 0.283146 0
1 0.281224 0
1 0.279255 0
1 0.277531 0
1 0.275776 0
1 0.274037 0
1 0.27245 0
1 0.270756 0
0 0.433692 0
0 0.426902 0
0 0.417624 0
0 0.40238 0
0.0357519 0.39382 0
0.0989548 0.387228 0
0.158358 0.381598 0
0.215015 0.376623 0
0.269612 0.372152 0
0.322576 0.368048 0
0.374182 0.364248 0
0.424949 0.360632 0
0.474678 0.357229 0
0.523293 0.354086 0
0.571405 0.351019 0
0.618799 0.348089 0
0.665797 0.345541 0
0.711971 0.342855 0
0.757595 0.340276 0
0.802716 0.337774 0
0.847364 0.335363 0
0.891585 0.333028 0
0.935378 0.33077 0
0.978882 0.328542 0
1 0.32636 0
1 0.324269 0
1 0.322255 0
1 0.320195 0
1 0.318257 0
1 0.316442 0
1 0.314702 0
1 0.313024 0
1 0.311238 0
0 0.477516 0
0 0.470634 0
0 0.461158 0
0 0.445731 0
0.0245823 0.437003 0
0.087602 0.430243 0
0.146838 0.42443 0
0.203342 0.419303 0
0.257786 0.414664 0
0.310597 0.410422 0
0.362066 0.406485 0
0.41268 0.402731 0
0.462287 0.399191 0
0.510781 0.395911 0
0.558755 0.392721 0
0.606027 0.38967 0
0.652674 0.386755 0
0.698741 0.383978 0
0.744335 0.381353 0
0.789425 0.378836 0
0.834043 0.376394 0
0.878157 0.373953 0
0.921843 0.371588 0
0.96527 0.369268 0
1 0.366995 0
1 0.364813 0
1 0.362692 0
1 0.360555 0
1 0.358526 0
1 0.356497 0
1 0.354803 0
1 0.353048 0
1 0.351186 0
0 0.520302 0
0 0.513313 0
0 0.50367 0
0 0.488075 0
0.013901 0.479179 0
0.0767834 0.472267 0
0.135882 0.466316 0
0.192233 0.461051 0
0.24654 0.456291 0
0.299214 0.451911 0
0.350561 0.447837 0
0.401053 0.443961 0
0.450538 0.440299 0
0.498909 0.436896 0
0.546777 0.4336 0
0.593942 0.430442 0
0.640467 0.42742 0
0.686412 0.424521 0
0.731823 0.421714 0
0.776776 0.419043 0
0.821347 0.416541 0
0.865461 0.41413 0
0.909072 0.411673 0
0.952392 0.409262 0
0.995453 0.406882 0
1 0.404623 0
1 0.402426 0
1 0.400198 0
1 0.398093 0
1 0.395987 0
1 0.394095 0
1 0.39237 0
1 0.390448 0
0 0.562234 0
0 0.555032 0
0 0.545235 0
0 0.529488 0
0.00291447 0.520455 0
0.0656596 0.513405 0
0.124712 0.507408 0
0.180987 0.502052 0
0.235218 0.497215 0
0.287831 0.492775 0
0.339086 0.488609 0
0.389456 0.484627 0
0.438834 0.480858 0
0.487098 0.477348 0
0.534859 0.473945 0
0.581918 0.47068 0
0.628367 0.467567 0
0.67422 0.464561 0
0.719524 0.461677 0
0.764355 0.458869 0
0.80882 0.456275 0
0.852888 0.453803 0
0.896406 0.45127 0
0.939651 0.448783 0
0.982635 0.446326 0
1 0.443976 0
1 0.441703 0
1 0.439399 0
1 0.437232 0
1 0.435142 0
1 0.433204 0
1 0.431296 0
1 0.429297 0
0 0.603601 0
0 0.596246 0
0 0.586313 0
0 0.570459 0
0 0.561288 0
0.0549783 0.554131 0
0.113832 0.547921 0
0.169955 0.542412 0
0.224033 0.537408 0
0.276478 0.532815 0
0.327703 0.528618 0
0.378134 0.524681 0
0.427405 0.520821 0
0.475563 0.517205 0
0.523232 0.51371 0
0.570214 0.510353 0
0.616556 0.507149 0
0.662318 0.504051 0
0.707546 0.501076 0
0.752285 0.498207 0
0.796689 0.495552 0
0.840665 0.492973 0
0.884108 0.490349 0
0.927275 0.487785 0
0.970169 0.485252 0
1 0.482841 0
1 0.480491 0
1 0.478111 0
1 0.475868 0
1 0.473869 0
1 0.471702 0
1 0.469734 0
1 0.467674 0
0 0.644297 0
0 0.636805 0
0 0.626764 0
0 0.610773 0
0 0.601511 0
0.04448 0.594232 0
0.103227 0.587915 0
0.159243 0.5823 0
0.213214 0.577203 0
0.265568 0.572503 0
0.316594 0.568124 0
0.366873 0.564019 0
0.416205 0.56022 0
0.464286 0.556542 0
0.511864 0.552941 0
0.558755 0.549508 0
0.60502 0.546212 0
0.65069 0.543038 0
0.695842 0.539986 0
0.740505 0.537026 0
0.78471 0.534157 0
0.828733 0.53164 0
0.872099 0.528954 0
0.91519 0.526314 0
0.958022 0.523705 0
1 0.521233 0
1 0.518807 0
1 0.516365 0
1 0.514122 0
1 0.511986 0
1 0.509758 0
1 0.507729 0
1 0.505608 0
0 0.684337 0
0 0.676738 0
0 0.66659 0
0 0.650492 0
0 0.641123 0
0.034226 0.633738 0
0.0928664 0.627329 0
0.148791 0.621622 0
0.20267 0.616434 0
0.254932 0.611643 0
0.305867 0.607172 0
0.356039 0.60296 0
0.40528 0.599069 0
0.4533 0.595331 0
0.500801 0.591653 0
0.547616 0.588144 0
0.59379 0.584772 0
0.639399 0.581521 0
0.684474 0.578393 0
0.729061 0.575357 0
0.773312 0.572549 0
0.817151 0.569833 0
0.860441 0.567071 0
0.903471 0.564355 0
0.946242 0.5617 0
0.988464 0.559152 0
1 0.556664 0
1 0.554269 0
1 0.552041 0
1 0.549661 0
1 0.547372 0
1 0.545281 0
1 0.543099 0
0 0.723537 0
0 0.716106 0
0 0.705852 0
0 0.689662 0
0 0.680186 0
0.0241703 0.672724 0
0.0827344 0.666224 0
0.138567 0.660426 0
0.192355 0.655146 0
0.244541 0.650263 0
0.295384 0.645716 0
0.345525 0.641474 0
0.394675 0.637491 0
0.442588 0.633646 0
0.490013 0.629892 0
0.536751 0.626307 0
0.582864 0.622858 0
0.628397 0.619532 0
0.673396 0.616342 0
0.718029 0.613352 0
0.762234 0.610483 0
0.805875 0.607584 0
0.849104 0.604761 0
0.892058 0.601984 0
0.934768 0.599252 0
0.976928 0.596643 0
1 0.594095 0
1 0.591714 0
1 0.589349 0
1 0.586908 0
1 0.584573 0
1 0.582422 0
1 0.580179 0
0 0.762554 0
0 0.754772 0
0 0.744671 0
0 0.728389 0
0 0.718837 0
0.0141299 0.711284 0
0.0726024 0.704707 0
0.128359 0.698817 0
0.182071 0.693462 0
0.234165 0.688502 0
0.284947 0.683879 0
0.335119 0.679683 0
0.384085 0.675502 0
0.431922 0.67158 0
0.479286 0.667765 0
0.525948 0.664103 0
0.571984 0.660594 0
0.617456 0.657206 0
0.662394 0.653925 0
0.706966 0.650889 0
0.751095 0.647959 0
0.794675 0.644984 0
0.837842 0.6421 0
0.880751 0.639261 0
0.923384 0.636469 0
0.965545 0.633844 0
1 0.631464 0
1 0.62884 0
1 0.626352 0
1 0.62385 0
1 0.621454 0
1 0.619257 0
1 0.617105 0
0 0.801114 0
0 0.793256 0
0 0.782864 0
0 0.76672 0
0 0.757076 0
0.00415045 0.749432 0
0.0625315 0.742779 0
0.118212 0.736828 0
0.171847 0.731395 0
0.22388 0.72636 0
0.274586 0.72166 0
0.324605 0.717311 0
0.373571 0.713146 0
0.421363 0.709148 0
0.468635 0.705272 0
0.515251 0.701549 0
0.561227 0.697963 0
0.606622 0.694514 0
0.651682 0.691371 0
0.696147 0.688212 0
0.740093 0.6851 0
0.783597 0.682063 0
0.826719 0.679118 0
0.869566 0.676219 0
0.912154 0.673381 0
0.954376 0.670832 0
0.996201 0.668254 0
1 0.665568 0
1 0.663035 0
1 0.660487 0
1 0.658045 0
1 0.656046 0
1 0.653712 0
0 0.839307 0
0 0.831342 0
0 0.820966 0
0 0.804654 0
0 0.794949 0
0 0.787228 0
0.0524758 0.780499 0
0.10808 0.774472 0
0.161654 0.768963 0
0.213611 0.763867 0
0.264424 0.759274 0
0.314305 0.754788 0
0.363119 0.750454 0
0.410834 0.74641 0
0.458045 0.742458 0
0.504585 0.738674 0
0.5505 0.735027 0
0.595865 0.731548 0
0.640925 0.728389 0
0.685252 0.725109 0
0.729137 0.72192 0
0.772595 0.718837 0
0.815656 0.715831 0
0.858503 0.712947 0
0.901228 0.710246 0
0.943236 0.707469 0
0.984924 0.704753 0
1 0.702037 0
1 0.699443 0
1 0.696849 0
1 0.694606 0
1 0.692302 0
1 0.689921 0
0 0.877058 0
0 0.869093 0
0 0.858686 0
0 0.842191 0
0 0.832395 0
0 0.824628 0
0.0425879 0.817823 0
0.0981308 0.811734 0
0.151629 0.806165 0
0.203525 0.800992 0
0.254353 0.796414 0
0.304097 0.791791 0
0.352834 0.787396 0
0.400488 0.783291 0
0.447654 0.779278 0
0.494133 0.775433 0
0.540124 0.771862 0
0.585534 0.768429 0
0.630304 0.764981 0
0.674586 0.761639 0
0.71841 0.758404 0
0.761822 0.755276 0
0.804822 0.752224 0
0.847807 0.749477 0
0.890288 0.746517 0
0.93225 0.743694 0
0.973892 0.740932 0
1 0.73817 0
1 0.735531 0
1 0.733135 0
1 0.730602 0
1 0.728252 0
1 0.725826 0
0 0.914397 0
0 0.906294 0
0 0.895888 0
0 0.879316 0
0 0.869474 0
0 0.861631 0
0.0328679 0.854765 0
0.0883497 0.8486 0
0.141802 0.842985 0
0.193881 0.83801 0
0.244388 0.833112 0
0.294072 0.828428 0
0.342763 0.823972 0
0.390356 0.819806 0
0.437461 0.815747 0
0.483909 0.811856 0
0.529946 0.808347 0
0.575189 0.80473 0
0.619898 0.801221 0
0.664118 0.797848 0
0.707912 0.794553 0
0.751431 0.791531 0
0.794476 0.78851 0
0.837156 0.785473 0
0.879591 0.782467 0
0.921508 0.779599 0
0.963088 0.776791 0
1 0.774166 0
1 0.771542 0
1 0.768856 0
1 0.766262 0
1 0.763882 0
1 0.761425 0
0 0.951385 0
0 0.943435 0
0 0.932754 0
0 0.916106 0
0 0.906203 0
0 0.898299 0
0.02327 0.891371 0
0.0786755 0.885145 0
0.132311 0.879713 0
0.184085 0.874434 0
0.234546 0.86949 0
0.284169 0.864744 0
0.332815 0.860243 0
0.380346 0.856016 0
0.427573 0.852079 0
0.474037 0.848203 0
0.519783 0.844404 0
0.564965 0.840726 0
0.609628 0.837186 0
0.653819 0.833753 0
0.697673 0.830533 0
0.7411 0.82742 0
0.784009 0.824277 0
0.826658 0.82118 0
0.869047 0.818143 0
0.910903 0.815213 0
0.952651 0.812573 0
0.994232 0.80975 0
1 0.807034 0
1 0.804303 0
1 0.801663 0
1 0.799298 0
1 0.796979 0
0 0.988281 0
0 0.980056 0
0 0.969284 0
0 0.95259 0
0 0.942611 0
0 0.934646 0
0.0137331 0.927672 0
0.0693217 0.92163 0
0.122667 0.915908 0
0.174395 0.910567 0
0.224796 0.905562 0
0.274372 0.900771 0
0.322957 0.896208 0
0.37055 0.892027 0
0.4177 0.888029 0
0.464027 0.884016 0
0.509728 0.880171 0
0.554864 0.876448 0
0.599481 0.872847 0
0.64387 0.869627 0
0.687541 0.866239 0
0.730816 0.862959 0
0.773678 0.85977 0
0.816281 0.856626 0
0.858778 0.853697 0
0.900679 0.850828 0
0.942184 0.847929 0
0.983688 0.845029 0
1 0.842268 0
1 0.839536 0
1 0.837064 0
1 0.834592 0
1 0.832044 0
0 1 0
0 1 0
0 1 0
0 0.988754 0
0 0.978714 0
0 0.970703 0
0.00454719 0.963928 0
0.0598459 0.957595 0
0.113115 0.951797 0
0.164797 0.94641 0
0.215152 0.94136 0
0.264683 0.936507 0
0.313451 0.932158 0
0.360891 0.927825 0
0.407858 0.923613 0
0.454124 0.91957 0
0.499794 0.915679 0
0.544915 0.91194 0
0.5897 0.908522 0
0.633783 0.904982 0
0.677424 0.901564 0
0.720638 0.898238 0
0.763455 0.895003 0
0.80621 0.892012 0
0.848569 0.88893 0
0.890349 0.885924 0
0.931807 0.882994 0
0.973266 0.880049 0
1 0.877363 0
1 0.874678 0
1 0.871977 0
1 0.869459 0
1 0.866865 0
0 1 0
0 1 0
0 1 0
0 1 0
0 1 0
0 1 0
0 0.999756 0
0.0501717 0.993378 0
0.103395 0.987533 0
0.155001 0.982086 0
0.20531 0.976989 0
0.255039 0.972335 0
0.303532 0.967697 0
0.350927 0.963317 0
0.397833 0.95906 0
0.444068 0.954971 0
0.489723 0.951064 0
0.534966 0.947463 0
0.579492 0.943786 0
0.623545 0.940215 0
0.66714 0.936736 0
0.710307 0.933364 0
0.753338 0.930343 0
0.795865 0.927123 0
0.838117 0.923949 0
0.87985 0.920913 0
0.921279 0.917937 0
0.962951 0.91519 0
1 0.912352 0
1 0.909499 0
1 0.906752 0
1 0.904204 0
1 0.901823 0
0 1 0
0 1 0
0 1 0
0 1 0
0 1 0
0 1 0
0 1 0
0.0408179 1 0
0.0939956 1 0
