70 CGC LUTs/Log to Rec709/Cinelike D to Rec709.cube
LUT_3D_SIZE 9
0 0 0
0.177172 0 0
0.422507 0 0
0.656428 0 0
0.866011 0 0
1 0 0
1 0 0
1 0 0
1 0 0
0 0.132769 0
0.111513 0.105196 0
0.353307 0.0914626 0
0.564248 0.0824292 0
0.760021 0.0753796 0
0.945663 0.069276 0
1 0.0637369 0
1 0.0586252 0
1 0.0541085 0
0 0.342718 0
0.0587015 0.304723 0
0.294194 0.284672 0
0.500618 0.271138 0
0.692668 0.260365 0
0.875257 0.251209 0
1 0.243107 0
1 0.236072 0
1 0.229541 0
0 0.520302 0
0.013901 0.479179 0
0.24654 0.456291 0
0.450538 0.440299 0
0.640467 0.42742 0
0.821347 0.416541 0
0.995453 0.406882 0
1 0.398093 0
1 0.390448 0
0 0.684337 0
0 0.641123 0
0.20267 0.616434 0
0.40528 0.599069 0
0.59379 0.584772 0
0.773312 0.572549 0
0.946242 0.5617 0
1 0.552041 0
1 0.543099 0
0 0.839307 0
0 0.794949 0
0.161654 0.768963 0
0.363119 0.750454 0
0.5505 0.735027 0
0.729137 0.72192 0
0.901228 0.710246 0
1 0.699443 0
1 0.689921 0
0 0.988281 0
0 0.942611 0
0.122667 0.915908 0
0.322957 0.896208 0
0.509728 0.880171 0
0.687541 0.866239 0
0.858778 0.853697 0
1 0.842268 0
1 0.832044 0
0 1 0
0 1 0
0.0848707 1 0
0.284459 1 0
0.470512 1 0
0.647654 1 0
0.818326 0.993317 0
0.983444 0.981186 0
1 0.970367 0
0 1 0
0 1 0
0.0487831 1 0
0.247837 1 0
0.433112 1 0
0.609659 1 0
0.779782 1 0
0.944595 1 0
1 1 0
0 0 0.19266
0.165225 0 0.16025
0.41323 0 0.152712
0.648875 0 0.168383
0.854475 0 0.171176
1 0 0.171038
1 0 0.169726
1 0 0.168124
1 0 0.166369
0 0.122988 0.124331
0.0993515 0.0930343 0.094377
0.340063 0.0782025 0.0795453
0.550515 0.0686961 0.0700389
0.745571 0.0609293 0.0622721
0.930755 0.0543679 0.0557107
1 0.0485084 0.0498512
1 0.0431678 0.0445258
1 0.0383459 0.039704
0 0.328527 0.0775158
0.0442817 0.290318 0.0393072
0.279408 0.269886 0.0188907
0.485527 0.256046 0.00503548
0.677317 0.245014 0
0.859678 0.23563 0
1 0.227329 0
1 0.219867 0
1 0.213428 0
0 0.504936 0.0346685
0 0.463493 0
0.230732 0.440482 0
0.434684 0.42446 0
0.62446 0.411414 0
0.80502 0.400229 0
0.979141 0.390585 0
1 0.381674 0
1 0.373907 0
0 0.668177 0
0 0.625055 0
0.18645 0.600214 0
0.388708 0.582498 0
0.577325 0.568292 0
0.756603 0.55584 0
0.929534 0.544991 0
1 0.534997 0
1 0.526207 0
0 0.822904 0
0 0.778424 0
0.145022 0.752346 0
0.34638 0.73373 0
0.533684 0.718212 0
0.712215 0.705013 0
0.883986 0.692988 0
1 0.682368 0
1 0.67277 0
0 0.971267 0
0 0.92575 0
0.105714 0.898955 0
0.305928 0.879179 0
0.492622 0.863066 0
0.670359 0.849058 0
0.841367 0.836286 0
1 0.824933 0
1 0.814649 0
0 1 0
0 1 0
0.0674754 1 0
0.267185 1 0
0.453162 1 0
0.630243 0.989013 0
0.800855 0.97586 0
0.965911 0.963653 0
1 0.952773 0
0 1 0
0 1 0
0.031342 1 0
0.230182 1 0
0.415564 1 0
0.592065 1 0
0.762127 1 0
0.926894 1 0
1 1 0
0 0 0.444099
0.159899 0 0.413123
0.412772 0 0.410452
0.645228 0 0.42295
0.848386 0 0.423285
1 0 0.422263
1 0 0.420218
1 0 0.418112
1 0 0.415702
0 0.118151 0.377676
0.0930343 0.086717 0.346258
0.332784 0.0709239 0.330465
0.542367 0.0605325 0.320073
0.737148 0.0525063 0.312047
0.921996 0.0456092 0.30515
1 0.0394446 0.298985
1 0.0338598 0.2934
1 0.028809 0.28835
0 0.320439 0.327626
0.0356603 0.281682 0.288884
0.270283 0.260777 0.267964
0.476112 0.246632 0.253819
0.667659 0.235355 0.242542
0.85005 0.226001 0.233204
1 0.217517 0.22472
1 0.209888 0.21709
1 0.203037 0.210239
0 0.495674 0.283619
0 0.454002 0.241947
0.220935 0.430686 0.218616
0.424567 0.414328 0.202274
0.61442 0.401373 0.189319
0.794842 0.390051 0.177996
0.968719 0.380163 0.168093
1 0.371221 0.159167
1 0.363088 0.151034
0 0.658244 0.242145
0 0.61471 0.198627
0.176211 0.589975 0.173892
0.378332 0.572137 0.156054
0.566827 0.557809 0.141726
0.745998 0.545235 0.129152
0.918837 0.534295 0.118212
1 0.524193 0.10811
1 0.515328 0.0992447
0 0.812497 0.202853
0 0.767651 0.158007
0.134386 0.741711 0.132067
0.335424 0.722774 0.113146
0.522835 0.707378 0.097734
0.701305 0.694087 0.0844587
0.872969 0.681987 0.0723583
1 0.671275 0.0616464
1 0.661616 0.0519722
0 0.960494 0.164935
0 0.914885 0.119341
0.0945449 0.887785 0.0922255
0.294896 0.868147 0.0726024
0.481514 0.851942 0.0563973
0.658991 0.83769 0.0421454
0.830106 0.825025 0.0294804
0.995956 0.813626 0.0180819
1 0.803265 0.00772107
0 1 0.128267
0 1 0.0818494
0.05626 1 0.0539406
0.255894 1 0.0336156
0.441825 0.992355 0.0167239
0.618845 0.977615 0.00198367
0.789242 0.964248 0
0.954376 0.952132 0
1 0.941207 0
0 1 0.0930037
0 1 0.0458991
0.0196994 1 0.01738
0.218692 1 0
0.404028 1 0
0.580468 1 0
0.750484 1 0
0.915206 1 0
1 1 0
0 0 0.6663
0.157931 0 0.637232
0.420157 0 0.643915
0.642954 0 0.646754
0.844602 0 0.645579
1 0 0.643351
1 0 0.640681
1 0 0.638086
1 0 0.635538
0 0.115068 0.600687
0.0885939 0.0822766 0.56791
0.327535 0.0656748 0.551293
0.536797 0.0549783 0.540597
0.731151 0.0464942 0.532128
0.91548 0.0390936 0.524712
1 0.0325933 0.518212
1 0.0268864 0.512505
1 0.0216983 0.507317
0 0.314443 0.547723
0.0293736 0.275395 0.508675
0.263813 0.254307 0.487587
0.469368 0.239887 0.473167
0.66067 0.228382 0.461646
0.842618 0.21857 0.45185
1 0.21004 0.44332
1 0.202365 0.435645
1 0.195377 0.428656
0 0.488716 0.502739
0 0.446952 0.460975
0.213687 0.423438 0.437461
0.417136 0.406912 0.420935
0.606592 0.393545 0.407568
0.787106 0.38233 0.396353
0.960708 0.372152 0.386175
1 0.363241 0.377264
1 0.355001 0.369039
0 0.650752 0.460746
0 0.607065 0.417075
0.168276 0.58204 0.392035
0.370428 0.564233 0.374228
0.558556 0.549538 0.359533
0.737881 0.537118 0.347112
0.910567 0.52604 0.336034
1 0.515877 0.325872
1 0.506905 0.316915
0 0.804547 0.420981
0 0.759579 0.376028
0.126223 0.733532 0.349981
0.327123 0.714473 0.330922
0.514488 0.699016 0.315465
0.692805 0.685603 0.302037
0.864454 0.673472 0.289906
1 0.662684 0.279133
1 0.652918 0.269368
0 0.952193 0.382727
0 0.906493 0.337026
0.0860456 0.879271 0.309804
0.286336 0.859602 0.290135
0.472877 0.84332 0.273854
0.650263 0.828962 0.259495
0.821347 0.816266 0.246799
0.987121 0.804791 0.235325
1 0.794385 0.224918
0 1 0.345769
0 1 0.299092
0.0475319 1 0.271305
0.247105 1 0.250904
0.432975 0.98349 0.233951
0.609857 0.968643 0.219089
0.780163 0.955169 0.205615
0.945357 0.943099 0.193561
1 0.932128 0.182574
0 1 0.310277
0 1 0.263111
0.0107881 1 0.234546
0.209689 1 0.213489
0.39498 1 0.195956
0.571359 1 0.180591
0.741329 1 0.166781
0.906004 1 0.154192
1 1 0.142733
0 0 0.874922
0.15848 0 0.848585
0.422156 0 0.856733
0.641108 0 0.855711
0.841382 0 0.853162
1 0 0.850126
1 0 0.84712
1 0 0.844083
1 0 0.841199
0 0.112612 0.809049
0.0850385 0.0787213 0.775158
0.323507 0.0616617 0.758083
0.532006 0.0501869 0.746609
0.725948 0.0413062 0.737743
0.91014 0.033753 0.730175
1 0.0270237 0.723445
1 0.0209354 0.717357
1 0.0154726 0.711894
0 0.309758 0.753841
0.0243076 0.270329 0.714412
0.258412 0.248905 0.692988
0.463737 0.234257 0.67834
0.654826 0.222522 0.666606
0.836576 0.212528 0.656611
1 0.203677 0.647761
1 0.195911 0.640009
1 0.188846 0.632929
0 0.482887 0.707713
0 0.440772 0.665599
0.207568 0.417319 0.642145
0.410849 0.400626 0.625452
0.600137 0.387091 0.611933
0.780529 0.375738 0.60058
0.954009 0.365438 0.59028
1 0.356344 0.58117
1 0.348074 0.5729
0 0.644404 0.665202
0 0.60058 0.621393
0.161563 0.575326 0.596139
0.363684 0.557488 0.578286
0.55169 0.542672 0.563485
0.730907 0.530144 0.550958
0.903288 0.518746 0.539559
1 0.508721 0.529519
1 0.499672 0.52047
0 0.797635 0.624872
0 0.752682 0.579934
0.119219 0.726528 0.55378
0.320027 0.707378 0.53463
0.507301 0.691829 0.519081
0.685328 0.678126 0.505379
0.857099 0.666117 0.49337
1 0.655253 0.482506
1 0.64538 0.472633
0 0.945068 0.586404
0 0.899275 0.540612
0.0787366 0.871977 0.513313
0.27895 0.852216 0.493553
0.4654 0.835843 0.477195
0.642695 0.821393 0.462745
0.813748 0.808667 0.450019
0.979461 0.797131 0.438468
1 0.786664 0.428
0 1 0.549172
0 1 0.502342
0.0399786 1 0.474556
0.23949 0.992828 0.454093
0.425284 0.975814 0.437079
0.602136 0.960922 0.422187
0.772366 0.947372 0.408621
0.937499 0.935241 0.396506
1 0.924208 0.385473
0 1 0.513436
0 1 0.466102
0.00296025 1 0.437537
0.201877 1 0.41648
0.387106 1 0.398886
0.563439 1 0.383474
0.733349 1 0.369619
0.897978 1 0.356985
1 1 0.344884
0 0 1
0.162829 0 1
0.42295 0 1
0.639506 0 1
0.838727 0 1
1 0 1
1 0 1
1 0 1
1 0 1
0 0.110674 1
0.0822766 0.0759594 0.972717
0.319875 0.0580148 0.954772
0.528145 0.0463264 0.943084
0.721721 0.0370794 0.933837
0.905592 0.0292058 0.925963
1 0.0222171 0.918975
1 0.0158999 0.912657
1 0.0102388 0.906996
0 0.305501 0.949905
0.0196994 0.265736 0.91014
0.253544 0.244038 0.888457
0.458595 0.229114 0.873533
0.649607 0.217304 0.861723
0.831266 0.207233 0.851652
1 0.198215 0.842634
1 0.190112 0.834531
1 0.183093 0.827497
0 0.477913 0.903075
0 0.435599 0.860761
0.201953 0.411704 0.836866
0.405325 0.395102 0.820264
0.594476 0.38143 0.806592
0.774487 0.369696 0.794858
0.948074 0.359518 0.78468
1 0.350134 0.775296
1 0.341924 0.767086
0 0.638575 0.859709
0 0.594858 0.815991
0.155703 0.569482 0.790616
0.357717 0.551507 0.772656
0.545617 0.536599 0.757733
0.724727 0.523964 0.745098
0.897017 0.512474 0.733608
1 0.502342 0.723476
1 0.492988 0.714122
0 0.791501 0.819074
0 0.746563 0.774151
0.112749 0.720058 0.747646
0.31371 0.70106 0.728649
0.500893 0.68542 0.713008
0.678843 0.671641 0.699214
0.850538 0.659541 0.687129
1 0.648615 0.676204
1 0.638468 0.666056
0 0.93872 0.780377
0 0.892592 0.734264
0.072221 0.865461 0.707134
0.272358 0.845624 0.687297
0.458503 0.828946 0.670619
0.635966 0.814664 0.656336
0.806943 0.801877 0.643549
0.972595 0.790265 0.631937
1 0.779736 0.621408
0 1 0.74287
0 1 0.695994
0.0332189 1 0.668132
0.23267 0.986007 0.647593
0.418402 0.968933 0.630518
0.59498 0.953765 0.615351
0.765362 0.940368 0.601953
0.930434 0.928191 0.589776
1 0.917113 0.578698
0 1 0.706935
0 1 0.659388
0 1 0.6309
0.194858 1 0.609781
0.380026 1 0.592142
0.556313 1 0.576684
0.726177 1 0.562768
0.890745 1 0.550088
1 1 0.537896
0 0 1
0.172656 0 1
0.423209 0 1
0.638285 0 1
0.836484 0 1
1 0 1
1 0 1
1 0 1
1 0 1
0 0.108919 1
0.0796063 0.0732891 1
0.316869 0.055024 1
0.524666 0.0428473 1
0.717693 0.033051 1
0.901274 0.0248875 1
1 0.0176699 1
1 0.011368 1
1 0.00552377 1
0 0.30193 1
0.0158083 0.261845 1
0.249393 0.239887 1
0.4542 0.22472 1
0.644862 0.212558 1
0.82623 0.202197 1
1 0.193271 1
1 0.185016 1
1 0.177798 1
0 0.473426 1
0 0.43093 1
0.197116 0.406867 1
0.400076 0.389853 1
0.589334 0.376287 0.994446
0.769207 0.364416 0.982574
0.942687 0.354131 0.97229
1 0.344625 0.962783
1 0.336324 0.954482
0 0.633524 1
0 0.589426 1
0.150393 0.564157 0.978286
0.352026 0.54583 0.95996
0.540078 0.53106 0.94519
0.718914 0.518151 0.93228
0.891264 0.506737 0.920867
1 0.496513 0.910658
1 0.487053 0.901183
0 0.786023 1
0 0.740978 0.961563
0.107057 0.714382 0.934966
0.307942 0.695293 0.915877
0.49485 0.679393 0.899962
0.672908 0.66569 0.886275
0.844511 0.653529 0.874113
1 0.642374 0.862959
1 0.632319 0.852903
0 0.932891 0.967559
0 0.886702 0.92137
0.0662547 0.859495 0.894163
0.266316 0.839582 0.87425
0.452384 0.822828 0.857511
0.629786 0.808484 0.843153
0.800687 0.795621 0.830289
0.966293 0.783948 0.818631
1 0.773266 0.807935
0 1 0.929564
0 1 0.882841
0.0270237 1 0.854917
0.226398 0.979736 0.834318
0.411887 0.962402 0.816999
0.588586 0.947372 0.801968
0.758907 0.933928 0.78851
0.923934 0.921691 0.776287
1 0.910552 0.765148
0 1 0.893629
0 1 0.846036
0 1 0.817487
0.188388 1 0.796323
0.37351 1 0.778622
0.549737 1 0.763119
0.719554 1 0.749157
0.884077 1 0.736416
1 1 0.724147
0 0 1
0.176333 0 1
0.423163 0 1
0.636881 0 1
0.834272 0 1
1 0 1
1 0 1
1 0 1
1 0 1
0 0.107179 1
0.077409 0.0710918 1
0.313909 0.0520638 1
0.521355 0.0395361 1
0.71426 0.0296178 1
0.897566 0.0211795 1
1 0.0137026 1
1 0.00697337 1
1 0.00109865 1
0 0.298619 1
0.0120851 0.258122 1
0.245502 0.235996 1
0.450172 0.220706 1
0.64065 0.208347 1
0.821836 0.197803 1
0.996323 0.18851 1
1 0.180316 1
1 0.172778 1
0 0.469093 1
0 0.426642 1
0.19266 0.402411 1
0.395468 0.385245 1
0.584466 0.37142 1
0.764324 0.359548 1
0.937469 0.348913 1
1 0.339529 1
1 0.331121 1
0 0.62887 1
0 0.584634 1
0.145464 0.559243 1
0.347005 0.540795 1
0.534936 0.525917 1
0.713588 0.512825 1
0.885939 0.501411 1
1 0.491096 1
1 0.481559 1
0 0.780941 1
0 0.735744 1
0.101793 0.709117 1
0.302586 0.689937 1
0.489342 0.673869 1
0.667384 0.660166 1
0.838911 0.647929 1
1 0.636667 1
1 0.626566 1
0 0.927398 1
0 0.881239 1
0.0607004 0.853941 1
0.260548 0.833814 1
0.446693 0.817136 1
0.624018 0.802716 1
0.794873 0.789792 1
0.960372 0.778042 1
1 0.767163 0.989181
0 1 1
0 1 1
0.0212253 0.994537 1
0.220539 0.973892 1
0.405997 0.956527 0.998444
0.58262 0.941405 0.983337
0.752895 0.927901 0.969818
0.917861 0.915618 0.957534
1 0.904433 0.946349
0 1 1
0 1 1
0 1 0.99884
0.182345 1 0.977615
0.367422 1 0.959869
0.543603 1 0.944305
0.713359 1 0.930297
0.877241 1 0.916915
1 1 0.90515
0 0 1
0.178531 0 1
0.423041 0 1
0.635645 0 1
0.832578 0 1
1 0 1
1 0 1
1 0 1
1 0 1
0 0.105913 1
0.0752575 0.0689403 1
0.311543 0.0496986 1
0.518608 0.0367895 1
0.711208 0.026566 1
0.894255 0.0178683 1
1 0.0101625 1
1 0.00323491 1
1 0 1
0 0.295583 1
0.00886549 0.254902 1
0.241932 0.232425 1
0.446311 0.216831 1
0.636851 0.204547 1
0.817868 0.193835 1
0.992157 0.184344 1
1 0.176059 1
1 0.168399 1
0 0.4654 1
0 0.422522 1
0.188632 0.398383 1
0.391287 0.381064 1
0.580026 0.366979 1
0.759899 0.355108 1
0.932906 0.344335 1
1 0.334874 1
1 0.326116 1
0 0.624643 1
0 0.58027 1
0.140917 0.554681 1
0.342412 0.536217 1
0.530251 0.521233 1
0.708812 0.508049 1
0.881071 0.496529 1
1 0.485893 1
1 0.476509 1
0 0.776333 1
0 0.730831 1
0.0969711 0.704295 1
0.297673 0.685023 1
0.484352 0.668879 1
0.662318 0.6551 1
0.833768 0.642786 1
0.999634 0.631388 1
1 0.621286 1
0 0.922332 1
0 0.876219 1
0.0556039 0.848844 1
0.255268 0.828534 1
0.441459 0.811902 1
0.618708 0.797421 1
0.789502 0.784436 1
0.954971 0.772641 1
1 0.761685 1
0 1 1
0 1 1
0.0158999 0.989212 1
0.215076 0.968429 1
0.400458 0.950988 1
0.577111 0.935897 1
0.747326 0.922332 1
0.912261 0.910002 1
1 0.898772 1
0 1 1
0 1 1
0 1 1
0.176761 1 1
0.361791 1 1
0.537926 1 1
0.707637 1 1
0.871427 1 1
1 1 1
