70 CGC LUTs/Log to Rec709/Cinelike D to Rec709.cube
LUT_3D_SIZE 5
0 0 0
0.422507 0 0
0.866011 0 0
1 0 0
1 0 0
0 0.342718 0
0.294194 0.284672 0
0.692668 0.260365 0
1 0.243107 0
1 0.229541 0
0 0.684337 0
0.20267 0.616434 0
0.59379 0.584772 0
0.946242 0.5617 0
1 0.543099 0
0 0.988281 0
0.122667 0.915908 0
0.509728 0.880171 0
0.858778 0.853697 0
1 0.832044 0
0 1 0
0.0487831 1 0
0.433112 1 0
0.779782 1 0
1 1 0
0 0 0.444099
0.412772 0 0.410452
0.848386 0 0.423285
1 0 0.420218
1 0 0.415702
0 0.320439 0.327626
0.270283 0.260777 0.267964
0.667659 0.235355 0.242542
1 0.217517 0.22472
1 0.203037 0.210239
0 0.658244 0.242145
0.176211 0.589975 0.173892
0.566827 0.557809 0.141726
0.918837 0.534295 0.118212
1 0.515328 0.0992447
0 0.960494 0.164935
0.0945449 0.887785 0.0922255
0.481514 0.851942 0.0563973
0.830106 0.825025 0.0294804
1 0.803265 0.00772107
0 1 0.0930037
0.0196994 1 0.01738
0.404028 1 0
0.750484 1 0
1 1 0
0 0 0.874922
0.422156 0 0.856733
0.841382 0 0.853162
1 0 0.84712
1 0 0.841199
0 0.309758 0.753841
0.258412 0.248905 0.692988
0.654826 0.222522 0.666606
1 0.203677 0.647761
1 0.188846 0.632929
0 0.644404 0.665202
0.161563 0.575326 0.596139
0.55169 0.542672 0.563485
0.903288 0.518746 0.539559
1 0.499672 0.52047
0 0.945068 0.586404
0.0787366 0.871977 0.513313
0.4654 0.835843 0.477195
0.813748 0.808667 0.450019
1 0.786664 0.428
0 1 0.513436
0.00296025 1 0.437537
0.387106 1 0.398886
0.733349 1 0.369619
1 1 0.344884
0 0 1
0.423209 0 1
0.836484 0 1
1 0 1
1 0 1
0 0.30193 1
0.249393 0.239887 1
0.644862 0.212558 1
1 0.193271 1
1 0.177798 1
0 0.633524 1
0.150393 0.564157 0.978286
0.540078 0.53106 0.94519
0.891264 0.506737 0.920867
1 0.487053 0.901183
0 0.932891 0.967559
0.0662547 0.859495 0.894163
0.452384 0.822828 0.857511
0.800687 0.795621 0.830289
1 0.773266 0.807935
0 1 0.893629
0 1 0.817487
0.37351 1 0.778622
0.719554 1 0.749157
1 1 0.724147
0 0 1
0.423041 0 1
0.832578 0 1
1 0 1
1 0 1
0 0.295583 1
0.241932 0.232425 1
0.636851 0.204547 1
0.992157 0.184344 1
1 0.168399 1
0 0.624643 1
0.140917 0.554681 1
0.530251 0.521233 1
0.881071 0.496529 1
1 0.476509 1
0 0.922332 1
0.0556039 0.848844 1
0.441459 0.811902 1
0.789502 0.784436 1
1 0.761685 1
0 1 1
0 1 1
0.361791 1 1
0.707637 1 1
1 1 1
