70 CGC LUTs/Log to Rec709/RedLogFilm to Rec709.cube
LUT_3D_SIZE 9
0 0 0
0.000259403 0 0
0.0997177 0 0
0.224628 0 0
0.389883 0 0
0.627039 0 0
0.959747 0 0
1 0 0
1 0.14844 0.14844
0 0.000274662 0
0.000259403 0.000259403 0
0.0991989 0.000228885 0
0.223621 0.000122072 0
0.38851 0 0
0.625879 0 0
0.960922 0 0
1 0 0
1 0.300786 0.300786
0 0.0986801 0
0.000228885 0.0988022 0
0.0989395 0.0989395 0
0.224765 0.0969711 0
0.393256 0.0939498 0
0.6383 0.0912032 0
0.971649 0.0902876 0
1 0.0921187 0
1 0.703258 0.67187
0 0.217899 0
1.5259e-05 0.220188 0
0.0957961 0.223468 0
0.224186 0.224186 0
0.395819 0.223331 0
0.645808 0.222187 0
0.977523 0.222477 0
1 0.225757 0
1 0.89778 0.867185
0 0.378622 0
0 0.384756 0
0.0930343 0.391669 0
0.222614 0.394629 0
0.394827 0.394827 0
0.646387 0.394629 0
0.978866 0.396216 0
1 0.40116 0
1 0.951431 0.917967
0 0.617212 0
0 0.628473 0
0.0921187 0.64033 0
0.222187 0.645808 0
0.394629 0.646677 0
0.646967 0.646967 0
0.979034 0.648997 0
1 0.655344 0
1 0.965942 0.898436
0 0.964111 0
0 0.971145 0
0.0953994 0.978195 0
0.22562 0.981216 0
0.398978 0.981216 0
0.651881 0.980713 0
0.98088 0.980835 0.00694286
1 0.983124 0.0137484
1 0.998444 0.880827
0 1 0
0.000274662 1 0
0.105089 1 0
0.235065 1 0
0.410636 1 0
0.666331 1 0
0.987427 0.999893 0.0159457
1 0.999847 0.0225528
1 0.999985 0.919814
0.050782 1 0.050782
0.172442 1 0.171878
0.360998 1 0.277348
0.445502 1 0.265629
0.527718 1 0.183597
0.701793 1 0.0742199
0.991608 0.999878 0.018143
1 0.999847 0.0225528
1 0.999985 0.946548
0 0 0.000244144
0.000259403 0 0.000259403
0.099855 0 0.000259403
0.224628 0 0.00015259
0.389685 0 0
0.626459 0 0
0.959747 0 0
1 0 0
1 0.152346 0.152346
0 0.000274662 0.000274662
0.000259403 0.000259403 0.000259403
0.0990616 0.000228885 0.000228885
0.223621 0.000122072 0.000122072
0.388708 0 0
0.626459 0 0
0.961593 0 0
1 0 0
1 0.324224 0.324224
0 0.0986801 0.000213626
0.000213626 0.0986801 0.000213626
0.0993362 0.0993362 0.000244144
0.225483 0.0976272 0.000183108
0.39443 0.0948806 9.15541e-05
0.640894 0.0923781 0
0.973327 0.0915999 0
1 0.0935683 4.57771e-05
1 0.742489 0.714885
0 0.218616 0
4.57771e-05 0.221195 4.57771e-05
0.0969711 0.224765 0.000167849
0.225757 0.225757 0.000183108
0.397604 0.224765 0.00015259
0.649287 0.223911 0.000137331
0.979873 0.224475 0.00015259
1 0.227771 0.000259403
1 0.940032 0.921904
0 0.380804 0
0 0.387121 0
0.0946059 0.394232 7.62951e-05
0.224475 0.397406 0.00015259
0.397406 0.397406 0.00015259
0.650721 0.397406 0.00015259
0.981216 0.398978 0.000183108
1 0.403922 0.00030518
1 0.983886 0.972671
0 0.620966 0
0 0.632517 0
0.0939498 0.644373 6.10361e-05
0.224338 0.650141 0.000137331
0.397604 0.650721 0.00015259
0.651011 0.651011 0.000167849
0.981384 0.65304 0.000198367
1 0.659098 0.000289921
1 0.983154 0.949233
0 0.966461 0
0 0.973663 0
0.0972305 0.980545 0.000167849
0.227481 0.98323 0.000244144
0.401556 0.983398 0.000244144
0.655344 0.982727 0.000228885
0.982727 0.982666 0.00820935
1 0.98497 0.0148165
1 0.999023 0.915496
0 1 0.00015259
0.000335698 1 0.000335698
0.106676 1 0.000503548
0.236637 1 0.000534066
0.412818 1 0.000503548
0.668925 1 0.000442512
0.988266 0.999893 0.016495
1 0.999847 0.0225681
1 0.999985 0.935088
0.0937514 1 0.0943008
0.211521 1 0.211521
0.389334 1 0.309178
0.46685 1 0.293553
0.539803 1 0.203708
0.707607 1 0.0903944
0.991943 0.999878 0.0184329
1 0.999847 0.0225681
1 1 0.958007
0 0 0.0994583
0.000259403 0 0.099855
0.099855 0 0.099855
0.224628 0 0.0968338
0.389502 0 0.0915999
0.625879 0 0.0855726
0.959579 0 0.0808576
1 0 0.0786755
1 0.156252 0.222126
0 0.000259403 0.099855
0.000244144 0.000244144 0.0994583
0.0989395 0.000228885 0.0989395
0.223484 0.000122072 0.0957961
0.388708 0 0.0909438
0.627039 0 0.0860914
0.962264 0 0.082948
1 0 0.082948
1 0.355474 0.410285
0 0.0986801 0.0986801
0.000228885 0.0988022 0.0988022
0.0995956 0.0995956 0.0995956
0.2262 0.0982834 0.0982834
0.395621 0.0956588 0.0956588
0.643503 0.0935683 0.0935683
0.975006 0.0929122 0.0929122
1 0.0948806 0.0948806
1 0.785199 0.785199
0 0.219181 0.0918593
9.15541e-05 0.222324 0.0947433
0.0982834 0.2262 0.0982834
0.227344 0.227344 0.0993362
0.399969 0.226337 0.0984054
0.65304 0.22562 0.0977646
0.982055 0.226337 0.0984054
1 0.229343 0.101167
1 0.982055 0.979034
0 0.382574 0.0870069
0 0.389502 0.0915999
0.0963149 0.396811 0.0963149
0.226337 0.399969 0.0984054
0.400168 0.400168 0.0985428
0.654765 0.400168 0.0986801
0.983734 0.40174 0.0997177
1 0.406485 0.102739
1 1 1
0 0.62472 0.0850385
0 0.636561 0.090425
0.0957961 0.648707 0.0957961
0.226047 0.65362 0.098146
0.400366 0.655055 0.0988022
0.655055 0.655055 0.0988022
0.983566 0.657084 0.0997177
1 0.662852 0.102342
1 0.998718 0.996506
0 0.968811 0.0881819
4.57771e-05 0.976013 0.0936904
0.0990616 0.982895 0.0990616
0.229191 0.985412 0.10103
0.403922 0.98558 0.101167
0.658808 0.984741 0.100511
0.984573 0.984573 0.100374
1 0.986755 0.102083
1 0.999512 0.954543
0 1 0.0986801
0.000396735 1 0.103655
0.10811 1 0.10811
0.238209 1 0.109285
0.414588 1 0.108248
0.671229 1 0.106142
0.989273 1 0.104051
1 1 0.103914
1 1 0.951034
0.136721 1 0.232654
0.246677 1 0.332586
0.410544 1 0.410544
0.482063 1 0.392859
0.55169 1 0.311254
0.712154 1 0.200336
0.992279 1 0.106538
1 1 0.105226
1 1 0.968551
0 0 0.226627
0.000228885 0 0.226764
0.0988022 0 0.226764
0.223331 0 0.223331
0.387717 0 0.217609
0.62356 0 0.211276
0.958236 0 0.206424
1 0 0.20441
1 0.132815 0.309712
0 0.000228885 0.226764
0.000198367 0.000198367 0.2262
0.0978866 0.000198367 0.225772
0.222477 9.15541e-05 0.222477
0.387121 0 0.217044
0.625589 0 0.212222
0.961761 0 0.209247
1 0 0.209522
1 0.363287 0.498238
0 0.0976272 0.225483
0.000198367 0.098024 0.22591
0.0990616 0.0990616 0.227054
0.22591 0.098024 0.22591
0.395819 0.0956588 0.223331
0.644083 0.0938277 0.221332
0.975509 0.0933089 0.220752
1 0.0953994 0.223041
1 0.802945 0.830945
0 0.219043 0.219043
9.15541e-05 0.222477 0.222477
0.0985428 0.226474 0.226474
0.227619 0.227619 0.227619
0.400763 0.227054 0.227054
0.654475 0.226474 0.226474
0.982895 0.227054 0.227054
1 0.230198 0.230198
1 1 1
0 0.383368 0.214328
0 0.390478 0.219471
0.0971084 0.397787 0.224903
0.226902 0.400763 0.226902
0.401358 0.401358 0.227481
0.656504 0.401556 0.227481
0.984573 0.40293 0.228489
1 0.407874 0.232059
1 1 1
0 0.626459 0.212619
0 0.63859 0.218616
0.0967117 0.650431 0.224475
0.227054 0.655634 0.227054
0.40174 0.656794 0.227619
0.656794 0.656794 0.227619
0.984237 0.657954 0.228199
1 0.664302 0.231342
1 1 1
0 0.96997 0.216037
7.62951e-05 0.97702 0.222049
0.099855 0.983902 0.227909
0.23006 0.986419 0.23006
0.404913 0.986419 0.23006
0.659968 0.985412 0.229191
0.984909 0.984909 0.228763
1 0.987091 0.230625
1 0.999557 0.964065
0 1 0.227344
0.000411994 1 0.232624
0.108507 1 0.237354
0.238636 1 0.238636
0.414984 1 0.237201
0.671229 1 0.234775
0.988937 1 0.232197
1 1 0.231907
1 1 0.946044
0.144533 1 0.350271
0.250584 1 0.433265
0.403464 1 0.491188
0.47599 1 0.47599
0.542214 1 0.399558
0.70457 1 0.300694
0.99144 1 0.234485
1 1 0.233051
1 1 0.955062
0 0 0.397803
0.000167849 0 0.397986
0.0971084 0 0.397986
0.221469 0 0.393057
0.384756 0 0.384756
0.619516 0 0.376379
0.954726 0 0.370047
1 0 0.367147
1 0.0937514 0.426474
0 0.00015259 0.397406
0.00015259 0.000137331 0.396811
0.0961776 0.000137331 0.396414
0.220615 3.0518e-05 0.392065
0.384955 0 0.384955
0.622995 0 0.378424
0.960586 0 0.374746
1 0 0.375463
1 0.351568 0.597589
0 0.0959182 0.396017
0.00015259 0.0967117 0.397208
0.0978866 0.0978866 0.399176
0.224903 0.0971084 0.397986
0.394827 0.09514 0.394827
0.643214 0.093431 0.392462
0.975341 0.0931716 0.391867
1 0.0952621 0.395026
1 0.802945 0.869001
0 0.218189 0.388708
7.62951e-05 0.221897 0.393835
0.0982834 0.2262 0.399573
0.227344 0.227344 0.40116
0.400763 0.226902 0.400763
0.654475 0.226474 0.399969
0.982895 0.227192 0.400961
1 0.230488 0.405509
1 1 1
0 0.383169 0.383169
0 0.39028 0.39028
0.0971084 0.397787 0.397787
0.227054 0.400961 0.400961
0.40174 0.40174 0.40174
0.657084 0.40174 0.40174
0.984741 0.403128 0.403128
1 0.408072 0.408072
1 1 1
0 0.626749 0.381003
0 0.63888 0.389303
0.0967117 0.650721 0.397406
0.227192 0.655924 0.40116
0.401938 0.657374 0.401938
0.657374 0.657374 0.401938
0.984405 0.658228 0.402533
1 0.664302 0.406882
1 1 1
0 0.970306 0.385931
7.62951e-05 0.977356 0.394232
0.0997177 0.983734 0.40174
0.23006 0.986419 0.405112
0.404913 0.986252 0.404913
0.659388 0.984909 0.403326
0.984573 0.984573 0.402731
1 0.986419 0.405112
1 0.999252 0.958419
0 1 0.40116
0.000411994 1 0.408469
0.108248 1 0.414588
0.238209 1 0.416175
0.414191 1 0.414191
0.668925 1 0.409842
0.987762 1 0.406485
1 1 0.40589
1 1 0.937423
0.132815 1 0.495933
0.231052 1 0.556664
0.382254 1 0.599649
0.451606 1 0.582849
0.520439 1 0.520439
0.689235 1 0.439368
0.989776 1 0.409064
1 1 0.40708
1 1 0.937438
0 0 0.647257
0.000106813 0 0.647547
0.0952621 0 0.647257
0.219181 0 0.63975
0.381781 0 0.627894
0.615473 0 0.615473
0.949676 0 0.606226
1 0 0.602289
1 0.050782 0.62298
0 9.15541e-05 0.646097
7.62951e-05 7.62951e-05 0.645518
0.0943465 6.10361e-05 0.645228
0.218616 0 0.63859
0.382574 0 0.629053
0.620096 0 0.620096
0.959243 0 0.615183
1 0 0.616632
1 0.335943 0.749645
0 0.0942245 0.644953
0.000106813 0.09514 0.646967
0.0968338 0.0968338 0.650721
0.223758 0.0960555 0.648997
0.394034 0.0944839 0.645518
0.642344 0.0930343 0.642344
0.974502 0.0925154 0.641184
1 0.0950027 0.646677
1 0.799405 0.923384
0 0.217472 0.636286
6.10361e-05 0.221332 0.644083
0.0978866 0.225757 0.65304
0.226902 0.226902 0.655344
0.400366 0.226764 0.655055
0.654185 0.226337 0.654185
0.982727 0.226902 0.655344
1 0.230488 0.662562
1 1 1
0 0.382773 0.629343
0 0.390082 0.64004
0.0969711 0.397604 0.651011
0.227054 0.400961 0.655634
0.40174 0.40174 0.656794
0.657374 0.401938 0.657374
0.984741 0.403128 0.659098
1 0.408072 0.666331
1 1 1
0 0.626749 0.626749
0 0.63888 0.63888
0.0967117 0.650431 0.650431
0.227344 0.656214 0.656214
0.401938 0.657374 0.657374
0.656794 0.656794 0.656794
0.984237 0.657954 0.657954
1 0.664012 0.664012
1 1 1
0 0.970306 0.633967
7.62951e-05 0.977188 0.645808
0.0995956 0.983566 0.656794
0.229908 0.986252 0.661418
0.404517 0.986084 0.661128
0.658228 0.984405 0.658228
0.983902 0.983902 0.657374
1 0.98558 0.660548
1 0.998795 0.965942
0 1 0.655924
0.000396735 1 0.665751
0.107851 1 0.674998
0.237629 1 0.677012
0.413016 1 0.673259
0.666896 1 0.666896
0.986252 1 0.661418
1 1 0.659968
1 1 0.94696
0.113283 1 0.71667
0.199802 1 0.749325
0.353902 1 0.775525
0.421027 1 0.762524
0.491218 1 0.721187
0.672099 1 0.672099
0.98793 1 0.664302
1 1 0.661418
1 1 0.951278
0.000167849 4.57771e-05 0.975982
0.000213626 4.57771e-05 0.97615
0.0936904 0 0.976013
0.217319 0 0.971481
0.379416 0 0.964614
0.612009 0 0.957565
0.945388 0 0.945388
1 0 0.940337
1 0.0234379 0.943252
0.00015259 7.62951e-05 0.975311
0.000167849 6.10361e-05 0.974975
0.0927749 1.5259e-05 0.974838
0.217044 0 0.971145
0.381003 0 0.965957
0.618372 0 0.961089
0.958404 0 0.958404
1 0 0.959747
1 0.332036 0.975799
0 0.0929122 0.975006
6.10361e-05 0.0940871 0.976516
0.0959182 0.0959182 0.978698
0.223331 0.0956588 0.978531
0.393652 0.0942245 0.976684
0.642054 0.0929122 0.975006
0.974502 0.0925154 0.974502
1 0.09514 0.977859
1 0.8065 0.996399
0 0.217044 0.971145
4.57771e-05 0.221195 0.976013
0.0974899 0.22533 0.98088
0.227054 0.227054 0.982895
0.400763 0.226902 0.982727
0.654765 0.226627 0.982391
0.983063 0.227192 0.983063
1 0.230915 0.987259
1 1 1
0 0.382971 0.967636
0 0.390478 0.973999
0.0971084 0.397787 0.980209
0.227481 0.401358 0.983398
0.402335 0.402335 0.98407
0.657374 0.402136 0.983902
0.985245 0.403723 0.985245
1 0.408667 0.989441
1 1 1
0 0.627619 0.966628
0 0.63975 0.973663
0.0971084 0.651301 0.980377
0.227619 0.656794 0.983566
0.402533 0.657954 0.984237
0.657084 0.657084 0.983734
0.984405 0.658228 0.984405
1 0.664012 0.987762
1 0.998718 0.999969
0 0.970642 0.970642
9.15541e-05 0.977523 0.977523
0.099855 0.983902 0.983902
0.23006 0.986419 0.986419
0.404517 0.986084 0.986084
0.658228 0.984237 0.984237
0.983566 0.983566 0.983566
1 0.985077 0.985077
1 0.998383 0.998383
0 1 0.983063
0.000396735 1 0.988602
0.107713 1 0.993957
0.237201 1 0.994797
0.411826 1 0.992279
0.665171 1 0.988266
0.985077 1 0.985077
1 1 0.98407
1 1 0.996979
0.0976577 1 0.996979
0.18027 1 1
0.329046 1 1
0.399558 1 1
0.469169 1 0.996643
0.669505 1 0.990768
0.986252 1 0.986252
1 1 0.984405
1 1 0.999481
0.000366217 9.15541e-05 0.999939
0.000396735 9.15541e-05 0.999939
0.0927749 0 1
0.216327 0 1
0.378225 0 1
0.610681 0 1
0.943053 0 1
1 0 1
1 0.0195315 1
0.000366217 9.15541e-05 0.999939
0.000366217 9.15541e-05 0.999939
0.0921187 0 1
0.216464 0 1
0.380407 0 1
0.618082 0 1
0.95874 0 1
1 0 1
1 0.351568 1
0 0.0925154 1
6.10361e-05 0.0939498 1
0.0959182 0.0959182 1
0.223758 0.0960555 1
0.39443 0.0948806 1
0.643503 0.0935683 1
0.975677 0.093431 1
1 0.0960555 1
1 0.834836 1
0 0.217609 1
7.62951e-05 0.221897 1
0.0982834 0.2262 1
0.228046 0.228046 1
0.402136 0.228046 1
0.656504 0.227481 1
0.984573 0.228489 1
1 0.232059 1
1 1 1
0 0.38436 1
3.0518e-05 0.391669 1
0.098146 0.399374 1
0.228626 0.403128 1
0.403922 0.403922 1
0.659968 0.403723 1
0.986755 0.40531 1
1 0.410239 1
1 1 1
0 0.629923 1
1.5259e-05 0.641764 1
0.0982834 0.653895 1
0.228916 0.659388 1
0.40412 0.660258 1
0.659388 0.659388 1
0.98558 0.660258 1
1 0.665751 1
1 1 1
0 0.972152 1
0.000122072 0.978698 1
0.100908 0.985077 1
0.231052 0.987594 1
0.40531 0.986755 1
0.659678 0.985077 1
0.98407 0.98407 1
1 0.985412 1
1 0.998383 1
0 1 1
0.000411994 1 1
0.108248 1 1
0.237629 1 1
0.412024 1 1
0.664881 1 1
0.984741 1 1
1 1 1
1 1 1
0.10547 1 1
0.184161 1 1
0.329046 1 1
0.390448 1 1
0.464057 1 1
0.668635 1 1
0.985748 1 1
1 1 1
1 1 1
0.000366217 9.15541e-05 0.999939
0.000381476 9.15541e-05 0.999939
0.092256 0 1
0.2159 0 1
0.377646 0 1
0.610147 0 1
0.943053 0 1
1 0 1
1 0.0351568 1
0.000366217 9.15541e-05 0.999939
0.000366217 9.15541e-05 0.999939
0.091722 0 1
0.216617 0 1
0.381003 0 1
0.619516 0 1
0.959915 0 1
1 0 1
1 0.386725 1
0 0.0926528 1
7.62951e-05 0.0943465 1
0.0965744 0.0965744 1
0.224765 0.0969711 1
0.396216 0.0959182 1
0.645808 0.0946059 1
0.977356 0.0947433 1
1 0.0974899 1
1 0.873701 1
0 0.218616 1
0.000106813 0.223041 1
0.0995956 0.227619 1
0.22948 0.22948 1
0.404318 0.229633 1
0.659968 0.229191 1
0.986587 0.230198 1
1 0.233768 1
1 1 1
0 0.386526 1
7.62951e-05 0.393835 1
0.0997177 0.40174 1
0.230488 0.405509 1
0.406287 0.406287 1
0.663432 0.406287 1
0.988769 0.407675 1
1 0.417197 1
1 1 1
0 0.633677 1
7.62951e-05 0.645228 1
0.099855 0.657374 1
0.230625 0.662852 1
0.40589 0.663142 1
0.662562 0.662562 1
0.987427 0.663432 1
1 0.668345 1
1 1 1
0 0.973831 1
0.000167849 0.980545 1
0.10222 0.986923 1
0.232486 0.989273 1
0.40708 0.988266 1
0.661997 0.986419 1
0.985245 0.985245 1
1 0.985748 1
1 0.999847 1
0 1 1
0.000457771 1 1
0.178882 1 1
0.306905 1 1
0.421988 1 1
0.665751 1 1
0.985077 1 1
1 1 1
1 1 1
0.639551 1 1
0.793988 1 1
0.926375 1 1
1 1 1
1 1 1
0.969665 1 1
0.997772 1 1
1 1 1
1 1 1
