70 CGC LUTs/Log to Rec709/RedLogFilm to Rec709.cube
LUT_3D_SIZE 33
0 0 0
0 0 0
0 0 0
0 0 0
0.000259403 0 0
0.00332647 0 0
0.0367285 0 0
0.0693828 0 0
0.0997177 0 0
0.129351 0 0
0.159426 0 0
0.190936 0 0
0.224628 0 0
0.260868 0 0
0.300114 0 0
0.343099 0 0
0.389883 0 0
0.441016 0 0
0.497261 0 0
0.558785 0 0
0.627039 0 0
0.700984 0 0
0.781384 0 0
0.869123 0 0
0.959747 0 0
0.999832 0 0
1 0 0
1 0 0
1 0 0
1 0 0
1 0 0
1 0 0
1 0.14844 0.14844
0 0 0
0 0 0
0 0 0
0 0 0
0.000259403 0 0
0.00364691 0 0
0.0368811 0 0
0.0698405 0 0
0.0999924 0 0
0.129213 0 0
0.159289 0 0
0.190799 0 0
0.224475 0 0
0.260868 0 0
0.299947 0 0
0.342565 0 0
0.389303 0 0
0.44036 0 0
0.496544 0 0
0.558526 0 0
0.626169 0 0
0.700023 0 0
0.780682 0 0
0.868345 0 0
0.959579 0 0
0.999664 0 0
1 0 0
1 0 0
1 0 0
1 0 0
1 0 0
1 0 0
1 0.160159 0.160159
0 0 0
0 0 0
0 0 0
0 0 0
0.000259403 0 0
0.00332647 0 0
0.0368811 0 0
0.0693828 0 0
0.0995956 0 0
0.128832 0 0
0.15877 0 0
0.190249 0 0
0.224048 0 0
0.260105 0 0
0.299275 0 0
0.341833 0 0
0.388312 0 0
0.43949 0 0
0.495827 0 0
0.557473 0 0
0.62501 0 0
0.699077 0 0
0.779629 0 0
0.867948 0 0
0.959411 0 0
0.999496 0 0
1 0 0
1 0 0
1 0 0
1 0 0
1 0 0
1 0 0
1 0.17969 0.17969
0 0 0
0 0 0
0 0 0
0 0 0
0.000259403 0 0
0.00349432 0 0
0.0367285 0 0
0.0692454 0 0
0.0993362 0 0
0.128588 0 0
0.158648 0 0
0.190127 0 0
0.223758 0 0
0.2598 0 0
0.298787 0 0
0.341466 0 0
0.388312 0 0
0.43949 0 0
0.495598 0 0
0.557214 0 0
0.62501 0 0
0.699077 0 0
0.780682 0 0
0.868727 0 0
0.959747 0 0
1 0 0
1 0 0
1 0 0
1 0 0
1 0 0
1 0 0
1 0 0
1 0.22266 0.22266
0 0.000274662 0
0 0.000259403 0
0 0.000259403 0
0 0.000259403 0
0.000259403 0.000259403 0
0.00332647 0.000259403 0
0.0364233 0.000259403 0
0.0689403 0.000244144 0
0.0991989 0.000228885 0
0.128588 0.000228885 0
0.158526 0.000198367 0
0.18999 0.000167849 0
0.223621 0.000122072 0
0.2598 7.62951e-05 0
0.298787 3.0518e-05 0
0.341833 0 0
0.38851 0 0
0.439704 0 0
0.496071 0 0
0.557992 0 0
0.625879 0 0
0.700984 0 0
0.782086 0 0
0.87068 0 0
0.960922 0 0
1 0 0
1 0 0
1 0 0
1 0 0
1 0 0
1 0 0
1 0 0
1 0.300786 0.300786
0 0.00364691 0
0 0.00349432 0
0 0.00332647 0
0 0.00332647 0
0.000259403 0.00332647 0
0.00317388 0.00317388 0
0.0364233 0.00317388 0
0.0689403 0.0028687 0
0.0993362 0.0028687 0
0.128588 0.00224308 0
0.158526 0.00131228 0
0.190127 0.00112917 0
0.223758 0.00109865 0
0.260105 0.00105287 0
0.299443 0.00102235 0
0.342199 0.000976577 0
0.389105 0.0009308 0
0.440574 0.000885023 0
0.497261 0.000839246 0
0.559838 0.000808728 0
0.628183 0.000762951 0
0.703212 0.000732433 0
0.78526 0.000701915 0
0.874571 0.000686656 0
0.962768 0.000656138 0
1 0.000656138 0
1 0.000656138 0
1 0.000656138 0
1 0.000656138 0
1 0.000686656 0
1 0.000701915 0
1 0.000732433 0
1 0.387182 0.386725
0 0.0367285 0
0 0.0367285 0
0 0.0365759 0
0 0.0364233 0
0.000244144 0.0362707 0
0.00302129 0.0362707 0
0.0364233 0.0364233 0
0.0690929 0.0364233 0
0.0993362 0.0361028 0
0.128588 0.0354925 0
0.158648 0.0347143 0
0.190249 0.0336156 0
0.224186 0.0326848 0
0.260563 0.0314488 0
0.299947 0.030045 0
0.343099 0.028809 0
0.39028 0.0274052 0
0.4421 0.0260166 0
0.499168 0.024918 0
0.561929 0.023682 0
0.631083 0.0225986 0
0.707042 0.0215 0
0.789487 0.020737 0
0.880018 0.0199588 0
0.965621 0.0198062 0
1 0.0196384 0
1 0.0198062 0
1 0.0201114 0
1 0.0205692 0
1 0.0215152 0
1 0.022446 0
1 0.0232242 0
1 0.496834 0.484382
0 0.0690929 0
0 0.0689403 0
0 0.0687877 0
0 0.0686351 0
0.000244144 0.0686351 0
0.00271611 0.0687877 0
0.0362707 0.0689403 0
0.0689403 0.0689403 0
0.0991989 0.0686351 0
0.128588 0.0683452 0
0.15877 0.0675975 0
0.190661 0.0669871 0
0.224613 0.0659495 0
0.261173 0.0648966 0
0.300771 0.0636912 0
0.343999 0.062501 0
0.391669 0.0614481 0
0.444038 0.0605478 0
0.501549 0.0594949 0
0.564813 0.0584573 0
0.634546 0.057557 0
0.711192 0.0568093 0
0.795468 0.0563516 0
0.887404 0.0560616 0
0.968643 0.0559091 0
1 0.0559091 0
1 0.0560616 0
1 0.0566567 0
1 0.0574044 0
1 0.0583047 0
1 0.0590524 0
1 0.0599527 0
1 0.603861 0.578119
0 0.0986801 0
0 0.0985428 0
0 0.0984207 0
0 0.0984207 0
0.000228885 0.0988022 0
0.00224308 0.0988022 0
0.0356451 0.0989395 0
0.0684977 0.0989395 0
0.0989395 0.0989395 0
0.12845 0.0988022 0
0.158907 0.0984054 0
0.190799 0.0977646 0
0.224765 0.0969711 0
0.261631 0.0961776 0
0.301442 0.0953994 0
0.345083 0.0947433 0
0.393256 0.0939498 0
0.445777 0.0931716 0
0.503929 0.0925154 0
0.567956 0.0918593 0
0.6383 0.0912032 0
0.715969 0.0908064 0
0.801099 0.090547 0
0.893629 0.090425 0
0.971649 0.0902876 0
1 0.090425 0
1 0.0906844 0
1 0.0914626 0
1 0.0921187 0
1 0.0927749 0
1 0.0936904 0
1 0.0944839 0
1 0.703258 0.67187
0 0.127062 0
0 0.127062 0
0 0.126925 0
0 0.127306 0
0.000183108 0.127443 0
0.00115969 0.127687 0
0.0347143 0.127825 0
0.0675975 0.128069 0
0.0982834 0.128069 0
0.128206 0.128206 0
0.158648 0.127947 0
0.190661 0.127443 0
0.224903 0.126925 0
0.261784 0.126299 0
0.302266 0.125917 0
0.346181 0.125399 0
0.394629 0.124773 0
0.44773 0.124132 0
0.506065 0.123629 0
0.570581 0.123125 0
0.642054 0.122866 0
0.720119 0.122484 0
0.805676 0.122225 0
0.898695 0.122103 0
0.973999 0.122103 0
1 0.122362 0
1 0.122866 0
1 0.123507 0
1 0.124132 0
1 0.124895 0
1 0.125795 0
1 0.126802 0
1 0.781994 0.749996
0 0.155673 0
0 0.155932 0
0 0.156069 0
0 0.156329 0
0.000137331 0.156588 0
0.00111391 0.15697 0
0.0330053 0.157351 0
0.0665446 0.15787 0
0.0976272 0.158129 0
0.127443 0.158267 0
0.158129 0.158129 0
0.190249 0.15787 0
0.224765 0.157488 0
0.262257 0.157351 0
0.302602 0.156847 0
0.346716 0.156329 0
0.395224 0.155932 0
0.448585 0.155413 0
0.5075 0.155032 0
0.572671 0.154772 0
0.644083 0.154391 0
0.722667 0.154131 0
0.808499 0.153872 0
0.90219 0.153872 0
0.975677 0.153994 0
1 0.154513 0
1 0.15491 0
1 0.15555 0
1 0.156329 0
1 0.157229 0
1 0.158389 0
1 0.159426 0
1 0.836027 0.804685
0 0.185809 0
0 0.186084 0
0 0.186343 0
0 0.186755 0
7.62951e-05 0.187289 0
0.00105287 0.187823 0
0.031754 0.18851 0
0.0651865 0.189181 0
0.0967117 0.189578 0
0.126802 0.18999 0
0.157488 0.18999 0
0.189853 0.189853 0
0.224765 0.189853 0
0.262104 0.189578 0
0.302602 0.189319 0
0.346899 0.188907 0
0.395422 0.18851 0
0.449454 0.188235 0
0.508446 0.187961 0
0.573465 0.187564 0
0.645228 0.187289 0
0.723934 0.18703 0
0.810254 0.186892 0
0.905303 0.187152 0
0.97702 0.187289 0
1 0.187701 0
1 0.188235 0
1 0.189044 0
1 0.18999 0
1 0.191058 0
1 0.192142 0
1 0.193225 0
1 0.870954 0.839841
0 0.217899 0
0 0.218326 0
0 0.218753 0
0 0.219333 0
1.5259e-05 0.220188 0
0.0010071 0.221195 0
0.0303655 0.222049 0
0.0639963 0.222766 0
0.0957961 0.223468 0
0.125917 0.223911 0
0.157092 0.224338 0
0.189578 0.224338 0
0.224186 0.224186 0
0.261631 0.224048 0
0.302266 0.223758 0
0.346532 0.223468 0
0.395819 0.223331 0
0.449454 0.223041 0
0.50869 0.222614 0
0.573724 0.222324 0
0.645808 0.222187 0
0.724895 0.221897 0
0.812024 0.222187 0
0.906477 0.222339 0
0.977523 0.222477 0
1 0.222904 0
1 0.223621 0
1 0.224475 0
1 0.225757 0
1 0.226764 0
1 0.227909 0
1 0.229053 0
1 0.89778 0.867185
0 0.25243 0
0 0.253193 0
0 0.253956 0
0 0.255039 0
0 0.256107 0
0.000961318 0.257191 0
0.0289616 0.258259 0
0.0629435 0.259174 0
0.0948806 0.259953 0
0.125399 0.260868 0
0.156451 0.261173 0
0.188907 0.261326 0
0.223758 0.261326 0
0.261173 0.261173 0
0.301778 0.260868 0
0.346532 0.261021 0
0.395422 0.260716 0
0.449241 0.26041 0
0.50869 0.260105 0
0.573724 0.259953 0
0.646387 0.259953 0
0.725856 0.259953 0
0.812375 0.259953 0
0.907256 0.260105 0
0.978027 0.26041 0
1 0.260868 0
1 0.261936 0
1 0.26302 0
1 0.264088 0
1 0.265171 0
1 0.266545 0
1 0.267781 0
1 0.922957 0.89453
0 0.290471 0
0 0.291478 0
0 0.292805 0
0 0.293965 0
0 0.295125 0
0.0009308 0.296284 0
0.0278782 0.297627 0
0.0620432 0.298955 0
0.0943465 0.300114 0
0.124895 0.300938 0
0.155932 0.301274 0
0.188373 0.301442 0
0.223194 0.30161 0
0.260868 0.301778 0
0.301778 0.301778 0
0.346349 0.30161 0
0.395224 0.301274 0
0.449027 0.301106 0
0.508446 0.300938 0
0.574243 0.300938 0
0.646677 0.300938 0
0.726177 0.300771 0
0.813077 0.300938 0
0.908034 0.301106 0
0.978363 0.301442 0
1 0.302434 0
1 0.303273 0
1 0.304433 0
1 0.305592 0
1 0.30692 0
1 0.308248 0
1 0.315465 0.00781262
1 0.935454 0.906249
0 0.332433 0
0 0.333883 0
0 0.334966 0
0 0.336416 0
0 0.33785 0
0.000900282 0.3393 0
0.0269474 0.340932 0
0.0612955 0.342565 0
0.0936904 0.343648 0
0.124269 0.344732 0
0.155291 0.345266 0
0.187961 0.345632 0
0.222904 0.345998 0
0.260563 0.346181 0
0.301274 0.345998 0
0.345998 0.345998 0
0.395026 0.345815 0
0.448814 0.345632 0
0.50869 0.345815 0
0.574243 0.345632 0
0.646677 0.345632 0
0.726177 0.345449 0
0.813077 0.345632 0
0.908812 0.346181 0
0.978866 0.346716 0
1 0.347448 0
1 0.348531 0
1 0.349615 0
1 0.351064 0
1 0.352865 0
1 0.354314 0
1 0.366003 0.0156252
1 0.944793 0.914061
0 0.378622 0
0 0.380209 0
0 0.381598 0
0 0.383169 0
0 0.384756 0
0.000885023 0.386923 0
0.0261692 0.388708 0
0.0605478 0.39028 0
0.0930343 0.391669 0
0.123629 0.392859 0
0.15491 0.393652 0
0.187701 0.39443 0
0.222614 0.394629 0
0.260258 0.394827 0
0.300938 0.394827 0
0.345632 0.394827 0
0.394827 0.394827 0
0.449027 0.394827 0
0.50869 0.394827 0
0.574243 0.394629 0
0.646387 0.394629 0
0.726177 0.394629 0
0.813428 0.395026 0
0.909194 0.395621 0
0.978866 0.396216 0
1 0.397009 0
1 0.397986 0
1 0.399374 0
1 0.40116 0
1 0.402731 0
1 0.404517 0
1 0.4177 0.0195315
1 0.951431 0.917967
0 0.429526 0
0 0.431266 0
0 0.432776 0
0 0.43473 0
0 0.43711 0
0.000854505 0.439063 0
0.025391 0.44123 0
0.0598001 0.442954 0
0.0925154 0.444694 0
0.123247 0.445991 0
0.15465 0.447288 0
0.187289 0.447944 0
0.222187 0.448157 0
0.2598 0.448371 0
0.300618 0.448585 0
0.345449 0.448814 0
0.394827 0.449027 0
0.448814 0.448814 0
0.508446 0.448814 0
0.573983 0.448585 0
0.646387 0.448585 0
0.726497 0.449027 0
0.813779 0.449454 0
0.909194 0.449668 0
0.978866 0.450324 0
1 0.451194 0
1 0.452705 0
1 0.454444 0
1 0.455955 0
1 0.457694 0
1 0.459419 0
1 0.469795 0.0156252
1 0.958083 0.921874
0 0.485588 0
0 0.487739 0
0 0.489632 0
0 0.492256 0
0 0.494636 0
0.000839246 0.496788 0
0.0247654 0.499168 0
0.0593576 0.501305 0
0.0923781 0.503685 0
0.123125 0.505348 0
0.154391 0.50631 0
0.18703 0.507012 0
0.222049 0.5075 0
0.259648 0.507729 0
0.300771 0.508446 0
0.345449 0.508446 0
0.394629 0.508446 0
0.448585 0.508202 0
0.508202 0.508202 0
0.573983 0.508446 0
0.646967 0.50869 0
0.726497 0.50869 0
0.813779 0.508919 0
0.908812 0.509392 0
0.978866 0.510109 0
1 0.511299 0
1 0.512734 0
1 0.514397 0
1 0.51606 0
1 0.517968 0
1 0.519875 0
1 0.531579 0.0195315
1 0.960983 0.917967
0 0.547768 0
0 0.550652 0
0 0.553017 0
0 0.555383 0
0 0.557992 0
0.000823987 0.560616 0
0.0244602 0.563241 0
0.0593576 0.566384 0
0.0921187 0.568475 0
0.122988 0.570321 0
0.154253 0.571618 0
0.18703 0.572412 0
0.221897 0.572931 0
0.259953 0.573724 0
0.300771 0.573983 0
0.345449 0.573983 0
0.394629 0.573983 0
0.448814 0.573983 0
0.508446 0.573983 0
0.574502 0.574502 0
0.646967 0.574502 0
0.726497 0.574502 0
0.813779 0.574777 0
0.908812 0.575296 0
0.979202 0.576349 0
1 0.577386 0
1 0.578698 0
1 0.58053 0
1 0.582376 0
1 0.584466 0
1 0.587091 0
1 0.595346 0.0156252
1 0.963272 0.910155
0 0.617212 0
0 0.620096 0
0 0.622705 0
0 0.625589 0
0 0.628473 0
0.000823987 0.631373 0
0.0247654 0.635126 0
0.0593576 0.63772 0
0.0921187 0.64033 0
0.122866 0.642344 0
0.154253 0.643793 0
0.187289 0.645228 0
0.222187 0.645808 0
0.259953 0.646387 0
0.300771 0.646677 0
0.345632 0.646677 0
0.394629 0.646677 0
0.449241 0.647257 0
0.508919 0.646967 0
0.574502 0.646967 0
0.646967 0.646967 0
0.726497 0.646967 0
0.813779 0.647257 0
0.90959 0.648417 0
0.979034 0.648997 0
1 0.650141 0
1 0.651591 0
1 0.65333 0
1 0.655344 0
1 0.657954 0
1 0.660258 0
1 0.6636 0.00390631
1 0.965942 0.898436
0 0.693965 0
0 0.696834 0
0 0.700023 0
0 0.703212 0
0 0.707042 0
0.000839246 0.710552 0
0.024918 0.713741 0
0.0594949 0.71693 0
0.092256 0.719799 0
0.123125 0.722026 0
0.15465 0.723934 0
0.187564 0.725216 0
0.222477 0.725856 0
0.260258 0.726497 0
0.301106 0.726497 0
0.345815 0.726802 0
0.395422 0.727443 0
0.449454 0.727123 0
0.509163 0.727123 0
0.574777 0.727123 0
0.647257 0.726802 0
0.726802 0.726802 0
0.814481 0.727764 0
0.90959 0.728084 0
0.979034 0.728725 0
1 0.729992 0
1 0.731273 0
1 0.733822 0
1 0.736049 0
1 0.737972 0
1 0.74052 0
1 0.742748 0
1 0.971145 0.886717
0 0.778561 0
0 0.781735 0
0 0.78526 0
0 0.789136 0
0 0.793362 0
0.000854505 0.796872 0
0.0255436 0.800748 0
0.0601053 0.804273 0
0.0929122 0.807446 0
0.12401 0.810605 0
0.155291 0.812375 0
0.188098 0.813428 0
0.223194 0.81413 0
0.260868 0.814481 0
0.302098 0.815534 0
0.346899 0.815534 0
0.396216 0.815534 0
0.450324 0.815534 0
0.510109 0.815183 0
0.575555 0.814832 0
0.648707 0.815183 0
0.728405 0.815183 0
0.815534 0.815534 0
0.91075 0.815885 0
0.97937 0.816602 0
1 0.817304 0
1 0.81976 0
1 0.82153 0
1 0.823636 0
1 0.825757 0
1 0.828214 0
1 0.830686 0
1 0.981186 0.886717
0 0.871839 0
0 0.876127 0
0 0.8804 0
0 0.884291 0
0 0.888579 0
0.000885023 0.89247 0
0.026627 0.896742 0
0.0614481 0.90103 0
0.0940871 0.904524 0
0.124895 0.907256 0
0.156191 0.909194 0
0.189044 0.910369 0
0.224048 0.911147 0
0.262104 0.912306 0
0.303273 0.912703 0
0.348165 0.912703 0
0.397406 0.912703 0
0.451621 0.912306 0
0.511299 0.911925 0
0.577386 0.912306 0
0.650141 0.911925 0
0.729671 0.911528 0
0.816602 0.911528 0
0.911925 0.911925 0
0.979873 0.912306 0
1 0.91426 0
1 0.915419 0
1 0.917372 0
1 0.919707 0
1 0.922042 0
1 0.925155 0
1 0.927489 0
1 0.991775 0.882811
0 0.964111 0
0 0.966125 0
0 0.967636 0
0 0.969482 0
0 0.971145 0
0.0009308 0.972992 0
0.028336 0.974838 0
0.0630961 0.976684 0
0.0953994 0.978195 0
0.12604 0.979202 0
0.157351 0.980041 0
0.190249 0.980545 0
0.22562 0.981216 0
0.263478 0.981384 0
0.304601 0.981384 0
0.349615 0.981384 0
0.398978 0.981216 0
0.453361 0.981216 0
0.513451 0.981048 0
0.579217 0.98088 0
0.651881 0.980713 0
0.731594 0.980545 0
0.818708 0.980377 0
0.91426 0.980713 0
0.98088 0.980835 0.00694286
1 0.981125 0.0126802
1 0.981628 0.0129549
1 0.982467 0.0133974
1 0.983124 0.0137484
1 0.984298 0.0143587
1 0.985306 0.0148928
1 0.986313 0.0154116
1 0.998444 0.880827
0 1 0
0 1 0
0 1 0
0 1 0
0 1 0
0.0010071 1 0
0.0306706 1 0
0.0650492 1 0
0.0971084 1 0
0.127687 1 0
0.159167 1 0
0.192142 1 0
0.227344 1 0
0.265324 1 0
0.306432 1 0
0.351598 1 0
0.40116 1 0
0.455741 1 0
0.515831 1 0
0.581582 1 0
0.654185 1 0
0.734142 1 0
0.821881 1 0
0.917372 1 0
0.982055 0.999908 0.0131228
1 0.999847 0.0225528
1 0.999847 0.0225528
1 0.999847 0.0225528
1 0.999847 0.0225528
1 0.999847 0.0225528
1 0.999847 0.0225528
1 0.999847 0.0225528
1 0.999985 0.885451
0 1 0
0 1 0
0 1 0
0 1 0
7.62951e-05 1 0
0.00108339 1 0
0.033463 1 0
0.0675975 1 0
0.0993362 1 0
0.129976 1 0
0.161486 1 0
0.19443 1 0
0.229633 1 0
0.267628 1 0
0.308919 1 0
0.354498 1 0
0.40412 1 0
0.458778 1 0
0.518914 1 0
0.584985 1 0
0.657954 1 0
0.738293 1 0
0.825757 1 0
0.921263 1 0
0.983566 0.999908 0.0139162
1 0.999847 0.0225528
1 0.999847 0.0225528
1 0.999847 0.0225528
1 0.999847 0.0225528
1 0.999847 0.0225528
1 0.999847 0.0225528
1 0.999847 0.0340124
1 0.999985 0.89691
0 1 0
0 1 0
0 1 0
0 1 0
0.000167849 1 0
0.0019379 1 0
0.0367285 1 0
0.0707408 1 0
0.102342 1 0
