70 CGC LUTs/Log to Rec709/RedLogFilm to Rec709.cube
LUT_3D_SIZE 5
0 0 0
0.0997177 0 0
0.389883 0 0
0.959747 0 0
1 0.14844 0.14844
0 0.0986801 0
0.0989395 0.0989395 0
0.393256 0.0939498 0
0.971649 0.0902876 0
1 0.703258 0.67187
0 0.378622 0
0.0930343 0.391669 0
0.394827 0.394827 0
0.978866 0.396216 0
1 0.951431 0.917967
0 0.964111 0
0.0953994 0.978195 0
0.398978 0.981216 0
0.98088 0.980835 0.00694286
1 0.998444 0.880827
0.050782 1 0.050782
0.360998 1 0.277348
0.527718 1 0.183597
0.991608 0.999878 0.018143
1 0.999985 0.946548
0 0 0.0994583
0.099855 0 0.099855
0.389502 0 0.0915999
0.959579 0 0.0808576
1 0.156252 0.222126
0 0.0986801 0.0986801
0.0995956 0.0995956 0.0995956
0.395621 0.0956588 0.0956588
0.975006 0.0929122 0.0929122
1 0.785199 0.785199
0 0.382574 0.0870069
0.0963149 0.396811 0.0963149
0.400168 0.400168 0.0985428
0.983734 0.40174 0.0997177
1 1 1
0 0.968811 0.0881819
0.0990616 0.982895 0.0990616
0.403922 0.98558 0.101167
0.984573 0.984573 0.100374
1 0.999512 0.954543
0.136721 1 0.232654
0.410544 1 0.410544
0.55169 1 0.311254
0.992279 1 0.106538
1 1 0.968551
0 0 0.397803
0.0971084 0 0.397986
0.384756 0 0.384756
0.954726 0 0.370047
1 0.0937514 0.426474
0 0.0959182 0.396017
0.0978866 0.0978866 0.399176
0.394827 0.09514 0.394827
0.975341 0.0931716 0.391867
1 0.802945 0.869001
0 0.383169 0.383169
0.0971084 0.397787 0.397787
0.40174 0.40174 0.40174
0.984741 0.403128 0.403128
1 1 1
0 0.970306 0.385931
0.0997177 0.983734 0.40174
0.404913 0.986252 0.404913
0.984573 0.984573 0.402731
1 0.999252 0.958419
0.132815 1 0.495933
0.382254 1 0.599649
0.520439 1 0.520439
0.989776 1 0.409064
1 1 0.937438
0.000167849 4.57771e-05 0.975982
0.0936904 0 0.976013
0.379416 0 0.964614
0.945388 0 0.945388
1 0.0234379 0.943252
0 0.0929122 0.975006
0.0959182 0.0959182 0.978698
0.393652 0.0942245 0.976684
0.974502 0.0925154 0.974502
1 0.8065 0.996399
0 0.382971 0.967636
0.0971084 0.397787 0.980209
0.402335 0.402335 0.98407
0.985245 0.403723 0.985245
1 1 1
0 0.970642 0.970642
0.099855 0.983902 0.983902
0.404517 0.986084 0.986084
0.983566 0.983566 0.983566
1 0.998383 0.998383
0.0976577 1 0.996979
0.329046 1 1
0.469169 1 0.996643
0.986252 1 0.986252
1 1 0.999481
0.000366217 9.15541e-05 0.999939
0.092256 0 1
0.377646 0 1
0.943053 0 1
1 0.0351568 1
0 0.0926528 1
0.0965744 0.0965744 1
0.396216 0.0959182 1
0.977356 0.0947433 1
1 0.873701 1
0 0.386526 1
0.0997177 0.40174 1
0.406287 0.406287 1
0.988769 0.407675 1
1 1 1
0 0.973831 1
0.10222 0.986923 1
0.40708 0.988266 1
0.985245 0.985245 1
1 0.999847 1
0.639551 1 1
0.926375 1 1
1 1 1
0.997772 1 1
1 1 1
