70 CGC LUTs/Log to Rec709/RedWideGamut_Log3G10 to Rec709.cube
LUT_3D_SIZE 33
0.000000 0.000000 0.000000
0.000001 0.000000 0.000000
0.000926 0.000000 0.000000
0.058523 0.003505 0.003505
0.087482 0.003505 0.003505
0.130036 0.003721 0.003972
0.183099 0.005422 0.006950
0.248745 0.009890 0.014896
0.327138 0.016750 0.024617
0.420241 0.024072 0.034897
0.528122 0.031814 0.045713
0.633072 0.040588 0.057938
0.729175 0.051254 0.072776
0.803669 0.063096 0.089251
0.861939 0.077117 0.108815
0.906059 0.094105 0.132682
0.938417 0.115112 0.162556
0.961565 0.141854 0.201282
0.977563 0.176729 0.253045
0.988098 0.222658 0.322027
0.995001 0.287140 0.405650
0.999256 0.377407 0.502285
1.000003 0.481697 0.594048
1.000003 0.585607 0.673956
1.000003 0.670721 0.739569
1.000003 0.741109 0.794135
1.000003 0.796677 0.837519
1.000003 0.841514 0.872790
1.000003 0.876838 0.900787
1.000003 0.904192 0.922621
1.000003 0.926061 0.940193
1.000003 0.943157 0.954012
1.000003 0.957041 0.965297
0.000000 0.000001 0.000000
0.000000 0.000000 0.000000
0.000062 0.000000 0.000000
0.053512 0.003505 0.003505
0.084700 0.003505 0.003505
0.128394 0.004079 0.003825
0.182006 0.006423 0.006420
0.247954 0.011711 0.014039
0.326534 0.018473 0.023817
0.419774 0.025631 0.034187
0.527820 0.033206 0.045095
0.633006 0.041815 0.057422
0.729219 0.052324 0.072354
0.803771 0.064039 0.088915
0.862060 0.077956 0.108560
0.906177 0.094863 0.132507
0.938520 0.115815 0.162466
0.961647 0.142529 0.201288
0.977624 0.177413 0.253174
0.988142 0.223396 0.322304
0.995030 0.288005 0.406066
0.999275 0.378373 0.502814
1.000003 0.482679 0.594558
1.000003 0.586387 0.674420
1.000003 0.671347 0.739976
1.000003 0.741610 0.794482
1.000003 0.797080 0.837810
1.000003 0.841838 0.873032
1.000003 0.877098 0.900986
1.000003 0.904401 0.922784
1.000003 0.926229 0.940325
1.000003 0.943291 0.954119
1.000003 0.957147 0.965383
0.000000 0.000095 0.000000
0.000000 0.000052 0.000000
0.000007 0.000025 0.000000
0.045164 0.003505 0.003505
0.080585 0.003761 0.003505
0.126047 0.005418 0.003663
0.180459 0.008993 0.005808
0.246836 0.014772 0.012906
0.325678 0.021140 0.022739
0.419107 0.027944 0.033222
0.527393 0.035207 0.044260
0.632903 0.043551 0.056722
0.729268 0.053822 0.071781
0.803900 0.065351 0.088455
0.862219 0.079118 0.108209
0.906333 0.095910 0.132266
0.938655 0.116782 0.162338
0.961756 0.143456 0.201291
0.977705 0.178349 0.253341
0.988200 0.224405 0.322671
0.995069 0.289182 0.406620
0.999300 0.379682 0.503522
1.000003 0.484002 0.595241
1.000003 0.587438 0.675042
1.000003 0.672188 0.740521
1.000003 0.742283 0.794947
1.000003 0.797621 0.838202
1.000003 0.842271 0.873356
1.000003 0.877445 0.901252
1.000003 0.904681 0.923003
1.000003 0.926453 0.940502
1.000003 0.943471 0.954263
1.000003 0.957290 0.965498
0.003505 0.051380 0.003505
0.003505 0.049531 0.003505
0.003505 0.046814 0.003505
0.027412 0.042697 0.003505
0.074314 0.033569 0.003505
0.122672 0.016773 0.003505
0.178269 0.016616 0.005152
0.245259 0.020266 0.011447
0.324468 0.025414 0.021309
0.418174 0.031416 0.031939
0.526789 0.038104 0.043147
0.632741 0.046012 0.055786
0.729316 0.055915 0.071009
0.804060 0.067169 0.087833
0.862422 0.080719 0.107732
0.906534 0.097345 0.131933
0.938832 0.118103 0.162158
0.961897 0.144718 0.201284
0.977812 0.179620 0.253553
0.988276 0.225770 0.323149
0.995120 0.290769 0.407348
0.999333 0.381431 0.504453
1.000003 0.485760 0.596142
1.000003 0.588830 0.675861
1.000003 0.673300 0.741240
1.000003 0.743172 0.795561
1.000003 0.798336 0.838718
1.000003 0.842844 0.873783
1.000003 0.877905 0.901604
1.000003 0.905050 0.923290
1.000003 0.926749 0.940736
1.000003 0.943708 0.954453
1.000003 0.957478 0.965650
0.003505 0.080725 0.003505
0.003505 0.079729 0.003505
0.003505 0.078328 0.003505
0.003505 0.076355 0.003505
0.062664 0.073171 0.003505
0.117089 0.063461 0.003505
0.174732 0.042868 0.004457
0.242733 0.032975 0.009419
0.322543 0.033714 0.019223
0.416688 0.037587 0.030037
0.525810 0.043013 0.041477
0.632444 0.050054 0.054371
0.729348 0.059284 0.069835
0.804271 0.070057 0.086881
0.862706 0.083240 0.106995
0.906823 0.099591 0.131412
0.939087 0.120160 0.161864
0.962104 0.146674 0.201251
0.977968 0.181579 0.253848
0.988388 0.227864 0.323843
0.995196 0.293195 0.408419
0.999381 0.384071 0.505825
1.000003 0.488389 0.597469
1.000003 0.590904 0.677071
1.000003 0.674955 0.742302
1.000003 0.744493 0.796468
1.000003 0.799396 0.839481
1.000003 0.843693 0.874415
1.000003 0.878585 0.902123
1.000003 0.905597 0.923716
1.000003 0.927187 0.941083
1.000003 0.944059 0.954733
1.000003 0.957756 0.965875
0.003505 0.122073 0.003505
0.003505 0.121474 0.003505
0.003505 0.120642 0.003505
0.003505 0.119493 0.003505
0.004999 0.117691 0.003505
0.101522 0.113204 0.003505
0.165554 0.103299 0.003721
0.236290 0.088319 0.006316
0.317633 0.066792 0.014743
0.412848 0.057997 0.025755
0.523193 0.057670 0.037624
0.631506 0.061355 0.051054
0.729240 0.068309 0.067041
0.804632 0.077590 0.084585
0.863272 0.089698 0.105188
0.907428 0.105271 0.130098
0.939636 0.125305 0.161074
0.962554 0.151520 0.201061
0.978311 0.186386 0.254412
0.988634 0.232953 0.325335
0.995362 0.299032 0.410792
0.999488 0.390264 0.508887
1.000003 0.494450 0.600449
1.000003 0.595655 0.679792
1.000003 0.678726 0.744694
1.000003 0.747491 0.798510
1.000003 0.801797 0.841199
1.000003 0.845612 0.875840
1.000003 0.880121 0.903293
1.000003 0.906831 0.924675
1.000003 0.928175 0.941862
1.000003 0.944850 0.955365
1.000003 0.958384 0.966381
0.003505 0.172851 0.003505
0.003505 0.172431 0.003505
0.003505 0.171850 0.003505
0.003505 0.171052 0.003505
0.003663 0.169813 0.003505
0.022457 0.166783 0.003505
0.145910 0.161039 0.003505
0.223174 0.150109 0.004130
0.307686 0.136802 0.008508
0.404939 0.120351 0.018945
0.517513 0.100036 0.031141
0.629036 0.089762 0.045275
0.728431 0.089062 0.062031
0.804808 0.093983 0.080358
0.863936 0.103236 0.101756
0.908255 0.116859 0.127488
0.940437 0.135586 0.159345
0.963233 0.161022 0.200346
0.978838 0.195642 0.254974
0.989018 0.242575 0.327494
0.995624 0.309865 0.414494
0.999656 0.401192 0.513750
1.000003 0.504773 0.605234
1.000003 0.603643 0.684187
1.000003 0.685004 0.748568
1.000003 0.752448 0.801826
1.000003 0.805746 0.843991
1.000003 0.848758 0.878155
1.000003 0.882633 0.905196
1.000003 0.908846 0.926234
1.000003 0.929786 0.943129
1.000003 0.946138 0.956391
1.000003 0.959404 0.967202
0.003505 0.235254 0.003663
0.003505 0.234922 0.003663
0.003505 0.234464 0.003663
0.003505 0.233837 0.003663
0.003505 0.232872 0.003663
0.004220 0.230525 0.003663
0.073889 0.226131 0.003663
0.198358 0.218822 0.003505
0.289357 0.206572 0.004605
0.390193 0.193237 0.010609
0.506242 0.178416 0.022238
0.623289 0.160714 0.036798
0.725709 0.139798 0.054309
0.803984 0.130051 0.073575
0.864159 0.131030 0.096001
0.908956 0.139533 0.122839
0.941267 0.154981 0.155912
0.964004 0.178406 0.198335
0.979467 0.212088 0.254758
0.989490 0.259185 0.329627
0.995952 0.328022 0.418968
0.999870 0.418020 0.519924
1.000003 0.519787 0.611463
1.000003 0.615011 0.689981
1.000003 0.693790 0.753712
1.000003 0.759297 0.806245
1.000003 0.811154 0.847721
1.000003 0.853038 0.881252
1.000003 0.886034 0.907744
1.000003 0.911566 0.928323
1.000003 0.931955 0.944827
1.000003 0.947871 0.957767
1.000003 0.960775 0.968304
0.003505 0.309505 0.003897
0.003505 0.309216 0.003897
0.003505 0.308821 0.003897
0.003505 0.308285 0.003897
0.003505 0.307463 0.003873
0.003721 0.305468 0.003850
0.007657 0.301745 0.003825
0.130357 0.295589 0.003761
0.258980 0.286629 0.003721
0.365913 0.272512 0.005183
0.486388 0.258033 0.012728
0.611981 0.241927 0.026577
0.719375 0.223915 0.044263
0.800919 0.206008 0.064249
0.863042 0.189786 0.087641
0.908893 0.183557 0.115615
0.941686 0.190449 0.150006
0.964570 0.208733 0.194018
0.980003 0.239616 0.252484
0.989924 0.285906 0.330267
0.996268 0.354404 0.422713
1.000003 0.440944 0.525916
1.000003 0.538662 0.617878
1.000003 0.628858 0.696125
1.000003 0.704216 0.759252
1.000003 0.767259 0.811048
1.000003 0.817347 0.851798
1.000003 0.857887 0.884650
1.000003 0.889859 0.910546
1.000003 0.914609 0.930623
1.000003 0.934373 0.946699
1.000003 0.949797 0.959285
1.000003 0.962297 0.969519
0.003505 0.397437 0.004352
0.003505 0.397177 0.004352
0.003505 0.396821 0.004352
0.003505 0.396339 0.004343
0.003505 0.395600 0.004334
0.003663 0.393808 0.004316
0.004442 0.390465 0.004279
0.024840 0.384930 0.004208
0.188027 0.376855 0.004092
0.327704 0.363602 0.004165
0.454970 0.349392 0.005997
0.592182 0.332101 0.016181
0.707303 0.313544 0.032792
0.794096 0.295045 0.052799
0.859520 0.277523 0.076715
0.907326 0.263596 0.105511
0.941191 0.257283 0.140970
0.964599 0.263464 0.186364
0.980234 0.286510 0.246696
0.990190 0.327912 0.327592
0.996494 0.389491 0.423879
1.000003 0.470664 0.530022
1.000003 0.560797 0.623097
1.000003 0.644455 0.701501
1.000003 0.715533 0.764284
1.000003 0.775634 0.815507
1.000003 0.823709 0.855634
1.000003 0.862782 0.887875
1.000003 0.893672 0.913221
1.000003 0.917616 0.932829
1.000003 0.936749 0.948500
1.000003 0.951683 0.960748
1.000003 0.963782 0.970694
0.003505 0.501267 0.005170
0.003505 0.501036 0.005170
0.003505 0.500720 0.005166
0.003505 0.500291 0.005161
0.003663 0.499634 0.005152
0.003663 0.498035 0.005130
0.004037 0.495034 0.005085
0.007437 0.490001 0.004985
0.065105 0.482501 0.004841
0.251534 0.472203 0.004662
0.410446 0.458977 0.004465
0.558405 0.438817 0.007662
0.686675 0.417772 0.021220
0.781563 0.396907 0.040054
0.852260 0.376476 0.063649
0.903363 0.358349 0.092576
0.939193 0.345665 0.128454
0.963713 0.342699 0.174550
0.979926 0.354387 0.235994
0.990145 0.384224 0.319437
0.996549 0.435521 0.420302
1.000003 0.507953 0.530335
1.000003 0.586094 0.625659
1.000003 0.661493 0.704992
1.000003 0.727309 0.767939
1.000003 0.783956 0.818946
1.000003 0.829793 0.858698
1.000003 0.867323 0.890511
1.000003 0.897132 0.915441
1.000003 0.920305 0.934680
1.000003 0.938852 0.950023
1.000003 0.953340 0.961994
1.000003 0.965082 0.971699
0.003663 0.601194 0.006663
0.003663 0.601031 0.006661
0.003663 0.600807 0.006652
0.003663 0.600505 0.006647
0.003663 0.600040 0.006639
0.003721 0.598914 0.006609
0.003990 0.596802 0.006543
0.005243 0.593257 0.006417
0.019018 0.587954 0.006213
0.142841 0.580526 0.005940
0.325106 0.570590 0.005638
0.502969 0.558043 0.005375
0.648827 0.537424 0.010736
0.760822 0.515058 0.027367
0.839606 0.491980 0.049479
0.895900 0.469079 0.077540
0.934973 0.449858 0.112833
0.961453 0.438068 0.158481
0.978796 0.438579 0.219627
0.989620 0.456000 0.303517
0.996336 0.494664 0.409599
1.000003 0.550704 0.524583
1.000003 0.614419 0.623851
1.000003 0.679770 0.705312
1.000003 0.739226 0.769246
1.000003 0.791839 0.820627
1.000003 0.835206 0.860421
1.000003 0.871145 0.892117
1.000003 0.899920 0.916866
1.000003 0.922404 0.935909
1.000003 0.940458 0.951061
1.000003 0.954588 0.962859
1.000003 0.966052 0.972408
0.003721 0.686517 0.009559
0.003721 0.686403 0.009553
0.003721 0.686247 0.009547
0.003721 0.686036 0.009537
0.003761 0.685712 0.009522
0.003825 0.684930 0.009480
0.004051 0.683470 0.009387
0.004814 0.681026 0.009202
0.009387 0.677367 0.008895
0.043558 0.672212 0.008465
0.221800 0.665249 0.007966
0.407335 0.656342 0.007489
0.592391 0.645234 0.007156
0.720943 0.627069 0.014978
0.819435 0.606617 0.035353
0.884104 0.585972 0.061695
0.928087 0.565911 0.095400
0.957528 0.549084 0.139284
0.976637 0.539921 0.198320
0.988483 0.543405 0.279800
0.995778 0.563351 0.390254
0.999994 0.599726 0.510928
1.000003 0.647190 0.616400
1.000003 0.700496 0.701606
1.000003 0.752105 0.767625
1.000003 0.799755 0.820155
1.000003 0.840183 0.860528
1.000003 0.874344 0.892500
1.000003 0.902055 0.917352
1.000003 0.923896 0.936410
1.000003 0.941533 0.951533
1.000003 0.955389 0.963283
1.000003 0.966658 0.972775
0.003897 0.756373 0.014562
0.003917 0.756293 0.014556
0.003917 0.756183 0.014548
0.003936 0.756036 0.014538
0.003972 0.755811 0.014521
0.004037 0.755267 0.014474
0.004250 0.754260 0.014370
0.004835 0.752588 0.014164
0.007156 0.750094 0.013806
0.020910 0.746573 0.013271
0.090306 0.741781 0.012574
0.302018 0.735580 0.011819
0.502661 0.727737 0.011167
0.669383 0.718251 0.010887
0.781593 0.702428 0.021232
0.866209 0.684170 0.046380
0.917831 0.666266 0.077868
0.951681 0.649243 0.119148
0.973381 0.635784 0.174848
0.986711 0.629795 0.251976
0.994866 0.635113 0.363426
0.999550 0.654218 0.489473
1.000003 0.685385 0.603499
1.000003 0.725306 0.694157
1.000003 0.767535 0.763411
1.000003 0.808992 0.817870
1.000003 0.845692 0.859336
1.000003 0.877619 0.891937
1.000003 0.904042 0.917139
1.000003 0.925150 0.936383
1.000003 0.942351 0.951603
1.000003 0.955948 0.963398
1.000003 0.967052 0.972905
0.004230 0.812786 0.021582
0.004250 0.812729 0.021575
0.004250 0.812652 0.021567
0.004279 0.812548 0.021554
0.004307 0.812389 0.021534
0.004393 0.812010 0.021482
0.004605 0.811313 0.021371
0.005143 0.810171 0.021153
0.006789 0.808483 0.020780
0.014065 0.806109 0.020207
0.042550 0.802864 0.019429
0.173080 0.798623 0.018522
0.391106 0.793190 0.017639
0.592706 0.786519 0.017048
0.734570 0.778516 0.017148
0.830500 0.765026 0.029961
0.902130 0.749055 0.061001
0.942923 0.733772 0.099223
0.968497 0.719675 0.150636
0.984016 0.709303 0.221755
0.993445 0.705526 0.328667
0.998836 0.711576 0.458955
1.000003 0.728314 0.583742
1.000003 0.754711 0.682016
1.000003 0.786421 0.755983
1.000003 0.820384 0.813381
1.000003 0.852349 0.856600
1.000003 0.881374 0.890279
1.000003 0.906126 0.916132
1.000003 0.926310 0.935767
1.000003 0.942992 0.951233
1.000003 0.956308 0.963179
1.000003 0.967256 0.972784
0.004825 0.857559 0.031267
0.004835 0.857518 0.031259
0.004852 0.857463 0.031248
0.004878 0.857389 0.031233
0.004915 0.857276 0.031209
0.005019 0.857008 0.031148
0.005248 0.856522 0.031024
0.005798 0.855737 0.030791
0.007240 0.854595 0.030400
0.012135 0.853004 0.029799
0.027509 0.850831 0.028957
0.079498 0.847972 0.027920
0.271687 0.844267 0.026809
0.489973 0.839654 0.025881
0.670533 0.834033 0.025520
0.788690 0.827383 0.026335
0.869296 0.816080 0.042023
0.929574 0.802231 0.080645
0.961272 0.789426 0.127659
0.980053 0.778135 0.192014
0.991334 0.770042 0.288709
0.997755 0.767917 0.421280
1.000003 0.773718 0.556113
1.000003 0.788115 0.664368
1.000003 0.809177 0.744788
1.000003 0.834715 0.806354
1.000003 0.860914 0.852138
1.000003 0.886199 0.887436
1.000003 0.908722 0.914295
1.000003 0.927654 0.934555
1.000003 0.943636 0.950429
1.000003 0.956586 0.962639
1.000003 0.967346 0.972423
0.005907 0.892602 0.044467
0.005920 0.892573 0.044456
0.005943 0.892533 0.044442
0.005972 0.892479 0.044423
0.006020 0.892398 0.044392
0.006140 0.892207 0.044318
0.006417 0.891863 0.044172
0.007039 0.891317 0.043915
0.008516 0.890539 0.043499
0.012513 0.889473 0.042870
0.022570 0.888027 0.041979
0.050202 0.886120 0.040839
0.142728 0.883626 0.039525
0.369988 0.880480 0.038265
0.586513 0.876590 0.037414
0.736162 0.871914 0.037546
0.832933 0.866456 0.039565
0.900271 0.857026 0.058919
0.950221 0.845179 0.107137
0.974201 0.834768 0.165093
0.988245 0.825573 0.250881
0.996159 0.819467 0.378805
1.000003 0.818375 0.520224
1.000003 0.823653 0.640588
1.000003 0.835260 0.729267
1.000003 0.852267 0.796386
1.000003 0.871967 0.845686
1.000003 0.892673 0.883254
1.000003 0.912286 0.911547
1.000003 0.929506 0.932709
1.000003 0.944503 0.949177
1.000003 0.956926 0.961776
1.000003 0.967413 0.971829
0.008017 0.919912 0.062455
0.008037 0.919890 0.062441
0.008063 0.919861 0.062422
0.008101 0.919822 0.062396
0.008162 0.919763 0.062356
0.008324 0.919624 0.062261
0.008680 0.919379 0.062083
0.009460 0.918995 0.061783
0.011146 0.918461 0.061326
0.014603 0.917743 0.060659
0.022114 0.916784 0.059721
0.039773 0.915524 0.058497
0.087561 0.913868 0.057014
0.247067 0.911754 0.055449
0.477237 0.909103 0.054114
0.668140 0.905869 0.053541
0.790066 0.902032 0.054552
0.868915 0.897568 0.058495
0.924435 0.889803 0.082270
0.965071 0.879925 0.142166
0.983616 0.871303 0.218091
0.993790 0.864028 0.334683
0.999210 0.859489 0.476561
1.000003 0.858944 0.610275
1.000003 0.863307 0.708825
1.000003 0.872692 0.782948
1.000003 0.885776 0.836855
1.000003 0.901287 0.877476
1.000003 0.917297 0.907730
1.000003 0.932247 0.930136
1.000003 0.945859 0.947427
1.000003 0.957505 0.960565
1.000003 0.967570 0.970991
0.012278 0.940956 0.086925
0.012301 0.940940 0.086905
0.012334 0.940918 0.086879
0.012378 0.940890 0.086843
0.012449 0.940846 0.086790
0.012637 0.940745 0.086663
0.013036 0.940568 0.086434
0.013854 0.940295 0.086068
0.015438 0.939923 0.085540
0.018504 0.939436 0.084806
0.024644 0.938798 0.083804
0.037527 0.937969 0.082497
0.067536 0.936880 0.080868
0.147747 0.935479 0.079033
0.360016 0.933698 0.077241
0.582281 0.931492 0.075970
0.735683 0.928834 0.075981
0.834374 0.925693 0.078460
0.897849 0.922079 0.085388
0.942294 0.915894 0.113682
0.976263 0.907480 0.192054
0.990186 0.900529 0.294073
0.997404 0.894896 0.431169
1.000003 0.891405 0.574181
1.000003 0.891133 0.683375
1.000003 0.894692 0.765685
1.000003 0.901892 0.825283
1.000003 0.912143 0.869817
1.000003 0.924081 0.902647
1.000003 0.936224 0.926710
1.000003 0.947991 0.945103
1.000003 0.958532 0.958964
1.000003 0.967956 0.969887
0.018784 0.956795 0.119810
0.018806 0.956783 0.119783
0.018836 0.956767 0.119746
0.018877 0.956746 0.119697
0.018944 0.956714 0.119623
0.019121 0.956639 0.119448
0.019499 0.956508 0.119143
0.020275 0.956311 0.118673
0.021766 0.956048 0.118028
0.024567 0.955711 0.117178
0.029898 0.955281 0.116065
0.040243 0.954731 0.114642
0.061879 0.954013 0.112855
0.111429 0.953087 0.110765
0.252741 0.951898 0.108545
0.480893 0.950404 0.106604
0.670190 0.948577 0.105639
0.792192 0.946383 0.106744
0.870783 0.943820 0.111660
0.920575 0.940949 0.123043
0.957201 0.935841 0.159906
0.984452 0.928845 0.264436
0.994653 0.923364 0.391429
0.999885 0.918890 0.535401
1.000003 0.916276 0.654195
1.000003 0.916152 0.744990
1.000003 0.918931 0.810995
1.000003 0.924603 0.860182
1.000003 0.932512 0.896192
1.000003 0.941558 0.922349
1.000003 0.951097 0.942155
1.000003 0.960193 0.956944
1.000003 0.968714 0.968505
0.028382 0.968995 0.166256
0.028401 0.968986 0.166217
0.028427 0.968974 0.166163
0.028464 0.968958 0.166091
0.028523 0.968934 0.165984
0.028681 0.968879 0.165735
0.029028 0.968783 0.165305
0.029750 0.968639 0.164662
0.031143 0.968451 0.163817
0.033734 0.968217 0.162757
0.038518 0.967924 0.161437
0.047329 0.967559 0.159808
0.064388 0.967089 0.157788
0.099441 0.966485 0.155388
0.182477 0.965704 0.152703
0.381219 0.964710 0.150060
0.593515 0.963476 0.148088
0.741220 0.961971 0.147808
0.837359 0.960184 0.150849
0.898726 0.958152 0.159584
0.938852 0.955827 0.178649
0.968114 0.951757 0.226987
0.990009 0.946055 0.361228
0.997757 0.941628 0.497210
1.000003 0.938172 0.622424
1.000003 0.936109 0.720930
1.000003 0.936005 0.793646
1.000003 0.938146 0.848135
1.000003 0.942463 0.887977
1.000003 0.948380 0.916754
1.000003 0.955409 0.938365
1.000003 0.962720 0.954359
1.000003 0.970029 0.966749
0.042093 0.978151 0.233016
0.042107 0.978144 0.232956
0.042128 0.978135 0.232874
0.042158 0.978123 0.232766
0.042205 0.978105 0.232604
0.042337 0.978064 0.232230
0.042639 0.977992 0.231592
0.043289 0.977887 0.230658
0.044574 0.977751 0.229467
0.046975 0.977585 0.228036
0.051355 0.977384 0.226334
0.059176 0.977139 0.224326
0.073565 0.976829 0.221904
0.100993 0.976434 0.219041
0.158778 0.975924 0.215760
0.304010 0.975269 0.212298
0.513513 0.974445 0.209206
0.684543 0.973423 0.207452
0.798611 0.972191 0.208630
0.872674 0.970768 0.215049
0.921714 0.969115 0.230844
0.953194 0.967272 0.263050
0.975913 0.964137 0.320722
0.994089 0.959379 0.466487
0.999813 0.955909 0.592032
1.000003 0.953144 0.695495
1.000003 0.951546 0.774105
1.000003 0.951432 0.833964
1.000003 0.953043 0.878029
1.000003 0.956246 0.909859
1.000003 0.960812 0.933658
1.000003 0.966169 0.951144
1.000003 0.972019 0.964575
0.060977 0.984880 0.327368
0.060986 0.984875 0.327287
0.060999 0.984868 0.327179
0.061018 0.984859 0.327036
0.061051 0.984846 0.326821
0.061148 0.984814 0.326325
0.061388 0.984761 0.325483
0.061948 0.984683 0.324260
0.063106 0.984583 0.322728
0.065323 0.984463 0.320933
0.069380 0.984321 0.318864
0.076528 0.984153 0.316500
0.089287 0.983945 0.313720
0.112452 0.983684 0.310459
0.157679 0.983348 0.306648
0.258660 0.982916 0.302407
0.445588 0.982367 0.298162
0.628835 0.981675 0.294796
0.757589 0.980828 0.293880
0.843743 0.979834 0.297590
0.902031 0.978663 0.308817
0.940068 0.977338 0.330479
0.964225 0.975902 0.364444
0.982474 0.973385 0.421723
0.996938 0.969531 0.567016
1.000003 0.966709 0.671660
1.000003 0.964560 0.754030
1.000003 0.963284 0.818489
1.000003 0.963190 0.866708
1.000003 0.964391 0.901795
1.000003 0.966876 0.928057
1.000003 0.970369 0.947287
1.000003 0.974669 0.961965
0.087482 0.989957 0.431135
0.087482 0.989953 0.431050
0.087485 0.989948 0.430933
0.087490 0.989941 0.430778
0.087502 0.989931 0.430546
0.087550 0.989907 0.430013
0.087709 0.989867 0.429112
0.088151 0.989808 0.427816
0.089157 0.989735 0.426214
0.091183 0.989648 0.424377
0.094965 0.989547 0.422324
0.101634 0.989430 0.420058
0.113368 0.989289 0.417485
0.134046 0.989115 0.414548
0.172428 0.988895 0.411145
0.250804 0.988612 0.407278
0.405408 0.988249 0.403129
0.581100 0.987787 0.399166
0.717390 0.987212 0.396359
0.813020 0.986527 0.396246
0.879982 0.985707 0.400950
0.924806 0.984767 0.413103
0.953834 0.983733 0.435010
0.972943 0.982588 0.469840
0.986968 0.980671 0.523539
0.999008 0.977466 0.650242
1.000003 0.975231 0.734639
1.000003 0.973498 0.802207
1.000003 0.972487 0.854102
1.000003 0.972386 0.892461
1.000003 0.973295 0.921397
1.000003 0.975177 0.942625
1.000003 0.977969 0.958784
0.123577 0.993665 0.534640
0.123568 0.993662 0.534556
0.123555 0.993658 0.534444
0.123541 0.993653 0.534295
0.123524 0.993645 0.534071
0.123507 0.993627 0.533559
0.123557 0.993597 0.532691
0.123847 0.993553 0.531450
0.124675 0.993498 0.529920
0.126505 0.993433 0.528184
0.130066 0.993360 0.526272
0.136441 0.993277 0.524209
0.147645 0.993180 0.521921
0.167088 0.993062 0.519362
0.202070 0.992915 0.516425
0.269496 0.992727 0.513057
0.396615 0.992486 0.509285
0.551765 0.992178 0.505316
0.684902 0.991788 0.501716
0.784509 0.991316 0.499545
0.857698 0.990743 0.500294
0.908493 0.990076 0.506003
0.942288 0.989332 0.518452
0.965012 0.988499 0.539502
0.979624 0.987610 0.568933
0.990890 0.986072 0.612484
1.000003 0.983477 0.716327
1.000003 0.981639 0.786810
1.000003 0.980266 0.841244
1.000003 0.979476 0.882447
1.000003 0.979385 0.913987
1.000003 0.980085 0.937304
1.000003 0.981615 0.955093
0.175272 0.996463 0.622713
0.175244 0.996461 0.622642
0.175209 0.996458 0.622547
0.175167 0.996454 0.622423
0.175106 0.996448 0.622236
0.174990 0.996434 0.621806
0.174882 0.996411 0.621081
0.174957 0.996378 0.620044
0.175550 0.996336 0.618778
0.177161 0.996289 0.617352
0.180550 0.996236 0.615805
0.186819 0.996176 0.614168
0.197946 0.996108 0.612398
0.217170 0.996027 0.610468
0.251105 0.995929 0.608306
0.314007 0.995804 0.605850
0.417562 0.995645 0.603074
0.545734 0.995441 0.600021
0.664713 0.995180 0.596930
0.761150 0.994859 0.594348
0.836654 0.994464 0.593062
0.891703 0.993996 0.594354
0.929715 0.993468 0.599562
0.956014 0.992868 0.610224
0.973322 0.992220 0.626972
0.984920 0.991510 0.650610
0.993582 0.990339 0.683482
1.000003 0.988187 0.770319
1.000003 0.986692 0.828516
1.000003 0.985612 0.871872
1.000003 0.984966 0.905793
1.000003 0.984884 0.931223
1.000003 0.985451 0.950771
0.249539 0.998508 0.692782
0.249487 0.998506 0.692723
0.249415 0.998504 0.692643
0.249326 0.998501 0.692539
0.249196 0.998497 0.692382
0.248926 0.998486 0.692022
0.248566 0.998469 0.691417
0.248310 0.998443 0.690550
0.248558 0.998412 0.689497
0.249883 0.998376 0.688320
0.253134 0.998337 0.687056
0.259499 0.998294 0.685736
0.271058 0.998245 0.684338
0.291111 0.998189 0.682848
0.326173 0.998121 0.681214
0.384027 0.998038 0.679389
0.463937 0.997932 0.677336
0.563034 0.997795 0.675038
0.660743 0.997620 0.672578
0.747170 0.997403 0.670231
0.820034 0.997130 0.668381
0.876466 0.996803 0.667790
0.917309 0.996428 0.669370
0.946615 0.995996 0.674202
0.966463 0.995525 0.683077
0.980083 0.995003 0.696945
0.988997 0.994451 0.715520
0.995970 0.993509 0.742142
1.000003 0.991745 0.814055
1.000003 0.990542 0.861568
