70 CGC LUTs/Log to Rec709/RedWideGamut_Log3G10 to Rec709.cube
LUT_3D_SIZE 5
0.000000 0.000000 0.000000
0.327138 0.016750 0.024617
0.938417 0.115112 0.162556
1.000003 0.670721 0.739569
1.000003 0.957041 0.965297
0.003505 0.309505 0.003897
0.258980 0.286629 0.003721
0.941686 0.190449 0.150006
1.000003 0.704216 0.759252
1.000003 0.962297 0.969519
0.005907 0.892602 0.044467
0.008516 0.890539 0.043499
0.832933 0.866456 0.039565
1.000003 0.835260 0.729267
1.000003 0.967413 0.971829
0.123577 0.993665 0.534640
0.124675 0.993498 0.529920
0.396615 0.992486 0.509285
0.979624 0.987610 0.568933
1.000003 0.981615 0.955093
0.808801 1.000003 0.909975
0.806496 1.000003 0.908876
0.814219 1.000003 0.905580
0.934872 1.000003 0.901160
1.000003 1.000003 0.916618
0.013767 0.004544 0.286590
0.320793 0.004352 0.283670
0.937807 0.103930 0.262518
1.000003 0.668772 0.744865
1.000003 0.957052 0.965385
0.003505 0.266890 0.257527
0.248767 0.248774 0.248793
0.940663 0.171788 0.242687
1.000003 0.701329 0.762869
1.000003 0.962082 0.969409
0.005688 0.889903 0.063306
0.008166 0.889672 0.061981
0.832939 0.865071 0.061402
1.000003 0.834621 0.732666
1.000003 0.967265 0.971739
0.121322 0.993486 0.535750
0.125413 0.993552 0.537640
0.397313 0.992538 0.518948
0.979738 0.987669 0.577017
1.000003 0.981638 0.954957
0.806112 1.000003 0.908951
0.807715 1.000003 0.909496
0.815264 1.000003 0.906238
0.935107 1.000003 0.901863
1.000003 1.000003 0.917199
0.049170 0.009671 0.871914
0.208449 0.008468 0.873422
0.904919 0.013354 0.863845
1.000003 0.542335 0.837445
1.000003 0.946609 0.960293
0.023192 0.034570 0.876331
0.114955 0.029504 0.875348
0.905691 0.029042 0.867633
1.000003 0.589018 0.845284
1.000003 0.952408 0.964380
0.003663 0.846250 0.833717
0.003972 0.845485 0.833531
0.820617 0.820629 0.820666
1.000003 0.799106 0.830910
1.000003 0.957826 0.965844
0.106569 0.992056 0.716807
0.110702 0.992132 0.716497
0.381080 0.991783 0.710784
0.979599 0.986587 0.743108
1.000003 0.980015 0.946096
0.797817 1.000003 0.911292
0.799492 1.000003 0.911713
0.817356 1.000003 0.912626
0.935492 1.000003 0.909641
1.000003 1.000003 0.923407
0.025366 0.004960 0.996823
0.044802 0.004780 0.997142
0.924449 0.004104 0.996536
0.998264 0.045452 0.989414
1.000003 0.901859 0.976744
0.016068 0.005798 0.997976
0.030970 0.005540 0.997964
0.923246 0.004449 0.997320
0.998938 0.054224 0.990768
1.000003 0.911645 0.978717
0.003505 0.677085 0.993988
0.003721 0.666526 0.993978
0.731974 0.526862 0.992388
0.996914 0.506912 0.989837
1.000003 0.920845 0.981859
0.038206 0.983397 0.980247
0.040322 0.983483 0.980355
0.215921 0.982683 0.979987
0.976758 0.976762 0.976775
1.000003 0.971583 0.975680
0.775923 1.000003 0.961963
0.777894 1.000003 0.961988
0.800276 1.000003 0.961917
0.932713 1.000003 0.960526
1.000003 1.000003 0.965658
0.003663 0.003505 1.000003
0.003721 0.003505 1.000003
0.947127 0.003505 1.000003
1.000003 0.003505 1.000003
1.000003 0.153497 1.000003
0.003505 0.003505 1.000003
0.003663 0.003505 1.000003
0.934097 0.003505 1.000003
1.000003 0.003505 1.000003
1.000003 0.170273 1.000003
0.003505 0.015746 1.000003
0.003505 0.013139 1.000003
0.020691 0.004410 1.000003
1.000003 0.018736 1.000003
1.000003 0.410198 1.000003
0.003505 0.976290 1.000003
0.003505 0.976029 1.000003
0.019907 0.963495 1.000003
0.965276 0.947280 1.000003
1.000003 0.945337 1.000003
0.650878 1.000003 1.000003
0.654243 1.000003 1.000003
0.699979 1.000003 1.000003
0.920853 1.000003 1.000003
1.000001 1.000003 1.000003
