70 CGC LUTs/Log to Rec709/RedWideGamut_Log3G10 to Rec709.cube
LUT_3D_SIZE 9
0.000000 0.000000 0.000000
0.087482 0.003505 0.003505
0.327138 0.016750 0.024617
0.729175 0.051254 0.072776
0.938417 0.115112 0.162556
0.995001 0.287140 0.405650
1.000003 0.670721 0.739569
1.000003 0.876838 0.900787
1.000003 0.957041 0.965297
0.003505 0.080725 0.003505
0.062664 0.073171 0.003505
0.322543 0.033714 0.019223
0.729348 0.059284 0.069835
0.939087 0.120160 0.161864
0.995196 0.293195 0.408419
1.000003 0.674955 0.742302
1.000003 0.878585 0.902123
1.000003 0.957756 0.965875
0.003505 0.309505 0.003897
0.003505 0.307463 0.003873
0.258980 0.286629 0.003721
0.719375 0.223915 0.044263
0.941686 0.190449 0.150006
0.996268 0.354404 0.422713
1.000003 0.704216 0.759252
1.000003 0.889859 0.910546
1.000003 0.962297 0.969519
0.003721 0.686517 0.009559
0.003761 0.685712 0.009522
0.009387 0.677367 0.008895
0.592391 0.645234 0.007156
0.928087 0.565911 0.095400
0.995778 0.563351 0.390254
1.000003 0.752105 0.767625
1.000003 0.902055 0.917352
1.000003 0.966658 0.972775
0.005907 0.892602 0.044467
0.006020 0.892398 0.044392
0.008516 0.890539 0.043499
0.142728 0.883626 0.039525
0.832933 0.866456 0.039565
0.988245 0.825573 0.250881
1.000003 0.835260 0.729267
1.000003 0.912286 0.911547
1.000003 0.967413 0.971829
0.028382 0.968995 0.166256
0.028523 0.968934 0.165984
0.031143 0.968451 0.163817
0.064388 0.967089 0.157788
0.593515 0.963476 0.148088
0.938852 0.955827 0.178649
1.000003 0.938172 0.622424
1.000003 0.942463 0.887977
1.000003 0.970029 0.966749
0.123577 0.993665 0.534640
0.123524 0.993645 0.534071
0.124675 0.993498 0.529920
0.147645 0.993180 0.521921
0.396615 0.992486 0.509285
0.857698 0.990743 0.500294
0.979624 0.987610 0.568933
1.000003 0.980266 0.841244
1.000003 0.981615 0.955093
0.499703 1.000003 0.796625
0.499016 1.000003 0.796348
0.495480 1.000003 0.794353
0.506997 1.000003 0.790917
0.599210 1.000003 0.786801
0.807042 1.000003 0.781043
0.951898 0.999747 0.780741
0.994787 0.998501 0.811658
1.000003 0.995339 0.935024
0.808801 1.000003 0.909975
0.808502 1.000003 0.909841
0.806496 1.000003 0.908876
0.805039 1.000003 0.907264
0.814219 1.000003 0.905580
0.858072 1.000003 0.903528
0.934872 1.000003 0.901160
0.984506 1.000003 0.902523
1.000003 1.000003 0.916618
0.003505 0.003505 0.074036
0.084988 0.003505 0.072695
0.326685 0.014305 0.048554
0.729083 0.049701 0.083827
0.938417 0.114248 0.168777
0.995006 0.286639 0.408842
1.000003 0.670745 0.740082
1.000003 0.876900 0.900887
1.000003 0.957073 0.965329
0.003505 0.065413 0.061621
0.058071 0.058073 0.058076
0.321946 0.028796 0.040648
0.729132 0.057399 0.080949
0.939042 0.119172 0.168232
0.995191 0.292513 0.411560
1.000003 0.674818 0.742702
1.000003 0.878574 0.902166
1.000003 0.957759 0.965882
0.003505 0.306073 0.004705
0.003505 0.304792 0.004598
0.258214 0.283685 0.004240
0.719133 0.220960 0.051375
0.941643 0.189011 0.155356
0.996264 0.353727 0.425557
1.000003 0.704111 0.759582
1.000003 0.889854 0.910583
1.000003 0.962300 0.969527
0.003721 0.685378 0.010950
0.003761 0.685125 0.010838
0.009236 0.676704 0.010195
0.592239 0.644420 0.008118
0.928035 0.565129 0.098466
0.995774 0.562970 0.392818
1.000003 0.752041 0.767908
1.000003 0.902056 0.917385
1.000003 0.966663 0.972782
0.005891 0.892357 0.045479
0.006010 0.892377 0.045438
0.008493 0.890510 0.044612
0.142446 0.883580 0.040687
0.832970 0.866393 0.040815
0.988239 0.825531 0.252848
1.000003 0.835248 0.729591
1.000003 0.912289 0.911583
1.000003 0.967418 0.971837
0.028309 0.968929 0.166849
0.028534 0.968950 0.166941
0.031150 0.968466 0.164828
0.064378 0.967103 0.158875
0.593514 0.963488 0.149211
0.937874 0.954999 0.178636
1.000003 0.938191 0.622911
1.000003 0.942475 0.888020
1.000003 0.970035 0.966758
0.123307 0.993644 0.534418
0.123632 0.993653 0.534693
0.124778 0.993505 0.530572
0.147744 0.993187 0.522635
0.396733 0.992495 0.510071
0.857736 0.990751 0.501121
0.979639 0.987619 0.569591
1.000003 0.980278 0.841321
1.000003 0.981623 0.955104
0.498799 1.000003 0.796382
0.499423 1.000003 0.796523
0.495883 1.000003 0.794532
0.507364 1.000003 0.791104
0.599440 1.000003 0.786996
0.807112 1.000003 0.781249
0.951918 0.999751 0.780946
0.994794 0.998505 0.811828
1.000003 0.995345 0.935048
0.808470 1.000003 0.909843
0.808655 1.000003 0.909912
0.806648 1.000003 0.908948
0.805190 1.000003 0.907338
0.814351 1.000003 0.905655
0.858152 1.000003 0.903605
0.934902 1.000003 0.901239
0.984516 1.000003 0.902598
1.000003 1.000003 0.916684
0.013767 0.004544 0.286590
0.040917 0.004426 0.286542
0.320793 0.004352 0.283670
0.726698 0.035087 0.255613
0.937807 0.103930 0.262518
0.994933 0.278512 0.446483
1.000003 0.668772 0.744865
1.000003 0.876653 0.901345
1.000003 0.957052 0.965385
0.007876 0.007254 0.285192
0.027156 0.006690 0.284545
0.315872 0.005712 0.281491
0.726676 0.040779 0.252698
0.938428 0.108491 0.261430
0.995119 0.284249 0.448950
1.000003 0.672877 0.747373
1.000003 0.878329 0.902609
1.000003 0.957737 0.965936
0.003505 0.266890 0.257527
0.003505 0.265414 0.256800
0.248767 0.248774 0.248793
0.715126 0.184797 0.216723
0.940663 0.171788 0.242687
0.996131 0.343404 0.461181
1.000003 0.701329 0.762869
1.000003 0.889147 0.910569
1.000003 0.962082 0.969409
0.003663 0.672346 0.058256
0.003663 0.672068 0.057698
0.007660 0.667581 0.052144
0.589466 0.633234 0.053821
0.926842 0.554465 0.147841
0.995630 0.557015 0.425157
1.000003 0.750145 0.770588
1.000003 0.901494 0.917341
1.000003 0.966486 0.972681
0.005688 0.889903 0.063306
0.005798 0.889923 0.063202
0.008166 0.889672 0.061981
0.138848 0.882508 0.059356
0.832939 0.865071 0.061402
0.988011 0.824607 0.280277
1.000003 0.834621 0.732666
1.000003 0.911900 0.911533
1.000003 0.967265 0.971739
0.027661 0.968373 0.178297
0.027890 0.968395 0.178354
0.031072 0.968497 0.178469
0.064065 0.967112 0.173803
0.593075 0.963473 0.164858
0.939061 0.955810 0.200051
1.000003 0.938269 0.627890
1.000003 0.942429 0.887962
1.000003 0.969940 0.966645
0.121322 0.993486 0.535750
0.121648 0.993495 0.536000
0.125413 0.993552 0.537640
0.148317 0.993232 0.530536
0.397313 0.992538 0.518948
0.857961 0.990796 0.510622
0.979738 0.987669 0.577017
1.000003 0.980362 0.841569
1.000003 0.981638 0.954957
0.492304 1.000003 0.795015
0.492939 1.000003 0.795153
0.498644 1.000003 0.796095
0.509849 1.000003 0.792768
0.600987 1.000003 0.788777
0.807580 1.000003 0.783157
0.952059 0.999775 0.782872
0.994840 0.998533 0.813398
1.000003 0.995387 0.934989
0.806112 1.000003 0.908951
0.806299 1.000003 0.909020
0.807715 1.000003 0.909496
0.806230 1.000003 0.907902
0.815264 1.000003 0.906238
0.858713 1.000003 0.904209
0.935107 1.000003 0.901863
0.984584 1.000003 0.903207
1.000003 1.000003 0.917199
0.036871 0.007715 0.644404
0.047961 0.007576 0.644782
0.281628 0.006362 0.645615
0.703331 0.007193 0.638207
0.931115 0.064755 0.596956
0.993706 0.228630 0.610106
1.000003 0.642982 0.764507
1.000003 0.869285 0.899953
1.000003 0.954524 0.963830
0.032374 0.009514 0.645476
0.043188 0.009240 0.645218
0.275318 0.007485 0.646013
0.702749 0.008303 0.638557
0.931693 0.067858 0.597189
0.993901 0.233360 0.611489
1.000003 0.647394 0.766506
1.000003 0.871023 0.901162
1.000003 0.955230 0.964385
0.007477 0.104262 0.643393
0.009934 0.101775 0.643161
0.193405 0.079175 0.639529
0.687092 0.053182 0.632888
0.933368 0.110829 0.591720
0.994943 0.282764 0.617757
1.000003 0.678144 0.778904
1.000003 0.882256 0.908787
1.000003 0.959712 0.967884
0.003505 0.610843 0.591806
0.003505 0.610378 0.591601
0.004316 0.603831 0.588306
0.572634 0.572650 0.572698
0.915905 0.493025 0.532336
0.994057 0.511892 0.594339
1.000003 0.730743 0.783763
1.000003 0.894386 0.914614
1.000003 0.963912 0.970893
0.004774 0.878837 0.368368
0.004846 0.878854 0.367947
0.006403 0.878529 0.363739
0.119442 0.874057 0.347724
0.830248 0.854793 0.371928
0.985536 0.816583 0.466162
1.000003 0.827508 0.747883
1.000003 0.906676 0.908524
1.000003 0.964904 0.969906
0.025137 0.966480 0.319082
0.025366 0.966503 0.318919
0.028565 0.966610 0.317344
0.061062 0.966219 0.310589
0.587865 0.962358 0.314071
0.938901 0.954493 0.360192
1.000003 0.937767 0.654207
1.000003 0.940930 0.884192
1.000003 0.968256 0.964509
0.116944 0.993101 0.571331
0.117273 0.993111 0.571466
0.121122 0.993169 0.572310
0.147866 0.993187 0.572569
0.395516 0.992471 0.567003
0.857833 0.990703 0.562794
0.979827 0.987561 0.617739
1.000003 0.980493 0.839107
1.000003 0.981243 0.952174
0.480735 1.000003 0.797266
0.481391 1.000003 0.797385
0.487395 1.000003 0.798195
0.512951 1.000003 0.799302
0.602751 1.000003 0.796115
0.808044 1.000003 0.791333
0.952221 0.999786 0.791323
0.994900 0.998546 0.820049
1.000003 0.995483 0.932412
0.802184 1.000003 0.908175
0.802372 1.000003 0.908241
0.803815 1.000003 0.908695
0.807783 1.000003 0.909373
0.816609 1.000003 0.907829
0.859523 1.000003 0.905931
0.935398 1.000003 0.903704
0.984682 1.000003 0.905033
1.000003 1.000003 0.918682
0.049170 0.009671 0.871914
0.055072 0.009569 0.872194
0.208449 0.008468 0.873422
0.681344 0.006776 0.872319
0.904919 0.013354 0.863845
0.989972 0.128384 0.833423
1.000003 0.542335 0.837445
1.000003 0.844715 0.903678
1.000003 0.946609 0.960293
0.046432 0.010711 0.872940
0.052519 0.010563 0.872903
0.200019 0.009268 0.874119
0.679780 0.007286 0.872987
0.905358 0.014301 0.864613
0.990193 0.131061 0.834254
1.000003 0.548115 0.838516
1.000003 0.846718 0.904675
1.000003 0.947399 0.960850
0.023192 0.034570 0.876331
0.026286 0.034136 0.876310
0.114955 0.029504 0.875348
0.650692 0.022009 0.874401
0.905691 0.029042 0.867633
0.991325 0.159408 0.838748
1.000003 0.589018 0.845284
1.000003 0.859700 0.911030
1.000003 0.952408 0.964380
0.005052 0.445937 0.868040
0.005339 0.444554 0.868026
0.017072 0.430106 0.867390
0.501140 0.382348 0.863216
0.887842 0.329682 0.858117
0.989607 0.360460 0.835084
1.000003 0.663894 0.849086
1.000003 0.874052 0.916072
1.000003 0.957065 0.967393
0.003663 0.846250 0.833717
0.003663 0.846235 0.833743
0.003972 0.845485 0.833531
0.079508 0.838864 0.830000
0.820617 0.820629 0.820666
0.977815 0.783085 0.800922
1.000003 0.799106 0.830910
1.000003 0.890065 0.910248
1.000003 0.957826 0.965844
0.017509 0.960484 0.728991
0.017699 0.960509 0.728898
0.020367 0.960622 0.728007
0.049356 0.960126 0.724191
0.565322 0.957220 0.713537
0.937146 0.948345 0.731037
0.999101 0.933395 0.773488
1.000003 0.935763 0.887120
1.000003 0.963283 0.959761
0.106569 0.992056 0.716807
0.106893 0.992066 0.716778
0.110702 0.992132 0.716497
0.137498 0.992152 0.715244
0.381080 0.991783 0.710784
0.855477 0.989857 0.715778
0.979599 0.986587 0.743108
1.000003 0.980209 0.849177
1.000003 0.980015 0.946096
0.464050 1.000003 0.822160
0.464721 1.000003 0.822220
0.470973 1.000003 0.822625
0.499006 1.000003 0.823102
0.600918 1.000003 0.822832
0.807063 1.000003 0.821339
0.952062 0.999662 0.822582
0.994900 0.998409 0.844776
1.000003 0.995580 0.927765
0.797817 1.000003 0.911292
0.798007 1.000003 0.911345
0.799492 1.000003 0.911713
0.803695 1.000003 0.912257
0.817356 1.000003 0.912626
0.859879 1.000003 0.911325
0.935492 1.000003 0.909641
0.984724 1.000003 0.911008
1.000003 1.000003 0.923407
0.045165 0.008030 0.965574
0.048117 0.007977 0.965707
0.106320 0.007401 0.966395
0.667250 0.006150 0.966276
0.905383 0.006125 0.963963
0.977082 0.024727 0.956718
1.000003 0.284706 0.937576
1.000003 0.785828 0.936527
1.000003 0.931477 0.961700
0.043479 0.008376 0.966084
0.046614 0.008314 0.966087
0.103282 0.007687 0.966768
0.665496 0.006336 0.966640
0.905517 0.006328 0.964316
0.977357 0.025475 0.957159
1.000003 0.289399 0.938067
1.000003 0.788559 0.937074
1.000003 0.932444 0.962165
0.027299 0.016288 0.968373
0.029236 0.016146 0.968381
0.071433 0.014562 0.968176
0.627348 0.011180 0.967964
0.900961 0.011609 0.965502
0.978666 0.034782 0.959606
1.000003 0.329275 0.941284
1.000003 0.806286 0.940678
1.000003 0.938575 0.965152
0.006107 0.179380 0.966207
0.006377 0.178046 0.966218
0.015317 0.163091 0.966057
0.384326 0.122844 0.964613
0.871099 0.096781 0.963175
0.976667 0.117326 0.959475
1.000003 0.454798 0.944743
1.000003 0.826317 0.944627
1.000003 0.944188 0.967937
0.004852 0.776177 0.957368
0.004930 0.775914 0.957389
0.006499 0.772777 0.957406
0.068013 0.758394 0.956485
0.785163 0.726928 0.953732
0.964378 0.700152 0.950973
1.000003 0.722528 0.941117
1.000003 0.853585 0.943815
1.000003 0.945399 0.967153
0.006171 0.946283 0.939749
0.005771 0.940717 0.933791
0.007036 0.946362 0.939924
0.022483 0.945463 0.939534
0.525017 0.941233 0.937155
0.932716 0.932724 0.932746
0.995559 0.918129 0.924633
1.000003 0.922076 0.933448
1.000003 0.954025 0.962231
0.080734 0.989085 0.900522
0.081010 0.989097 0.900515
0.084291 0.989172 0.900434
0.107788 0.989184 0.899962
0.339037 0.988709 0.898044
0.847361 0.987075 0.893529
0.978617 0.983310 0.900556
1.000003 0.977781 0.911389
1.000003 0.977490 0.950253
0.426318 1.000003 0.894251
0.427025 1.000003 0.894251
0.433643 1.000003 0.894240
0.464145 1.000003 0.894103
0.581662 1.000003 0.893433
0.801317 1.000003 0.891316
0.950904 0.999099 0.894287
0.994713 0.997766 0.904378
1.000003 0.995327 0.936644
0.790955 1.000003 0.927919
0.791154 1.000003 0.927943
0.792725 1.000003 0.928109
0.797265 1.000003 0.928338
0.812272 1.000003 0.928423
0.858698 1.000003 0.928079
0.934918 1.000003 0.927981
0.984578 1.000003 0.929497
1.000003 1.000003 0.938266
0.025366 0.004960 0.996823
0.026427 0.004945 0.996870
0.044802 0.004780 0.997142
0.638650 0.004270 0.997066
0.924449 0.004104 0.996536
0.982552 0.005135 0.994411
0.998264 0.045452 0.989414
1.000003 0.634338 0.978435
1.000003 0.901859 0.976744
0.024405 0.004994 0.997008
0.025590 0.004980 0.997013
0.043466 0.004814 0.997281
0.636409 0.004288 0.997203
0.924813 0.004130 0.996674
0.982727 0.005196 0.994550
0.998364 0.046207 0.989604
1.000003 0.639123 0.978669
1.000003 0.903197 0.977002
0.016068 0.005798 0.997976
0.016828 0.005774 0.997982
0.030970 0.005540 0.997964
0.593224 0.004687 0.997863
0.923246 0.004449 0.997320
0.982747 0.006529 0.995144
0.998938 0.054224 0.990768
1.000003 0.670156 0.980263
1.000003 0.911645 0.978717
0.004021 0.063197 0.996745
0.004051 0.062761 0.996753
0.004786 0.058406 0.996753
0.166601 0.040481 0.996109
0.864639 0.032751 0.995544
0.975411 0.038592 0.994174
0.999031 0.100701 0.991551
1.000003 0.706041 0.982622
1.000003 0.919035 0.980877
0.003505 0.677085 0.993988
0.003505 0.676290 0.993995
0.003721 0.666526 0.993978
0.033502 0.606847 0.993325
0.731974 0.526862 0.992388
0.958047 0.467650 0.991464
0.996914 0.506912 0.989837
1.000003 0.767034 0.983721
1.000003 0.920845 0.981859
0.006482 0.921913 0.988197
0.006532 0.921886 0.988211
0.007363 0.921505 0.988282
0.020578 0.919020 0.988167
0.353619 0.911270 0.987418
0.918639 0.897854 0.985925
0.990277 0.889238 0.984670
1.000003 0.893508 0.980893
1.000003 0.936871 0.980744
0.038206 0.983397 0.980247
0.038364 0.983410 0.980262
0.040322 0.983483 0.980355
0.055393 0.983439 0.980399
0.215921 0.982683 0.979987
0.836918 0.980354 0.978644
0.976758 0.976762 0.976775
1.000003 0.971322 0.973594
1.000003 0.971583 0.975680
0.334990 0.998873 0.965783
0.335738 0.998878 0.965787
0.342960 0.998912 0.965811
0.377520 0.998948 0.965794
0.521686 0.998890 0.965526
0.788831 0.998538 0.964508
0.947921 0.997694 0.962660
0.994211 0.996134 0.965258
1.000003 0.994019 0.967617
0.775923 1.000003 0.961963
0.776146 1.000003 0.961967
0.777894 1.000003 0.961988
0.783051 1.000003 0.962000
0.800276 1.000003 0.961917
0.852667 1.000003 0.961516
0.932713 1.000003 0.960526
0.984001 1.000003 0.961937
1.000003 1.000003 0.965658
0.006957 0.003663 1.000003
0.007091 0.003663 1.000003
0.009813 0.003663 1.000003
0.097836 0.003505 1.000003
0.960395 0.003505 1.000003
0.996069 0.003505 1.000003
1.000003 0.004516 1.000003
1.000003 0.082882 1.000001
1.000003 0.840794 0.993905
0.006712 0.003663 1.000003
0.006875 0.003663 1.000003
0.009397 0.003663 1.000003
0.094721 0.003505 1.000003
0.960996 0.003505 1.000003
0.996267 0.003505 1.000003
1.000003 0.004523 1.000003
1.000003 0.083901 1.000003
1.000003 0.842921 0.994013
0.005152 0.003663 1.000003
0.005226 0.003663 1.000003
0.006690 0.003663 1.000003
0.069483 0.003505 1.000003
0.963168 0.003505 1.000003
0.997155 0.003505 1.000003
1.000003 0.004915 1.000003
1.000003 0.093271 1.000003
1.000003 0.856249 0.994757
0.003663 0.004662 1.000003
0.003663 0.004643 1.000003
0.003721 0.004516 1.000003
0.015752 0.004118 1.000003
0.939191 0.003721 1.000003
0.992670 0.003897 1.000003
1.000003 0.020588 1.000003
1.000003 0.132374 1.000003
1.000003 0.866999 0.995952
0.003505 0.506222 1.000003
0.003505 0.504343 1.000003
0.003505 0.483619 1.000003
0.003505 0.363291 1.000003
0.585658 0.169855 1.000003
0.955081 0.142022 1.000003
0.996524 0.168095 1.000003
1.000003 0.361671 1.000003
1.000003 0.870168 0.996974
0.003505 0.910116 1.000003
0.003505 0.909999 1.000003
0.003505 0.908329 1.000003
0.003663 0.894730 1.000003
0.133379 0.867460 1.000003
0.900597 0.842284 1.000003
0.987930 0.827922 1.000003
1.000003 0.837197 0.999383
1.000003 0.904230 0.997055
0.019322 0.975239 0.998562
0.019385 0.975241 0.998568
0.020326 0.975227 0.998607
0.028621 0.974910 0.998626
0.106823 0.973394 0.998469
0.790622 0.969619 0.997992
0.971523 0.964376 0.997265
0.999046 0.961543 0.996734
1.000003 0.961504 0.995284
0.185576 0.996655 0.995157
0.185959 0.996660 0.995164
0.189834 0.996697 0.995208
0.211401 0.996728 0.995260
0.355609 0.996622 0.995218
0.752735 0.996092 0.994906
0.945091 0.994920 0.994223
0.993450 0.993452 0.993460
1.000003 0.991339 0.992184
0.742116 1.000003 0.989513
0.742380 1.000003 0.989516
0.744485 1.000003 0.989540
0.750898 1.000003 0.989566
0.772717 1.000003 0.989544
0.837282 1.000003 0.989359
0.929303 1.000003 0.988829
0.982856 1.000003 0.988079
1.000003 1.000003 0.989082
0.003663 0.003505 1.000003
0.003663 0.003505 1.000003
0.003721 0.003505 1.000003
0.005624 0.003505 1.000003
0.947127 0.003505 1.000003
1.000003 0.003505 1.000003
1.000003 0.003505 1.000003
1.000003 0.004434 1.000003
1.000003 0.153497 1.000003
0.003663 0.003505 1.000003
0.003663 0.003505 1.000003
0.003721 0.003505 1.000003
0.005465 0.003505 1.000003
0.946066 0.003505 1.000003
1.000003 0.003505 1.000003
1.000003 0.003505 1.000003
1.000003 0.004434 1.000003
1.000003 0.155292 1.000003
0.003505 0.003505 1.000003
0.003505 0.003505 1.000003
0.003663 0.003505 1.000003
0.004523 0.003505 1.000003
0.934097 0.003505 1.000003
1.000003 0.003505 1.000003
1.000003 0.003505 1.000003
1.000003 0.004571 1.000003
1.000003 0.170273 1.000003
0.003505 0.003505 1.000003
0.003505 0.003505 1.000003
0.003505 0.003505 1.000003
0.003663 0.003505 1.000003
0.839907 0.003505 1.000003
1.000003 0.003505 1.000003
1.000003 0.003505 1.000003
1.000003 0.012288 1.000003
1.000003 0.217285 1.000003
0.003505 0.015746 1.000003
0.003505 0.015422 1.000003
0.003505 0.013139 1.000003
0.003505 0.008759 1.000003
0.020691 0.004410 1.000003
0.991389 0.003990 1.000003
1.000003 0.018736 1.000003
1.000003 0.091955 1.000003
1.000003 0.410198 1.000003
0.003505 0.932999 1.000003
0.003505 0.932919 1.000003
0.003505 0.931736 1.000003
0.003505 0.922061 1.000003
0.003505 0.842339 1.000003
0.864827 0.715979 1.000003
0.986510 0.683070 1.000003
1.000003 0.712985 1.000003
1.000003 0.801455 1.000003
0.003505 0.976290 1.000003
0.003505 0.976286 1.000003
0.003505 0.976029 1.000003
0.003505 0.972741 1.000003
0.019907 0.963495 1.000003
0.664459 0.955651 1.000003
0.965276 0.947280 1.000003
0.998111 0.943178 1.000003
1.000003 0.945337 1.000003
0.073373 0.993767 1.000003
0.073444 0.993770 1.000003
0.074465 0.993786 1.000003
0.082571 0.993764 1.000003
0.136130 0.993509 1.000003
0.622809 0.992595 1.000003
0.931982 0.990830 1.000003
0.991422 0.988787 1.000003
1.000003 0.987765 1.000003
0.650878 1.000003 1.000003
0.651244 1.000003 1.000003
0.654243 1.000003 1.000003
0.664271 1.000003 1.000003
0.699979 1.000003 1.000003
0.799061 1.000003 1.000003
0.920853 1.000003 1.000003
0.981963 1.000003 1.000003
1.000001 1.000003 1.000003
