70 CGC LUTs/Log to Rec709/Sony SLog2.cube
LUT_3D_SIZE 5
DOMAIN_MIN 0.000000 0.000000 0.000000
DOMAIN_MAX 0.903226 0.903226 0.903226
0.0000 0.0000 0.0000
0.3922 0.0039 0.0039
0.8039 0.0118 0.0118
0.9647 0.0118 0.1020
0.9647 0.0157 0.3451
0.0039 0.2784 0.0039
0.2353 0.2706 0.0000
0.7686 0.2078 0.0039
0.9922 0.0039 0.0196
0.9961 0.0000 0.2980
0.0039 0.6549 0.0078
0.0039 0.6588 0.0000
0.5804 0.6431 0.0000
0.9882 0.5529 0.0039
0.9882 0.0431 0.1176
0.0078 0.9725 0.0118
0.0000 0.9843 0.0000
0.0000 0.9843 0.0000
0.9255 0.9725 0.0039
0.9882 0.9176 0.0000
0.0078 0.9922 0.0118
0.0000 1.0000 0.0039
0.0000 1.0000 0.0039
0.0000 0.9961 0.0039
0.9882 0.9922 0.0039
0.0824 0.0039 0.2588
0.3804 0.0039 0.2784
0.7961 0.0118 0.2941
0.9647 0.0118 0.3373
0.9686 0.0157 0.4784
0.0431 0.2275 0.2118
0.2196 0.2275 0.2314
0.7647 0.1569 0.2471
0.9922 0.0000 0.2980
0.9961 0.0000 0.4549
0.0157 0.6314 0.0392
0.0000 0.6431 0.0549
0.5843 0.6196 0.0667
0.9843 0.5294 0.1333
0.9882 0.0353 0.3490
0.0196 0.9686 0.0078
0.0000 0.9843 0.0000
0.0000 0.9804 0.0000
0.9216 0.9686 0.0000
0.9922 0.9137 0.0039
0.0039 0.9961 0.0039
0.0000 1.0000 0.0039
0.0000 1.0000 0.0039
0.0000 0.9961 0.0039
0.9843 0.9922 0.0039
0.0745 0.0000 0.6275
0.3529 0.0000 0.6549
0.7922 0.0000 0.6588
0.9961 0.0000 0.6706
0.9961 0.0000 0.7412
0.0431 0.0941 0.6078
0.1725 0.0824 0.6314
0.7529 0.0235 0.6353
0.9961 0.0000 0.6549
0.9961 0.0000 0.7255
0.0196 0.5804 0.5490
0.0039 0.6000 0.5686
0.5647 0.5725 0.5765
0.9882 0.4667 0.5961
0.9882 0.0196 0.6784
0.0196 0.9647 0.1412
0.0000 0.9765 0.1725
0.0000 0.9686 0.1882
0.9294 0.9608 0.2510
0.9882 0.8980 0.4275
0.0039 0.9961 0.0039
0.0000 1.0000 0.0039
0.0000 1.0000 0.0039
0.0000 0.9961 0.0039
0.9882 0.9922 0.0000
0.0392 0.0235 0.9059
0.2196 0.0235 0.9176
0.7608 0.0353 0.9255
0.9412 0.0353 0.9333
0.9569 0.0275 0.9255
0.0196 0.0039 0.9608
0.0510 0.0000 0.9725
0.7176 0.0000 0.9765
0.9961 0.0000 0.9765
1.0000 0.0000 0.9843
0.0039 0.3686 0.9569
0.0039 0.3686 0.9647
0.4863 0.3176 0.9686
0.9804 0.1137 0.9647
0.9961 0.0000 0.9765
0.0000 0.9412 0.9176
0.0000 0.9569 0.9333
0.0000 0.9490 0.9333
0.9137 0.9333 0.9373
0.9882 0.8431 0.9529
0.0000 0.9922 0.4431
0.0000 0.9961 0.3922
0.0000 0.9922 0.4392
0.0000 0.9922 0.4706
0.9843 0.9882 0.5725
0.0235 0.0157 0.9451
0.0078 0.0118 0.9490
0.5843 0.0196 0.9569
0.9608 0.0196 0.9608
0.9725 0.0157 0.9529
0.0196 0.0078 0.9804
0.0000 0.0000 0.9961
0.4863 0.0000 0.9922
0.9922 0.0000 0.9961
1.0000 0.0000 0.9961
0.0196 0.0078 0.9725
0.0000 0.0000 0.9961
0.1373 0.0039 0.9882
0.9843 0.0000 0.9922
1.0000 0.0000 0.9961
0.0196 0.7216 0.9804
0.0039 0.7098 0.9804
0.0039 0.7020 0.9843
0.8431 0.6549 0.9843
0.9882 0.3176 0.9882
0.0078 0.9922 0.9922
0.0039 1.0000 1.0000
0.0039 1.0000 1.0000
0.0039 0.9961 0.9922
0.9843 0.9922 0.9922
