70 CGC LUTs/Log to Rec709/Sony SLog3 Cine.cube
LUT_3D_SIZE 5
DOMAIN_MIN 0.000000 0.000000 0.000000
DOMAIN_MAX 0.903226 0.903226 0.903226
0.0000 0.0000 0.0000
0.1804 0.0000 0.0039
0.5725 0.0039 0.0078
0.9529 0.0118 0.0118
0.9608 0.0157 0.0118
0.0039 0.1529 0.0039
0.1176 0.1373 0.0000
0.5529 0.0392 0.0000
0.9843 0.0000 0.0000
0.9961 0.0000 0.0000
0.0000 0.5137 0.0039
0.0039 0.5216 0.0039
0.4431 0.4902 0.0039
0.9765 0.1686 0.0039
0.9922 0.0000 0.0000
0.0078 0.9686 0.0118
0.0000 0.9843 0.0039
0.0039 0.9804 0.0039
0.9294 0.9686 0.0000
0.9804 0.4510 0.0078
0.0078 0.9922 0.0118
0.0000 1.0000 0.0039
0.0000 1.0000 0.0039
0.0039 0.9922 0.0039
0.9882 0.9922 0.0039
0.0353 0.0039 0.1216
0.1725 0.0000 0.1333
0.5608 0.0039 0.1059
0.9529 0.0118 0.0118
0.9608 0.0157 0.0118
0.0314 0.1098 0.0980
0.1059 0.1059 0.1059
0.5451 0.0196 0.0784
0.9804 0.0000 0.0000
0.9961 0.0000 0.0000
0.0196 0.4902 0.0157
0.0000 0.5059 0.0118
0.4471 0.4784 0.0039
0.9725 0.1333 0.0039
0.9961 0.0000 0.0000
0.0196 0.9608 0.0039
0.0000 0.9804 0.0039
0.0039 0.9804 0.0039
0.9255 0.9647 0.0039
0.9804 0.4431 0.0078
0.0039 0.9961 0.0039
0.0000 1.0000 0.0039
0.0000 1.0000 0.0039
0.0000 0.9922 0.0039
0.9882 0.9922 0.0039
0.0392 0.0039 0.4667
0.1255 0.0000 0.4902
0.5490 0.0000 0.4745
0.9843 0.0000 0.4118
0.9922 0.0000 0.0196
0.0275 0.0157 0.4471
0.0588 0.0000 0.4784
0.5294 0.0000 0.4667
0.9843 0.0000 0.4078
0.9922 0.0000 0.0157
0.0235 0.4431 0.4235
0.0000 0.4627 0.4392
0.4235 0.4275 0.4275
0.9765 0.0902 0.3608
0.9922 0.0000 0.0078
0.0235 0.9569 0.0902
0.0000 0.9765 0.0863
0.0000 0.9725 0.0824
0.9294 0.9608 0.0353
0.9765 0.4039 0.0118
0.0039 0.9961 0.0039
0.0000 1.0000 0.0039
0.0000 1.0000 0.0039
0.0000 0.9961 0.0039
0.9882 0.9922 0.0039
0.0157 0.0235 0.8980
0.0157 0.0235 0.9137
0.4510 0.0275 0.9176
0.9333 0.0353 0.9216
0.9608 0.0235 0.8784
0.0000 0.0000 0.9490
0.0000 0.0000 0.9725
0.4196 0.0000 0.9686
0.9843 0.0000 0.9569
0.9961 0.0000 0.9059
0.0039 0.0824 0.9451
0.0039 0.0784 0.9647
0.2627 0.0510 0.9608
0.9765 0.0000 0.9569
0.9961 0.0000 0.8980
0.0039 0.9373 0.9176
0.0000 0.9569 0.9451
0.0000 0.9490 0.9373
0.9059 0.9216 0.9255
0.9765 0.3255 0.8392
0.0000 0.9922 0.3176
0.0000 0.9961 0.3176
0.0000 0.9961 0.3059
0.0000 0.9922 0.2824
0.9843 0.9882 0.0549
0.0196 0.0157 0.9451
0.0078 0.0118 0.9490
0.0078 0.0118 0.9490
0.8863 0.0196 0.9608
0.9765 0.0118 0.9529
0.0196 0.0039 0.9804
0.0000 0.0000 0.9961
0.0000 0.0000 0.9961
0.9098 0.0000 0.9922
1.0000 0.0000 0.9961
0.0196 0.0078 0.9765
0.0000 0.0000 0.9961
0.0000 0.0000 0.9961
0.8902 0.0000 0.9922
0.9961 0.0000 0.9922
0.0196 0.2784 0.9765
0.0000 0.2667 0.9882
0.0000 0.2627 0.9882
0.6667 0.1255 0.9843
0.9882 0.0000 0.9843
0.0078 0.9922 0.9922
0.0039 1.0000 1.0000
0.0039 1.0000 1.0000
0.0039 0.9961 0.9922
0.9843 0.9922 0.9882
